; Generated with MatterSlice 1.0
; filamentDiameter = 1.75
; extrusionWidth = 0.4
; firstLayerExtrusionWidth = 1
; layerThickness = 0.2
; firstLayerThickness = 0.3
; automatic settings before start_gcode
G21 ; set units to millimeters
M107 ; fan off
M190 S12 ; wait for bed temperature to be reached
M104 T0 S215 ; start heating extruder 0
T0 ; set the active extruder to 0
; settings from start_gcode
G28 X0 Y0 Z0 ; home all axes
G1 Z5 F5000 ; lift nozzle
M109 S210 ; set the extruder temp and wait
G28 X0 Y0 Z0 ; Home Z again in case there was filament on nozzle
M565 Z0
G29 ; probe the bed
; automatic settings after start_gcode
T0 ; set the active extruder to 0
G90 ; use absolute coordinates
G92 E0 ; reset the expected extruder position
M82 ; use absolute distance for extrusion
; Layer count: 15
; LAYER:0
M107
G0 F9000 X38.646 Y19.12 Z1.299
; TYPE:WALL-OUTER
G1 Z1.299
G1 F1800 E0
G1 F1080 X70.736 Y51.209 E5.66022
G1 X72.308 Y52.5 E5.91393
G1 X74.124 Y53.47 E6.17072
G1 X76.094 Y54.068 E6.4275
G1 X78.118 Y54.267 E6.68116
G1 X149.883 Y54.267 E15.63209
G1 X151.907 Y54.068 E15.88575
G1 X153.877 Y53.47 E16.14253
G1 X155.693 Y52.5 E16.39932
G1 X157.265 Y51.209 E16.65303
G1 X189.355 Y19.12 E22.31325
G1 X221.881 Y51.646 E28.05046
G1 X189.792 Y83.736 E33.71068
G1 X188.501 Y85.308 E33.96439
G1 X187.531 Y87.124 E34.22118
G1 X186.933 Y89.094 E34.47796
G1 X186.734 Y91.118 E34.73162
G1 X186.734 Y162.883 E43.68255
G1 X186.933 Y164.907 E43.93621
G1 X187.531 Y166.877 E44.19299
G1 X188.501 Y168.693 E44.44978
G1 X189.792 Y170.265 E44.70349
G1 X221.881 Y202.355 E50.36371
G1 X189.355 Y234.881 E56.10092
G1 X157.265 Y202.792 E61.76114
G1 X155.693 Y201.501 E62.01486
G1 X153.877 Y200.531 E62.27165
G1 X151.907 Y199.933 E62.52843
G1 X149.883 Y199.734 E62.78209
G1 X78.118 Y199.734 E71.73301
G1 X76.094 Y199.933 E71.98667
G1 X74.124 Y200.531 E72.24345
G1 X72.308 Y201.501 E72.50024
G1 X70.736 Y202.792 E72.75396
G1 X38.646 Y234.881 E78.41417
G1 X6.12 Y202.355 E84.15139
G1 X38.209 Y170.265 E89.81161
G1 X39.5 Y168.693 E90.06532
G1 X40.47 Y166.877 E90.32211
G1 X41.068 Y164.907 E90.57889
G1 X41.267 Y162.883 E90.83255
G1 X41.267 Y91.118 E99.78348
G1 X41.068 Y89.094 E100.03714
G1 X40.47 Y87.124 E100.29392
G1 X39.5 Y85.308 E100.55071
G1 X38.209 Y83.736 E100.80442
G1 X6.12 Y51.646 E106.46464
G1 X38.009 Y19.757 E112.08949
G0 F9000 X38.583 Y19.903
G0 X38.722 Y22.992
G0 X38.722 Y22.992
G0 X38.646 Y23.586
G1 F1080 X37.972 Y23.674 E112.17427
G1 X37.344 Y23.934 E112.25904
G1 X36.804 Y24.348 E112.34391
G1 X36.39 Y24.888 E112.42878
G1 X36.13 Y25.516 E112.51356
G1 X36.042 Y26.19 E112.59833
G1 X36.13 Y26.863 E112.68299
G1 X36.39 Y27.492 E112.76788
G1 X36.805 Y28.032 E112.85282
G1 X37.344 Y28.445 E112.93752
G1 X37.971 Y28.705 E113.02218
G1 X38.646 Y28.794 E113.10709
G1 X39.32 Y28.705 E113.19189
G1 X39.948 Y28.445 E113.27666
G1 X40.488 Y28.032 E113.36146
G1 X40.901 Y27.492 E113.44625
G1 X41.161 Y26.864 E113.53102
G1 X41.25 Y26.19 E113.61582
G1 X41.161 Y25.515 E113.70074
G1 X40.901 Y24.888 E113.7854
G1 X40.488 Y24.349 E113.87009
G1 X39.948 Y23.934 E113.95503
G1 X39.525 Y23.759 E114.01213
G0 F9000 X38.722 Y22.992
G0 X38.769 Y22.914
G0 X36.991 Y23.325
G0 X35.781 Y24.535
G0 X35.338 Y26.19
G0 X35.132 Y28.766
G0 X34.921 Y29.106
G0 X34.757 Y29.372
G0 X34.757 Y29.372
G1 F1080 X16.372 Y47.757 E117.25503
G1 X44.656 Y76.041 E122.244
G1 X63.041 Y57.656 E125.48691
G1 X35.394 Y30.009 E130.36352
G0 F9000 X16.548 Y48.356
G0 X16.271 Y48.645
G0 X15.509 Y49.442
G0 X15.032 Y49.805
G1 F1080 X14.492 Y49.39 E130.44846
G1 X13.863 Y49.13 E130.53335
G1 X13.19 Y49.042 E130.61801
G1 X12.516 Y49.13 E130.70279
G1 X11.888 Y49.39 E130.78756
G1 X11.348 Y49.804 E130.87243
G1 X10.934 Y50.344 E130.9573
G1 X10.674 Y50.972 E131.04207
G1 X10.586 Y51.646 E131.12685
G1 X10.674 Y52.319 E131.21151
G1 X10.934 Y52.948 E131.2964
G1 X11.349 Y53.488 E131.38134
G1 X11.888 Y53.901 E131.46603
G1 X12.515 Y54.161 E131.55069
G1 X13.19 Y54.25 E131.63561
G1 X13.864 Y54.161 E131.72041
G1 X14.492 Y53.901 E131.80518
G1 X15.032 Y53.488 E131.88998
G1 X15.445 Y52.948 E131.97477
G1 X15.705 Y52.32 E132.05954
G1 X15.794 Y51.646 E132.14434
G1 X15.705 Y50.971 E132.22926
G1 X15.53 Y50.549 E132.28624
G1 F1800 E129.28624
G1 Z1.799
G0 F9000 X15.509 Y49.442
G0 X38.451 Y77.016
G0 X38.451 Y77.016
G0 X38.925 Y77.381
G1 Z1.299
G1 F1800 E132.28624
G1 F1080 X38.511 Y77.921 E132.3711
G1 X38.252 Y78.549 E132.45583
G1 X38.163 Y79.223 E132.54063
G1 X38.252 Y79.896 E132.6253
G1 X38.511 Y80.525 E132.71014
G1 X38.926 Y81.065 E132.79508
G1 X39.465 Y81.478 E132.87978
G1 X40.092 Y81.738 E132.96444
G1 X40.767 Y81.827 E133.04936
G1 X41.442 Y81.738 E133.13427
G1 X42.069 Y81.478 E133.21893
G1 X42.608 Y81.065 E133.30363
G1 X43.023 Y80.525 E133.38857
G1 X43.282 Y79.896 E133.47341
G1 X43.371 Y79.223 E133.55809
G1 X43.282 Y78.549 E133.64288
G1 X43.023 Y77.921 E133.72761
G1 X42.609 Y77.381 E133.81248
G1 X42.069 Y76.967 E133.89734
G1 X41.441 Y76.707 E133.98212
G1 X40.767 Y76.619 E134.0669
G1 X40.093 Y76.707 E134.15168
G1 X39.669 Y76.882 E134.20889
G0 F9000 X38.451 Y77.016
G0 X38.361 Y76.993
G0 X39.911 Y76.027
G0 X41.623 Y76.027
G0 X43.106 Y76.884
G0 X44.571 Y78.548
G0 X44.959 Y78.645
G0 X45.267 Y78.723
G0 X45.267 Y78.723
G1 F1080 X45.267 Y84.723 E134.95724
G1 X51.267 Y84.723 E135.70559
G1 X51.267 Y78.723 E136.45395
G1 X46.167 Y78.723 E137.09005
G0 F9000 X51.567 Y78.723
G0 X51.967 Y78.723
G0 X54.567 Y78.723
G0 X54.967 Y78.723
G0 X55.267 Y78.723
G0 X55.267 Y78.723
G1 F1080 X55.267 Y84.723 E137.8384
G1 X61.267 Y84.723 E138.58675
G1 X61.267 Y78.723 E139.3351
G1 X56.167 Y78.723 E139.9712
G0 F9000 X56.356 Y78.295
G0 X56.728 Y78.149
G0 X69.123 Y73.281
G0 X69.678 Y73.053
G1 F1080 X70.013 Y73.489 E140.03978
G1 X70.449 Y73.824 E140.10836
G1 X70.957 Y74.033 E140.17688
G1 X71.501 Y74.105 E140.24532
G1 X72.045 Y74.033 E140.31376
G1 X72.553 Y73.824 E140.38227
G1 X72.989 Y73.489 E140.45085
G1 X73.324 Y73.053 E140.51943
G1 X73.533 Y72.545 E140.58794
G1 X73.606 Y71.998 E140.65677
G1 X73.524 Y71.435 E140.72774
G1 X73.324 Y70.949 E140.79328
G1 X72.989 Y70.513 E140.86186
G1 X72.553 Y70.178 E140.93044
G1 X72.045 Y69.969 E140.99896
G1 X71.501 Y69.897 E141.0674
G1 X70.957 Y69.969 E141.13584
G1 X70.449 Y70.178 E141.20435
G1 X70.013 Y70.513 E141.27293
G1 X69.678 Y70.949 E141.34151
G1 X69.469 Y71.457 E141.41002
G1 X69.397 Y72.001 E141.47847
G1 X69.422 Y72.196 E141.50299
G0 F9000 X69.123 Y73.281
G0 X69.087 Y73.343
G0 X68.692 Y72.001
G0 X69.516 Y70.016
G0 X74.441 Y63.811
G0 X74.67 Y63.257
G1 F1080 X75.298 Y63.517 E141.58776
G1 X75.972 Y63.606 E141.67256
G1 X76.647 Y63.517 E141.75748
G1 X77.274 Y63.257 E141.84214
G1 X77.813 Y62.844 E141.92683
G1 X78.228 Y62.304 E142.01177
G1 X78.488 Y61.675 E142.09666
G1 X78.577 Y60.999 E142.1817
G1 X78.477 Y60.3 E142.26978
G1 X78.228 Y59.699 E142.35091
G1 X77.814 Y59.16 E142.43568
G1 X77.274 Y58.746 E142.52055
G1 X76.646 Y58.486 E142.60533
G1 X75.972 Y58.398 E142.69011
G1 X75.299 Y58.486 E142.77476
G1 X74.67 Y58.746 E142.85965
G1 X74.13 Y59.161 E142.94459
G1 X73.717 Y59.7 E143.02929
G1 X73.457 Y60.327 E143.11395
G1 X73.368 Y61.002 E143.19887
G1 X73.457 Y61.676 E143.28366
G1 X73.717 Y62.304 E143.36844
G1 X73.995 Y62.668 E143.42556
G0 F9000 X74.441 Y63.811
G0 X74.383 Y63.735
G0 X73.107 Y62.655
G0 X68.541 Y55.973
G0 X68.065 Y55.608
G1 F1080 X68.478 Y55.069 E143.51026
G1 X68.738 Y54.441 E143.59503
G1 X68.827 Y53.767 E143.67983
G1 X68.738 Y53.092 E143.76474
G1 X68.478 Y52.465 E143.8494
G1 X68.065 Y51.926 E143.9341
G1 X67.525 Y51.511 E144.01904
G1 X66.896 Y51.252 E144.10388
G1 X66.223 Y51.163 E144.18855
G1 X65.549 Y51.252 E144.27335
G1 X64.921 Y51.511 E144.35808
G1 X64.381 Y51.925 E144.44294
G1 X63.967 Y52.465 E144.52781
G1 X63.707 Y53.093 E144.61259
G1 X63.619 Y53.767 E144.69737
G1 X63.707 Y54.44 E144.78202
G1 X63.967 Y55.069 E144.86691
G1 X64.381 Y55.609 E144.95178
G1 X64.921 Y56.023 E145.03665
G1 X65.549 Y56.282 E145.12138
G1 X66.223 Y56.371 E145.20617
G1 X66.896 Y56.282 E145.29084
G1 X67.322 Y56.107 E145.34828
G1 F1800 E142.34828
G1 Z1.799
G0 F9000 X68.541 Y55.973
G0 X58.279 Y78.04
G0 X61.908 Y78.082
G0 X61.908 Y85.364
G0 X51.267 Y93.123
G0 X51.267 Y93.723
G1 Z1.299
G1 F1800 E145.34828
G1 F1080 X45.267 Y93.723 E146.09664
G1 X45.267 Y99.723 E146.84499
G1 X51.267 Y99.723 E147.59334
G1 X51.267 Y94.623 E148.22944
G0 F9000 X51.267 Y93.123
G0 X51.267 Y93.023
G0 X51.908 Y93.082
G0 X51.908 Y100.364
G0 X51.267 Y103.123
G0 X51.267 Y103.723
G1 F1080 X45.267 Y103.723 E148.97779
G1 X45.267 Y109.723 E149.72615
G1 X51.267 Y109.723 E150.4745
G1 X51.267 Y104.623 E151.1106
G0 F9000 X51.267 Y103.123
G0 X51.306 Y103.041
G0 X51.908 Y103.082
G0 X51.908 Y110.364
G0 X47.049 Y111.848
G0 X46.819 Y112.4
G1 F1080 X46.311 Y112.19 E151.17916
G1 X45.767 Y112.119 E151.24759
G1 X45.223 Y112.19 E151.31601
G1 X44.715 Y112.4 E151.38458
G1 X44.279 Y112.734 E151.45308
G1 X43.944 Y113.171 E151.52176
G1 X43.734 Y113.679 E151.59032
G1 X43.663 Y114.223 E151.65874
G1 X43.734 Y114.767 E151.72717
G1 X43.944 Y115.276 E151.79585
G1 X44.28 Y115.711 E151.8644
G1 X44.715 Y116.045 E151.9328
G1 X45.222 Y116.255 E152.00125
G1 X45.767 Y116.327 E152.06982
G1 X46.312 Y116.255 E152.13838
G1 X46.819 Y116.045 E152.20683
G1 X47.254 Y115.711 E152.27523
G1 X47.59 Y115.275 E152.34389
G1 X47.799 Y114.767 E152.4124
G1 X47.872 Y114.22 E152.48123
G1 X47.79 Y113.657 E152.55219
G1 X47.59 Y113.171 E152.61774
G1 X47.469 Y113.013 E152.64256
G0 F9000 X47.049 Y111.848
G0 X63.069 Y114.147
G0 X63.069 Y114.147
G0 X63.663 Y114.223
G1 F1080 X63.734 Y114.767 E152.71099
G1 X63.944 Y115.276 E152.77966
G1 X64.28 Y115.711 E152.84822
G1 X64.715 Y116.045 E152.91662
G1 X65.222 Y116.255 E152.98507
G1 X65.767 Y116.327 E153.05364
G1 X66.312 Y116.255 E153.1222
G1 X66.819 Y116.045 E153.19065
G1 X67.254 Y115.711 E153.25905
G1 X67.59 Y115.275 E153.32771
G1 X67.799 Y114.767 E153.39622
G1 X67.872 Y114.22 E153.46505
G1 X67.79 Y113.657 E153.53601
G1 X67.59 Y113.171 E153.60156
G1 X67.255 Y112.734 E153.67024
G1 X66.819 Y112.4 E153.73874
G1 X66.311 Y112.19 E153.8073
G1 X65.767 Y112.119 E153.87573
G1 X65.223 Y112.19 E153.94415
G1 X64.715 Y112.4 E154.01271
G1 X64.279 Y112.734 E154.08122
G1 X63.944 Y113.171 E154.14989
G1 X63.869 Y113.353 E154.17445
G1 F1800 E151.17445
G1 Z1.799
G0 F9000 X63.069 Y114.147
G0 X65.843 Y141.524
G0 X65.843 Y141.524
G0 X65.767 Y142.118
G1 Z1.299
G1 F1800 E154.17445
G1 F1080 X65.223 Y142.189 E154.24287
G1 X64.715 Y142.399 E154.31143
G1 X64.279 Y142.733 E154.37994
G1 X63.944 Y143.17 E154.44861
G1 X63.734 Y143.678 E154.51717
G1 X63.663 Y144.222 E154.5856
G1 X63.734 Y144.766 E154.65403
G1 X63.944 Y145.275 E154.7227
G1 X64.28 Y145.71 E154.79126
G1 X64.715 Y146.044 E154.85966
G1 X65.222 Y146.254 E154.92811
G1 X65.767 Y146.326 E154.99667
G1 X66.312 Y146.254 E155.06524
G1 X66.819 Y146.044 E155.13369
G1 X67.254 Y145.71 E155.20209
G1 X67.59 Y145.274 E155.27074
G1 X67.799 Y144.766 E155.33926
G1 X67.872 Y144.219 E155.40809
G1 X67.79 Y143.656 E155.47905
G1 X67.59 Y143.17 E155.5446
G1 X67.255 Y142.733 E155.61328
G1 X66.819 Y142.399 E155.68178
G1 X66.637 Y142.324 E155.70633
G0 F9000 X65.843 Y141.524
G0 X48.466 Y144.299
G0 X48.466 Y144.299
G0 X47.872 Y144.219
G1 F1080 X47.79 Y143.656 E155.77729
G1 X47.59 Y143.17 E155.84284
G1 X47.255 Y142.733 E155.91152
G1 X46.819 Y142.399 E155.98002
G1 X46.311 Y142.189 E156.04858
G1 X45.767 Y142.118 E156.11701
G1 X45.223 Y142.189 E156.18543
G1 X44.715 Y142.399 E156.25399
G1 X44.279 Y142.733 E156.3225
G1 X43.944 Y143.17 E156.39118
G1 X43.734 Y143.678 E156.45974
G1 X43.663 Y144.222 E156.52816
G1 X43.734 Y144.766 E156.59659
G1 X43.944 Y145.275 E156.66526
G1 X44.28 Y145.71 E156.73382
G1 X44.715 Y146.044 E156.80222
G1 X45.222 Y146.254 E156.87067
G1 X45.767 Y146.326 E156.93924
G1 X46.312 Y146.254 E157.0078
G1 X46.819 Y146.044 E157.07625
G1 X47.254 Y145.71 E157.14465
G1 X47.59 Y145.274 E157.21331
G1 X47.666 Y145.089 E157.23825
G1 F1800 E154.23825
G1 Z1.799
G0 F9000 X48.466 Y144.299
G0 X45.358 Y168.022
G0 X45.306 Y168.419
G0 X45.267 Y168.722
G0 X45.267 Y168.722
G1 Z1.299
G1 F1800 E157.23825
G1 F1080 X45.267 Y174.722 E157.98661
G1 X51.267 Y174.722 E158.73496
G1 X51.267 Y168.722 E159.48331
G1 X46.167 Y168.722 E160.11941
G0 F9000 X44.902 Y169.119
G0 X44.632 Y169.415
G0 X42.299 Y171.97
G0 X42.069 Y172.523
G1 F1080 X41.442 Y172.263 E160.20407
G1 X40.767 Y172.174 E160.28899
G1 X40.092 Y172.263 E160.37391
G1 X39.465 Y172.523 E160.45857
G1 X38.926 Y172.936 E160.54326
G1 X38.511 Y173.476 E160.62821
G1 X38.252 Y174.105 E160.71305
G1 X38.163 Y174.778 E160.79772
G1 X38.252 Y175.452 E160.88251
G1 X38.511 Y176.08 E160.96724
G1 X38.925 Y176.62 E161.05211
G1 X39.465 Y177.034 E161.13698
G1 X40.093 Y177.294 E161.22175
G1 X40.767 Y177.382 E161.30653
G1 X41.441 Y177.294 E161.39131
G1 X42.069 Y177.034 E161.47608
G1 X42.609 Y176.62 E161.56095
G1 X43.023 Y176.08 E161.64582
G1 X43.282 Y175.452 E161.73055
G1 X43.371 Y174.778 E161.81534
G1 X43.282 Y174.105 E161.90001
G1 X43.023 Y173.476 E161.98486
G1 X42.743 Y173.112 E162.04214
G0 F9000 X42.299 Y171.97
G0 X42.282 Y171.925
G0 X43.633 Y173.125
G0 X44.383 Y177.265
G0 X44.529 Y177.637
G0 X44.656 Y177.96
G0 X44.656 Y177.96
G1 F1080 X16.372 Y206.244 E167.03111
G1 X34.757 Y224.629 E170.27401
G1 X63.041 Y196.345 E175.26298
G1 X45.293 Y178.597 E178.39353
G0 F9000 X45.008 Y177.852
G0 X45.39 Y177.735
G0 X54.575 Y174.932
G0 X54.958 Y174.816
G0 X55.267 Y174.722
G0 X55.267 Y174.722
G1 F1080 X61.267 Y174.722 E179.14188
G1 X61.267 Y168.722 E179.89023
G1 X55.267 Y168.722 E180.63858
G1 X55.267 Y173.822 E181.27468
G0 F9000 X56.271 Y175.143
G0 X56.639 Y175.298
G0 X69.203 Y180.582
G0 X69.678 Y180.948
G1 F1080 X69.469 Y181.456 E181.3432
G1 X69.397 Y182 E181.41164
G1 X69.469 Y182.544 E181.48008
G1 X69.678 Y183.052 E181.5486
G1 X70.013 Y183.488 E181.61718
G1 X70.449 Y183.823 E181.68575
G1 X70.957 Y184.032 E181.75427
G1 X71.501 Y184.104 E181.82271
G1 X72.045 Y184.032 E181.89115
G1 X72.553 Y183.823 E181.95967
G1 X72.989 Y183.488 E182.02824
G1 X73.324 Y183.052 E182.09682
G1 X73.533 Y182.544 E182.16534
G1 X73.606 Y181.997 E182.23417
G1 X73.524 Y181.434 E182.30513
G1 X73.324 Y180.948 E182.37068
G1 X72.989 Y180.512 E182.43925
G1 X72.553 Y180.177 E182.50783
G1 X72.045 Y179.968 E182.57635
G1 X71.501 Y179.896 E182.64479
G1 X70.957 Y179.968 E182.71323
G1 X70.449 Y180.177 E182.78174
G1 X70.292 Y180.297 E182.80639
G0 F9000 X69.203 Y180.582
G0 X69.187 Y180.689
G0 X68.692 Y182
G0 X66.976 Y197.125
G0 X66.896 Y197.719
G1 F1080 X66.223 Y197.63 E182.89106
G1 X65.549 Y197.719 E182.97586
G1 X64.921 Y197.978 E183.06058
G1 X64.381 Y198.392 E183.14545
G1 X63.967 Y198.932 E183.23032
G1 X63.707 Y199.56 E183.3151
G1 X63.619 Y200.234 E183.39987
G1 X63.707 Y200.908 E183.48465
G1 X63.967 Y201.536 E183.56943
G1 X64.381 Y202.076 E183.6543
G1 X64.921 Y202.49 E183.73916
G1 X65.549 Y202.749 E183.82389
G1 X66.223 Y202.838 E183.90869
G1 X66.896 Y202.749 E183.99336
G1 X67.525 Y202.49 E184.0782
G1 X68.065 Y202.075 E184.16314
G1 X68.478 Y201.536 E184.24784
G1 X68.738 Y200.909 E184.3325
G1 X68.827 Y200.234 E184.41742
G1 X68.738 Y199.559 E184.50233
G1 X68.478 Y198.932 E184.58699
G1 X68.065 Y198.393 E184.67169
G1 X67.7 Y198.113 E184.72906
G1 F1800 E181.72906
G1 Z1.799
G0 F9000 X66.976 Y197.125
G0 X67.029 Y197.066
G0 X65.367 Y197.039
G0 X63.884 Y197.895
G0 X40.853 Y225.495
G0 X40.488 Y225.969
G1 Z1.299
G1 F1800 E184.72906
G1 F1080 X39.948 Y225.556 E184.81386
G1 X39.32 Y225.296 E184.89863
G1 X38.646 Y225.207 E184.98343
G1 X37.971 Y225.296 E185.06834
G1 X37.344 Y225.556 E185.153
G1 X36.805 Y225.969 E185.2377
G1 X36.39 Y226.509 E185.32264
G1 X36.13 Y227.138 E185.40753
G1 X36.042 Y227.811 E185.49219
G1 X36.13 Y228.485 E185.57697
G1 X36.39 Y229.113 E185.66174
G1 X36.804 Y229.653 E185.74661
G1 X37.344 Y230.067 E185.83148
G1 X37.972 Y230.327 E185.91625
G1 X38.646 Y230.415 E186.00103
G1 X39.319 Y230.327 E186.08569
G1 X39.948 Y230.067 E186.17058
G1 X40.488 Y229.652 E186.25552
G1 X40.901 Y229.113 E186.34021
G1 X41.161 Y228.486 E186.42487
G1 X41.25 Y227.811 E186.50979
G1 X41.161 Y227.137 E186.59459
G1 X40.986 Y226.714 E186.65168
G1 F1800 E183.65168
G1 Z1.799
G0 F9000 X40.853 Y225.495
G0 X37.581 Y222.792
G0 X34.757 Y225.536
G0 X15.465 Y206.244
G0 X15.508 Y204.561
G0 X15.032 Y204.196
G1 Z1.299
G1 F1800 E186.65168
G1 F1080 X15.445 Y203.657 E186.73637
G1 X15.705 Y203.03 E186.82103
G1 X15.794 Y202.355 E186.90595
G1 X15.705 Y201.681 E186.99075
G1 X15.445 Y201.053 E187.07552
G1 X15.032 Y200.513 E187.16031
G1 X14.492 Y200.1 E187.24511
G1 X13.864 Y199.84 E187.32988
G1 X13.19 Y199.751 E187.41468
G1 X12.515 Y199.84 E187.4996
G1 X11.888 Y200.1 E187.58426
G1 X11.349 Y200.513 E187.66895
G1 X10.934 Y201.053 E187.75389
G1 X10.674 Y201.682 E187.83878
G1 X10.586 Y202.355 E187.92344
G1 X10.674 Y203.029 E188.00822
G1 X10.934 Y203.657 E188.09299
G1 X11.348 Y204.197 E188.17786
G1 X11.888 Y204.611 E188.26273
G1 X12.516 Y204.871 E188.3475
G1 X13.19 Y204.959 E188.43228
G1 X13.863 Y204.871 E188.51694
G1 X14.289 Y204.695 E188.57442
G1 F1800 E185.57442
G1 Z1.799
G0 F9000 X15.508 Y204.561
G0 X17.495 Y204.247
G0 X44.656 Y177.053
G0 X153.913 Y182.772
G0 X154.468 Y182.544
G1 Z1.299
G1 F1800 E188.57442
G1 F1080 X154.677 Y183.052 E188.64294
G1 X155.012 Y183.488 E188.71152
G1 X155.448 Y183.823 E188.7801
G1 X155.956 Y184.032 E188.84861
G1 X156.5 Y184.104 E188.91705
G1 X157.044 Y184.032 E188.98549
G1 X157.552 Y183.823 E189.05401
G1 X157.988 Y183.488 E189.12259
G1 X158.323 Y183.052 E189.19116
G1 X158.532 Y182.544 E189.25968
G1 X158.605 Y181.997 E189.32851
G1 X158.523 Y181.434 E189.39947
G1 X158.323 Y180.948 E189.46502
G1 X157.988 Y180.512 E189.5336
G1 X157.552 Y180.177 E189.60218
G1 X157.044 Y179.968 E189.67069
G1 X156.5 Y179.896 E189.73913
G1 X155.956 Y179.968 E189.80757
G1 X155.448 Y180.177 E189.87609
G1 X155.012 Y180.512 E189.94467
G1 X154.677 Y180.948 E190.01324
G1 X154.468 Y181.456 E190.08176
G1 X154.443 Y181.65 E190.10615
G0 F9000 X153.913 Y182.772
G0 X153.815 Y182.798
G0 X155.097 Y184.433
G0 X157.226 Y184.712
G0 X164.572 Y179.908
G0 X164.958 Y179.804
G0 X165.266 Y179.722
G0 X165.266 Y179.722
G1 F1080 X171.266 Y179.722 E190.85451
G1 X171.266 Y173.722 E191.60286
G1 X165.266 Y173.722 E192.35121
G1 X165.266 Y178.822 E192.98731
G0 F9000 X171.566 Y179.722
G0 X171.966 Y179.722
G0 X174.566 Y179.722
G0 X174.966 Y179.722
G0 X175.266 Y179.722
G0 X175.266 Y179.722
G1 F1080 X181.266 Y179.722 E193.73567
G1 X181.266 Y173.722 E194.48402
G1 X175.266 Y173.722 E195.23237
G1 X175.266 Y178.822 E195.86847
G0 F9000 X181.571 Y178.099
G0 X181.842 Y178.648
G0 X183.345 Y177.053
G0 X183.768 Y177.536
G0 X183.345 Y177.96
G1 F1080 X164.96 Y196.345 E199.11138
G1 X193.244 Y224.629 E204.10035
G1 X211.629 Y206.244 E207.34325
G1 X183.982 Y178.597 E212.21986
G0 F9000 X183.768 Y177.536
G0 X185.027 Y177.094
G0 X185.027 Y177.094
G0 X185.392 Y176.62
G1 F1080 X185.932 Y177.034 E212.30473
G1 X186.56 Y177.294 E212.38951
G1 X187.234 Y177.382 E212.47429
G1 X187.908 Y177.294 E212.55906
G1 X188.536 Y177.034 E212.64384
G1 X189.076 Y176.62 E212.72871
G1 X189.49 Y176.08 E212.81357
G1 X189.749 Y175.452 E212.8983
G1 X189.838 Y174.778 E212.9831
G1 X189.749 Y174.105 E213.06777
G1 X189.49 Y173.476 E213.15261
G1 X189.075 Y172.936 E213.23755
G1 X188.536 Y172.523 E213.32225
G1 X187.909 Y172.263 E213.40691
G1 X187.234 Y172.174 E213.49183
G1 X186.559 Y172.263 E213.57674
G1 X185.932 Y172.523 E213.6614
G1 X185.393 Y172.936 E213.7461
G1 X184.978 Y173.476 E213.83104
G1 X184.719 Y174.105 E213.91588
G1 X184.63 Y174.778 E214.00056
G1 X184.719 Y175.452 E214.08535
G1 X184.894 Y175.876 E214.14256
G1 F1800 E211.14256
G1 Z1.799
G0 F9000 X185.027 Y177.094
G0 X185.022 Y177.171
G0 X184.039 Y175.634
G0 X184.039 Y173.923
G0 X186.224 Y155.322
G0 X186.266 Y154.722
G1 Z1.299
G1 F1800 E214.14256
G1 F1080 X186.266 Y148.722 E214.89091
G1 X180.266 Y148.722 E215.63927
G1 X180.266 Y154.722 E216.38762
G1 X185.366 Y154.722 E217.02372
G1 F1800 E214.02372
G1 Z1.799
G0 F9000 X186.224 Y155.322
G0 X186.224 Y155.422
G0 X179.625 Y155.363
G0 X179.625 Y148.081
G0 X186.224 Y145.322
G0 X186.266 Y144.722
G1 Z1.299
G1 F1800 E217.02372
G1 F1080 X186.266 Y138.722 E217.77207
G1 X180.266 Y138.722 E218.52043
G1 X180.266 Y144.722 E219.26878
G1 X185.366 Y144.722 E219.90488
G1 F1800 E216.90488
G1 Z1.799
G0 F9000 X186.224 Y145.322
G0 X186.232 Y145.42
G0 X179.625 Y145.363
G0 X179.625 Y138.081
G0 X181.328 Y90.421
G0 X181.292 Y90.023
G0 X181.266 Y89.723
G0 X181.266 Y89.723
G1 Z1.299
G1 F1800 E219.90488
G1 F1080 X181.266 Y83.723 E220.65323
G1 X175.266 Y83.723 E221.40159
G1 X175.266 Y89.723 E222.14994
G1 X180.366 Y89.723 E222.78604
G0 F9000 X174.966 Y89.723
G0 X174.566 Y89.723
G0 X171.966 Y89.723
G0 X171.566 Y89.723
G0 X171.266 Y89.723
G0 X171.266 Y89.723
G1 F1080 X171.266 Y83.723 E223.53439
G1 X165.266 Y83.723 E224.28275
G1 X165.266 Y89.723 E225.0311
G1 X170.366 Y89.723 E225.6672
G0 F9000 X166.146 Y83.379
G0 X165.895 Y83.068
G0 X158.462 Y73.856
G0 X157.988 Y73.489
G1 F1080 X158.323 Y73.053 E225.73578
G1 X158.532 Y72.545 E225.80429
G1 X158.605 Y71.998 E225.87312
G1 X158.523 Y71.435 E225.94408
G1 X158.323 Y70.949 E226.00963
G1 X157.988 Y70.513 E226.07821
G1 X157.552 Y70.178 E226.14679
G1 X157.044 Y69.969 E226.2153
G1 X156.5 Y69.897 E226.28374
G1 X155.956 Y69.969 E226.35219
G1 X155.448 Y70.178 E226.4207
G1 X155.012 Y70.513 E226.48928
G1 X154.677 Y70.949 E226.55786
G1 X154.468 Y71.457 E226.62637
G1 X154.396 Y72.001 E226.69481
G1 X154.468 Y72.545 E226.76325
G1 X154.677 Y73.053 E226.83177
G1 X155.012 Y73.489 E226.90035
G1 X155.448 Y73.824 E226.96893
G1 X155.956 Y74.033 E227.03744
G1 X156.5 Y74.105 E227.10588
G1 X157.044 Y74.033 E227.17432
G1 X157.227 Y73.958 E227.19899
G0 F9000 X158.462 Y73.856
G0 X158.499 Y73.935
G0 X159.31 Y71.994
G0 X158.485 Y70.016
G0 X153.702 Y63.811
G0 X153.473 Y63.257
G1 F1080 X154.012 Y62.844 E227.28368
G1 X154.427 Y62.304 E227.36863
G1 X154.687 Y61.675 E227.45352
G1 X154.776 Y60.999 E227.53856
G1 X154.676 Y60.3 E227.62663
G1 X154.427 Y59.699 E227.70777
G1 X154.013 Y59.16 E227.79254
G1 X153.473 Y58.746 E227.87741
G1 X152.845 Y58.486 E227.96218
G1 X152.171 Y58.398 E228.04696
G1 X151.498 Y58.486 E228.13162
G1 X150.869 Y58.746 E228.21651
G1 X150.329 Y59.161 E228.30145
G1 X149.916 Y59.7 E228.38614
G1 X149.656 Y60.327 E228.4708
G1 X149.567 Y61.002 E228.55572
G1 X149.656 Y61.676 E228.64052
G1 X149.916 Y62.304 E228.72529
G1 X150.329 Y62.844 E228.81008
G1 X150.869 Y63.257 E228.89488
G1 X151.497 Y63.517 E228.97965
G1 X152.171 Y63.606 E229.06445
G1 X152.625 Y63.547 E229.12155
G0 F9000 X153.702 Y63.811
G0 X153.749 Y63.745
G0 X153.986 Y63.423
G0 X159.459 Y55.971
G0 X159.936 Y55.608
G1 F1080 X160.476 Y56.023 E229.20649
G1 X161.105 Y56.282 E229.29133
G1 X161.778 Y56.371 E229.376
G1 X162.452 Y56.282 E229.4608
G1 X163.08 Y56.023 E229.54553
G1 X163.62 Y55.609 E229.6304
G1 X164.034 Y55.069 E229.71526
G1 X164.294 Y54.44 E229.80015
G1 X164.382 Y53.767 E229.88481
G1 X164.294 Y53.093 E229.96959
G1 X164.034 Y52.465 E230.05436
G1 X163.62 Y51.925 E230.13923
G1 X163.08 Y51.511 E230.2241
G1 X162.452 Y51.252 E230.30883
G1 X161.778 Y51.163 E230.39362
G1 X161.105 Y51.252 E230.47829
G1 X160.476 Y51.511 E230.56313
G1 X159.936 Y51.926 E230.64808
G1 X159.523 Y52.465 E230.73277
G1 X159.263 Y53.092 E230.81743
G1 X159.174 Y53.767 E230.90235
G1 X159.263 Y54.441 E230.98714
G1 X159.438 Y54.864 E231.04424
G0 F9000 X159.459 Y55.971
G0 X159.453 Y55.969
G0 X160.923 Y56.962
G0 X164.536 Y57.233
G0 X164.96 Y57.656
G1 F1080 X183.345 Y76.041 E234.28714
G1 X211.629 Y47.757 E239.27612
G1 X193.244 Y29.372 E242.51902
G1 X165.597 Y57.019 E247.39563
G1 F1800 E244.39563
G1 Z1.799
G0 F9000 X164.536 Y57.233
G0 X164.462 Y57.163
G0 X193.244 Y28.465
G0 X212.536 Y47.757
G0 X184.918 Y77.016
G0 X185.392 Y77.381
G1 Z1.299
G1 F1800 E247.39563
G1 F1080 X184.978 Y77.921 E247.4805
G1 X184.719 Y78.549 E247.56523
G1 X184.63 Y79.223 E247.65002
G1 X184.719 Y79.896 E247.73469
G1 X184.978 Y80.525 E247.81953
G1 X185.393 Y81.065 E247.90448
G1 X185.932 Y81.478 E247.98917
G1 X186.559 Y81.738 E248.07383
G1 X187.234 Y81.827 E248.15875
G1 X187.909 Y81.738 E248.24367
G1 X188.536 Y81.478 E248.32833
G1 X189.075 Y81.065 E248.41302
G1 X189.49 Y80.525 E248.49797
G1 X189.749 Y79.896 E248.58281
G1 X189.838 Y79.223 E248.66748
G1 X189.749 Y78.549 E248.75227
G1 X189.49 Y77.921 E248.837
G1 X189.076 Y77.381 E248.92187
G1 X188.536 Y76.967 E249.00674
G1 X187.908 Y76.707 E249.09151
G1 X187.234 Y76.619 E249.17629
G1 X186.56 Y76.707 E249.26107
G1 X186.136 Y76.882 E249.31828
G1 F1800 E246.31828
G1 Z1.799
G0 F9000 X184.918 Y77.016
G0 X212.604 Y53.962
G0 X212.604 Y53.962
G0 X212.969 Y53.488
G1 Z1.299
G1 F1800 E249.31828
G1 F1080 X213.509 Y53.901 E249.40307
G1 X214.137 Y54.161 E249.48785
G1 X214.811 Y54.25 E249.57264
G1 X215.486 Y54.161 E249.65756
G1 X216.113 Y53.901 E249.74222
G1 X216.652 Y53.488 E249.82691
G1 X217.067 Y52.948 E249.91186
G1 X217.327 Y52.319 E249.99675
G1 X217.415 Y51.646 E250.0814
G1 X217.327 Y50.972 E250.16618
G1 X217.067 Y50.344 E250.25096
G1 X216.653 Y49.804 E250.33583
G1 X216.113 Y49.39 E250.42069
G1 X215.485 Y49.13 E250.50547
G1 X214.811 Y49.042 E250.59025
G1 X214.138 Y49.13 E250.6749
G1 X213.509 Y49.39 E250.75979
G1 X212.969 Y49.805 E250.84474
G1 X212.556 Y50.344 E250.92943
G1 X212.296 Y50.971 E251.01409
G1 X212.207 Y51.646 E251.09901
G1 X212.296 Y52.32 E251.1838
G1 X212.471 Y52.743 E251.2409
G1 F1800 E248.2409
G1 Z1.799
G0 F9000 X212.604 Y53.962
G0 X209.801 Y50.573
G0 X183.345 Y76.948
G0 X164.053 Y57.656
G0 X191.559 Y28.509
G0 X191.196 Y28.032
G1 Z1.299
G1 F1800 E251.2409
G1 F1080 X191.611 Y27.492 E251.32584
G1 X191.871 Y26.863 E251.41073
G1 X191.959 Y26.19 E251.49539
G1 X191.871 Y25.516 E251.58017
G1 X191.611 Y24.888 E251.66494
G1 X191.197 Y24.348 E251.74981
G1 X190.657 Y23.934 E251.83468
G1 X190.029 Y23.674 E251.91945
G1 X189.355 Y23.586 E252.00423
G1 X188.682 Y23.674 E252.08889
G1 X188.053 Y23.934 E252.17378
G1 X187.513 Y24.349 E252.25872
G1 X187.1 Y24.888 E252.34341
G1 X186.84 Y25.515 E252.42807
G1 X186.751 Y26.19 E252.51299
G1 X186.84 Y26.864 E252.59779
G1 X187.1 Y27.492 E252.68256
G1 X187.513 Y28.032 E252.76735
G1 X188.053 Y28.445 E252.85215
G1 X188.681 Y28.705 E252.93692
G1 X189.355 Y28.794 E253.02172
G1 X190.03 Y28.705 E253.10663
G1 X190.452 Y28.53 E253.16361
G1 F1800 E250.16361
G1 Z1.799
G0 F9000 X191.559 Y28.509
G0 X191.209 Y30.535
G0 X164.053 Y57.656
G0 X162.532 Y197.125
G0 X162.452 Y197.719
G1 Z1.299
G1 F1800 E253.16361
G1 F1080 X161.778 Y197.63 E253.24841
G1 X161.105 Y197.719 E253.33308
G1 X160.476 Y197.978 E253.41792
G1 X159.936 Y198.393 E253.50287
G1 X159.523 Y198.932 E253.58756
G1 X159.263 Y199.559 E253.67222
G1 X159.174 Y200.234 E253.75714
G1 X159.263 Y200.909 E253.84206
G1 X159.523 Y201.536 E253.92672
G1 X159.936 Y202.075 E254.01141
G1 X160.476 Y202.49 E254.09635
G1 X161.105 Y202.749 E254.1812
G1 X161.778 Y202.838 E254.26587
G1 X162.452 Y202.749 E254.35066
G1 X163.08 Y202.49 E254.43539
G1 X163.62 Y202.076 E254.52026
G1 X164.034 Y201.536 E254.60513
G1 X164.294 Y200.908 E254.6899
G1 X164.382 Y200.234 E254.77468
G1 X164.294 Y199.56 E254.85946
G1 X164.034 Y198.932 E254.94423
G1 X163.62 Y198.392 E255.0291
G1 X163.256 Y198.113 E255.0863
G1 F1800 E252.0863
G1 Z1.799
G0 F9000 X162.532 Y197.125
G0 X162.516 Y197.106
G0 X164.117 Y197.895
G0 X187.039 Y225.604
G0 X187.513 Y225.969
G1 Z1.299
G1 F1800 E255.0863
G1 F1080 X187.1 Y226.509 E255.1711
G1 X186.84 Y227.137 E255.25587
G1 X186.751 Y227.811 E255.34067
G1 X186.84 Y228.486 E255.42558
G1 X187.1 Y229.113 E255.51024
G1 X187.513 Y229.652 E255.59494
G1 X188.053 Y230.067 E255.67988
G1 X188.682 Y230.327 E255.76477
G1 X189.355 Y230.415 E255.84943
G1 X190.029 Y230.327 E255.9342
G1 X190.657 Y230.067 E256.01898
G1 X191.197 Y229.653 E256.10385
G1 X191.611 Y229.113 E256.18872
G1 X191.871 Y228.485 E256.27349
G1 X191.959 Y227.811 E256.35827
G1 X191.871 Y227.138 E256.44292
G1 X191.611 Y226.509 E256.52781
G1 X191.196 Y225.969 E256.61276
G1 X190.657 Y225.556 E256.69745
G1 X190.03 Y225.296 E256.78211
G1 X189.355 Y225.207 E256.86703
G1 X188.681 Y225.296 E256.95182
G1 X188.258 Y225.471 E257.00892
G1 F1800 E254.00892
G1 Z1.799
G0 F9000 X187.039 Y225.604
G0 X190.426 Y222.801
G0 X193.244 Y225.536
G0 X212.536 Y206.244
G0 X212.492 Y204.559
G0 X212.969 Y204.196
G1 Z1.299
G1 F1800 E257.00892
G1 F1080 X213.509 Y204.611 E257.09386
G1 X214.138 Y204.871 E257.17875
G1 X214.811 Y204.959 E257.26341
G1 X215.485 Y204.871 E257.34819
G1 X216.113 Y204.611 E257.43296
G1 X216.653 Y204.197 E257.51783
G1 X217.067 Y203.657 E257.6027
G1 X217.327 Y203.029 E257.68747
G1 X217.415 Y202.355 E257.77225
G1 X217.327 Y201.682 E257.85691
G1 X217.067 Y201.053 E257.9418
G1 X216.652 Y200.513 E258.02674
G1 X216.113 Y200.1 E258.11144
G1 X215.486 Y199.84 E258.1961
G1 X214.811 Y199.751 E258.28101
G1 X214.137 Y199.84 E258.36581
G1 X213.509 Y200.1 E258.45058
G1 X212.969 Y200.513 E258.53538
G1 X212.556 Y201.053 E258.62017
G1 X212.296 Y201.681 E258.70494
G1 X212.207 Y202.355 E258.78974
G1 X212.296 Y203.03 E258.87466
G1 X212.471 Y203.452 E258.93164
G0 F9000 X212.255 Y204.909
; TYPE:WALL-INNER
G1 F1080 X213.004 Y205.484 E259.04941
G1 X213.877 Y205.846 E259.16729
G1 X214.811 Y205.968 E259.28477
G1 X215.746 Y205.846 E259.40238
G1 X216.618 Y205.484 E259.52014
G1 X217.366 Y204.91 E259.63773
G1 X217.94 Y204.162 E259.75533
G1 X218.302 Y203.29 E259.87309
G1 X218.424 Y202.355 E259.9907
G1 X218.302 Y201.421 E260.10818
G1 X217.94 Y200.548 E260.22606
G1 X217.365 Y199.799 E260.34383
G1 X216.617 Y199.227 E260.46128
G1 X215.748 Y198.866 E260.57864
G1 X214.811 Y198.742 E260.69653
G1 X213.876 Y198.866 E260.81417
G1 X213.005 Y199.226 E260.93172
G1 X212.256 Y199.8 E261.04942
G1 X211.682 Y200.549 E261.16711
G1 X211.322 Y201.42 E261.28466
G1 X211.198 Y202.355 E261.4023
G1 X211.322 Y203.292 E261.52019
G1 X211.683 Y204.161 E261.63756
G1 X211.707 Y204.193 E261.64255
G0 F9000 X213.043 Y206.244
G1 F1080 X183.345 Y176.546 E266.88093
G1 X182.266 Y177.625 E267.07126
G1 X182.266 Y172.722 E267.68278
G1 X174.266 Y172.722 E268.68059
G1 X174.266 Y180.722 E269.67839
G1 X179.169 Y180.722 E270.28992
G1 X163.546 Y196.345 E273.04564
G1 X193.244 Y226.043 E278.28402
G1 X212.406 Y206.881 E281.66398
G0 F9000 X214.372 Y205.523
G0 X215.667 Y205.551
G0 X220.752 Y202.072
G0 X220.467 Y202.355
G1 F1080 X189.355 Y233.467 E287.15178
G1 X157.938 Y202.05 E292.69338
G1 X156.252 Y200.666 E292.96544
G1 X154.262 Y199.602 E293.2469
G1 X152.103 Y198.948 E293.52826
G1 X149.932 Y198.734 E293.80035
G1 X78.069 Y198.734 E302.7635
G1 X75.898 Y198.948 E303.03559
G1 X73.739 Y199.602 E303.31696
G1 X71.749 Y200.666 E303.59841
G1 X70.063 Y202.05 E303.87048
G1 X38.646 Y233.467 E309.41207
G1 X7.534 Y202.355 E314.89987
G1 X38.951 Y170.938 E320.44147
G1 X40.335 Y169.252 E320.71353
G1 X41.399 Y167.262 E320.99499
G1 X42.053 Y165.103 E321.27635
G1 X42.267 Y162.932 E321.54845
G1 X42.267 Y91.069 E330.51159
G1 X42.053 Y88.898 E330.78369
G1 X41.399 Y86.739 E331.06505
G1 X40.335 Y84.749 E331.34651
G1 X38.951 Y83.063 E331.61857
G1 X7.534 Y51.646 E337.16017
G1 X38.646 Y20.534 E342.64797
G1 X70.063 Y51.951 E348.18956
G1 X71.749 Y53.335 E348.46163
G1 X73.739 Y54.399 E348.74308
G1 X75.898 Y55.053 E349.02445
G1 X78.069 Y55.267 E349.29654
G1 X149.932 Y55.267 E358.25969
G1 X152.103 Y55.053 E358.53178
G1 X154.262 Y54.399 E358.81314
G1 X156.252 Y53.335 E359.0946
G1 X157.938 Y51.951 E359.36666
G1 X189.355 Y20.534 E364.90826
G1 X220.467 Y51.646 E370.39606
G1 X189.05 Y83.063 E375.93766
G1 X187.666 Y84.749 E376.20972
G1 X186.602 Y86.739 E376.49117
G1 X185.948 Y88.898 E376.77254
G1 X185.734 Y91.069 E377.04463
G1 X185.734 Y137.722 E382.86345
G1 X179.266 Y137.722 E383.67017
G1 X179.266 Y145.722 E384.66798
G1 X185.734 Y145.722 E385.4747
G1 X185.734 Y147.722 E385.72415
G1 X179.266 Y147.722 E386.53088
G1 X179.266 Y155.722 E387.52868
G1 X185.734 Y155.722 E388.33541
G1 X185.734 Y162.932 E389.23468
G1 X185.948 Y165.103 E389.50677
G1 X186.602 Y167.262 E389.78814
G1 X187.666 Y169.252 E390.06959
G1 X189.05 Y170.938 E390.34165
G1 X219.83 Y201.718 E395.77089
G1 F1800 E392.77089
G1 Z1.799
G0 F9000 X220.752 Y202.072
G0 X199.276 Y219.332
G0 X193.244 Y225.536
G0 X191.909 Y225.255
G0 X191.909 Y225.255
G1 Z1.299
G1 F1800 E395.77089
G1 F1080 X191.161 Y224.683 E395.88834
G1 X190.292 Y224.322 E396.0057
G1 X189.355 Y224.198 E396.12359
G1 X188.42 Y224.322 E396.24123
G1 X187.549 Y224.682 E396.35878
G1 X186.8 Y225.256 E396.47648
G1 X186.226 Y226.005 E396.59418
G1 X185.866 Y226.876 E396.71172
G1 X185.742 Y227.811 E396.82936
G1 X185.866 Y228.748 E396.94725
G1 X186.227 Y229.617 E397.06462
G1 X186.799 Y230.365 E397.18206
G1 X187.548 Y230.94 E397.29984
G1 X188.421 Y231.302 E397.41771
G1 X189.355 Y231.424 E397.5352
G1 X190.29 Y231.302 E397.6528
G1 X191.162 Y230.94 E397.77056
G1 X191.91 Y230.366 E397.88816
G1 X192.484 Y229.618 E398.00576
G1 X192.846 Y228.746 E398.12352
G1 X192.968 Y227.811 E398.24113
G1 X192.846 Y226.877 E398.35861
G1 X192.484 Y226.004 E398.47649
G1 X192.458 Y225.97 E398.48182
G0 F9000 X164.333 Y202.789
G1 F1080 X164.907 Y202.041 E398.59942
G1 X165.269 Y201.169 E398.71718
G1 X165.391 Y200.234 E398.83479
G1 X165.269 Y199.299 E398.9524
G1 X164.907 Y198.427 E399.07016
G1 X164.333 Y197.679 E399.18775
G1 X163.584 Y197.104 E399.30553
G1 X162.713 Y196.745 E399.42303
G1 X161.778 Y196.621 E399.54067
G1 X160.844 Y196.745 E399.65819
G1 X159.972 Y197.104 E399.7758
G1 X159.222 Y197.68 E399.89375
G1 X158.65 Y198.428 E400.0112
G1 X158.289 Y199.297 E400.12856
G1 X158.165 Y200.234 E400.24645
G1 X158.289 Y201.171 E400.36434
G1 X158.65 Y202.04 E400.4817
G1 X159.222 Y202.788 E400.59915
G1 X159.972 Y203.364 E400.7171
G1 X160.844 Y203.723 E400.83472
G1 X161.778 Y203.847 E400.95223
G1 X162.713 Y203.723 E401.06987
G1 X163.584 Y203.364 E401.18737
G1 X163.618 Y203.338 E401.19271
G0 F9000 X164.191 Y202.432
G0 X164.974 Y201.09
G0 X164.974 Y199.378
G0 X157.305 Y185.006
G0 X157.305 Y185.006
G1 F1080 X158.057 Y184.697 E401.29411
G1 X158.701 Y184.201 E401.3955
G1 X159.197 Y183.557 E401.49689
G1 X159.506 Y182.805 E401.59829
G1 X159.614 Y181.991 E401.7007
G1 X159.495 Y181.168 E401.80442
G1 X159.197 Y180.444 E401.90207
G1 X158.701 Y179.799 E402.00356
G1 X158.057 Y179.303 E402.10494
G1 X157.305 Y178.994 E402.20634
G1 X156.5 Y178.887 E402.30763
G1 X155.695 Y178.994 E402.40892
G1 X154.943 Y179.303 E402.51032
G1 X154.299 Y179.799 E402.61171
G1 X153.803 Y180.443 E402.71309
G1 X153.494 Y181.195 E402.8145
G1 X153.387 Y182 E402.91578
G1 X153.494 Y182.805 E403.01707
G1 X153.803 Y183.557 E403.11847
G1 X154.299 Y184.201 E403.21986
G1 X154.943 Y184.697 E403.32124
G1 X155.695 Y185.006 E403.42265
G1 X156.412 Y185.101 E403.51286
G0 F9000 X164.266 Y180.722
G1 F1080 X172.266 Y180.722 E404.51066
G1 X172.266 Y172.722 E405.50846
G1 X164.266 Y172.722 E406.50627
G1 X164.266 Y179.822 E407.39182
G1 F1800 E404.39182
G1 Z1.799
G0 F9000 X166.015 Y180.271
G0 X171.907 Y180.363
G0 X174.625 Y173.081
G0 X181.907 Y173.081
G0 X183.745 Y175.713
G0 X183.745 Y175.713
G1 Z1.299
G1 F1800 E407.39182
G1 F1080 X184.104 Y176.584 E407.50932
G1 X184.679 Y177.333 E407.62709
G1 X185.427 Y177.907 E407.74469
G1 X186.299 Y178.269 E407.86245
G1 X187.234 Y178.391 E407.98006
G1 X188.169 Y178.269 E408.09767
G1 X189.041 Y177.907 E408.21543
G1 X189.789 Y177.333 E408.33303
G1 X190.364 Y176.584 E408.4508
G1 X190.723 Y175.713 E408.5683
G1 X190.847 Y174.778 E408.68594
G1 X190.723 Y173.844 E408.80346
G1 X190.364 Y172.972 E408.92107
G1 X189.788 Y172.222 E409.03902
G1 X189.04 Y171.65 E409.15647
G1 X188.171 Y171.289 E409.27383
G1 X187.234 Y171.165 E409.39172
G1 X186.297 Y171.289 E409.50961
G1 X185.428 Y171.65 E409.62697
G1 X184.68 Y172.222 E409.74442
G1 X184.104 Y172.972 E409.86237
G1 X183.745 Y173.844 E409.97999
G1 X183.621 Y174.778 E410.0975
G1 X183.626 Y174.82 E410.10278
G1 F1800 E407.10278
G1 Z1.799
G0 F9000 X183.39 Y155.42
G0 X179.625 Y155.363
G0 X179.625 Y138.081
G0 X182.266 Y90.723
G0 X182.266 Y90.723
G1 Z1.299
G1 F1800 E410.10278
G1 F1080 X182.266 Y82.723 E411.10058
G1 X174.266 Y82.723 E412.09839
G1 X174.266 Y90.723 E413.09619
G1 X181.366 Y90.723 E413.98174
G0 F9000 X185.428 Y82.351
G1 F1080 X186.297 Y82.712 E414.09911
G1 X187.234 Y82.836 E414.21699
G1 X188.171 Y82.712 E414.33488
G1 X189.04 Y82.351 E414.45225
G1 X189.788 Y81.779 E414.56969
G1 X190.364 Y81.029 E414.68764
G1 X190.723 Y80.157 E414.80526
G1 X190.847 Y79.223 E414.92278
G1 X190.723 Y78.288 E415.04042
G1 X190.364 Y77.417 E415.15792
G1 X189.789 Y76.668 E415.27569
G1 X189.041 Y76.094 E415.39329
G1 X188.169 Y75.732 E415.51105
G1 X187.234 Y75.61 E415.62866
G1 X186.299 Y75.732 E415.74626
G1 X185.427 Y76.094 E415.86402
G1 X184.679 Y76.668 E415.98162
G1 X184.104 Y77.417 E416.09939
G1 X183.745 Y78.288 E416.2169
G1 X183.621 Y79.223 E416.33454
G1 X183.745 Y80.157 E416.45205
G1 X184.104 Y81.029 E416.56967
G1 X184.68 Y81.779 E416.68762
G1 X184.712 Y81.803 E416.69261
G0 F9000 X185.105 Y81.595
G0 X184.039 Y80.078
G0 X183.345 Y77.455
G0 X183.345 Y77.455
G1 F1080 X213.043 Y47.757 E421.93099
G1 X193.244 Y27.958 E425.42331
G1 X163.546 Y57.656 E430.66169
G1 X182.708 Y76.818 E434.04165
G0 F9000 X172.266 Y82.723
G1 F1080 X164.266 Y82.723 E435.03945
G1 X164.266 Y90.723 E436.03726
G1 X172.266 Y90.723 E437.03506
G1 X172.266 Y83.623 E437.92061
G0 F9000 X159.197 Y73.558
G1 F1080 X159.506 Y72.806 E438.02202
G1 X159.614 Y71.992 E438.12443
G1 X159.495 Y71.169 E438.22815
G1 X159.197 Y70.445 E438.3258
G1 X158.701 Y69.8 E438.42728
G1 X158.057 Y69.304 E438.52867
G1 X157.305 Y68.995 E438.63007
G1 X156.5 Y68.888 E438.73136
G1 X155.695 Y68.995 E438.83265
G1 X154.943 Y69.304 E438.93405
G1 X154.299 Y69.8 E439.03544
G1 X153.803 Y70.444 E439.13682
G1 X153.494 Y71.196 E439.23822
G1 X153.387 Y72.001 E439.33951
G1 X153.494 Y72.806 E439.4408
G1 X153.803 Y73.558 E439.5422
G1 X154.299 Y74.202 E439.64359
G1 X154.943 Y74.698 E439.74497
G1 X155.695 Y75.007 E439.84637
G1 X156.5 Y75.114 E439.94766
G1 X157.305 Y75.007 E440.04895
G1 X158.057 Y74.698 E440.15035
G1 X158.631 Y74.256 E440.24071
G0 F9000 X158.983 Y73.172
G0 X159.201 Y71.25
G0 X153.977 Y64.13
G0 X153.977 Y64.13
G1 F1080 X154.725 Y63.558 E440.35816
G1 X155.3 Y62.809 E440.47593
G1 X155.662 Y61.936 E440.59381
G1 X155.785 Y60.993 E440.71242
G1 X155.648 Y60.033 E440.83337
G1 X155.3 Y59.194 E440.94666
G1 X154.726 Y58.447 E441.06416
G1 X153.978 Y57.873 E441.18175
G1 X153.106 Y57.511 E441.29951
G1 X152.171 Y57.389 E441.41712
G1 X151.237 Y57.511 E441.5346
G1 X150.364 Y57.873 E441.65248
G1 X149.615 Y58.448 E441.77025
G1 X149.043 Y59.196 E441.8877
G1 X148.682 Y60.065 E442.00507
G1 X148.558 Y61.002 E442.12295
G1 X148.682 Y61.937 E442.24059
G1 X149.042 Y62.808 E442.35814
G1 X149.616 Y63.557 E442.47584
G1 X150.365 Y64.131 E442.59354
G1 X151.236 Y64.491 E442.71109
G1 X152.171 Y64.615 E442.82873
G1 X153.108 Y64.491 E442.94661
G1 X153.145 Y64.476 E442.95159
G0 F9000 X159.972 Y56.897
G1 F1080 X160.844 Y57.256 E443.06921
G1 X161.778 Y57.38 E443.18673
G1 X162.713 Y57.256 E443.30436
G1 X163.584 Y56.897 E443.42187
G1 X164.333 Y56.322 E443.53964
G1 X164.907 Y55.574 E443.65724
G1 X165.269 Y54.701 E443.77511
G1 X165.391 Y53.767 E443.8926
G1 X165.269 Y52.832 E444.0102
G1 X164.907 Y51.96 E444.12796
G1 X164.333 Y51.212 E444.24556
G1 X163.584 Y50.637 E444.36334
G1 X162.713 Y50.278 E444.48084
G1 X161.778 Y50.154 E444.59848
G1 X160.844 Y50.278 E444.71599
G1 X159.972 Y50.637 E444.83361
G1 X159.222 Y51.213 E444.95156
G1 X158.65 Y51.961 E445.069
G1 X158.289 Y52.83 E445.18637
G1 X158.165 Y53.767 E445.30426
G1 X158.289 Y54.702 E445.4219
G1 X158.649 Y55.573 E445.53945
G1 X159.222 Y56.321 E445.65697
G1 X159.257 Y56.348 E445.66248
G1 F1800 E442.66248
G1 Z1.799
G0 F9000 X160.203 Y56.653
G0 X161.778 Y57.076
G0 X163.431 Y56.633
G0 X186.8 Y28.745
G0 X186.8 Y28.745
G1 Z1.299
G1 F1800 E445.66248
G1 F1080 X187.549 Y29.319 E445.78018
G1 X188.42 Y29.679 E445.89773
G1 X189.355 Y29.803 E446.01537
G1 X190.292 Y29.679 E446.13326
G1 X191.161 Y29.318 E446.25062
G1 X191.909 Y28.746 E446.36807
G1 X192.484 Y27.997 E446.48584
G1 X192.846 Y27.124 E446.60372
G1 X192.968 Y26.19 E446.7212
G1 X192.846 Y25.255 E446.83881
G1 X192.484 Y24.383 E446.95657
G1 X191.91 Y23.635 E447.07417
G1 X191.162 Y23.061 E447.19176
G1 X190.29 Y22.699 E447.30952
G1 X189.355 Y22.577 E447.42713
G1 X188.421 Y22.699 E447.54461
G1 X187.548 Y23.061 E447.66249
G1 X186.799 Y23.636 E447.78026
G1 X186.227 Y24.384 E447.89771
G1 X185.866 Y25.253 E448.01508
G1 X185.742 Y26.19 E448.13296
G1 X185.866 Y27.125 E448.2506
G1 X186.226 Y27.996 E448.36815
G1 X186.252 Y28.03 E448.37349
G1 F1800 E445.37349
G1 Z1.799
G0 F9000 X190.18 Y31.447
G0 X193.244 Y28.465
G0 X212.536 Y47.757
G0 X212.255 Y49.092
G0 X212.255 Y49.092
G1 Z1.299
G1 F1800 E448.37349
G1 F1080 X211.683 Y49.84 E448.49094
G1 X211.322 Y50.709 E448.6083
G1 X211.198 Y51.646 E448.72619
G1 X211.322 Y52.581 E448.84383
G1 X211.682 Y53.452 E448.96138
G1 X212.256 Y54.201 E449.07908
G1 X213.005 Y54.775 E449.19677
G1 X213.876 Y55.135 E449.31432
G1 X214.811 Y55.259 E449.43196
G1 X215.748 Y55.135 E449.54985
G1 X216.617 Y54.774 E449.66722
G1 X217.365 Y54.202 E449.78466
G1 X217.94 Y53.453 E449.90244
G1 X218.302 Y52.58 E450.02031
G1 X218.424 Y51.646 E450.1378
G1 X218.302 Y50.711 E450.2554
G1 X217.94 Y49.839 E450.37316
G1 X217.366 Y49.091 E450.49076
G1 X216.618 Y48.517 E450.60836
G1 X215.746 Y48.155 E450.72612
G1 X214.811 Y48.033 E450.84373
G1 X213.877 Y48.155 E450.96121
G1 X213.004 Y48.517 E451.07909
G1 X212.97 Y48.543 E451.08442
G1 F1800 E448.08442
G1 Z1.799
G0 F9000 X211.076 Y49.196
G0 X183.345 Y76.948
G0 X148.492 Y54.784
G0 X79.179 Y60.973
G0 X79.586 Y60.993
G1 Z1.299
G1 F1800 E451.08442
G1 F1080 X79.449 Y60.033 E451.20537
G1 X79.101 Y59.194 E451.31866
G1 X78.527 Y58.447 E451.43616
G1 X77.779 Y57.873 E451.55376
G1 X76.907 Y57.511 E451.67152
G1 X75.972 Y57.389 E451.78913
G1 X75.038 Y57.511 E451.90661
G1 X74.165 Y57.873 E452.02449
G1 X73.416 Y58.448 E452.14226
G1 X72.844 Y59.196 E452.25971
G1 X72.483 Y60.065 E452.37707
G1 X72.359 Y61.002 E452.49496
G1 X72.483 Y61.937 E452.6126
G1 X72.843 Y62.808 E452.73015
G1 X73.417 Y63.557 E452.84785
G1 X74.166 Y64.131 E452.96554
G1 X75.037 Y64.491 E453.08309
G1 X75.972 Y64.615 E453.20073
G1 X76.909 Y64.491 E453.31862
G1 X77.778 Y64.13 E453.43599
G1 X78.526 Y63.558 E453.55343
G1 X79.101 Y62.809 E453.67121
G1 X79.463 Y61.936 E453.78908
G1 X79.469 Y61.887 E453.79524
G0 F9000 X79.179 Y60.973
G0 X79.181 Y60.968
G0 X78.837 Y62.655
G0 X73.058 Y69.304
G0 X73.058 Y69.304
G1 F1080 X72.306 Y68.995 E453.89664
G1 X71.501 Y68.888 E453.99793
G1 X70.696 Y68.995 E454.09921
G1 X69.944 Y69.304 E454.20062
G1 X69.3 Y69.8 E454.302
G1 X68.804 Y70.444 E454.40339
G1 X68.495 Y71.196 E454.50479
G1 X68.388 Y72.001 E454.60608
G1 X68.495 Y72.806 E454.70737
G1 X68.804 Y73.558 E454.80877
G1 X69.3 Y74.202 E454.91015
G1 X69.944 Y74.698 E455.01154
G1 X70.696 Y75.007 E455.11294
G1 X71.501 Y75.114 E455.21423
G1 X72.306 Y75.007 E455.31552
G1 X73.058 Y74.698 E455.41692
G1 X73.702 Y74.202 E455.5183
G1 X74.198 Y73.558 E455.61969
G1 X74.507 Y72.806 E455.72109
G1 X74.615 Y71.992 E455.82351
G1 X74.496 Y71.169 E455.92723
G1 X74.198 Y70.445 E456.02488
G1 X73.756 Y69.87 E456.11533
G0 F9000 X72.761 Y69.534
G0 X70.775 Y69.289
G0 X69.068 Y70.598
G0 X62.267 Y77.723
G0 X62.267 Y77.723
G1 F1080 X54.267 Y77.723 E457.11314
G1 X54.267 Y85.723 E458.11094
G1 X62.267 Y85.723 E459.10875
G1 X62.267 Y78.623 E459.9943
G0 F9000 X52.267 Y77.723
G1 F1080 X44.267 Y77.723 E460.9921
G1 X44.267 Y78.371 E461.07292
G1 X44.256 Y78.288 E461.08337
G1 X43.897 Y77.417 E461.20087
G1 X43.322 Y76.668 E461.31864
G1 X42.574 Y76.094 E461.43624
G1 X41.702 Y75.732 E461.554
G1 X40.767 Y75.61 E461.67161
G1 X39.832 Y75.732 E461.78921
G1 X38.96 Y76.094 E461.90697
G1 X38.212 Y76.668 E462.02457
G1 X37.637 Y77.417 E462.14235
G1 X37.278 Y78.288 E462.25985
G1 X37.154 Y79.223 E462.37749
G1 X37.278 Y80.157 E462.495
G1 X37.637 Y81.029 E462.61262
G1 X38.213 Y81.779 E462.73057
G1 X38.961 Y82.351 E462.84801
G1 X39.83 Y82.712 E462.96538
G1 X40.767 Y82.836 E463.08327
G1 X41.704 Y82.712 E463.20116
G1 X42.573 Y82.351 E463.31852
G1 X43.321 Y81.779 E463.43597
G1 X43.897 Y81.029 E463.55392
G1 X44.256 Y80.157 E463.67153
G1 X44.267 Y80.074 E463.68198
G1 X44.267 Y85.723 E464.38655
G1 X52.267 Y85.723 E465.38436
G1 X52.267 Y78.623 E466.26991
G0 F9000 X51.757 Y93.123
G0 X51.757 Y93.123
G0 X52.267 Y92.723
G1 F1080 X44.267 Y92.723 E467.26771
G1 X44.267 Y100.723 E468.26551
G1 X52.267 Y100.723 E469.26332
G1 X52.267 Y93.623 E470.14887
G0 F9000 X51.757 Y93.123
G0 X51.757 Y93.023
G0 X51.908 Y93.082
G0 X51.757 Y103.123
G0 X52.267 Y102.723
G1 F1080 X44.267 Y102.723 E471.14667
G1 X44.267 Y110.723 E472.14448
G1 X52.267 Y110.723 E473.14228
G1 X52.267 Y103.623 E474.02783
G0 F9000 X51.757 Y103.123
G0 X51.797 Y103.045
G0 X51.908 Y110.364
G0 X47.1 Y111.869
G0 X47.324 Y111.527
G1 F1080 X46.572 Y111.215 E474.12938
G1 X45.767 Y111.11 E474.23063
G1 X44.962 Y111.215 E474.33189
G1 X44.21 Y111.527 E474.43343
G1 X43.566 Y112.021 E474.53467
G1 X43.071 Y112.666 E474.63607
G1 X42.759 Y113.418 E474.73762
G1 X42.654 Y114.223 E474.83888
G1 X42.759 Y115.028 E474.94013
G1 X43.071 Y115.781 E475.04179
G1 X43.567 Y116.425 E475.14318
G1 X44.21 Y116.918 E475.24423
G1 X44.96 Y117.229 E475.3455
G1 X45.767 Y117.336 E475.44704
G1 X46.574 Y117.229 E475.54857
G1 X47.324 Y116.918 E475.64984
G1 X47.967 Y116.425 E475.7509
G1 X48.464 Y115.78 E475.85246
G1 X48.773 Y115.028 E475.95386
G1 X48.881 Y114.214 E476.05628
G1 X48.762 Y113.391 E476.15999
G1 X48.464 Y112.668 E476.25753
G1 X48.023 Y112.092 E476.34801
G0 F9000 X47.1 Y111.869
G0 X62.759 Y113.418
G0 X62.759 Y113.418
G1 F1080 X62.654 Y114.223 E476.44926
G1 X62.759 Y115.028 E476.55052
G1 X63.071 Y115.781 E476.65218
G1 X63.567 Y116.425 E476.75356
G1 X64.21 Y116.918 E476.85462
G1 X64.96 Y117.229 E476.95589
G1 X65.767 Y117.336 E477.05742
G1 X66.574 Y117.229 E477.15896
G1 X67.324 Y116.918 E477.26023
G1 X67.967 Y116.425 E477.36129
G1 X68.464 Y115.78 E477.46285
G1 X68.773 Y115.028 E477.56425
G1 X68.881 Y114.214 E477.66666
G1 X68.762 Y113.391 E477.77038
G1 X68.464 Y112.668 E477.86792
G1 X67.968 Y112.021 E477.9696
G1 X67.324 Y111.527 E478.07083
G1 X66.572 Y111.215 E478.17238
G1 X65.767 Y111.11 E478.27363
G1 X64.962 Y111.215 E478.37489
G1 X64.21 Y111.527 E478.47643
G1 X63.566 Y112.021 E478.57767
G1 X63.124 Y112.597 E478.66822
G0 F9000 X65.767 Y141.109
G1 F1080 X64.962 Y141.214 E478.76948
G1 X64.21 Y141.526 E478.87102
G1 X63.566 Y142.02 E478.97226
G1 X63.071 Y142.665 E479.07366
G1 X62.759 Y143.417 E479.17521
G1 X62.654 Y144.222 E479.27646
G1 X62.759 Y145.027 E479.37772
G1 X63.071 Y145.78 E479.47938
G1 X63.567 Y146.424 E479.58077
G1 X64.21 Y146.917 E479.68182
G1 X64.96 Y147.228 E479.78309
G1 X65.767 Y147.335 E479.88463
G1 X66.574 Y147.228 E479.98616
G1 X67.324 Y146.917 E480.08743
G1 X67.967 Y146.424 E480.18849
G1 X68.464 Y145.779 E480.29005
G1 X68.773 Y145.027 E480.39145
G1 X68.881 Y144.213 E480.49387
G1 X68.762 Y143.39 E480.59758
G1 X68.464 Y142.667 E480.69512
G1 X67.968 Y142.02 E480.7968
G1 X67.324 Y141.526 E480.89803
G1 X66.655 Y141.249 E480.98834
G0 F9000 X48.762 Y143.39
G1 F1080 X48.464 Y142.667 E481.08588
G1 X47.968 Y142.02 E481.18756
G1 X47.324 Y141.526 E481.2888
G1 X46.572 Y141.214 E481.39034
G1 X45.767 Y141.109 E481.4916
G1 X44.962 Y141.214 E481.59285
G1 X44.21 Y141.526 E481.6944
G1 X43.566 Y142.02 E481.79563
G1 X43.071 Y142.665 E481.89704
G1 X42.759 Y143.417 E481.99858
G1 X42.654 Y144.222 E482.09984
G1 X42.759 Y145.027 E482.20109
G1 X43.071 Y145.78 E482.30275
G1 X43.567 Y146.424 E482.40414
G1 X44.21 Y146.917 E482.5052
G1 X44.96 Y147.228 E482.60646
G1 X45.767 Y147.335 E482.708
G1 X46.574 Y147.228 E482.80953
G1 X47.324 Y146.917 E482.9108
G1 X47.967 Y146.424 E483.01186
G1 X48.464 Y145.779 E483.11342
G1 X48.773 Y145.027 E483.21482
G1 X48.871 Y144.282 E483.30854
G0 F9000 X52.267 Y167.722
G1 F1080 X44.267 Y167.722 E484.30635
G1 X44.267 Y173.927 E485.08027
G1 X44.256 Y173.844 E485.09071
G1 X43.897 Y172.972 E485.20833
G1 X43.321 Y172.222 E485.32628
G1 X42.573 Y171.65 E485.44372
G1 X41.704 Y171.289 E485.56109
G1 X40.767 Y171.165 E485.67898
G1 X39.83 Y171.289 E485.79686
G1 X38.961 Y171.65 E485.91423
G1 X38.213 Y172.222 E486.03168
G1 X37.637 Y172.972 E486.14963
G1 X37.278 Y173.844 E486.26724
G1 X37.154 Y174.778 E486.38476
G1 X37.278 Y175.713 E486.5024
G1 X37.637 Y176.584 E486.6199
G1 X38.212 Y177.333 E486.73767
G1 X38.96 Y177.907 E486.85527
G1 X39.832 Y178.269 E486.97303
G1 X40.767 Y178.391 E487.09064
G1 X41.702 Y178.269 E487.20825
G1 X42.574 Y177.907 E487.32601
G1 X43.322 Y177.333 E487.4436
G1 X43.897 Y176.584 E487.56138
G1 X44.256 Y175.713 E487.67888
G1 X44.267 Y175.63 E487.68932
G1 X44.267 Y175.722 E487.7008
G1 X52.267 Y175.722 E488.6986
G1 X52.267 Y168.622 E489.58415
G0 F9000 X54.267 Y167.722
G1 F1080 X54.267 Y175.722 E490.58196
G1 X62.267 Y175.722 E491.57976
G1 X62.267 Y167.722 E492.57756
G1 X55.167 Y167.722 E493.46312
G1 F1800 E490.46312
G1 Z1.799
G0 F9000 X54.734 Y168.096
G0 X61.908 Y168.081
G0 X69.3 Y179.799
G0 X69.3 Y179.799
G1 Z1.299
G1 F1800 E493.46312
G1 F1080 X68.804 Y180.443 E493.5645
G1 X68.495 Y181.195 E493.6659
G1 X68.388 Y182 E493.76719
G1 X68.495 Y182.805 E493.86848
G1 X68.804 Y183.557 E493.96988
G1 X69.3 Y184.201 E494.07127
G1 X69.944 Y184.697 E494.17265
G1 X70.696 Y185.006 E494.27405
G1 X71.501 Y185.113 E494.37534
G1 X72.306 Y185.006 E494.47663
G1 X73.058 Y184.697 E494.57803
G1 X73.702 Y184.201 E494.67942
G1 X74.198 Y183.557 E494.7808
G1 X74.507 Y182.805 E494.8822
G1 X74.615 Y181.991 E494.98462
G1 X74.496 Y181.168 E495.08834
G1 X74.198 Y180.444 E495.18599
G1 X73.702 Y179.799 E495.28747
G1 X73.058 Y179.303 E495.38886
G1 X72.306 Y178.994 E495.49026
G1 X71.501 Y178.887 E495.59155
G1 X70.696 Y178.994 E495.69284
G1 X70.026 Y179.269 E495.78317
G0 F9000 X63.811 Y196.268
G0 X63.811 Y196.268
G0 X64.455 Y196.345
G1 F1080 X44.656 Y176.546 E499.27548
G1 X14.958 Y206.244 E504.51387
G1 X34.757 Y226.043 E508.00618
G1 X63.818 Y196.982 E513.13221
G0 F9000 X64.417 Y197.104
G1 F1080 X63.668 Y197.679 E513.24998
G1 X63.094 Y198.427 E513.36758
G1 X62.732 Y199.299 E513.48534
G1 X62.61 Y200.234 E513.60295
G1 X62.732 Y201.169 E513.72056
G1 X63.094 Y202.041 E513.83832
G1 X63.668 Y202.789 E513.95591
G1 X64.417 Y203.364 E514.07369
G1 X65.288 Y203.723 E514.19119
G1 X66.223 Y203.847 E514.30883
G1 X67.157 Y203.723 E514.42635
G1 X68.029 Y203.364 E514.54396
G1 X68.779 Y202.788 E514.66191
G1 X69.351 Y202.04 E514.77936
G1 X69.712 Y201.171 E514.89672
G1 X69.836 Y200.234 E515.01461
G1 X69.712 Y199.297 E515.1325
G1 X69.351 Y198.428 E515.24986
G1 X68.779 Y197.68 E515.36731
G1 X68.029 Y197.104 E515.48526
G1 X67.157 Y196.745 E515.60288
G1 X66.223 Y196.621 E515.72039
G1 X65.288 Y196.745 E515.83803
G1 X65.25 Y196.761 E515.84317
G0 F9000 X41.201 Y225.256
G1 F1080 X40.452 Y224.682 E515.96087
G1 X39.581 Y224.322 E516.07842
G1 X38.646 Y224.198 E516.19606
G1 X37.709 Y224.322 E516.31395
G1 X36.84 Y224.683 E516.43131
G1 X36.092 Y225.255 E516.54876
G1 X35.517 Y226.004 E516.66653
G1 X35.155 Y226.877 E516.78441
G1 X35.033 Y227.811 E516.90189
G1 X35.155 Y228.746 E517.0195
G1 X35.517 Y229.618 E517.13726
G1 X36.091 Y230.366 E517.25486
G1 X36.839 Y230.94 E517.37246
G1 X37.711 Y231.302 E517.49022
G1 X38.646 Y231.424 E517.60782
G1 X39.58 Y231.302 E517.72531
G1 X40.453 Y230.94 E517.84318
G1 X41.202 Y230.365 E517.96095
G1 X41.774 Y229.617 E518.0784
G1 X42.135 Y228.748 E518.19577
G1 X42.259 Y227.811 E518.31365
G1 X42.135 Y226.876 E518.43129
G1 X41.775 Y226.005 E518.54884
G1 X41.749 Y225.971 E518.55418
G1 F1800 E515.55418
G1 Z1.799
G0 F9000 X37.82 Y222.552
G0 X34.757 Y225.536
G0 X15.465 Y206.244
G0 X15.746 Y204.909
G0 X15.746 Y204.909
G1 Z1.299
G1 F1800 E518.55418
G1 F1080 X16.318 Y204.161 E518.67163
G1 X16.679 Y203.292 E518.789
G1 X16.803 Y202.355 E518.90688
G1 X16.679 Y201.42 E519.02452
G1 X16.319 Y200.549 E519.14207
G1 X15.745 Y199.8 E519.25977
G1 X14.996 Y199.226 E519.37747
G1 X14.125 Y198.866 E519.49502
G1 X13.19 Y198.742 E519.61265
G1 X12.253 Y198.866 E519.73054
G1 X11.384 Y199.227 E519.84791
G1 X10.636 Y199.799 E519.96536
G1 X10.061 Y200.548 E520.08313
G1 X9.699 Y201.421 E520.201
G1 X9.577 Y202.355 E520.31849
G1 X9.699 Y203.29 E520.43609
G1 X10.061 Y204.162 E520.55385
G1 X10.635 Y204.91 E520.67145
G1 X11.383 Y205.484 E520.78905
G1 X12.255 Y205.846 E520.90681
G1 X13.19 Y205.968 E521.02442
G1 X14.124 Y205.846 E521.1419
G1 X14.997 Y205.484 E521.25978
G1 X15.031 Y205.458 E521.26511
G1 F1800 E518.26511
G1 Z1.799
G0 F9000 X15.735 Y204.304
G0 X40.083 Y169.083
G0 X41.118 Y167.145
G0 X41.757 Y165.043
G0 X41.966 Y162.916
G0 X41.966 Y91.085
G0 X41.757 Y88.958
G0 X41.118 Y86.856
G0 X40.083 Y84.918
G0 X13.19 Y55.259
G0 X13.19 Y55.259
G1 Z1.299
G1 F1800 E521.26511
G1 F1080 X14.125 Y55.135 E521.38275
G1 X14.996 Y54.775 E521.5003
G1 X15.745 Y54.201 E521.618
G1 X16.319 Y53.452 E521.7357
G1 X16.679 Y52.581 E521.85325
G1 X16.803 Y51.646 E521.97089
G1 X16.679 Y50.709 E522.08877
G1 X16.318 Y49.84 E522.20614
G1 X15.746 Y49.092 E522.32359
G1 X14.997 Y48.517 E522.44136
G1 X14.124 Y48.155 E522.55924
G1 X13.19 Y48.033 E522.67672
G1 X12.255 Y48.155 E522.79433
G1 X11.383 Y48.517 E522.91209
G1 X10.635 Y49.091 E523.02968
G1 X10.061 Y49.839 E523.14728
G1 X9.699 Y50.711 E523.26504
G1 X9.577 Y51.646 E523.38265
G1 X9.699 Y52.58 E523.50013
G1 X10.061 Y53.453 E523.61801
G1 X10.636 Y54.202 E523.73578
G1 X11.384 Y54.774 E523.85323
G1 X12.253 Y55.135 E523.9706
G1 X12.297 Y55.14 E523.97612
G1 F1800 E520.97612
G1 Z1.799
G0 F9000 X13.551 Y54.84
G0 X14.843 Y54.511
G0 X16.055 Y53.299
G0 X17.683 Y50.056
G0 X15.465 Y47.757
G0 X34.757 Y28.465
G0 X36.092 Y28.746
G0 X36.092 Y28.746
G1 Z1.299
G1 F1800 E523.97612
G1 F1080 X36.84 Y29.318 E524.09357
G1 X37.709 Y29.679 E524.21093
G1 X38.646 Y29.803 E524.32882
G1 X39.581 Y29.679 E524.44646
G1 X40.452 Y29.319 E524.56401
G1 X41.201 Y28.745 E524.68171
G1 X41.775 Y27.996 E524.7994
G1 X42.135 Y27.125 E524.91695
G1 X42.259 Y26.19 E525.03459
G1 X42.135 Y25.253 E525.15248
G1 X41.774 Y24.384 E525.26984
G1 X41.202 Y23.636 E525.38729
G1 X40.453 Y23.061 E525.50506
G1 X39.58 Y22.699 E525.62294
G1 X38.646 Y22.577 E525.74042
G1 X37.711 Y22.699 E525.85803
G1 X36.839 Y23.061 E525.97579
G1 X36.091 Y23.635 E526.09339
G1 X35.517 Y24.383 E526.21099
G1 X35.155 Y25.255 E526.32875
G1 X35.033 Y26.19 E526.44635
G1 X35.155 Y27.124 E526.56384
G1 X35.517 Y27.997 E526.68171
G1 X35.543 Y28.031 E526.68705
G0 F9000 X34.757 Y27.958
G1 F1080 X14.958 Y47.757 E530.17937
G1 X44.656 Y77.455 E535.41775
G1 X64.455 Y57.656 E538.91007
G1 X35.394 Y28.595 E544.0361
G0 F9000 X63.94 Y51.516
G0 X63.94 Y51.516
G0 X63.668 Y51.212
G1 F1080 X63.094 Y51.96 E544.15369
G1 X62.732 Y52.832 E544.27145
G1 X62.61 Y53.767 E544.38906
G1 X62.732 Y54.701 E544.50654
G1 X63.094 Y55.574 E544.62442
G1 X63.668 Y56.322 E544.74202
G1 X64.417 Y56.897 E544.85979
G1 X65.288 Y57.256 E544.97729
G1 X66.223 Y57.38 E545.09493
G1 X67.157 Y57.256 E545.21245
G1 X68.029 Y56.897 E545.33007
G1 X68.779 Y56.321 E545.44801
G1 X69.352 Y55.573 E545.56554
G1 X69.712 Y54.702 E545.68309
G1 X69.836 Y53.767 E545.80072
G1 X69.712 Y52.83 E545.91861
G1 X69.351 Y51.961 E546.03598
G1 X68.779 Y51.213 E546.15342
G1 X68.029 Y50.637 E546.27137
G1 X67.157 Y50.278 E546.38899
G1 X66.223 Y50.154 E546.50651
G1 X65.288 Y50.278 E546.62415
G1 X64.417 Y50.637 E546.74165
G1 X64.383 Y50.663 E546.74699
G0 F9000 X63.508 Y50.78
; TYPE:FILL
G1 F1080 X41.632 Y28.904 E550.60566
G0 F9000 X40.867 Y29.554
G1 F1080 X62.858 Y51.544 E554.48453
G0 F9000 X62.395 Y52.495
G1 F1080 X39.916 Y30.016 E558.44957
G0 F9000 X38.721 Y30.236
G1 F1080 X62.175 Y53.689 E562.5865
G0 F9000 X63.018 Y53.745
G0 X63.044 Y53.697
G0 X63.358 Y52.112
G0 X64.657 Y50.971
G0 X64.336 Y50.193
G1 F1080 X42.217 Y28.075 E566.48795
G0 F9000 X42.59 Y27.034
G1 F1080 X65.378 Y49.822 E570.50749
G0 F9000 X66.75 Y49.78
G1 F1080 X42.632 Y25.661 E574.76171
G0 F9000 X41.801 Y25.772
G0 X41.899 Y25.767
G0 X40.986 Y23.851
G0 X39.501 Y22.994
G0 X37.79 Y22.994
G0 X36.307 Y23.851
G0 X34.598 Y26.112
G0 X34.598 Y26.112
G1 F1080 X33.79 Y26.011 E574.84174
G1 X34.227 Y27.863 E575.04372
G1 X32.375 Y27.426 E575.24569
G1 X32.813 Y29.278 E575.44745
G1 X30.961 Y28.84 E575.64921
G1 X31.399 Y30.692 E575.85097
G1 X29.547 Y30.254 E576.05273
G1 X29.985 Y32.106 E576.25448
G1 X28.133 Y31.668 E576.45624
G1 X28.57 Y33.52 E576.65798
G1 X26.718 Y33.082 E576.85974
G1 X27.156 Y34.934 E577.0615
G1 X25.304 Y34.497 E577.26323
G1 X25.742 Y36.349 E577.46499
G1 X23.89 Y35.911 E577.66675
G1 X24.328 Y37.763 E577.86851
G1 X22.476 Y37.325 E578.07027
G1 X22.914 Y39.177 E578.27203
G1 X21.062 Y38.739 E578.47379
G1 X21.499 Y40.591 E578.67552
G1 X19.647 Y40.154 E578.87749
G1 X20.085 Y42.005 E579.07915
G1 X18.233 Y41.568 E579.28088
G1 X18.671 Y43.42 E579.48264
G1 X16.819 Y42.982 E579.6844
G1 X17.257 Y44.834 E579.88616
G1 X15.405 Y44.396 E580.08792
G1 X15.842 Y46.248 E580.28966
G1 X13.991 Y45.81 E580.49131
G1 X14.249 Y47.483 E580.69315
G1 X12.576 Y47.225 E580.83166
G1 X12.343 Y47.699 E580.89753
G0 F9000 X13.442 Y48.476
G0 X14.843 Y48.781
G0 X17.177 Y51.118
G0 X17.177 Y51.118
G1 F1080 X41.292 Y75.234 E585.15123
G0 F9000 X39.921 Y75.276
G1 F1080 X17.134 Y52.489 E589.1706
G0 F9000 X16.761 Y53.531
G1 F1080 X38.88 Y75.649 E593.07205
G0 F9000 X38.052 Y76.236
G1 F1080 X16.177 Y54.36 E596.93063
G0 F9000 X15.412 Y55.01
G1 F1080 X37.402 Y77 E600.80942
G0 F9000 X36.939 Y77.952
G1 F1080 X14.459 Y55.471 E604.77472
G0 F9000 X13.266 Y55.692
G1 F1080 X36.72 Y79.146 E608.91173
G0 F9000 X37.738 Y80.163
G0 X38.428 Y81.563
G0 X40.843 Y83.269
G0 X40.843 Y83.269
G1 F1080 X49.855 Y92.282 E610.50143
G0 F9000 X48.441 Y92.282
G1 F1080 X40.749 Y84.589 E611.8583
G0 F9000 X42.037 Y83.049
G1 F1080 X43.826 Y84.838 E612.17386
G0 F9000 X43.827 Y83.425
G1 F1080 X43.38 Y82.271 E612.32173
G1 X43.827 Y82.01 E612.38629
G0 F9000 X44.705 Y84.771
G0 X44.626 Y85.364
G0 X45.15 Y86.162
G0 X45.15 Y86.162
G1 F1080 X51.27 Y92.282 E613.46579
G0 F9000 X52.684 Y92.282
G1 F1080 X46.564 Y86.162 E614.54529
G0 F9000 X47.978 Y86.162
G1 F1080 X159.063 Y197.247 E634.13941
G0 F9000 X158.413 Y198.011
G1 F1080 X52.707 Y92.305 E652.78473
G0 F9000 X52.707 Y93.719
G1 F1080 X157.95 Y198.962 E671.34838
G0 F9000 X157.73 Y200.157
G1 F1080 X52.707 Y95.133 E689.87332
G0 F9000 X52.707 Y96.547
G1 F1080 X67.127 Y110.968 E692.41693
G0 F9000 X65.451 Y110.706
G1 F1080 X52.707 Y97.961 E694.66491
G0 F9000 X52.707 Y99.376
G1 F1080 X64.33 Y110.999 E696.71508
G0 F9000 X63.462 Y111.545
G1 F1080 X52.707 Y100.79 E698.61214
G0 F9000 X51.664 Y101.162
G1 F1080 X62.799 Y112.297 E700.57622
G0 F9000 X62.347 Y113.259
G1 F1080 X52.707 Y103.618 E702.2767
G0 F9000 X52.707 Y105.032
G1 F1080 X62.257 Y114.583 E703.96129
G0 F9000 X65.405 Y117.731
G1 F1080 X145.967 Y198.293 E718.17151
G0 F9000 X144.553 Y198.293
G1 F1080 X52.707 Y106.447 E734.37208
G0 F9000 X52.707 Y107.861
G1 F1080 X143.138 Y198.293 E750.32316
G0 F9000 X141.724 Y198.293
G1 F1080 X52.707 Y109.275 E766.02482
G0 F9000 X52.707 Y110.689
G1 F1080 X140.31 Y198.293 E781.47707
G0 F9000 X138.896 Y198.293
G1 F1080 X51.765 Y111.162 E796.84598
G0 F9000 X50.35 Y111.162
G1 F1080 X137.482 Y198.293 E812.21498
G0 F9000 X136.067 Y198.293
G1 F1080 X48.937 Y111.162 E827.58379
G0 F9000 X48.878 Y112.518
G1 F1080 X134.653 Y198.293 E842.71352
G0 F9000 X133.239 Y198.293
G1 F1080 X49.306 Y114.36 E857.51833
G0 F9000 X49.047 Y115.515
G1 F1080 X131.825 Y198.293 E872.11942
G0 F9000 X130.41 Y198.293
G1 F1080 X48.53 Y116.413 E886.56211
G0 F9000 X47.805 Y117.101
G1 F1080 X128.996 Y198.293 E900.88336
G0 F9000 X127.582 Y198.293
G1 F1080 X46.87 Y117.581 E915.12003
G0 F9000 X45.637 Y117.762
G1 F1080 X126.168 Y198.293 E929.32477
G0 F9000 X124.754 Y198.293
G1 F1080 X68.663 Y142.202 E939.21858
G0 F9000 X67.788 Y141.327
G1 F1080 X42.707 Y116.246 E943.64258
G0 F9000 X42.707 Y117.66
G1 F1080 X65.717 Y140.67 E947.70128
G0 F9000 X64.543 Y140.91
G1 F1080 X42.707 Y119.074 E951.5529
G0 F9000 X42.707 Y120.488
G1 F1080 X63.631 Y141.413 E955.24374
G0 F9000 X62.93 Y142.126
G1 F1080 X42.707 Y121.903 E958.81084
G0 F9000 X42.707 Y123.317
G1 F1080 X62.436 Y143.046 E962.29081
G0 F9000 X62.211 Y144.236
G1 F1080 X42.707 Y124.731 E965.73118
G0 F9000 X42.707 Y126.145
G1 F1080 X63.102 Y146.541 E969.32871
G0 F9000 X63.445 Y146.884
G1 F1080 X114.854 Y198.293 E978.39667
G0 F9000 X113.44 Y198.293
G1 F1080 X42.707 Y127.559 E990.87325
G0 F9000 X42.707 Y128.974
G1 F1080 X112.026 Y198.293 E1003.10032
G0 F9000 X110.612 Y198.293
G1 F1080 X42.707 Y130.388 E1015.07798
G0 F9000 X42.707 Y131.802
G1 F1080 X109.197 Y198.293 E1026.80614
G0 F9000 X107.783 Y198.293
G1 F1080 X42.707 Y133.216 E1038.28489
G0 F9000 X42.707 Y134.631
G1 F1080 X106.369 Y198.293 E1049.51413
G0 F9000 X104.955 Y198.293
G1 F1080 X42.707 Y136.045 E1060.49396
G0 F9000 X42.707 Y137.459
G1 F1080 X45.934 Y140.686 E1061.06317
G0 F9000 X44.684 Y140.851
G1 F1080 X42.707 Y138.873 E1061.41198
G0 F9000 X42.707 Y140.287
G1 F1080 X43.38 Y141.668 E1061.59497
G1 X42.707 Y141.702 E1061.67901
G0 F9000 X41.867 Y141.702
G0 X41.867 Y147.358
G0 X41.867 Y147.358
G0 X42.707 Y147.358
G1 F1080 X62.629 Y167.28 E1065.19303
G0 F9000 X62.706 Y167.358
G1 F1080 X93.641 Y198.293 E1070.6496
G0 F9000 X95.055 Y198.293
G1 F1080 X44.115 Y147.353 E1079.63483
G0 F9000 X44.437 Y146.576
G0 X45.932 Y147.756
G0 X45.932 Y147.756
G1 F1080 X96.469 Y198.293 E1088.54898
G0 F9000 X97.884 Y198.293
G1 F1080 X47.083 Y147.492 E1097.50969
G0 F9000 X47.975 Y146.97
G1 F1080 X99.298 Y198.293 E1106.56248
G0 F9000 X100.712 Y198.293
G1 F1080 X48.66 Y146.241 E1115.74385
G0 F9000 X49.134 Y145.301
G1 F1080 X102.126 Y198.293 E1125.09103
G0 F9000 X103.54 Y198.293
G1 F1080 X49.303 Y144.056 E1134.65782
G0 F9000 X48.483 Y144.575
G0 X47.751 Y146.208
G0 X41.867 Y148.773
G0 X42.707 Y148.773
G1 F1080 X61.214 Y167.28 E1137.92224
G0 F9000 X59.8 Y167.28
G1 F1080 X42.707 Y150.187 E1140.93725
G0 F9000 X42.707 Y151.601
G1 F1080 X58.386 Y167.28 E1143.70284
G0 F9000 X56.972 Y167.28
G1 F1080 X42.707 Y153.015 E1146.21902
G0 F9000 X42.707 Y154.429
G1 F1080 X55.558 Y167.28 E1148.48579
G0 F9000 X54.143 Y167.28
G1 F1080 X42.707 Y155.844 E1150.50297
G0 F9000 X42.707 Y157.258
G1 F1080 X53.827 Y168.378 E1152.46441
G0 F9000 X52.707 Y168.672
G1 F1080 X53.267 Y169.939 E1152.66172
G1 X53.267 Y171.353 E1152.85907
G1 X53.267 Y172.768 E1153.05656
G1 X53.267 Y174.182 E1153.25391
G1 X53.827 Y175.449 E1153.42668
G0 F9000 X54.538 Y176.16
G1 F1080 X76.794 Y198.416 E1157.35238
G0 F9000 X75.554 Y198.59
G1 F1080 X52.707 Y175.743 E1161.38233
G0 F9000 X51.71 Y176.16
G1 F1080 X74.468 Y198.919 E1165.39667
G0 F9000 X73.412 Y199.277
G1 F1080 X50.295 Y176.16 E1169.47424
G0 F9000 X48.881 Y176.16
G1 F1080 X72.49 Y199.769 E1173.6386
G0 F9000 X71.569 Y200.262
G1 F1080 X69.895 Y198.588 E1173.93387
G0 F9000 X70.262 Y200.37
G1 F1080 X70.782 Y200.889 E1174.02551
G0 F9000 X67.156 Y204.334
G1 F1080 X66.727 Y204.613 E1174.0518
G1 X65.617 Y204.21 E1174.19909
G0 F9000 X65.741 Y205.748
G1 F1080 X60.707 Y200.714 E1175.08703
G0 F9000 X61.414 Y200.007
G1 F1080 X62.257 Y200.142 E1175.23366
G1 X62.121 Y199.3 E1175.34004
G0 F9000 X60 Y201.421
G1 F1080 X65.034 Y206.456 E1176.22807
G0 F9000 X64.327 Y207.163
G1 F1080 X59.293 Y202.128 E1177.1161
G0 F9000 X58.585 Y202.835
G1 F1080 X63.62 Y207.87 E1178.00421
G0 F9000 X62.913 Y208.577
G1 F1080 X57.878 Y203.542 E1178.89233
G0 F9000 X57.171 Y204.249
G1 F1080 X62.206 Y209.284 E1179.78044
G0 F9000 X61.499 Y209.991
G1 F1080 X56.464 Y204.957 E1180.66847
G0 F9000 X55.757 Y205.664
G1 F1080 X60.792 Y210.698 E1181.5565
G0 F9000 X60.084 Y211.405
G1 F1080 X55.05 Y206.371 E1182.44444
G0 F9000 X54.343 Y207.078
G1 F1080 X59.377 Y212.112 E1183.33238
G0 F9000 X58.67 Y212.82
G1 F1080 X53.636 Y207.785 E1184.22041
G0 F9000 X52.929 Y208.492
G1 F1080 X57.963 Y213.527 E1185.10843
G0 F9000 X57.256 Y214.234
G1 F1080 X52.221 Y209.199 E1185.99655
G0 F9000 X51.514 Y209.906
G1 F1080 X56.549 Y214.941 E1186.88467
G0 F9000 X55.842 Y215.648
G1 F1080 X50.807 Y210.613 E1187.77278
G0 F9000 X50.1 Y211.32
G1 F1080 X55.135 Y216.355 E1188.6609
G0 F9000 X54.428 Y217.062
G1 F1080 X49.393 Y212.028 E1189.54893
G0 F9000 X48.686 Y212.735
G1 F1080 X53.721 Y217.769 E1190.43695
G0 F9000 X53.013 Y218.476
G1 F1080 X47.979 Y213.442 E1191.32489
G0 F9000 X47.272 Y214.149
G1 F1080 X52.306 Y219.184 E1192.21292
G0 F9000 X51.599 Y219.891
G1 F1080 X46.565 Y214.856 E1193.10095
G0 F9000 X45.857 Y215.563
G1 F1080 X50.892 Y220.598 E1193.98907
G0 F9000 X50.185 Y221.305
G1 F1080 X45.15 Y216.27 E1194.87718
G0 F9000 X44.443 Y216.977
G1 F1080 X49.478 Y222.012 E1195.7653
G0 F9000 X48.771 Y222.719
G1 F1080 X43.736 Y217.684 E1196.65341
G0 F9000 X43.029 Y218.392
G1 F1080 X48.064 Y223.426 E1197.54144
G0 F9000 X47.357 Y224.133
G1 F1080 X42.322 Y219.099 E1198.42947
G0 F9000 X41.615 Y219.806
G1 F1080 X46.649 Y224.84 E1199.31741
G0 F9000 X45.942 Y225.547
G1 F1080 X40.908 Y220.513 E1200.20535
G0 F9000 X40.201 Y221.22
G1 F1080 X45.235 Y226.255 E1201.09338
G0 F9000 X44.528 Y226.962
G1 F1080 X39.494 Y221.927 E1201.98141
G0 F9000 X38.786 Y222.634
G1 F1080 X40.289 Y224.137 E1202.24652
G0 F9000 X38.509 Y223.771
G1 F1080 X38.079 Y223.341 E1202.32236
G0 F9000 X34.692 Y227.025
G1 F1080 X13.975 Y206.308 E1205.97661
G0 F9000 X12.585 Y206.332
G1 F1080 X34.668 Y228.415 E1209.87179
G0 F9000 X35.741 Y229.14
G0 X36.307 Y230.15
G0 X39.583 Y231.744
G0 X39.583 Y231.744
G1 F1080 X39.649 Y231.762 E1209.88033
G0 F9000 X43.114 Y228.376
G1 F1080 X42.685 Y227.947 E1209.956
G0 F9000 X43.821 Y227.669
G1 F1080 X42.318 Y226.166 E1210.22111
G1 F1800 E1207.22111
G1 Z1.799
G0 F9000 X38.263 Y222.111
G0 X34.757 Y225.536
G0 X15.465 Y206.244
G0 X18.365 Y202.213
G0 X18.365 Y202.213
G1 Z1.299
G1 F1800 E1210.22111
G1 F1080 X16.863 Y200.71 E1210.48613
G0 F9000 X17.228 Y202.49
G1 F1080 X17.658 Y202.92 E1210.56198
G0 F9000 X19.072 Y201.506
G1 F1080 X14.038 Y196.471 E1211.45001
G0 F9000 X14.745 Y195.764
G1 F1080 X19.779 Y200.799 E1212.33803
G0 F9000 X20.487 Y200.092
G1 F1080 X15.452 Y195.057 E1213.22615
G0 F9000 X16.159 Y194.35
G1 F1080 X21.194 Y199.385 E1214.11427
G0 F9000 X21.901 Y198.677
G1 F1080 X16.866 Y193.643 E1215.00229
G0 F9000 X17.573 Y192.936
G1 F1080 X22.608 Y197.97 E1215.89032
G0 F9000 X23.315 Y197.263
G1 F1080 X18.28 Y192.229 E1216.77835
G0 F9000 X18.987 Y191.521
G1 F1080 X24.022 Y196.556 E1217.66647
G0 F9000 X24.729 Y195.849
G1 F1080 X19.695 Y190.814 E1218.55449
G0 F9000 X20.402 Y190.107
G1 F1080 X25.436 Y195.142 E1219.44252
G0 F9000 X26.143 Y194.435
G1 F1080 X21.109 Y189.4 E1220.33055
G0 F9000 X21.816 Y188.693
G1 F1080 X26.85 Y193.728 E1221.21858
G0 F9000 X27.558 Y193.021
G1 F1080 X22.523 Y187.986 E1222.10669
G0 F9000 X23.23 Y187.279
G1 F1080 X28.265 Y192.313 E1222.99472
G0 F9000 X28.972 Y191.606
G1 F1080 X23.937 Y186.572 E1223.88275
G0 F9000 X24.644 Y185.865
G1 F1080 X29.679 Y190.899 E1224.77078
G0 F9000 X30.386 Y190.192
G1 F1080 X25.351 Y185.158 E1225.65881
G0 F9000 X26.059 Y184.45
G1 F1080 X31.093 Y189.485 E1226.54683
G0 F9000 X31.8 Y188.778
G1 F1080 X26.766 Y183.743 E1227.43486
G0 F9000 X27.473 Y183.036
G1 F1080 X32.507 Y188.071 E1228.32289
G0 F9000 X33.214 Y187.364
G1 F1080 X28.18 Y182.329 E1229.21092
G0 F9000 X28.887 Y181.622
G1 F1080 X33.922 Y186.657 E1230.09903
G0 F9000 X34.629 Y185.949
G1 F1080 X29.594 Y180.915 E1230.98706
G0 F9000 X30.301 Y180.208
G1 F1080 X35.336 Y185.242 E1231.87509
G0 F9000 X36.043 Y184.535
G1 F1080 X31.008 Y179.501 E1232.76312
G0 F9000 X31.715 Y178.794
G1 F1080 X36.75 Y183.828 E1233.65115
G0 F9000 X37.457 Y183.121
G1 F1080 X32.422 Y178.086 E1234.53926
G0 F9000 X33.13 Y177.379
G1 F1080 X38.164 Y182.414 E1235.42729
G0 F9000 X38.871 Y181.707
G1 F1080 X33.837 Y176.672 E1236.31532
G0 F9000 X34.544 Y175.965
G1 F1080 X39.578 Y181 E1237.20335
G0 F9000 X40.285 Y180.293
G1 F1080 X35.251 Y175.258 E1238.09137
G0 F9000 X35.958 Y174.551
G1 F1080 X36.802 Y174.687 E1238.23798
G1 X36.665 Y173.844 E1238.34451
G0 F9000 X40.11 Y170.218
G1 F1080 X40.631 Y170.738 E1238.43632
G0 F9000 X40.737 Y169.431
G1 F1080 X42.411 Y171.104 E1238.7315
G0 F9000 X43.827 Y171.106
G1 F1080 X41.229 Y168.509 E1239.18967
G0 F9000 X41.722 Y167.587
G1 F1080 X43.827 Y169.692 E1239.56097
G0 F9000 X43.827 Y168.277
G1 F1080 X42.079 Y166.53 E1239.86921
G0 F9000 X42.409 Y165.446
G1 F1080 X44.244 Y167.28 E1240.19279
G0 F9000 X45.658 Y167.28
G1 F1080 X42.583 Y164.205 E1240.73519
G0 F9000 X42.707 Y162.915
G1 F1080 X47.072 Y167.28 E1241.50513
G0 F9000 X48.487 Y167.28
G1 F1080 X42.707 Y161.501 E1242.52456
G0 F9000 X42.707 Y160.086
G1 F1080 X49.901 Y167.28 E1243.7935
G0 F9000 X51.315 Y167.28
G1 F1080 X42.707 Y158.672 E1245.31185
G0 F9000 X41.867 Y158.672
G0 X44.719 Y170.594
G0 X44.626 Y175.363
G0 X46.053 Y176.161
G0 X46.053 Y176.161
G1 F1080 X66.086 Y196.194 E1248.84544
G0 F9000 X67.867 Y196.56
G1 F1080 X47.468 Y176.161 E1252.44359
G0 F9000 X44.995 Y177.325
G0 X44.656 Y177.053
G0 X41.7 Y178.878
G0 X41.7 Y178.878
G1 F1080 X41.272 Y179.158 E1252.46956
G1 X40.162 Y178.755 E1252.61684
G0 F9000 X43.544 Y178.198
G0 X44.656 Y177.053
G0 X55.952 Y176.16
G0 X55.952 Y176.16
G1 F1080 X78.085 Y198.293 E1256.52085
G0 F9000 X79.499 Y198.293
G1 F1080 X57.366 Y176.16 E1260.42486
G0 F9000 X58.781 Y176.16
G1 F1080 X80.913 Y198.293 E1264.32878
G0 F9000 X82.327 Y198.293
G1 F1080 X60.195 Y176.16 E1268.23269
G0 F9000 X61.609 Y176.16
G1 F1080 X68.02 Y182.571 E1269.36352
G0 F9000 X68.05 Y181.187
G1 F1080 X62.706 Y175.844 E1270.30605
G0 F9000 X62.706 Y174.429
G1 F1080 X68.454 Y180.177 E1271.31993
G0 F9000 X69.093 Y179.402
G1 F1080 X62.706 Y173.015 E1272.44653
G0 F9000 X62.706 Y171.601
G1 F1080 X69.936 Y178.83 E1273.72173
G0 F9000 X71.024 Y178.504
G1 F1080 X62.706 Y170.187 E1275.18884
G0 F9000 X62.706 Y168.772
G1 F1080 X72.554 Y178.62 E1276.92591
G0 F9000 X74.881 Y180.947
G1 F1080 X92.227 Y198.293 E1279.98555
G0 F9000 X90.813 Y198.293
G1 F1080 X74.995 Y182.475 E1282.77566
G0 F9000 X74.669 Y183.564
G1 F1080 X89.398 Y198.293 E1285.37369
G0 F9000 X87.984 Y198.293
G1 F1080 X74.098 Y184.407 E1287.82302
G0 F9000 X73.323 Y185.046
G1 F1080 X86.57 Y198.293 E1290.15964
G0 F9000 X85.156 Y198.293
G1 F1080 X72.312 Y185.449 E1292.42517
G0 F9000 X70.929 Y185.48
G1 F1080 X83.741 Y198.293 E1294.68515
G0 F9000 X116.268 Y198.293
G1 F1080 X65.751 Y147.776 E1303.59577
G0 F9000 X66.941 Y147.551
G1 F1080 X117.683 Y198.293 E1312.54607
G0 F9000 X119.097 Y198.293
G1 F1080 X67.861 Y147.057 E1321.58351
G0 F9000 X68.573 Y146.355
G1 F1080 X120.511 Y198.293 E1330.74478
G0 F9000 X121.925 Y198.293
G1 F1080 X69.076 Y145.444 E1340.06674
G0 F9000 X69.317 Y144.27
G1 F1080 X123.339 Y198.293 E1349.59568
G0 F9000 X147.381 Y198.293
G1 F1080 X66.729 Y117.641 E1363.82177
G0 F9000 X67.691 Y117.188
G1 F1080 X148.795 Y198.293 E1378.12767
G0 F9000 X150.238 Y198.321
G1 F1080 X68.442 Y116.526 E1392.55546
G0 F9000 X68.988 Y115.657
G1 F1080 X151.807 Y198.476 E1407.16378
G0 F9000 X153.722 Y198.977
G1 F1080 X69.283 Y114.537 E1422.05793
G0 F9000 X69.019 Y112.859
G1 F1080 X156.41 Y200.251 E1437.47279
G0 F9000 X159.89 Y196.66
G1 F1080 X49.392 Y86.161 E1456.96345
G0 F9000 X50.806 Y86.161
G1 F1080 X160.933 Y196.288 E1476.38859
G0 F9000 X162.305 Y196.246
G1 F1080 X52.22 Y86.161 E1495.80632
G0 F9000 X52.707 Y85.233
G1 F1080 X163.37 Y195.897 E1515.32609
G0 F9000 X164.077 Y195.19
G1 F1080 X55.049 Y86.162 E1534.55737
G0 F9000 X56.463 Y86.162
G1 F1080 X153.04 Y182.739 E1551.59245
G0 F9000 X153.032 Y181.317
G1 F1080 X57.878 Y86.162 E1568.37661
G0 F9000 X59.291 Y86.161
G1 F1080 X153.399 Y180.269 E1584.97617
G0 F9000 X154.009 Y179.465
G1 F1080 X60.705 Y86.161 E1601.43393
G0 F9000 X62.12 Y86.161
G1 F1080 X154.831 Y178.873 E1617.78717
G0 F9000 X155.895 Y178.522
G1 F1080 X62.706 Y85.334 E1634.22455
G0 F9000 X62.706 Y83.92
G1 F1080 X157.339 Y178.552 E1650.91664
G0 F9000 X159.938 Y181.151
G1 F1080 X169.027 Y190.24 E1652.51983
G0 F9000 X169.734 Y189.533
G1 F1080 X62.706 Y82.505 E1671.39834
G0 F9000 X62.706 Y81.091
G1 F1080 X170.441 Y188.826 E1690.40155
G0 F9000 X171.148 Y188.118
G1 F1080 X164.19 Y181.161 E1691.62878
G0 F9000 X163.826 Y180.796
G1 F1080 X62.706 Y79.677 E1709.46509
G0 F9000 X62.706 Y78.263
G1 F1080 X163.826 Y179.382 E1727.30141
G0 F9000 X163.826 Y177.968
G1 F1080 X54.295 Y68.437 E1746.62142
G0 F9000 X55.002 Y67.73
G1 F1080 X163.826 Y176.553 E1765.81664
G0 F9000 X163.826 Y175.139
G1 F1080 X55.709 Y67.023 E1784.88714
G0 F9000 X56.416 Y66.316
G1 F1080 X163.826 Y173.725 E1803.83294
G0 F9000 X163.826 Y172.311
G1 F1080 X57.123 Y65.608 E1822.65413
G0 F9000 X57.83 Y64.901
G1 F1080 X165.21 Y172.281 E1841.59472
G0 F9000 X166.624 Y172.281
G1 F1080 X58.537 Y64.194 E1860.66003
G0 F9000 X59.244 Y63.487
G1 F1080 X67.972 Y72.215 E1862.19955
G0 F9000 X68.12 Y70.948
G1 F1080 X59.952 Y62.78 E1863.64029
G0 F9000 X60.659 Y62.073
G1 F1080 X68.588 Y70.002 E1865.03887
G0 F9000 X69.268 Y69.268
G1 F1080 X61.366 Y61.366 E1866.43269
G0 F9000 X62.073 Y60.659
G1 F1080 X70.155 Y68.741 E1867.85827
G0 F9000 X71.298 Y68.47
G1 F1080 X62.78 Y59.952 E1869.36074
G0 F9000 X63.487 Y59.244
G1 F1080 X73.081 Y68.838 E1871.05301
G0 F9000 X74.661 Y70.419
G1 F1080 X176.524 Y172.282 E1889.02048
G0 F9000 X175.11 Y172.282
G1 F1080 X75.031 Y72.202 E1906.67335
G0 F9000 X74.759 Y73.345
G1 F1080 X173.825 Y172.411 E1924.14745
G0 F9000 X172.705 Y172.705
G1 F1080 X173.265 Y173.972 E1924.34476
G1 X173.265 Y175.386 E1924.54211
G1 X173.265 Y176.8 E1924.73946
G1 X173.265 Y178.215 E1924.93677
G1 X173.265 Y179.629 E1925.13412
G1 X173.825 Y180.897 E1925.30701
G0 F9000 X174.09 Y181.161
G1 F1080 X176.097 Y183.168 E1925.66102
G0 F9000 X176.804 Y182.461
G1 F1080 X176.211 Y181.161 E1925.89038
G1 X177.512 Y181.754 E1926.06871
G0 F9000 X175.39 Y183.876
G1 F1080 X172.676 Y181.161 E1926.54752
G0 F9000 X171.261 Y181.161
G1 F1080 X174.683 Y184.583 E1927.15112
G0 F9000 X173.976 Y185.29
G1 F1080 X169.847 Y181.161 E1927.87943
G0 F9000 X168.433 Y181.161
G1 F1080 X173.269 Y185.997 E1928.73244
G0 F9000 X172.562 Y186.704
G1 F1080 X167.019 Y181.161 E1929.71017
G0 F9000 X165.605 Y181.161
G1 F1080 X171.855 Y187.411 E1930.81259
G0 F9000 X168.32 Y190.947
G1 F1080 X159.976 Y182.603 E1932.28438
G0 F9000 X159.625 Y183.667
G1 F1080 X167.613 Y191.654 E1933.69328
G0 F9000 X166.906 Y192.362
G1 F1080 X159.033 Y184.489 E1935.08199
G0 F9000 X158.229 Y185.1
G1 F1080 X166.199 Y193.069 E1936.48772
G0 F9000 X165.491 Y193.776
G1 F1080 X157.182 Y185.466 E1937.95342
G0 F9000 X155.76 Y185.458
G1 F1080 X164.784 Y194.483 E1939.54524
G0 F9000 X164.957 Y195.405
G0 X164.053 Y196.345
G0 X165.766 Y199.707
G0 X165.766 Y199.707
G1 F1080 X189.882 Y223.823 E1943.79902
G0 F9000 X188.51 Y223.865
G1 F1080 X165.723 Y201.079 E1947.8183
G0 F9000 X165.35 Y202.12
G1 F1080 X187.468 Y224.238 E1951.71966
G0 F9000 X186.639 Y224.823
G1 F1080 X164.764 Y202.948 E1955.57816
G0 F9000 X163.999 Y203.597
G1 F1080 X185.99 Y225.588 E1959.45712
G0 F9000 X185.528 Y226.54
G1 F1080 X163.048 Y204.06 E1963.42233
G0 F9000 X161.853 Y204.28
G1 F1080 X185.307 Y227.734 E1967.55935
G0 F9000 X186.05 Y227.819
G0 X186.49 Y229.464
G0 X187.702 Y230.676
G0 X189.355 Y231.119
G0 X191.01 Y230.676
G0 X193.301 Y228.656
G0 X193.301 Y228.656
G1 F1080 X193.774 Y228.422 E1967.58041
G1 X193.516 Y226.75 E1967.71904
G1 X195.188 Y227.008 E1967.92098
G1 X194.75 Y225.156 E1968.12274
G1 X196.602 Y225.594 E1968.3245
G1 X196.165 Y223.742 E1968.52623
G1 X198.017 Y224.179 E1968.72797
G1 X197.579 Y222.328 E1968.92962
G1 X199.431 Y222.765 E1969.13159
G1 X198.993 Y220.913 E1969.33335
G1 X200.845 Y221.351 E1969.53511
G1 X200.407 Y219.499 E1969.73687
G1 X202.259 Y219.937 E1969.93863
G1 X201.821 Y218.085 E1970.14039
G1 X203.673 Y218.523 E1970.34215
G1 X203.236 Y216.671 E1970.54388
G1 X205.088 Y217.108 E1970.74562
G1 X204.65 Y215.256 E1970.94738
G1 X206.502 Y215.694 E1971.14914
G1 X206.064 Y213.842 E1971.3509
G1 X207.916 Y214.28 E1971.55266
G1 X207.478 Y212.428 E1971.75441
G1 X209.33 Y212.866 E1971.95617
G1 X208.893 Y211.014 E1972.15815
G1 X210.744 Y211.452 E1972.3598
G1 X210.307 Y209.6 E1972.56154
G1 X212.159 Y210.037 E1972.76327
G1 X211.721 Y208.185 E1972.96503
G1 X213.573 Y208.623 E1973.16679
G1 X213.135 Y206.771 E1973.36855
G1 X214.987 Y207.209 E1973.57031
G1 X214.887 Y206.402 E1973.67173
G0 F9000 X213.866 Y205.382
G0 X212.471 Y204.694
G0 X210.763 Y202.278
G0 X210.763 Y202.278
G1 F1080 X187.31 Y178.825 E1977.80857
G0 F9000 X188.504 Y178.605
G1 F1080 X210.983 Y201.084 E1981.77361
G0 F9000 X211.446 Y200.132
G1 F1080 X189.455 Y178.142 E1985.65248
G0 F9000 X190.22 Y177.492
G1 F1080 X212.095 Y199.368 E1989.51107
G0 F9000 X212.924 Y198.782
G1 F1080 X190.806 Y176.664 E1993.41243
G0 F9000 X191.178 Y175.621
G1 F1080 X213.966 Y198.409 E1997.43197
G0 F9000 X215.338 Y198.367
G1 F1080 X191.22 Y174.249 E2001.68611
G0 F9000 X187.761 Y170.791
G1 F1080 X79.635 Y62.665 E2020.75829
G0 F9000 X79.094 Y63.537
G1 F1080 X186.388 Y170.832 E2039.68381
G0 F9000 X185.348 Y171.206
G1 F1080 X78.371 Y64.229 E2058.55332
G0 F9000 X77.464 Y64.737
G1 F1080 X184.518 Y171.79 E2077.43633
G0 F9000 X183.868 Y172.555
G1 F1080 X76.325 Y65.012 E2096.40567
G0 F9000 X74.747 Y64.848
G1 F1080 X182.181 Y172.282 E2115.3558
G0 F9000 X182.705 Y172.805
G1 F1080 X183.055 Y173.863 E2115.4795
G1 X182.945 Y175.167 E2115.56421
G1 X183.169 Y176.098 E2115.68364
G0 F9000 X181.871 Y174.037
G0 X181.907 Y173.081
G0 X180.767 Y172.282
G0 X180.767 Y172.282
G1 F1080 X66.299 Y57.813 E2135.87457
G0 F9000 X67.493 Y57.593
G1 F1080 X72.125 Y62.226 E2136.69169
G0 F9000 X71.96 Y60.647
G1 F1080 X68.445 Y57.131 E2137.31179
G0 F9000 X69.209 Y56.481
G1 F1080 X72.235 Y59.507 E2137.84554
G0 F9000 X72.743 Y58.601
G1 F1080 X69.794 Y55.652 E2138.36571
G0 F9000 X70.167 Y54.611
G1 F1080 X73.435 Y57.878 E2138.94206
G0 F9000 X74.307 Y57.337
G1 F1080 X70.209 Y53.238 E2139.66498
G0 F9000 X73.153 Y53.631
G0 X73.153 Y53.631
G0 X72.757 Y54.372
G1 F1080 X75.403 Y57.018 E2140.13171
G0 F9000 X76.859 Y57.06
G1 F1080 X75.057 Y55.258 E2140.44956
G0 F9000 X75.301 Y54.453
G0 X76.878 Y54.747
G0 X76.878 Y54.747
G0 X76.796 Y55.583
G1 F1080 X185.416 Y164.203 E2159.60888
G0 F9000 X185.293 Y162.665
G1 F1080 X78.334 Y55.707 E2178.47513
G0 F9000 X79.748 Y55.707
G1 F1080 X178.825 Y154.783 E2195.95108
G0 F9000 X178.825 Y153.369
G1 F1080 X81.163 Y55.707 E2213.17754
G0 F9000 X82.577 Y55.707
G1 F1080 X178.825 Y151.955 E2230.15458
G0 F9000 X178.825 Y150.54
G1 F1080 X83.991 Y55.707 E2246.88212
G0 F9000 X85.405 Y55.707
G1 F1080 X178.825 Y149.126 E2263.36024
G0 F9000 X178.825 Y147.712
G1 F1080 X86.819 Y55.707 E2279.58896
G0 F9000 X88.234 Y55.707
G1 F1080 X179.809 Y147.282 E2295.74173
G0 F9000 X180.103 Y146.162
G1 F1080 X181.37 Y146.722 E2295.93904
G1 X182.784 Y146.721 E2296.13639
G1 X184.198 Y146.721 E2296.33374
G1 X185.293 Y147.109 E2296.47863
G0 F9000 X179.996 Y145.286
G0 X179.625 Y145.363
G0 X178.825 Y144.884
G0 X178.825 Y144.884
G1 F1080 X89.648 Y55.707 E2312.20843
G0 F9000 X91.062 Y55.707
G1 F1080 X178.825 Y143.469 E2327.68873
G0 F9000 X178.825 Y142.055
G1 F1080 X92.476 Y55.707 E2342.91961
G0 F9000 X93.891 Y55.707
G1 F1080 X178.825 Y140.642 E2357.90108
G0 F9000 X178.825 Y139.227
G1 F1080 X95.305 Y55.707 E2372.63305
G0 F9000 X96.719 Y55.707
G1 F1080 X178.825 Y137.813 E2387.1156
G0 F9000 X179.708 Y137.281
G1 F1080 X98.133 Y55.707 E2401.50441
G0 F9000 X99.547 Y55.707
G1 F1080 X181.122 Y137.281 E2415.89321
G0 F9000 X182.536 Y137.281
G1 F1080 X100.962 Y55.707 E2430.28193
G0 F9000 X102.376 Y55.707
G1 F1080 X183.951 Y137.281 E2444.67073
G0 F9000 X185.293 Y137.209
G1 F1080 X103.79 Y55.707 E2459.04683
G0 F9000 X105.204 Y55.707
G1 F1080 X185.293 Y135.795 E2473.17352
G0 F9000 X185.293 Y134.381
G1 F1080 X106.618 Y55.707 E2487.0508
G0 F9000 X108.033 Y55.707
G1 F1080 X185.293 Y132.967 E2500.67858
G0 F9000 X185.293 Y131.552
G1 F1080 X109.447 Y55.707 E2514.05685
G0 F9000 X110.861 Y55.707
G1 F1080 X185.293 Y130.138 E2527.18571
G0 F9000 X185.293 Y128.724
G1 F1080 X112.275 Y55.707 E2540.06516
G0 F9000 X113.69 Y55.707
G1 F1080 X185.293 Y127.31 E2552.69511
G0 F9000 X185.293 Y125.896
G1 F1080 X115.104 Y55.707 E2565.07564
G0 F9000 X116.518 Y55.707
G1 F1080 X185.293 Y124.481 E2577.20667
G0 F9000 X185.293 Y123.067
G1 F1080 X117.932 Y55.707 E2589.08829
G0 F9000 X119.346 Y55.707
G1 F1080 X185.293 Y121.653 E2600.72049
G0 F9000 X185.293 Y120.239
G1 F1080 X120.761 Y55.707 E2612.10319
G0 F9000 X122.175 Y55.707
G1 F1080 X185.293 Y118.825 E2623.23648
G0 F9000 X185.293 Y117.41
G1 F1080 X123.589 Y55.707 E2634.12027
G0 F9000 X125.003 Y55.707
G1 F1080 X185.293 Y115.996 E2644.75465
G0 F9000 X185.293 Y114.582
G1 F1080 X126.417 Y55.707 E2655.13961
G0 F9000 X127.832 Y55.707
G1 F1080 X185.293 Y113.168 E2665.27507
G0 F9000 X185.293 Y111.753
G1 F1080 X164.702 Y91.163 E2668.907
G0 F9000 X163.825 Y90.286
G1 F1080 X129.246 Y55.707 E2675.00633
G0 F9000 X130.66 Y55.707
G1 F1080 X163.825 Y88.872 E2680.85626
G0 F9000 X163.825 Y87.457
G1 F1080 X132.074 Y55.707 E2686.45668
G0 F9000 X133.489 Y55.707
G1 F1080 X163.825 Y86.043 E2691.8076
G0 F9000 X163.825 Y84.629
G1 F1080 X134.903 Y55.707 E2696.90911
G0 F9000 X136.317 Y55.707
G1 F1080 X152.993 Y72.382 E2699.85048
G0 F9000 X153.076 Y71.052
G1 F1080 X137.731 Y55.707 E2702.55716
G0 F9000 X139.145 Y55.707
G1 F1080 X153.523 Y70.084 E2705.09318
G0 F9000 X154.184 Y69.331
G1 F1080 X140.56 Y55.707 E2707.4963
G0 F9000 X141.974 Y55.707
G1 F1080 X148.242 Y61.975 E2708.60191
G0 F9000 X148.179 Y60.498
G1 F1080 X143.388 Y55.707 E2709.44698
G0 F9000 X144.802 Y55.707
G1 F1080 X148.484 Y59.389 E2710.09644
G0 F9000 X149.015 Y58.506
G1 F1080 X146.216 Y55.707 E2710.59016
G0 F9000 X147.631 Y55.707
G1 F1080 X149.729 Y57.805 E2710.96022
G0 F9000 X150.625 Y57.287
G1 F1080 X149.045 Y55.707 E2711.23891
G0 F9000 X150.413 Y55.661
G1 F1080 X151.752 Y56.999 E2711.47501
G0 F9000 X151.701 Y55.534
G1 F1080 X153.269 Y57.103 E2711.75167
G0 F9000 X152.863 Y55.282
G1 F1080 X179.863 Y82.283 E2716.51425
G0 F9000 X178.449 Y82.283
G1 F1080 X156.07 Y59.903 E2720.46174
G0 F9000 X156.172 Y61.42
G1 F1080 X177.035 Y82.283 E2724.14173
G0 F9000 X175.621 Y82.283
G1 F1080 X155.884 Y62.546 E2727.62311
G0 F9000 X155.366 Y63.442
G1 F1080 X174.207 Y82.283 E2730.94645
G0 F9000 X173.825 Y83.315
G1 F1080 X154.666 Y64.156 E2734.32588
G0 F9000 X153.782 Y64.687
G1 F1080 X157.831 Y68.736 E2735.04007
G0 F9000 X156.169 Y68.488
G1 F1080 X152.673 Y64.992 E2735.65673
G0 F9000 X151.197 Y64.93
G1 F1080 X155.05 Y68.783 E2736.33635
G0 F9000 X156.423 Y69.331
G0 X157.903 Y69.568
G0 X159.764 Y70.668
G0 X159.764 Y70.668
G1 F1080 X171.378 Y82.283 E2738.38502
G0 F9000 X169.964 Y82.283
G1 F1080 X160.012 Y72.331 E2740.14043
G0 F9000 X159.716 Y73.449
G1 F1080 X168.55 Y82.283 E2741.69865
G0 F9000 X167.136 Y82.283
G1 F1080 X159.168 Y74.315 E2743.10411
G0 F9000 X158.415 Y74.976
G1 F1080 X165.721 Y82.283 E2744.3929
G0 F9000 X164.307 Y82.283
G1 F1080 X157.447 Y75.423 E2745.60292
G0 F9000 X156.117 Y75.507
G1 F1080 X163.825 Y83.215 E2746.96252
G0 F9000 X164.709 Y86.285
G0 X164.625 Y90.364
G0 X166.116 Y91.163
G0 X166.116 Y91.163
G1 F1080 X185.293 Y110.339 E2750.34504
G0 F9000 X185.293 Y108.925
G1 F1080 X167.53 Y91.163 E2753.47814
G0 F9000 X168.944 Y91.163
G1 F1080 X185.293 Y107.511 E2756.36183
G0 F9000 X185.293 Y106.097
G1 F1080 X170.358 Y91.163 E2758.9961
G0 F9000 X171.773 Y91.163
G1 F1080 X185.293 Y104.682 E2761.38078
G0 F9000 X185.293 Y103.268
G1 F1080 X172.705 Y90.68 E2763.60116
G0 F9000 X173.825 Y90.386
G1 F1080 X173.265 Y89.119 E2763.79847
G1 X173.265 Y87.705 E2763.99582
G1 X173.265 Y86.29 E2764.19313
G1 X173.265 Y84.876 E2764.39048
G1 X172.705 Y83.609 E2764.56326
G0 F9000 X174.601 Y91.163
G1 F1080 X185.293 Y101.854 E2766.44911
G0 F9000 X185.293 Y100.44
G1 F1080 X176.015 Y91.163 E2768.08556
G0 F9000 X177.43 Y91.163
G1 F1080 X185.293 Y99.026 E2769.4725
G0 F9000 X185.293 Y97.611
G1 F1080 X178.844 Y91.163 E2770.60994
G0 F9000 X180.258 Y91.163
G1 F1080 X185.293 Y96.197 E2771.49797
G0 F9000 X185.293 Y94.783
G1 F1080 X181.672 Y91.163 E2772.13659
G0 F9000 X182.705 Y90.781
G1 F1080 X185.293 Y93.369 E2772.59308
G0 F9000 X185.293 Y91.954
G1 F1080 X182.705 Y89.366 E2773.04957
G0 F9000 X182.705 Y87.952
G1 F1080 X185.339 Y90.586 E2773.51418
G0 F9000 X185.465 Y89.299
G1 F1080 X182.705 Y86.538 E2774.0011
G0 F9000 X182.705 Y85.124
G1 F1080 X185.717 Y88.136 E2774.53238
G0 F9000 X186.046 Y87.051
G1 F1080 X182.705 Y83.71 E2775.1217
G0 F9000 X182.705 Y82.295
G1 F1080 X186.466 Y86.057 E2775.78518
G0 F9000 X186.959 Y85.136
G1 F1080 X155.864 Y54.04 E2781.27007
G0 F9000 X156.74 Y53.502
G1 F1080 X157.815 Y53.871 E2781.46215
G1 X157.516 Y52.864 E2781.59317
G0 F9000 X154.941 Y54.532
G1 F1080 X182.692 Y82.283 E2786.48813
G0 F9000 X181.278 Y82.283
G1 F1080 X153.948 Y54.953 E2791.30883
G0 F9000 X160.952 Y57.714
G1 F1080 X183.285 Y80.048 E2795.2482
G0 F9000 X183.258 Y78.606
G1 F1080 X162.394 Y57.742 E2798.92837
G0 F9000 X165.794 Y54.071
G1 F1080 X166.504 Y54.074 E2798.99116
G1 X165.584 Y52.447 E2799.22428
G0 F9000 X167.565 Y53.013
G1 F1080 X162.53 Y47.979 E2800.11231
G0 F9000 X163.237 Y47.272
G1 F1080 X168.272 Y52.306 E2801.00034
G0 F9000 X168.979 Y51.599
G1 F1080 X163.944 Y46.565 E2801.88836
G0 F9000 X164.651 Y45.857
G1 F1080 X169.686 Y50.892 E2802.77648
G0 F9000 X170.393 Y50.185
G1 F1080 X165.359 Y45.15 E2803.66451
G0 F9000 X166.066 Y44.443
G1 F1080 X171.1 Y49.478 E2804.55254
G0 F9000 X171.807 Y48.771
G1 F1080 X166.773 Y43.736 E2805.44056
G0 F9000 X167.48 Y43.029
G1 F1080 X172.514 Y48.064 E2806.32859
G0 F9000 X173.222 Y47.357
G1 F1080 X168.187 Y42.322 E2807.21671
G0 F9000 X168.894 Y41.615
G1 F1080 X173.929 Y46.649 E2808.10473
G0 F9000 X174.636 Y45.942
G1 F1080 X169.601 Y40.908 E2808.99276
G0 F9000 X170.308 Y40.201
G1 F1080 X175.343 Y45.235 E2809.88079
G0 F9000 X176.05 Y44.528
G1 F1080 X171.015 Y39.494 E2810.76882
G0 F9000 X171.723 Y38.786
G1 F1080 X176.757 Y43.821 E2811.65685
G0 F9000 X177.464 Y43.114
G1 F1080 X172.43 Y38.079 E2812.54487
G0 F9000 X173.137 Y37.372
G1 F1080 X178.171 Y42.407 E2813.4329
G0 F9000 X178.878 Y41.7
G1 F1080 X173.844 Y36.665 E2814.32093
G0 F9000 X174.551 Y35.958
G1 F1080 X179.586 Y40.993 E2815.20905
G0 F9000 X180.293 Y40.285
G1 F1080 X175.258 Y35.251 E2816.09707
G0 F9000 X175.965 Y34.544
G1 F1080 X181 Y39.578 E2816.9851
G0 F9000 X181.707 Y38.871
G1 F1080 X176.672 Y33.837 E2817.87313
G0 F9000 X177.379 Y33.13
G1 F1080 X182.414 Y38.164 E2818.76116
G0 F9000 X183.121 Y37.457
G1 F1080 X178.086 Y32.422 E2819.64927
G0 F9000 X178.794 Y31.715
G1 F1080 X183.828 Y36.75 E2820.5373
G0 F9000 X184.535 Y36.043
G1 F1080 X179.501 Y31.008 E2821.42533
G0 F9000 X180.208 Y30.301
G1 F1080 X185.242 Y35.336 E2822.31336
G0 F9000 X185.949 Y34.629
G1 F1080 X180.915 Y29.594 E2823.20139
G0 F9000 X181.622 Y28.887
G1 F1080 X186.657 Y33.922 E2824.0895
G0 F9000 X187.364 Y33.214
G1 F1080 X182.329 Y28.18 E2824.97753
G0 F9000 X183.036 Y27.473
G1 F1080 X188.071 Y32.507 E2825.86556
G0 F9000 X188.778 Y31.8
G1 F1080 X183.743 Y26.766 E2826.75359
G0 F9000 X184.45 Y26.059
G1 F1080 X185.392 Y26.294 E2826.92215
G1 X185.158 Y25.351 E2827.04333
G0 F9000 X186.29 Y26.96
G0 X187.016 Y28.529
G0 X188.529 Y30.137
G0 X188.529 Y30.137
G1 F1080 X189.838 Y30.739 E2827.21189
G1 X189.971 Y30.165 E2827.28538
G0 F9000 X193.371 Y26.494
G1 F1080 X214.505 Y47.628 E2831.01318
G0 F9000 X210.835 Y51.029
G1 F1080 X210.259 Y51.16 E2831.05222
G1 X210.862 Y52.47 E2831.23209
G0 F9000 X209.199 Y52.221
G1 F1080 X214.234 Y57.256 E2832.12021
G0 F9000 X213.527 Y57.963
G1 F1080 X208.492 Y52.929 E2833.00824
G0 F9000 X207.785 Y53.636
G1 F1080 X212.82 Y58.67 E2833.89626
G0 F9000 X212.112 Y59.377
G1 F1080 X207.078 Y54.343 E2834.7842
G0 F9000 X206.371 Y55.05
G1 F1080 X211.405 Y60.084 E2835.67214
G0 F9000 X210.698 Y60.792
G1 F1080 X205.664 Y55.757 E2836.56017
G0 F9000 X204.957 Y56.464
G1 F1080 X209.991 Y61.499 E2837.4482
G0 F9000 X209.284 Y62.206
G1 F1080 X204.249 Y57.171 E2838.33632
G0 F9000 X203.542 Y57.878
G1 F1080 X208.577 Y62.913 E2839.22443
G0 F9000 X207.87 Y63.62
G1 F1080 X202.835 Y58.585 E2840.11255
G0 F9000 X202.128 Y59.293
G1 F1080 X207.163 Y64.327 E2841.00058
G0 F9000 X206.456 Y65.034
G1 F1080 X201.421 Y60 E2841.8886
G0 F9000 X200.714 Y60.707
G1 F1080 X205.748 Y65.741 E2842.77654
G0 F9000 X205.041 Y66.448
G1 F1080 X200.007 Y61.414 E2843.66448
G0 F9000 X199.3 Y62.121
G1 F1080 X204.334 Y67.156 E2844.55251
G0 F9000 X203.627 Y67.863
G1 F1080 X198.593 Y62.828 E2845.44054
G0 F9000 X197.885 Y63.535
G1 F1080 X202.92 Y68.57 E2846.32866
G0 F9000 X202.213 Y69.277
G1 F1080 X197.178 Y64.242 E2847.21677
G0 F9000 X196.471 Y64.949
G1 F1080 X201.506 Y69.984 E2848.10489
G0 F9000 X200.799 Y70.691
G1 F1080 X195.764 Y65.656 E2848.993
G0 F9000 X195.057 Y66.364
G1 F1080 X200.092 Y71.398 E2849.88103
G0 F9000 X199.385 Y72.105
G1 F1080 X194.35 Y67.071 E2850.76906
G0 F9000 X193.643 Y67.778
G1 F1080 X198.677 Y72.812 E2851.657
G0 F9000 X197.97 Y73.52
G1 F1080 X192.936 Y68.485 E2852.54503
G0 F9000 X192.229 Y69.192
G1 F1080 X197.263 Y74.227 E2853.43306
G0 F9000 X196.556 Y74.934
G1 F1080 X191.521 Y69.899 E2854.32117
G0 F9000 X190.814 Y70.606
G1 F1080 X195.849 Y75.641 E2855.20929
G0 F9000 X195.142 Y76.348
G1 F1080 X190.107 Y71.313 E2856.0974
G0 F9000 X189.4 Y72.02
G1 F1080 X194.435 Y77.055 E2856.98552
G0 F9000 X193.728 Y77.762
G1 F1080 X188.693 Y72.728 E2857.87355
G0 F9000 X187.986 Y73.435
G1 F1080 X193.021 Y78.469 E2858.76158
G0 F9000 X192.313 Y79.176
G1 F1080 X191.144 Y78.713 E2858.9863
G1 X191.606 Y79.883 E2859.1432
G0 F9000 X188.134 Y83.483
G1 F1080 X187.673 Y83.728 E2859.19347
G1 X186.408 Y83.171 E2859.36586
G0 F9000 X186.455 Y82.428
G0 X184.895 Y81.563
G0 X184.039 Y80.078
G0 X184.039 Y78.367
G0 X184.895 Y76.884
G0 X186.928 Y75.205
G0 X186.928 Y75.205
G1 F1080 X186.925 Y74.495 E2859.42856
G1 X188.552 Y75.415 E2859.66168
G0 F9000 X213.985 Y55.593
G1 F1080 X215.294 Y56.195 E2859.83025
G1 X215.427 Y55.621 E2859.90373
G1 F1800 E2856.90373
G1 Z1.799
G0 F9000 X205.739 Y54.572
G0 X183.345 Y76.948
G0 X164.053 Y57.656
G0 X170.884 Y50.802
G0 X163.098 Y49.961
G0 X163.098 Y49.961
G1 Z1.299
G1 F1800 E2859.90373
G1 F1080 X161.469 Y49.039 E2860.12856
G1 X161.473 Y49.75 E2860.21724
G1 F1800 E2857.21724
G1 Z1.799
G0 F9000 X159.33 Y50.022
G0 X156.083 Y53.083
G0 X154.145 Y54.118
G0 X152.043 Y54.757
G0 X79.072 Y60.223
G0 X79.903 Y60.104
G1 Z1.299
G1 F1800 E2860.21724
G1 F1080 X185.741 Y165.942 E2878.88585
G0 F9000 X186.627 Y168.242
G1 F1080 X79.954 Y61.569 E2897.70174
G0 F9000 X79.121 Y61.459
G0 X74.232 Y74.232
G0 X74.232 Y74.232
G1 F1080 X172.282 Y172.282 E2914.99663
G0 F9000 X170.868 Y172.282
G1 F1080 X73.498 Y74.913 E2932.17149
G0 F9000 X72.551 Y75.38
G1 F1080 X169.453 Y172.282 E2949.26389
G0 F9000 X168.038 Y172.281
G1 F1080 X71.286 Y75.528 E2966.32992
G0 F9000 X61.725 Y77.281
G1 F1080 X53.588 Y69.144 E2967.76519
G0 F9000 X52.88 Y69.851
G1 F1080 X60.311 Y77.281 E2969.07585
G0 F9000 X58.897 Y77.281
G1 F1080 X52.173 Y70.558 E2970.2618
G0 F9000 X51.466 Y71.265
G1 F1080 X57.482 Y77.281 E2971.32295
G0 F9000 X56.068 Y77.281
G1 F1080 X50.759 Y71.972 E2972.2594
G0 F9000 X50.052 Y72.679
G1 F1080 X54.654 Y77.281 E2973.07113
G0 F9000 X53.827 Y77.868
G1 F1080 X49.345 Y73.387 E2973.86162
G0 F9000 X48.638 Y74.094
G1 F1080 X51.825 Y77.281 E2974.42377
G0 F9000 X52.707 Y78.162
G1 F1080 X53.267 Y79.429 E2974.62108
G1 X53.267 Y80.844 E2974.81839
G1 X53.266 Y82.257 E2975.0156
G1 X53.266 Y83.671 E2975.21277
G1 X53.826 Y84.939 E2975.38566
G0 F9000 X51.847 Y80.504
G0 X51.908 Y78.082
G0 X50.411 Y77.281
G0 X50.411 Y77.281
G1 F1080 X47.931 Y74.801 E2975.82311
G0 F9000 X47.224 Y75.508
G1 F1080 X48.998 Y77.282 E2976.13602
G0 F9000 X47.584 Y77.282
G1 F1080 X46.163 Y76.568 E2976.32405
G1 X46.169 Y77.282 E2976.41311
G0 F9000 X45.801 Y78.041
G0 X44.626 Y78.082
G0 X41.218 Y87.523
G0 X42.022 Y87.277
G1 F1080 X47.027 Y92.282 E2977.29594
G0 F9000 X45.613 Y92.282
G1 F1080 X42.523 Y89.193 E2977.84089
G0 F9000 X41.689 Y89.276
G0 X42.678 Y90.762
G0 X42.678 Y90.762
G1 F1080 X44.199 Y92.282 E2978.10909
G0 F9000 X43.827 Y93.324
G1 F1080 X42.707 Y92.911 E2978.30651
G1 X43.267 Y94.885 E2978.50383
G1 X43.267 Y96.3 E2978.70114
G1 X43.267 Y97.714 E2978.89849
G1 X43.267 Y99.128 E2979.09584
G1 X44.21 Y100.778 E2979.29329
G1 X45.86 Y101.722 E2979.49079
G1 X47.274 Y101.722 E2979.68814
G1 X48.689 Y101.722 E2979.88545
G1 X50.103 Y101.722 E2980.0828
G1 X51.37 Y102.282 E2980.25558
G0 F9000 X51.37 Y103.123
G0 X44.777 Y103.123
G0 X44.777 Y103.123
G0 X44.299 Y102.282
G1 F1080 X42.707 Y100.689 E2980.53648
G0 F9000 X42.707 Y102.104
G1 F1080 X43.267 Y103.371 E2980.73378
G1 X43.267 Y104.785 E2980.93113
G1 X43.267 Y106.199 E2981.12848
G1 X43.267 Y107.613 E2981.32583
G1 X43.267 Y109.028 E2981.52332
G1 X43.267 Y110.442 E2981.72067
G1 X43.23 Y111.82 E2981.87369
G1 X42.707 Y112.003 E2981.9428
G1 F1800 E2978.9428
G1 Z1.799
G0 F9000 X41.867 Y112.003
G0 X44.69 Y105.241
G0 X44.626 Y93.082
G0 X49.786 Y93.037
G0 X54.626 Y78.082
G0 X64.194 Y58.537
G0 X64.194 Y58.537
G1 Z1.299
G1 F1800 E2981.9428
G1 F1080 X177.939 Y172.282 E3002.00611
G0 F9000 X179.353 Y172.282
G1 F1080 X64.901 Y57.83 E3022.19413
G1 F1800 E3019.19413
G1 Z1.799
G0 F9000 X57.422 Y78.034
G0 X54.626 Y78.082
G0 X51.908 Y110.364
G0 X44.363 Y111.791
G0 X43.054 Y113.497
G0 X41.757 Y165.043
G0 X41.118 Y167.145
G0 X40.083 Y169.083
G0 X13.331 Y197.178
G0 X13.331 Y197.178
G1 Z1.299
G1 F1800 E3022.19413
G1 F1080 X14.833 Y198.681 E3022.45915
G0 F9000 X13.053 Y198.315
G1 F1080 X12.623 Y197.885 E3022.535
G0 F9000 X9.222 Y201.343
G1 F1080 X9.251 Y201.45 E3022.54882
G1 F1800 E3019.54882
G1 Z1.799
G0 F9000 X10.156 Y201.209
G0 X10.851 Y200.015
G0 X44.656 Y177.053
G0 X56.563 Y188.915
G0 X180.204 Y156.162
G0 X180.204 Y156.162
G1 Z1.299
G1 F1800 E3022.54882
G1 F1080 X185.293 Y161.251 E3023.44647
G0 F9000 X185.293 Y159.837
G1 F1080 X181.618 Y156.162 E3024.09469
G0 F9000 X183.031 Y156.161
G1 F1080 X185.293 Y158.423 E3024.49368
G0 F9000 X185.293 Y157.008
G1 F1080 X184.445 Y156.161 E3024.64317
; LAYER:1
G0 F9000 X186.366 Y154.822 Z1.499
; TYPE:WALL-INNER
G1 F3600 X186.366 Y148.622 E3024.84939
G1 X180.166 Y148.622 E3025.0556
G1 X180.166 Y154.822 E3025.26181
G1 X186.006 Y154.822 E3025.45605
G0 F9000 X186.634 Y162.887
G1 F3600 X186.835 Y164.927 E3025.52423
G1 X187.438 Y166.916 E3025.59336
G1 X188.418 Y168.749 E3025.66249
G1 X189.718 Y170.332 E3025.73062
G1 X221.741 Y202.355 E3027.23688
G1 X189.355 Y234.741 E3028.76022
G1 X157.332 Y202.718 E3030.26648
G1 X155.749 Y201.418 E3030.33461
G1 X153.916 Y200.438 E3030.40375
G1 X151.927 Y199.835 E3030.47287
G1 X149.887 Y199.634 E3030.54105
G1 X78.114 Y199.634 E3032.92823
G1 X76.074 Y199.835 E3032.99641
G1 X74.085 Y200.438 E3033.06554
G1 X72.252 Y201.418 E3033.13467
G1 X70.669 Y202.718 E3033.2028
G1 X38.646 Y234.741 E3034.70907
G1 X6.26 Y202.355 E3036.2324
G1 X38.283 Y170.332 E3037.73867
G1 X39.583 Y168.749 E3037.8068
G1 X40.563 Y166.916 E3037.87593
G1 X41.166 Y164.927 E3037.94506
G1 X41.367 Y162.887 E3038.01324
G1 X41.367 Y91.114 E3040.40042
G1 X41.166 Y89.074 E3040.4686
G1 X40.563 Y87.085 E3040.53772
G1 X39.583 Y85.252 E3040.60686
G1 X38.283 Y83.669 E3040.67499
G1 X6.26 Y51.646 E3042.18125
G1 X38.646 Y19.26 E3043.70459
G1 X70.669 Y51.283 E3045.21085
G1 X72.252 Y52.583 E3045.27898
G1 X74.085 Y53.563 E3045.34811
G1 X76.074 Y54.166 E3045.41724
G1 X78.114 Y54.367 E3045.48542
G1 X149.887 Y54.367 E3047.8726
G1 X151.927 Y54.166 E3047.94078
G1 X153.916 Y53.563 E3048.00991
G1 X155.749 Y52.583 E3048.07904
G1 X157.332 Y51.283 E3048.14717
G1 X189.355 Y19.26 E3049.65343
G1 X221.741 Y51.646 E3051.17677
G1 X189.718 Y83.669 E3052.68303
G1 X188.418 Y85.252 E3052.75116
G1 X187.438 Y87.085 E3052.8203
G1 X186.835 Y89.074 E3052.88942
G1 X186.634 Y91.114 E3052.9576
G1 X186.634 Y162.527 E3055.33281
G0 F9000 X187.234 Y172.073
G1 F3600 X186.533 Y172.166 E3055.35633
G1 X185.882 Y172.436 E3055.37977
G1 X185.321 Y172.865 E3055.40326
G1 X184.891 Y173.426 E3055.42677
G1 X184.621 Y174.079 E3055.45027
G1 X184.529 Y174.778 E3055.47372
G1 X184.621 Y175.479 E3055.49723
G1 X184.891 Y176.13 E3055.52068
G1 X185.321 Y176.691 E3055.54418
G1 X185.881 Y177.121 E3055.56767
G1 X186.533 Y177.392 E3055.59115
G1 X187.234 Y177.483 E3055.61466
G1 X187.935 Y177.392 E3055.63817
G1 X188.587 Y177.121 E3055.66166
G1 X189.147 Y176.691 E3055.68514
G1 X189.577 Y176.13 E3055.70865
G1 X189.847 Y175.479 E3055.73209
G1 X189.939 Y174.778 E3055.75561
G1 X189.847 Y174.079 E3055.77906
G1 X189.577 Y173.426 E3055.80256
G1 X189.147 Y172.865 E3055.82607
G1 X188.586 Y172.436 E3055.84956
G1 X187.935 Y172.166 E3055.873
G1 X187.591 Y172.121 E3055.88454
G0 F9000 X181.366 Y173.622
G1 F3600 X175.166 Y173.622 E3056.09075
G1 X175.166 Y179.822 E3056.29696
G1 X181.341 Y179.822 E3056.50234
G1 X164.818 Y196.345 E3057.27954
G1 X193.244 Y224.771 E3058.61661
G1 X211.771 Y206.244 E3059.48806
G1 X183.345 Y177.818 E3060.82513
G1 X181.366 Y179.797 E3060.91822
G1 X181.366 Y173.982 E3061.11163
G0 F9000 X171.366 Y173.622
G1 F3600 X165.166 Y173.622 E3061.31784
G1 X165.166 Y179.822 E3061.52405
G1 X171.366 Y179.822 E3061.73026
G1 X171.366 Y173.982 E3061.9245
G0 F9000 X171.182 Y173.724
G0 X165.225 Y173.681
G0 X158.41 Y180.897
G0 X158.41 Y180.897
G1 F3600 X158.059 Y180.441 E3061.94364
G1 X157.603 Y180.09 E3061.96278
G1 X157.07 Y179.871 E3061.98195
G1 X156.5 Y179.795 E3062.00107
G1 X155.93 Y179.871 E3062.0202
G1 X155.397 Y180.09 E3062.03937
G1 X154.941 Y180.441 E3062.05851
G1 X154.59 Y180.897 E3062.07765
G1 X154.371 Y181.43 E3062.09681
G1 X154.295 Y182 E3062.11594
G1 X154.371 Y182.57 E3062.13506
G1 X154.59 Y183.103 E3062.15423
G1 X154.941 Y183.559 E3062.17337
G1 X155.397 Y183.91 E3062.19251
G1 X155.93 Y184.129 E3062.21167
G1 X156.5 Y184.205 E3062.2308
G1 X157.07 Y184.129 E3062.24993
G1 X157.603 Y183.91 E3062.26909
G1 X158.059 Y183.559 E3062.28823
G1 X158.41 Y183.103 E3062.30737
G1 X158.629 Y182.57 E3062.32654
G1 X158.705 Y182 E3062.34566
G1 X158.63 Y181.43 E3062.36478
G1 X158.548 Y181.231 E3062.37194
G0 F9000 X161.079 Y197.621
G1 F3600 X160.426 Y197.891 E3062.39544
G1 X159.865 Y198.321 E3062.41895
G1 X159.436 Y198.882 E3062.44244
G1 X159.166 Y199.533 E3062.46588
G1 X159.073 Y200.234 E3062.4894
G1 X159.166 Y200.935 E3062.51292
G1 X159.436 Y201.586 E3062.53636
G1 X159.865 Y202.147 E3062.55985
G1 X160.426 Y202.577 E3062.58336
G1 X161.079 Y202.847 E3062.60687
G1 X161.778 Y202.939 E3062.63031
G1 X162.479 Y202.847 E3062.65383
G1 X163.13 Y202.577 E3062.67727
G1 X163.691 Y202.147 E3062.70078
G1 X164.121 Y201.587 E3062.72426
G1 X164.392 Y200.935 E3062.74775
G1 X164.483 Y200.234 E3062.77126
G1 X164.392 Y199.533 E3062.79477
G1 X164.121 Y198.881 E3062.81825
G1 X163.691 Y198.321 E3062.84174
G1 X163.13 Y197.891 E3062.86525
G1 X162.479 Y197.621 E3062.88869
G1 X161.778 Y197.529 E3062.9122
G1 X161.436 Y197.574 E3062.92368
G1 F1800 E3059.92368
G1 Z1.999
G0 F9000 X161.11 Y197.653
G0 X162.477 Y197.623
G0 X164.119 Y198.882
G0 X187.442 Y225.898
G0 X187.442 Y225.898
G1 Z1.499
G1 F1800 E3062.92368
G1 F3600 X187.013 Y226.459 E3062.94716
G1 X186.743 Y227.111 E3062.97064
G1 X186.65 Y227.811 E3062.99412
G1 X186.743 Y228.512 E3063.01764
G1 X187.013 Y229.163 E3063.04108
G1 X187.442 Y229.724 E3063.06457
G1 X188.002 Y230.154 E3063.08806
G1 X188.656 Y230.425 E3063.1116
G1 X189.355 Y230.516 E3063.13505
G1 X190.056 Y230.425 E3063.15856
G1 X190.708 Y230.154 E3063.18204
G1 X191.268 Y229.724 E3063.20552
G1 X191.698 Y229.164 E3063.22901
G1 X191.969 Y228.512 E3063.25249
G1 X192.06 Y227.811 E3063.276
G1 X191.969 Y227.112 E3063.29945
G1 X191.698 Y226.458 E3063.32299
G1 X191.268 Y225.898 E3063.34648
G1 X190.707 Y225.469 E3063.36997
G1 X190.056 Y225.199 E3063.39341
G1 X189.355 Y225.106 E3063.41693
G1 X188.655 Y225.199 E3063.44041
G1 X188.003 Y225.469 E3063.46388
G1 X187.729 Y225.679 E3063.47537
G1 F1800 E3060.47537
G1 Z1.999
G0 F9000 X191.187 Y222.714
G0 X164.901 Y196.345
G0 X183.345 Y177.901
G0 X212.898 Y204.268
G0 X212.898 Y204.268
G1 Z1.499
G1 F1800 E3063.47537
G1 F3600 X213.458 Y204.698 E3063.49885
G1 X214.112 Y204.969 E3063.5224
G1 X214.811 Y205.06 E3063.54584
G1 X215.512 Y204.969 E3063.56935
G1 X216.164 Y204.698 E3063.59284
G1 X216.724 Y204.268 E3063.61632
G1 X217.154 Y203.708 E3063.6398
G1 X217.425 Y203.056 E3063.66329
G1 X217.516 Y202.355 E3063.6868
G1 X217.425 Y201.656 E3063.71024
G1 X217.154 Y201.002 E3063.73379
G1 X216.724 Y200.442 E3063.75727
G1 X216.163 Y200.013 E3063.78076
G1 X215.512 Y199.743 E3063.8042
G1 X214.811 Y199.65 E3063.82772
G1 X214.111 Y199.743 E3063.85121
G1 X213.459 Y200.013 E3063.87468
G1 X212.898 Y200.442 E3063.89817
G1 X212.469 Y201.003 E3063.92166
G1 X212.199 Y201.655 E3063.94513
G1 X212.106 Y202.355 E3063.96862
G1 X212.199 Y203.056 E3063.99214
G1 X212.469 Y203.707 E3064.01558
G1 X212.679 Y203.981 E3064.02706
G1 F1800 E3061.02706
G1 Z1.999
G0 F9000 X204.08 Y184.512
G0 X188.419 Y168.748
G0 X187.44 Y166.915
G0 X186.836 Y164.925
G0 X186.366 Y144.822
G0 X186.366 Y144.822
G1 Z1.499
G1 F1800 E3064.02706
G1 F3600 X186.366 Y138.622 E3064.23327
G1 X180.166 Y138.622 E3064.43948
G1 X180.166 Y144.822 E3064.6457
G1 X186.006 Y144.822 E3064.83994
G1 F1800 E3061.83994
G1 Z1.999
G0 F9000 X186.183 Y142.822
G0 X186.307 Y138.681
G0 X181.366 Y89.823
G0 X181.366 Y89.823
G1 Z1.499
G1 F1800 E3064.83994
G1 F3600 X181.366 Y83.623 E3065.04615
G1 X175.166 Y83.623 E3065.25236
G1 X175.166 Y89.823 E3065.45857
G1 X181.006 Y89.823 E3065.65281
G0 F9000 X185.882 Y81.565
G1 F3600 X186.533 Y81.835 E3065.67625
G1 X187.234 Y81.928 E3065.69977
G1 X187.935 Y81.835 E3065.72329
G1 X188.586 Y81.565 E3065.74673
G1 X189.147 Y81.136 E3065.77022
G1 X189.577 Y80.575 E3065.79373
G1 X189.847 Y79.922 E3065.81724
