; Generated with MatterSlice 1.0
; filamentDiameter = 1.75
; extrusionWidth = 0.4
; firstLayerExtrusionWidth = 1
; layerThickness = 0.2
; firstLayerThickness = 0.3
; automatic settings before start_gcode
G21 ; set units to millimeters
M107 ; fan off
M190 S12 ; wait for bed temperature to be reached
M104 T0 S215 ; start heating extruder 0
T0 ; set the active extruder to 0
; settings from start_gcode
G28 X0 Y0 Z0 ; home all axes
G1 Z5 F5000 ; lift nozzle
M109 S210 ; set the extruder temp and wait
G28 X0 Y0 Z0 ; Home Z again in case there was filament on nozzle
M565 Z0
G29 ; probe the bed
; automatic settings after start_gcode
T0 ; set the active extruder to 0
G90 ; use absolute coordinates
G92 E0 ; reset the expected extruder position
M82 ; use absolute distance for extrusion
; Layer count: 10
; LAYER:0
M107
G0 F9000 X11.794 Y24.794 Z1.299
; TYPE:WALL-OUTER
G1 Z1.299
G1 F1800 E0
G1 F1080 X216.207 Y24.794 E25.49551
G1 X216.207 Y229.207 E50.99103
G1 X11.794 Y229.207 E76.48654
G1 X11.794 Y25.694 E101.86981
G0 F9000 X12.394 Y25.304
G0 X18.342 Y31.451
G0 X18.342 Y31.451
G0 X18.816 Y31.816
G1 F1080 X18.259 Y32.542 E101.98394
G1 X17.909 Y33.387 E102.09801
G1 X17.79 Y34.294 E102.21211
G1 X17.909 Y35.201 E102.3262
G1 X18.259 Y36.046 E102.44028
G1 X18.816 Y36.772 E102.55441
G1 X19.542 Y37.329 E102.66854
G1 X20.387 Y37.679 E102.78262
G1 X21.294 Y37.798 E102.89671
G1 X22.201 Y37.679 E103.01081
G1 X23.046 Y37.329 E103.12489
G1 X23.772 Y36.772 E103.23902
G1 X24.329 Y36.046 E103.35315
G1 X24.679 Y35.201 E103.46722
G1 X24.798 Y34.294 E103.58132
G1 X24.679 Y33.387 E103.69541
G1 X24.329 Y32.542 E103.80949
G1 X23.772 Y31.816 E103.92362
G1 X23.046 Y31.259 E104.03775
G1 X22.201 Y30.909 E104.15183
G1 X21.294 Y30.79 E104.26592
G1 X20.387 Y30.909 E104.38002
G1 X19.542 Y31.259 E104.49409
G1 X19.531 Y31.268 E104.49587
G1 F1800 E101.49587
G1 Z1.799
G0 F9000 X18.342 Y31.451
G0 X18.252 Y31.413
G0 X20.206 Y30.229
G0 X22.382 Y30.229
G0 X39.227 Y40.146
G0 X39.78 Y40.376
G1 Z1.299
G1 F1800 E104.49587
G1 F1080 X39.53 Y40.981 E104.57752
G1 X39.449 Y41.595 E104.65476
G1 X39.449 Y42.582 E104.77786
G1 X39.528 Y43.273 E104.86461
G1 X39.78 Y43.88 E104.94658
G1 X40.178 Y44.4 E105.02826
G1 X40.697 Y44.797 E105.10976
G1 X41.3 Y45.047 E105.19117
G1 X41.916 Y45.128 E105.26867
G1 X187.981 Y45.128 E123.4867
G1 X188.597 Y45.047 E123.56419
G1 X189.2 Y44.797 E123.64561
G1 X189.719 Y44.4 E123.72711
G1 X190.117 Y43.88 E123.80878
G1 X190.367 Y43.277 E123.8902
G1 X190.448 Y42.659 E123.96794
G1 X190.443 Y41.555 E124.10564
G1 X190.367 Y40.98 E124.17798
G1 X190.117 Y40.376 E124.25951
G1 X189.719 Y39.857 E124.34108
G1 X189.2 Y39.459 E124.42266
G1 X188.597 Y39.209 E124.50408
G1 X187.981 Y39.128 E124.58157
G1 X41.916 Y39.128 E142.7996
G1 X41.3 Y39.209 E142.87709
G1 X40.697 Y39.459 E142.95851
G1 X40.374 Y39.707 E143.0093
G0 F9000 X39.227 Y40.146
G0 X39.22 Y40.119
G0 X38.75 Y41.55
G0 X39.171 Y44.232
G0 X41.071 Y48.655
G0 X41.3 Y49.209
G1 F1080 X40.697 Y49.459 E143.09072
G1 X40.178 Y49.857 E143.17229
G1 X39.78 Y50.376 E143.25387
G1 X39.53 Y50.981 E143.33552
G1 X39.449 Y51.595 E143.41276
G1 X39.449 Y52.582 E143.53587
G1 X39.528 Y53.273 E143.62261
G1 X39.78 Y53.88 E143.70459
G1 X40.178 Y54.4 E143.78626
G1 X40.697 Y54.797 E143.86776
G1 X41.3 Y55.047 E143.94918
G1 X41.916 Y55.128 E144.02667
G1 X187.981 Y55.128 E162.2447
G1 X188.597 Y55.047 E162.32219
G1 X189.2 Y54.797 E162.40361
G1 X189.719 Y54.4 E162.48511
G1 X190.117 Y53.88 E162.56678
G1 X190.367 Y53.277 E162.6482
G1 X190.448 Y52.659 E162.72594
G1 X190.443 Y51.555 E162.86364
G1 X190.367 Y50.98 E162.93598
G1 X190.117 Y50.376 E163.01751
G1 X189.719 Y49.857 E163.09909
G1 X189.2 Y49.459 E163.18066
G1 X188.597 Y49.209 E163.26208
G1 X187.981 Y49.128 E163.33957
G1 X42.195 Y49.128 E181.5228
G0 F9000 X41.071 Y48.655
G0 X41.062 Y48.559
G0 X39.681 Y49.36
G0 X38.85 Y50.799
G0 X38.847 Y53.449
G0 X41.916 Y58.528
G0 X41.916 Y59.128
G1 F1080 X41.3 Y59.209 E181.6003
G1 X40.697 Y59.459 E181.68171
G1 X40.178 Y59.857 E181.76329
G1 X39.78 Y60.376 E181.84486
G1 X39.53 Y60.981 E181.92651
G1 X39.449 Y61.595 E182.00376
G1 X39.449 Y62.582 E182.12686
G1 X39.528 Y63.273 E182.21361
G1 X39.78 Y63.88 E182.29558
G1 X40.178 Y64.4 E182.37725
G1 X40.697 Y64.797 E182.45875
G1 X41.3 Y65.047 E182.54017
G1 X41.916 Y65.128 E182.61766
G1 X187.981 Y65.128 E200.83569
G1 X188.597 Y65.047 E200.91319
G1 X189.2 Y64.797 E200.9946
G1 X189.719 Y64.4 E201.0761
G1 X190.117 Y63.88 E201.15778
G1 X190.367 Y63.277 E201.23919
G1 X190.448 Y62.659 E201.31693
G1 X190.443 Y61.555 E201.45463
G1 X190.367 Y60.98 E201.52697
G1 X190.117 Y60.376 E201.6085
G1 X189.719 Y59.857 E201.69008
G1 X189.2 Y59.459 E201.77165
G1 X188.597 Y59.209 E201.85307
G1 X187.981 Y59.128 E201.93056
G1 X42.816 Y59.128 E220.03634
G1 F1800 E217.03634
G1 Z1.799
G0 F9000 X41.916 Y58.528
G0 X41.916 Y58.428
G0 X188.778 Y58.529
G0 X190.216 Y59.36
G0 X191.047 Y60.799
G0 X191.047 Y63.458
G0 X190.216 Y64.897
G0 X188.778 Y65.727
G0 X41.916 Y68.528
G0 X41.916 Y69.128
G1 Z1.299
G1 F1800 E220.03634
G1 F1080 X41.3 Y69.209 E220.11383
G1 X40.697 Y69.459 E220.19525
G1 X40.178 Y69.857 E220.27683
G1 X39.78 Y70.376 E220.3584
G1 X39.53 Y70.981 E220.44005
G1 X39.449 Y71.595 E220.51729
G1 X39.449 Y72.582 E220.6404
G1 X39.528 Y73.273 E220.72715
G1 X39.78 Y73.88 E220.80912
G1 X40.178 Y74.4 E220.89079
G1 X40.697 Y74.797 E220.97229
G1 X41.3 Y75.047 E221.05371
G1 X41.916 Y75.128 E221.1312
G1 X187.981 Y75.128 E239.34923
G1 X188.597 Y75.047 E239.42673
G1 X189.2 Y74.797 E239.50814
G1 X189.719 Y74.4 E239.58964
G1 X190.117 Y73.88 E239.67132
G1 X190.367 Y73.277 E239.75273
G1 X190.448 Y72.659 E239.83047
G1 X190.443 Y71.555 E239.96817
G1 X190.367 Y70.98 E240.04051
G1 X190.117 Y70.376 E240.12204
G1 X189.719 Y69.857 E240.20362
G1 X189.2 Y69.459 E240.28519
G1 X188.597 Y69.209 E240.36661
G1 X187.981 Y69.128 E240.4441
G1 X42.816 Y69.128 E258.54988
G1 F1800 E255.54988
G1 Z1.799
G0 F9000 X41.916 Y68.528
G0 X41.916 Y68.428
G0 X188.778 Y68.529
G0 X190.216 Y69.36
G0 X191.047 Y70.799
G0 X191.047 Y73.458
G0 X190.216 Y74.897
G0 X188.778 Y75.727
G0 X41.916 Y78.528
G0 X41.916 Y79.128
G1 Z1.299
G1 F1800 E258.54988
G1 F1080 X41.3 Y79.209 E258.62737
G1 X40.697 Y79.459 E258.70879
G1 X40.178 Y79.857 E258.79037
G1 X39.78 Y80.376 E258.87194
G1 X39.53 Y80.981 E258.95359
G1 X39.449 Y81.595 E259.03083
G1 X39.449 Y82.582 E259.15394
G1 X39.528 Y83.273 E259.24069
G1 X39.78 Y83.88 E259.32266
G1 X40.178 Y84.4 E259.40433
G1 X40.697 Y84.797 E259.48583
G1 X41.3 Y85.047 E259.56725
G1 X41.916 Y85.128 E259.64474
G1 X187.981 Y85.128 E277.86277
G1 X188.597 Y85.047 E277.94026
G1 X189.2 Y84.797 E278.02168
G1 X189.719 Y84.4 E278.10318
G1 X190.117 Y83.88 E278.18486
G1 X190.367 Y83.277 E278.26627
G1 X190.448 Y82.659 E278.34401
G1 X190.443 Y81.555 E278.48171
G1 X190.367 Y80.98 E278.55405
G1 X190.117 Y80.376 E278.63558
G1 X189.719 Y79.857 E278.71716
G1 X189.2 Y79.459 E278.79873
G1 X188.597 Y79.209 E278.88015
G1 X187.981 Y79.128 E278.95764
G1 X42.816 Y79.128 E297.06342
G1 F1800 E294.06342
G1 Z1.799
G0 F9000 X41.916 Y78.528
G0 X41.916 Y78.428
G0 X188.778 Y78.529
G0 X190.216 Y79.36
G0 X191.047 Y80.799
G0 X191.047 Y83.458
G0 X190.216 Y84.897
G0 X188.778 Y85.727
G0 X41.916 Y88.528
G0 X41.916 Y89.128
G1 Z1.299
G1 F1800 E297.06342
G1 F1080 X41.3 Y89.209 E297.14091
G1 X40.697 Y89.459 E297.22233
G1 X40.178 Y89.857 E297.30391
G1 X39.78 Y90.376 E297.38548
G1 X39.53 Y90.981 E297.46713
G1 X39.449 Y91.595 E297.54437
G1 X39.449 Y92.582 E297.66748
G1 X39.528 Y93.273 E297.75422
G1 X39.78 Y93.88 E297.8362
G1 X40.178 Y94.4 E297.91787
G1 X40.697 Y94.797 E297.99937
G1 X41.3 Y95.047 E298.08079
G1 X41.916 Y95.128 E298.15828
G1 X187.981 Y95.128 E316.37631
G1 X188.597 Y95.047 E316.4538
G1 X189.2 Y94.797 E316.53522
G1 X189.719 Y94.4 E316.61672
G1 X190.117 Y93.88 E316.6984
G1 X190.367 Y93.277 E316.77981
G1 X190.448 Y92.659 E316.85755
G1 X190.443 Y91.555 E316.99525
G1 X190.367 Y90.98 E317.06759
G1 X190.117 Y90.376 E317.14912
G1 X189.719 Y89.857 E317.2307
G1 X189.2 Y89.459 E317.31227
G1 X188.597 Y89.209 E317.39369
G1 X187.981 Y89.128 E317.47118
G1 X42.816 Y89.128 E335.57696
G1 F1800 E332.57696
G1 Z1.799
G0 F9000 X41.916 Y88.528
G0 X41.916 Y88.428
G0 X188.778 Y88.529
G0 X190.216 Y89.36
G0 X191.047 Y90.799
G0 X191.047 Y93.458
G0 X190.216 Y94.897
G0 X188.778 Y95.727
G0 X41.916 Y98.528
G0 X41.916 Y99.128
G1 Z1.299
G1 F1800 E335.57696
G1 F1080 X41.3 Y99.209 E335.65445
G1 X40.697 Y99.459 E335.73587
G1 X40.178 Y99.857 E335.81745
G1 X39.78 Y100.376 E335.89902
G1 X39.53 Y100.981 E335.98067
G1 X39.449 Y101.595 E336.05791
G1 X39.449 Y102.582 E336.18102
G1 X39.528 Y103.273 E336.26776
G1 X39.78 Y103.88 E336.34974
G1 X40.178 Y104.4 E336.43141
G1 X40.697 Y104.797 E336.51291
G1 X41.3 Y105.047 E336.59433
G1 X41.916 Y105.128 E336.67182
G1 X188.02 Y105.123 E354.89472
G1 X188.597 Y105.047 E354.9673
G1 X189.2 Y104.797 E355.04872
G1 X189.719 Y104.4 E355.13022
G1 X190.117 Y103.88 E355.21189
G1 X190.367 Y103.277 E355.29331
G1 X190.448 Y102.661 E355.3708
G1 X190.448 Y101.674 E355.49391
G1 X190.369 Y100.984 E355.58053
G1 X190.117 Y100.376 E355.66262
G1 X189.719 Y99.857 E355.7442
G1 X189.2 Y99.459 E355.82577
G1 X188.597 Y99.209 E355.90719
G1 X187.981 Y99.128 E355.98468
G1 X42.816 Y99.128 E374.09046
G1 F1800 E371.09046
G1 Z1.799
G0 F9000 X41.916 Y98.528
G0 X41.901 Y98.43
G0 X188.778 Y98.529
G0 X190.216 Y99.36
G0 X191.05 Y100.808
G0 X191.047 Y103.458
G0 X190.216 Y104.897
G0 X188.778 Y105.727
G0 X45.181 Y121.499
G0 X45.409 Y122.053
G1 Z1.299
G1 F1800 E374.09046
G1 F1080 X44.927 Y122.253 E374.15555
G1 X44.511 Y122.571 E374.22085
G1 X44.193 Y122.987 E374.28616
G1 X43.993 Y123.469 E374.35125
G1 X43.925 Y123.989 E374.41666
G1 X43.993 Y124.508 E374.48195
G1 X44.193 Y124.991 E374.54715
G1 X44.511 Y125.405 E374.61226
G1 X44.926 Y125.725 E374.67762
G1 X45.409 Y125.925 E374.74282
G1 X45.929 Y125.993 E374.80823
G1 X46.448 Y125.925 E374.87352
G1 X46.932 Y125.725 E374.93884
G1 X47.345 Y125.405 E375.004
G1 X47.665 Y124.992 E375.06917
G1 X47.865 Y124.508 E375.13449
G1 X47.933 Y123.989 E375.19977
G1 X47.865 Y123.469 E375.26518
G1 X47.665 Y122.986 E375.33038
G1 X47.345 Y122.571 E375.39575
G1 X46.931 Y122.253 E375.46086
G1 X46.448 Y122.053 E375.52606
G1 X46.303 Y122.034 E375.5443
G1 F1800 E372.5443
G1 Z1.799
G0 F9000 X45.181 Y121.499
G0 X45.179 Y121.405
G0 X43.584 Y122.636
G0 X43.313 Y124.689
G0 X46.008 Y206.829
G0 X45.929 Y207.424
G1 Z1.299
G1 F1800 E375.5443
G1 F1080 X45.409 Y207.492 E375.60971
G1 X44.927 Y207.692 E375.6748
G1 X44.511 Y208.01 E375.74011
G1 X44.193 Y208.426 E375.80541
G1 X43.993 Y208.908 E375.8705
G1 X43.925 Y209.428 E375.93591
G1 X43.993 Y209.947 E376.0012
G1 X44.193 Y210.43 E376.0664
G1 X44.511 Y210.844 E376.13151
G1 X44.926 Y211.164 E376.19687
G1 X45.409 Y211.364 E376.26208
G1 X45.929 Y211.432 E376.32749
G1 X46.448 Y211.364 E376.39277
G1 X46.932 Y211.164 E376.45809
G1 X47.345 Y210.844 E376.52325
G1 X47.665 Y210.431 E376.58842
G1 X47.865 Y209.947 E376.65374
G1 X47.933 Y209.428 E376.71902
G1 X47.865 Y208.908 E376.78443
G1 X47.665 Y208.425 E376.84963
G1 X47.345 Y208.01 E376.915
G1 X46.931 Y207.692 E376.98011
G1 X46.797 Y207.637 E376.99817
G1 F1800 E373.99817
G1 Z1.799
G0 F9000 X46.008 Y206.829
G0 X45.978 Y206.843
G0 X44.576 Y207.083
G0 X24.883 Y217.726
G0 X24.329 Y217.955
G1 Z1.299
G1 F1800 E376.99817
G1 F1080 X23.772 Y217.229 E377.1123
G1 X23.046 Y216.672 E377.22644
G1 X22.201 Y216.322 E377.34051
G1 X21.294 Y216.203 E377.45461
G1 X20.387 Y216.322 E377.5687
G1 X19.542 Y216.672 E377.68278
G1 X18.816 Y217.229 E377.79691
G1 X18.259 Y217.955 E377.91104
G1 X17.909 Y218.8 E378.02512
G1 X17.79 Y219.707 E378.13921
G1 X17.909 Y220.614 E378.25331
G1 X18.259 Y221.459 E378.36738
G1 X18.816 Y222.185 E378.48151
G1 X19.542 Y222.742 E378.59564
G1 X20.387 Y223.092 E378.70972
G1 X21.294 Y223.211 E378.82382
G1 X22.201 Y223.092 E378.93791
G1 X23.046 Y222.742 E379.05199
G1 X23.772 Y222.185 E379.16612
G1 X24.329 Y221.459 E379.28025
G1 X24.679 Y220.614 E379.39433
G1 X24.798 Y219.707 E379.50842
G1 X24.679 Y218.8 E379.62252
G1 X24.674 Y218.788 E379.62414
G1 F1800 E376.62414
G1 Z1.799
G0 F9000 X24.883 Y217.726
G0 X153.243 Y209.472
G0 X153.642 Y209.446
G0 X153.944 Y209.428
G0 X153.944 Y209.428
G1 Z1.299
G1 F1800 E379.62414
G1 F1080 X154.012 Y209.947 E379.68942
G1 X154.212 Y210.43 E379.75463
G1 X154.53 Y210.844 E379.81974
G1 X154.945 Y211.164 E379.8851
G1 X155.428 Y211.364 E379.9503
G1 X155.948 Y211.432 E380.01571
G1 X156.467 Y211.364 E380.081
G1 X156.951 Y211.164 E380.14632
G1 X157.364 Y210.844 E380.21148
G1 X157.684 Y210.431 E380.27664
G1 X157.884 Y209.947 E380.34196
G1 X157.952 Y209.428 E380.40725
G1 X157.884 Y208.908 E380.47266
G1 X157.684 Y208.425 E380.53786
G1 X157.364 Y208.01 E380.60322
G1 X156.95 Y207.692 E380.66833
G1 X156.467 Y207.492 E380.73354
G1 X155.948 Y207.424 E380.79882
G1 X155.428 Y207.492 E380.86423
G1 X154.946 Y207.692 E380.92932
G1 X154.53 Y208.01 E380.99463
G1 X154.212 Y208.426 E381.05994
G1 X154.157 Y208.56 E381.078
G1 F1800 E378.078
G1 Z1.799
G0 F9000 X158.098 Y210.219
G0 X158.491 Y210.293
G0 X202.728 Y218.721
G0 X203.322 Y218.8
G1 Z1.299
G1 F1800 E381.078
G1 F1080 X203.203 Y219.707 E381.1921
G1 X203.322 Y220.614 E381.30619
G1 X203.672 Y221.459 E381.42027
G1 X204.229 Y222.185 E381.5344
G1 X204.955 Y222.742 E381.64853
G1 X205.8 Y223.092 E381.76261
G1 X206.707 Y223.211 E381.8767
G1 X207.614 Y223.092 E381.9908
G1 X208.459 Y222.742 E382.10488
G1 X209.185 Y222.185 E382.21901
G1 X209.742 Y221.459 E382.33314
G1 X210.092 Y220.614 E382.44721
G1 X210.211 Y219.707 E382.56131
G1 X210.092 Y218.8 E382.6754
G1 X209.742 Y217.955 E382.78948
G1 X209.185 Y217.229 E382.90361
G1 X208.459 Y216.672 E383.01774
G1 X207.614 Y216.322 E383.13182
G1 X206.707 Y216.203 E383.24591
G1 X205.8 Y216.322 E383.36001
G1 X204.955 Y216.672 E383.47408
G1 X204.229 Y217.229 E383.58822
G1 X203.672 Y217.955 E383.70235
G1 X203.667 Y217.967 E383.70397
G1 F1800 E380.70397
G1 Z1.799
G0 F9000 X202.728 Y218.721
G0 X157.18 Y126.278
G0 X157.18 Y126.278
G0 X156.951 Y125.725
G1 Z1.299
G1 F1800 E383.70397
G1 F1080 X157.364 Y125.405 E383.76913
G1 X157.684 Y124.992 E383.8343
G1 X157.884 Y124.508 E383.89962
G1 X157.952 Y123.989 E383.9649
G1 X157.884 Y123.469 E384.03031
G1 X157.684 Y122.986 E384.09551
G1 X157.364 Y122.571 E384.16088
G1 X156.95 Y122.253 E384.22599
G1 X156.467 Y122.053 E384.29119
G1 X155.948 Y121.985 E384.35647
G1 X155.428 Y122.053 E384.42188
G1 X154.946 Y122.253 E384.48697
G1 X154.53 Y122.571 E384.55228
G1 X154.212 Y122.987 E384.61759
G1 X154.012 Y123.469 E384.68268
G1 X153.944 Y123.989 E384.74809
G1 X154.012 Y124.508 E384.81337
G1 X154.212 Y124.991 E384.87858
G1 X154.53 Y125.405 E384.94369
G1 X154.945 Y125.725 E385.00905
G1 X155.428 Y125.925 E385.07425
G1 X155.948 Y125.993 E385.13966
G1 X156.092 Y125.975 E385.15776
G1 F1800 E382.15776
G1 Z1.799
G0 F9000 X157.18 Y126.278
G0 X157.175 Y126.284
G0 X158.293 Y125.344
G0 X168.193 Y105.799
G0 X41.119 Y105.727
G0 X39.681 Y104.897
G0 X38.847 Y103.449
G0 X38.85 Y80.799
G0 X39.681 Y79.36
G0 X41.119 Y78.529
G0 X188.778 Y75.727
G0 X190.216 Y74.897
G0 X191.047 Y73.458
G0 X204.725 Y37.882
G0 X204.955 Y37.329
G1 Z1.299
G1 F1800 E385.15776
G1 F1080 X205.8 Y37.679 E385.27184
G1 X206.707 Y37.798 E385.38593
G1 X207.614 Y37.679 E385.50003
G1 X208.459 Y37.329 E385.6141
G1 X209.185 Y36.772 E385.72824
G1 X209.742 Y36.046 E385.84237
G1 X210.092 Y35.201 E385.95644
G1 X210.211 Y34.294 E386.07054
G1 X210.092 Y33.387 E386.18463
G1 X209.742 Y32.542 E386.29871
G1 X209.185 Y31.816 E386.41284
G1 X208.459 Y31.259 E386.52697
G1 X207.614 Y30.909 E386.64105
G1 X206.707 Y30.79 E386.75514
G1 X205.8 Y30.909 E386.86924
G1 X204.955 Y31.259 E386.98331
G1 X204.229 Y31.816 E387.09744
G1 X203.672 Y32.542 E387.21157
G1 X203.322 Y33.387 E387.32565
G1 X203.203 Y34.294 E387.43975
G1 X203.322 Y35.201 E387.55384
G1 X203.672 Y36.046 E387.66792
G1 X204.229 Y36.772 E387.78205
G1 X204.24 Y36.781 E387.78382
G0 F9000 X204.45 Y38.202
; TYPE:WALL-INNER
G1 F1080 X205.539 Y38.653 E387.93083
G1 X206.707 Y38.807 E388.07778
G1 X207.875 Y38.653 E388.22472
G1 X208.964 Y38.202 E388.37173
G1 X209.898 Y37.485 E388.51859
G1 X210.615 Y36.551 E388.66545
G1 X211.066 Y35.462 E388.81246
G1 X211.22 Y34.294 E388.9594
G1 X211.066 Y33.126 E389.10634
G1 X210.615 Y32.037 E389.25336
G1 X209.898 Y31.103 E389.40022
G1 X208.964 Y30.386 E389.54708
G1 X207.875 Y29.935 E389.69409
G1 X206.707 Y29.781 E389.84103
G1 X205.539 Y29.935 E389.98797
G1 X204.45 Y30.386 E390.13499
G1 X203.516 Y31.103 E390.28185
G1 X202.799 Y32.037 E390.42871
G1 X202.348 Y33.126 E390.57572
G1 X202.194 Y34.294 E390.72266
G1 X202.348 Y35.462 E390.8696
G1 X202.799 Y36.551 E391.01662
G1 X203.516 Y37.485 E391.16348
G1 X203.735 Y37.653 E391.1979
G0 F9000 X190.943 Y40.803
G0 X190.943 Y40.803
G0 X191.341 Y40.719
G1 F1080 X190.99 Y39.871 E391.31237
G1 X190.432 Y39.144 E391.42668
G1 X189.705 Y38.586 E391.54098
G1 X188.858 Y38.235 E391.65534
G1 X188.046 Y38.128 E391.75749
G1 X41.851 Y38.128 E409.99174
G1 X41.039 Y38.235 E410.09389
G1 X40.192 Y38.586 E410.20824
G1 X39.465 Y39.144 E410.32255
G1 X38.907 Y39.871 E410.43685
G1 X38.556 Y40.72 E410.55144
G1 X38.449 Y41.53 E410.65334
G1 X38.449 Y42.639 E410.79167
G1 X38.551 Y43.526 E410.90303
G1 X38.907 Y44.384 E411.01889
G1 X39.465 Y45.113 E411.13339
G1 X40.193 Y45.67 E411.24772
G1 X41.039 Y46.021 E411.36196
G1 X41.851 Y46.128 E411.46411
G1 X188.046 Y46.128 E429.69836
G1 X188.858 Y46.021 E429.80051
G1 X189.704 Y45.67 E429.91475
G1 X190.432 Y45.113 E430.02908
G1 X190.99 Y44.384 E430.14358
G1 X191.341 Y43.538 E430.25782
G1 X191.448 Y42.722 E430.36047
G1 X191.444 Y41.613 E430.49879
G0 F9000 X190.943 Y40.803
G0 X190.931 Y40.842
G0 X191.047 Y43.458
G0 X188.775 Y48.634
G0 X188.858 Y48.235
G1 F1080 X188.046 Y48.128 E430.60094
G1 X41.851 Y48.128 E448.83519
G1 X41.039 Y48.235 E448.93734
G1 X40.192 Y48.586 E449.05169
G1 X39.465 Y49.144 E449.166
G1 X38.907 Y49.871 E449.2803
G1 X38.556 Y50.72 E449.39489
G1 X38.449 Y51.53 E449.49679
G1 X38.449 Y52.639 E449.63511
G1 X38.551 Y53.526 E449.74647
G1 X38.907 Y54.384 E449.86234
G1 X39.465 Y55.113 E449.97684
G1 X40.193 Y55.67 E450.09117
G1 X41.039 Y56.021 E450.20541
G1 X41.851 Y56.128 E450.30756
G1 X188.046 Y56.128 E468.5418
G1 X188.858 Y56.021 E468.64396
G1 X189.704 Y55.67 E468.7582
G1 X190.432 Y55.113 E468.87252
G1 X190.99 Y54.384 E468.98703
G1 X191.341 Y53.538 E469.10127
G1 X191.448 Y52.722 E469.20391
G1 X191.443 Y51.487 E469.35795
G1 X191.341 Y50.719 E469.45458
G1 X190.99 Y49.871 E469.56905
G1 X190.432 Y49.144 E469.68336
G1 X189.705 Y48.586 E469.79766
G1 X189.691 Y48.58 E469.79956
G0 F9000 X188.775 Y48.634
G0 X188.781 Y48.539
G0 X190.216 Y49.36
G0 X191.047 Y50.799
G0 X191.047 Y53.458
G0 X188.046 Y58.128
G0 X188.046 Y58.128
G1 F1080 X41.851 Y58.128 E488.03381
G1 X41.039 Y58.235 E488.13596
G1 X40.192 Y58.586 E488.25032
G1 X39.465 Y59.144 E488.36462
G1 X38.907 Y59.871 E488.47893
G1 X38.556 Y60.72 E488.59351
G1 X38.449 Y61.53 E488.69542
G1 X38.449 Y62.639 E488.83374
G1 X38.551 Y63.526 E488.9451
G1 X38.907 Y64.384 E489.06096
G1 X39.465 Y65.113 E489.17546
G1 X40.193 Y65.67 E489.28979
G1 X41.039 Y66.021 E489.40403
G1 X41.851 Y66.128 E489.50618
G1 X188.046 Y66.128 E507.74043
G1 X188.858 Y66.021 E507.84258
G1 X189.704 Y65.67 E507.95682
G1 X190.432 Y65.113 E508.07115
G1 X190.99 Y64.384 E508.18565
G1 X191.341 Y63.538 E508.29989
G1 X191.448 Y62.722 E508.40254
G1 X191.443 Y61.487 E508.55657
G1 X191.341 Y60.719 E508.65321
G1 X190.99 Y59.871 E508.76767
G1 X190.432 Y59.144 E508.88198
G1 X189.705 Y58.586 E508.99629
G1 X188.933 Y58.267 E509.10047
G0 F9000 X188.046 Y58.433
G0 X189.553 Y58.85
G0 X190.726 Y60.023
G0 X191.147 Y62.703
G0 X190.726 Y64.232
G0 X188.046 Y68.128
G0 X188.046 Y68.128
G1 F1080 X41.851 Y68.128 E527.33472
G1 X41.039 Y68.235 E527.43687
G1 X40.192 Y68.586 E527.55122
G1 X39.465 Y69.144 E527.66553
G1 X38.907 Y69.871 E527.77983
G1 X38.556 Y70.72 E527.89442
G1 X38.449 Y71.53 E527.99632
G1 X38.449 Y72.639 E528.13464
G1 X38.551 Y73.526 E528.24601
G1 X38.907 Y74.384 E528.36187
G1 X39.465 Y75.113 E528.47637
G1 X40.193 Y75.67 E528.5907
G1 X41.039 Y76.021 E528.70494
G1 X41.851 Y76.128 E528.80709
G1 X188.046 Y76.128 E547.04134
G1 X188.858 Y76.021 E547.14349
G1 X189.704 Y75.67 E547.25773
G1 X190.432 Y75.113 E547.37206
G1 X190.99 Y74.384 E547.48656
G1 X191.341 Y73.538 E547.6008
G1 X191.448 Y72.722 E547.70345
G1 X191.443 Y71.487 E547.85748
G1 X191.341 Y70.719 E547.95411
G1 X190.99 Y69.871 E548.06858
G1 X190.432 Y69.144 E548.18289
G1 X189.705 Y68.586 E548.29719
G1 X188.933 Y68.267 E548.40138
G0 F9000 X188.046 Y68.433
G0 X189.553 Y68.85
G0 X190.726 Y70.023
G0 X191.147 Y72.703
G0 X190.726 Y74.232
G0 X188.046 Y78.128
G0 X188.046 Y78.128
G1 F1080 X41.851 Y78.128 E566.63562
G1 X41.039 Y78.235 E566.73778
G1 X40.192 Y78.586 E566.85213
G1 X39.465 Y79.144 E566.96644
G1 X38.907 Y79.871 E567.08074
G1 X38.556 Y80.72 E567.19533
G1 X38.449 Y81.53 E567.29723
G1 X38.449 Y82.639 E567.43555
G1 X38.551 Y83.526 E567.54691
G1 X38.907 Y84.384 E567.66277
G1 X39.465 Y85.113 E567.77728
G1 X40.193 Y85.67 E567.89161
G1 X41.039 Y86.021 E568.00584
G1 X41.851 Y86.128 E568.108
G1 X188.046 Y86.128 E586.34224
G1 X188.858 Y86.021 E586.4444
G1 X189.704 Y85.67 E586.55863
G1 X190.432 Y85.113 E586.67296
G1 X190.99 Y84.384 E586.78747
G1 X191.341 Y83.538 E586.90171
G1 X191.448 Y82.722 E587.00435
G1 X191.443 Y81.487 E587.15839
G1 X191.341 Y80.719 E587.25502
G1 X190.99 Y79.871 E587.36949
G1 X190.432 Y79.144 E587.4838
G1 X189.705 Y78.586 E587.5981
G1 X188.933 Y78.267 E587.70229
G0 F9000 X188.046 Y78.433
G0 X189.553 Y78.85
G0 X190.726 Y80.023
G0 X191.147 Y82.703
G0 X190.726 Y84.232
G0 X188.046 Y88.128
G0 X188.046 Y88.128
G1 F1080 X41.851 Y88.128 E605.93653
G1 X41.039 Y88.235 E606.03868
G1 X40.192 Y88.586 E606.15304
G1 X39.465 Y89.144 E606.26734
G1 X38.907 Y89.871 E606.38165
G1 X38.556 Y90.72 E606.49623
G1 X38.449 Y91.53 E606.59814
G1 X38.449 Y92.639 E606.73646
G1 X38.551 Y93.526 E606.84782
G1 X38.907 Y94.384 E606.96368
G1 X39.465 Y95.113 E607.07818
G1 X40.193 Y95.67 E607.19251
G1 X41.039 Y96.021 E607.30675
G1 X41.851 Y96.128 E607.40891
G1 X188.046 Y96.128 E625.64315
G1 X188.858 Y96.021 E625.7453
G1 X189.704 Y95.67 E625.85954
G1 X190.432 Y95.113 E625.97387
G1 X190.99 Y94.384 E626.08837
G1 X191.341 Y93.538 E626.20261
G1 X191.448 Y92.722 E626.30526
G1 X191.443 Y91.487 E626.4593
G1 X191.341 Y90.719 E626.55593
G1 X190.99 Y89.871 E626.6704
G1 X190.432 Y89.144 E626.7847
G1 X189.705 Y88.586 E626.89901
G1 X188.933 Y88.267 E627.00319
G0 F9000 X188.046 Y88.433
G0 X189.553 Y88.85
G0 X190.726 Y90.023
G0 X191.147 Y92.703
G0 X190.726 Y94.232
G0 X188.046 Y98.128
G0 X188.046 Y98.128
G1 F1080 X41.851 Y98.128 E645.23744
G1 X41.039 Y98.235 E645.33959
G1 X40.192 Y98.586 E645.45395
G1 X39.465 Y99.144 E645.56825
G1 X38.907 Y99.871 E645.68256
G1 X38.556 Y100.72 E645.79714
G1 X38.449 Y101.53 E645.89905
G1 X38.449 Y102.639 E646.03737
G1 X38.551 Y103.526 E646.14873
G1 X38.907 Y104.384 E646.26459
G1 X39.465 Y105.113 E646.37909
G1 X40.193 Y105.67 E646.49342
G1 X41.039 Y106.021 E646.60766
G1 X41.851 Y106.128 E646.70981
G1 X188.085 Y106.123 E664.94892
G1 X188.858 Y106.021 E665.04617
G1 X189.704 Y105.67 E665.16041
G1 X190.432 Y105.113 E665.27474
G1 X190.99 Y104.384 E665.38924
G1 X191.341 Y103.538 E665.50348
G1 X191.448 Y102.726 E665.60563
G1 X191.448 Y101.617 E665.74395
G1 X191.346 Y100.731 E665.85519
G1 X190.99 Y99.871 E665.97128
G1 X190.432 Y99.144 E666.08559
G1 X189.705 Y98.586 E666.19989
G1 X188.933 Y98.267 E666.30408
G1 F1800 E663.30408
G1 Z1.799
G0 F9000 X187.571 Y98.503
G0 X189.553 Y98.85
G0 X190.726 Y100.023
G0 X191.147 Y102.706
G0 X190.726 Y104.232
G0 X189.551 Y105.407
G0 X158.077 Y121.858
G0 X158.077 Y121.858
G1 Z1.299
G1 F1800 E666.30408
G1 F1080 X157.455 Y121.38 E666.40192
G1 X156.728 Y121.079 E666.50006
G1 X155.948 Y120.976 E666.59819
G1 X155.167 Y121.079 E666.69644
G1 X154.442 Y121.38 E666.79435
G1 X153.817 Y121.858 E666.89249
G1 X153.339 Y122.483 E666.99063
G1 X153.038 Y123.208 E667.08854
G1 X152.935 Y123.989 E667.18679
G1 X153.038 Y124.769 E667.28492
G1 X153.339 Y125.496 E667.38306
G1 X153.817 Y126.118 E667.48091
G1 X154.44 Y126.598 E667.579
G1 X155.167 Y126.899 E667.67714
G1 X155.948 Y127.002 E667.77539
G1 X156.728 Y126.899 E667.87352
G1 X157.456 Y126.598 E667.97178
G1 X158.077 Y126.118 E668.06967
G1 X158.557 Y125.497 E668.16757
G1 X158.858 Y124.769 E668.26582
G1 X158.961 Y123.989 E668.36395
G1 X158.858 Y123.208 E668.46221
G1 X158.601 Y122.587 E668.54603
G1 F1800 E665.54603
G1 Z1.799
G0 F9000 X158.061 Y122.452
G0 X158.657 Y123.989
G0 X155.948 Y206.415
G0 X155.948 Y206.415
G1 Z1.299
G1 F1800 E668.54603
G1 F1080 X155.167 Y206.518 E668.64429
G1 X154.442 Y206.819 E668.7422
G1 X153.817 Y207.297 E668.84034
G1 X153.339 Y207.922 E668.93847
G1 X153.038 Y208.647 E669.03638
G1 X152.935 Y209.428 E669.13464
G1 X153.038 Y210.208 E669.23277
G1 X153.339 Y210.935 E669.33091
G1 X153.817 Y211.557 E669.42875
G1 X154.44 Y212.037 E669.52684
G1 X155.167 Y212.338 E669.62498
G1 X155.948 Y212.441 E669.72324
G1 X156.728 Y212.338 E669.82137
G1 X157.456 Y212.037 E669.91962
G1 X158.077 Y211.557 E670.01752
G1 X158.557 Y210.936 E670.11541
G1 X158.858 Y210.208 E670.21367
G1 X158.961 Y209.428 E670.3118
G1 X158.858 Y208.647 E670.41005
G1 X158.557 Y207.92 E670.50819
G1 X158.077 Y207.297 E670.60628
G1 X157.455 Y206.819 E670.70412
G1 X156.834 Y206.562 E670.78795
G0 F9000 X202.348 Y218.539
G1 F1080 X202.194 Y219.707 E670.93489
G1 X202.348 Y220.875 E671.08183
G1 X202.799 Y221.964 E671.22884
G1 X203.516 Y222.898 E671.37571
G1 X204.45 Y223.615 E671.52257
G1 X205.539 Y224.066 E671.66958
G1 X206.707 Y224.22 E671.81652
G1 X207.875 Y224.066 E671.96346
G1 X208.964 Y223.615 E672.11047
G1 X209.898 Y222.898 E672.25733
G1 X210.615 Y221.964 E672.4042
G1 X211.066 Y220.875 E672.55121
G1 X211.22 Y219.707 E672.69815
G1 X211.066 Y218.539 E672.84509
G1 X210.615 Y217.45 E672.9921
G1 X209.898 Y216.516 E673.13896
G1 X208.964 Y215.799 E673.28582
G1 X207.875 Y215.348 E673.43284
G1 X206.707 Y215.194 E673.57978
G1 X205.539 Y215.348 E673.72672
G1 X204.45 Y215.799 E673.87373
G1 X203.516 Y216.516 E674.02059
G1 X202.799 Y217.45 E674.16745
G1 X202.693 Y217.706 E674.20201
G0 F9000 X48.942 Y209.428
G1 F1080 X48.839 Y208.647 E674.30027
G1 X48.538 Y207.92 E674.39841
G1 X48.058 Y207.297 E674.4965
G1 X47.436 Y206.819 E674.59434
G1 X46.709 Y206.518 E674.69248
G1 X45.929 Y206.415 E674.79061
G1 X45.148 Y206.518 E674.88886
G1 X44.423 Y206.819 E674.98677
G1 X43.798 Y207.297 E675.08491
G1 X43.32 Y207.922 E675.18305
G1 X43.019 Y208.647 E675.28096
G1 X42.916 Y209.428 E675.37921
G1 X43.019 Y210.208 E675.47735
G1 X43.32 Y210.935 E675.57549
G1 X43.798 Y211.557 E675.67333
G1 X44.421 Y212.037 E675.77142
G1 X45.148 Y212.338 E675.86956
G1 X45.929 Y212.441 E675.96781
G1 X46.709 Y212.338 E676.06594
G1 X47.437 Y212.037 E676.1642
G1 X48.058 Y211.557 E676.26209
G1 X48.538 Y210.936 E676.35999
G1 X48.795 Y210.314 E676.44393
G1 F1800 E673.44393
G1 Z1.799
G0 F9000 X48.596 Y209.563
G0 X47.843 Y211.342
G0 X45.929 Y212.137
G0 X25.653 Y218.539
G0 X25.653 Y218.539
G1 Z1.299
G1 F1800 E676.44393
G1 F1080 X25.202 Y217.45 E676.59094
G1 X24.485 Y216.516 E676.7378
G1 X23.551 Y215.799 E676.88466
G1 X22.462 Y215.348 E677.03168
G1 X21.294 Y215.194 E677.17862
G1 X20.126 Y215.348 E677.32556
G1 X19.037 Y215.799 E677.47257
G1 X18.103 Y216.516 E677.61943
G1 X17.386 Y217.45 E677.76629
G1 X16.935 Y218.539 E677.91331
G1 X16.781 Y219.707 E678.06025
G1 X16.935 Y220.875 E678.20719
G1 X17.386 Y221.964 E678.3542
G1 X18.103 Y222.898 E678.50106
G1 X19.037 Y223.615 E678.64792
G1 X20.126 Y224.066 E678.79494
G1 X21.294 Y224.22 E678.94188
G1 X22.462 Y224.066 E679.08882
G1 X23.551 Y223.615 E679.23583
G1 X24.485 Y222.898 E679.38269
G1 X25.202 Y221.964 E679.52955
G1 X25.653 Y220.875 E679.67657
G1 X25.807 Y219.707 E679.82351
G1 X25.771 Y219.432 E679.8581
G0 F9000 X45.231 Y126.5
G0 X45.231 Y126.5
G0 X45.148 Y126.899
G1 F1080 X45.929 Y127.002 E679.95635
G1 X46.709 Y126.899 E680.05448
G1 X47.437 Y126.598 E680.15274
G1 X48.058 Y126.118 E680.25063
G1 X48.538 Y125.497 E680.34853
G1 X48.839 Y124.769 E680.44678
G1 X48.942 Y123.989 E680.54491
G1 X48.839 Y123.208 E680.64317
G1 X48.538 Y122.481 E680.74131
G1 X48.058 Y121.858 E680.8394
G1 X47.436 Y121.38 E680.93724
G1 X46.709 Y121.079 E681.03538
G1 X45.929 Y120.976 E681.13351
G1 X45.148 Y121.079 E681.23177
G1 X44.423 Y121.38 E681.32968
G1 X43.798 Y121.858 E681.42781
G1 X43.32 Y122.483 E681.52595
G1 X43.019 Y123.208 E681.62386
G1 X42.916 Y123.989 E681.72212
G1 X43.019 Y124.769 E681.82025
G1 X43.32 Y125.496 E681.91839
G1 X43.798 Y126.118 E682.01623
G1 X44.33 Y126.528 E682.1
G1 F1800 E679.1
G1 Z1.799
G0 F9000 X45.231 Y126.5
G0 X45.248 Y126.571
G0 X44.014 Y125.903
G0 X43.22 Y123.989
G0 X22.378 Y38.255
G0 X22.462 Y38.653
G1 Z1.299
G1 F1800 E682.1
G1 F1080 X23.551 Y38.202 E682.24701
G1 X24.485 Y37.485 E682.39387
G1 X25.202 Y36.551 E682.54074
G1 X25.653 Y35.462 E682.68775
G1 X25.807 Y34.294 E682.83469
G1 X25.653 Y33.126 E682.98163
G1 X25.202 Y32.037 E683.12864
G1 X24.485 Y31.103 E683.2755
G1 X23.551 Y30.386 E683.42237
G1 X22.462 Y29.935 E683.56938
G1 X21.294 Y29.781 E683.71632
G1 X20.126 Y29.935 E683.86326
G1 X19.037 Y30.386 E684.01027
G1 X18.103 Y31.103 E684.15713
G1 X17.386 Y32.037 E684.30399
G1 X16.935 Y33.126 E684.45101
G1 X16.781 Y34.294 E684.59795
G1 X16.935 Y35.462 E684.74489
G1 X17.386 Y36.551 E684.8919
G1 X18.103 Y37.485 E685.03876
G1 X19.037 Y38.202 E685.18562
G1 X20.126 Y38.653 E685.33264
G1 X21.294 Y38.807 E685.47958
G1 X21.569 Y38.771 E685.51417
G0 F9000 X22.378 Y38.255
G0 X22.433 Y38.323
G0 X20.206 Y38.359
G0 X18.319 Y37.269
G0 X12.394 Y25.794
G0 X12.794 Y25.794
G1 F1080 X215.207 Y25.794 E710.76023
G1 X215.207 Y228.207 E736.0063
G1 X12.794 Y228.207 E761.25236
G1 X12.794 Y26.694 E786.38617
G0 F9000 X13.505 Y26.233
; TYPE:FILL
G1 F1080 X17.942 Y30.67 E787.16881
G0 F9000 X17.293 Y31.435
G1 F1080 X13.234 Y27.376 E787.88477
G0 F9000 X13.234 Y28.79
G1 F1080 X16.783 Y32.34 E788.51086
G0 F9000 X16.451 Y33.422
G1 F1080 X13.234 Y30.204 E789.07839
G0 F9000 X13.234 Y31.618
G1 F1080 X16.402 Y34.786 E789.63719
G0 F9000 X17.234 Y34.675
G0 X17.35 Y35.051
G0 X17.229 Y35.382
G0 X17.765 Y36.387
G0 X17.101 Y36.9
G1 F1080 X13.234 Y33.033 E790.31928
G0 F9000 X13.234 Y34.447
G1 F1080 X38.497 Y59.71 E794.77539
G0 F9000 X39.098 Y58.897
G1 F1080 X18.686 Y38.485 E798.37583
G0 F9000 X19.198 Y37.82
G0 X19.904 Y38.039
G0 X20.206 Y38.359
G0 X20.909 Y38.352
G0 X20.8 Y39.185
G1 F1080 X39.883 Y58.268 E801.74185
G0 F9000 X40.86 Y57.831
G1 F1080 X22.164 Y39.135 E805.03961
G0 F9000 X23.247 Y38.803
G1 F1080 X38.146 Y53.703 E807.66771
G0 F9000 X38.951 Y53.446
G0 X38.849 Y52.151
G0 X38.849 Y52.151
G0 X38.009 Y52.151
G1 F1080 X24.151 Y38.294 E810.11201
G0 F9000 X24.917 Y37.644
G1 F1080 X38.098 Y50.826 E812.43708
G0 F9000 X38.468 Y49.781
G1 F1080 X25.53 Y36.843 E814.71919
G0 F9000 X25.963 Y35.863
G1 F1080 X39.054 Y48.954 E817.02829
G0 F9000 X39.826 Y48.311
G1 F1080 X26.199 Y34.684 E819.43194
G0 F9000 X25.366 Y34.575
G0 X25.271 Y33.286
G0 X25.271 Y33.286
G0 X26.104 Y33.175
G1 F1080 X40.79 Y47.861 E822.02238
G0 F9000 X42.03 Y47.687
G1 F1080 X40.698 Y46.355 E822.25733
G0 F9000 X41.019 Y45.579
G0 X42.324 Y45.728
G0 X42.324 Y45.728
G0 X42.324 Y46.567
G1 F1080 X43.591 Y47.127 E822.45464
G1 X45.005 Y47.127 E822.65199
G1 X46.42 Y47.127 E822.8493
G1 X47.834 Y47.127 E823.04665
G1 X49.248 Y47.127 E823.244
G1 X50.662 Y47.127 E823.44135
G1 X52.076 Y47.127 E823.6387
G1 X53.491 Y47.127 E823.83601
G1 X54.905 Y47.127 E824.03336
G1 X56.319 Y47.127 E824.23071
G1 X57.733 Y47.127 E824.42806
G1 X59.147 Y47.127 E824.6254
G1 X60.562 Y47.127 E824.82272
G1 X61.976 Y47.127 E825.02007
G1 X63.39 Y47.127 E825.21741
G1 X64.804 Y47.127 E825.41476
G1 X66.219 Y47.127 E825.61208
G1 X67.633 Y47.127 E825.80942
G1 X69.047 Y47.127 E826.00677
G1 X70.461 Y47.127 E826.20412
G1 X71.875 Y47.127 E826.40147
G1 X73.29 Y47.127 E826.59878
G1 X74.704 Y47.127 E826.79613
G1 X76.118 Y47.127 E826.99348
G1 X77.532 Y47.127 E827.19083
G1 X78.946 Y47.127 E827.38818
G1 X80.361 Y47.127 E827.58549
G1 X81.775 Y47.127 E827.78284
G1 X83.189 Y47.127 E827.98019
G1 X84.603 Y47.127 E828.17754
G1 X86.018 Y47.127 E828.37503
G1 X87.432 Y47.127 E828.57238
G1 X88.846 Y47.127 E828.76972
G1 X90.26 Y47.127 E828.96707
G1 X91.674 Y47.127 E829.16442
G1 X93.089 Y47.127 E829.36173
G1 X94.503 Y47.127 E829.55908
G1 X95.917 Y47.127 E829.75643
G1 X97.331 Y47.127 E829.95378
G1 X98.745 Y47.127 E830.15113
G1 X100.16 Y47.127 E830.34844
G1 X101.574 Y47.127 E830.54579
G1 X102.988 Y47.127 E830.74314
G1 X104.402 Y47.127 E830.94049
G1 X105.817 Y47.127 E831.13798
G1 X107.231 Y47.127 E831.33533
G1 X108.645 Y47.127 E831.53267
G1 X110.059 Y47.127 E831.73002
G1 X111.473 Y47.127 E831.92737
G1 X112.888 Y47.127 E832.12468
G1 X114.302 Y47.127 E832.32203
G1 X115.717 Y47.127 E832.51952
G1 X117.131 Y47.127 E832.71687
G1 X118.545 Y47.127 E832.91422
G1 X119.959 Y47.127 E833.11157
G1 X121.374 Y47.127 E833.30888
G1 X122.788 Y47.127 E833.50623
G1 X124.202 Y47.127 E833.70358
G1 X125.616 Y47.127 E833.90093
G1 X127.03 Y47.127 E834.09828
G1 X128.445 Y47.127 E834.29559
G1 X129.859 Y47.127 E834.49294
G1 X131.273 Y47.127 E834.69029
G1 X132.687 Y47.127 E834.88764
G1 X134.102 Y47.127 E835.08512
G1 X135.516 Y47.127 E835.28247
G1 X136.93 Y47.127 E835.47982
G1 X138.344 Y47.127 E835.67717
G1 X139.758 Y47.127 E835.87452
G1 X141.173 Y47.127 E836.07183
G1 X142.587 Y47.127 E836.26918
G1 X144.001 Y47.127 E836.46653
G1 X145.415 Y47.127 E836.66388
G1 X146.829 Y47.127 E836.86123
G1 X148.244 Y47.127 E837.05854
G1 X149.658 Y47.127 E837.25589
G1 X151.072 Y47.127 E837.45324
G1 X152.486 Y47.127 E837.65059
G1 X153.901 Y47.127 E837.84807
G1 X155.315 Y47.127 E838.04542
G1 X156.729 Y47.127 E838.24277
G1 X158.143 Y47.127 E838.44012
G1 X159.557 Y47.127 E838.63747
G1 X160.972 Y47.127 E838.83478
G1 X162.386 Y47.127 E839.03213
G1 X163.8 Y47.127 E839.22948
G1 X165.214 Y47.127 E839.42683
G1 X166.628 Y47.127 E839.62418
G1 X168.043 Y47.127 E839.82149
G1 X169.457 Y47.127 E840.01884
G1 X170.871 Y47.127 E840.21619
G1 X172.285 Y47.127 E840.41354
G1 X173.699 Y47.127 E840.61089
G1 X175.114 Y47.127 E840.8082
G1 X176.528 Y47.127 E841.00555
G1 X177.942 Y47.127 E841.2029
G1 X179.356 Y47.127 E841.40024
G1 X180.771 Y47.127 E841.59756
G1 X182.185 Y47.127 E841.79491
G1 X183.599 Y47.127 E841.99225
G1 X185.013 Y47.127 E842.1896
G1 X186.427 Y47.127 E842.38695
G1 X187.695 Y47.687 E842.55984
G0 F9000 X187.989 Y46.567
G1 F1080 X189.407 Y47.986 E842.81005
G0 F9000 X189.085 Y48.763
G0 X188.872 Y45.582
G0 X188.872 Y45.582
G0 X189.194 Y46.358
G1 F1080 X214.766 Y71.93 E847.32065
G0 F9000 X214.766 Y70.516
G1 F1080 X190.14 Y45.89 E851.6644
G0 F9000 X190.895 Y45.231
G1 F1080 X214.766 Y69.102 E855.87497
G0 F9000 X214.766 Y67.687
G1 F1080 X191.465 Y44.387 E859.98491
G0 F9000 X191.812 Y43.32
G1 F1080 X214.766 Y66.273 E864.03364
G0 F9000 X214.766 Y64.859
G1 F1080 X191.884 Y41.977 E868.06976
G0 F9000 X191.045 Y41.981
G0 X190.883 Y40.66
G0 X190.883 Y40.66
G0 X191.659 Y40.338
G1 F1080 X214.766 Y63.445 E872.14557
G0 F9000 X214.766 Y62.03
G1 F1080 X178.969 Y26.234 E878.45966
G0 F9000 X177.555 Y26.234
G1 F1080 X189.235 Y37.915 E880.51997
G0 F9000 X188.913 Y38.691
G0 X187.594 Y38.528
G0 X187.594 Y38.528
G0 X187.594 Y37.688
G1 F1080 X176.141 Y26.234 E882.54024
G0 F9000 X174.726 Y26.234
G1 F1080 X186.18 Y37.688 E884.56059
G0 F9000 X184.766 Y37.688
G1 F1080 X173.312 Y26.234 E886.58094
G0 F9000 X171.898 Y26.234
G1 F1080 X183.352 Y37.688 E888.6013
G0 F9000 X181.937 Y37.688
G1 F1080 X170.484 Y26.234 E890.62156
G0 F9000 X169.069 Y26.234
G1 F1080 X180.523 Y37.688 E892.64192
G0 F9000 X179.109 Y37.688
G1 F1080 X167.655 Y26.234 E894.66227
G0 F9000 X166.241 Y26.234
G1 F1080 X177.695 Y37.688 E896.68262
G0 F9000 X176.281 Y37.688
G1 F1080 X164.827 Y26.234 E898.70298
G0 F9000 X163.413 Y26.234
G1 F1080 X174.866 Y37.688 E900.72324
G0 F9000 X173.452 Y37.688
G1 F1080 X161.998 Y26.234 E902.7436
G0 F9000 X160.584 Y26.234
G1 F1080 X172.038 Y37.688 E904.76395
G0 F9000 X170.624 Y37.688
G1 F1080 X159.17 Y26.234 E906.78431
G0 F9000 X157.756 Y26.234
G1 F1080 X169.209 Y37.688 E908.80457
G0 F9000 X167.795 Y37.688
G1 F1080 X156.342 Y26.234 E910.82484
G0 F9000 X154.927 Y26.234
G1 F1080 X166.381 Y37.688 E912.84519
G0 F9000 X164.967 Y37.688
G1 F1080 X153.513 Y26.234 E914.86555
G0 F9000 X152.099 Y26.234
G1 F1080 X163.553 Y37.688 E916.8859
G0 F9000 X162.138 Y37.688
G1 F1080 X150.685 Y26.234 E918.90616
G0 F9000 X149.27 Y26.234
G1 F1080 X160.724 Y37.688 E920.92652
G0 F9000 X159.31 Y37.688
G1 F1080 X147.856 Y26.234 E922.94687
G0 F9000 X146.442 Y26.234
G1 F1080 X157.896 Y37.688 E924.96723
G0 F9000 X156.482 Y37.688
G1 F1080 X145.028 Y26.234 E926.98758
G0 F9000 X143.614 Y26.234
G1 F1080 X155.067 Y37.688 E929.00785
G0 F9000 X153.653 Y37.688
G1 F1080 X142.199 Y26.234 E931.0282
G0 F9000 X140.785 Y26.234
G1 F1080 X152.239 Y37.688 E933.04855
G0 F9000 X150.825 Y37.688
G1 F1080 X139.371 Y26.234 E935.06891
G0 F9000 X137.957 Y26.234
G1 F1080 X149.41 Y37.688 E937.08917
G0 F9000 X147.996 Y37.688
G1 F1080 X136.543 Y26.234 E939.10944
G0 F9000 X135.128 Y26.234
G1 F1080 X146.582 Y37.688 E941.12979
G0 F9000 X145.168 Y37.688
G1 F1080 X133.714 Y26.234 E943.15015
G0 F9000 X132.3 Y26.234
G1 F1080 X143.754 Y37.688 E945.1705
G0 F9000 X142.339 Y37.688
G1 F1080 X130.886 Y26.234 E947.19077
G0 F9000 X129.471 Y26.234
G1 F1080 X140.925 Y37.688 E949.21112
G0 F9000 X139.511 Y37.688
G1 F1080 X128.057 Y26.234 E951.23147
G0 F9000 X126.643 Y26.234
G1 F1080 X138.097 Y37.688 E953.25183
G0 F9000 X136.683 Y37.688
G1 F1080 X125.229 Y26.234 E955.27218
G0 F9000 X123.815 Y26.234
G1 F1080 X135.268 Y37.688 E957.29245
G0 F9000 X133.854 Y37.688
G1 F1080 X122.4 Y26.234 E959.3128
G0 F9000 X120.986 Y26.234
G1 F1080 X132.44 Y37.688 E961.33316
G0 F9000 X131.026 Y37.688
G1 F1080 X119.572 Y26.234 E963.35351
G0 F9000 X118.158 Y26.234
G1 F1080 X129.611 Y37.688 E965.37378
G0 F9000 X128.197 Y37.688
G1 F1080 X116.744 Y26.234 E967.39404
G0 F9000 X115.329 Y26.234
G1 F1080 X126.783 Y37.688 E969.4144
G0 F9000 X125.369 Y37.688
G1 F1080 X113.914 Y26.233 E971.43493
G0 F9000 X112.5 Y26.233
G1 F1080 X123.955 Y37.688 E973.45546
G0 F9000 X122.54 Y37.688
G1 F1080 X111.086 Y26.233 E975.4759
G0 F9000 X109.672 Y26.233
G1 F1080 X121.126 Y37.688 E977.49634
G0 F9000 X119.712 Y37.688
G1 F1080 X108.258 Y26.233 E979.51678
G0 F9000 X106.843 Y26.233
G1 F1080 X118.298 Y37.688 E981.53731
G0 F9000 X116.884 Y37.688
G1 F1080 X105.429 Y26.233 E983.55784
G0 F9000 X104.015 Y26.233
G1 F1080 X115.469 Y37.688 E985.57828
G0 F9000 X114.055 Y37.688
G1 F1080 X102.601 Y26.233 E987.59873
G0 F9000 X101.186 Y26.233
G1 F1080 X112.641 Y37.688 E989.61926
G0 F9000 X111.227 Y37.688
G1 F1080 X99.772 Y26.233 E991.63979
G0 F9000 X98.358 Y26.233
G1 F1080 X109.812 Y37.688 E993.66023
G0 F9000 X108.398 Y37.688
G1 F1080 X96.944 Y26.233 E995.68067
G0 F9000 X95.53 Y26.233
G1 F1080 X106.984 Y37.688 E997.70111
G0 F9000 X105.57 Y37.688
G1 F1080 X94.115 Y26.233 E999.72164
G0 F9000 X92.701 Y26.233
G1 F1080 X104.156 Y37.688 E1001.74217
G0 F9000 X102.741 Y37.688
G1 F1080 X91.287 Y26.233 E1003.76262
G0 F9000 X89.873 Y26.233
G1 F1080 X101.327 Y37.688 E1005.78306
G0 F9000 X99.913 Y37.688
G1 F1080 X88.459 Y26.233 E1007.8035
G0 F9000 X87.044 Y26.233
G1 F1080 X98.499 Y37.688 E1009.82403
G0 F9000 X97.085 Y37.688
G1 F1080 X85.63 Y26.233 E1011.84456
G0 F9000 X84.216 Y26.233
G1 F1080 X95.67 Y37.688 E1013.865
G0 F9000 X94.256 Y37.688
G1 F1080 X82.802 Y26.233 E1015.88545
G0 F9000 X81.387 Y26.233
G1 F1080 X92.842 Y37.688 E1017.90598
G0 F9000 X91.428 Y37.688
G1 F1080 X79.973 Y26.233 E1019.92651
G0 F9000 X78.559 Y26.233
G1 F1080 X90.013 Y37.688 E1021.94695
G0 F9000 X88.599 Y37.688
G1 F1080 X77.145 Y26.233 E1023.96739
G0 F9000 X75.731 Y26.233
G1 F1080 X87.185 Y37.688 E1025.98783
G0 F9000 X85.771 Y37.688
G1 F1080 X74.316 Y26.233 E1028.00836
G0 F9000 X72.902 Y26.233
G1 F1080 X84.357 Y37.688 E1030.02889
G0 F9000 X82.942 Y37.688
G1 F1080 X71.488 Y26.233 E1032.04934
G0 F9000 X70.074 Y26.233
G1 F1080 X81.528 Y37.688 E1034.06978
G0 F9000 X80.114 Y37.688
G1 F1080 X68.66 Y26.233 E1036.09022
G0 F9000 X67.245 Y26.233
G1 F1080 X78.7 Y37.688 E1038.11075
G0 F9000 X77.286 Y37.688
G1 F1080 X65.831 Y26.233 E1040.13128
G0 F9000 X64.417 Y26.233
G1 F1080 X75.871 Y37.688 E1042.15172
G0 F9000 X74.457 Y37.688
G1 F1080 X63.003 Y26.233 E1044.17216
G0 F9000 X61.589 Y26.233
G1 F1080 X73.043 Y37.688 E1046.19261
G0 F9000 X71.629 Y37.688
G1 F1080 X60.174 Y26.233 E1048.21314
G0 F9000 X58.76 Y26.233
G1 F1080 X70.214 Y37.688 E1050.23358
G0 F9000 X68.8 Y37.688
G1 F1080 X57.346 Y26.233 E1052.25402
G0 F9000 X55.932 Y26.233
G1 F1080 X67.386 Y37.688 E1054.27446
G0 F9000 X65.972 Y37.688
G1 F1080 X54.517 Y26.233 E1056.29499
G0 F9000 X53.103 Y26.233
G1 F1080 X64.558 Y37.688 E1058.31552
G0 F9000 X63.143 Y37.688
G1 F1080 X51.689 Y26.233 E1060.33597
G0 F9000 X50.275 Y26.233
G1 F1080 X61.729 Y37.688 E1062.35641
G0 F9000 X60.315 Y37.688
G1 F1080 X48.861 Y26.233 E1064.37685
G0 F9000 X47.446 Y26.233
G1 F1080 X58.901 Y37.688 E1066.39738
G0 F9000 X57.487 Y37.688
G1 F1080 X46.032 Y26.233 E1068.41791
G0 F9000 X44.618 Y26.233
G1 F1080 X56.072 Y37.688 E1070.43835
G0 F9000 X54.658 Y37.688
G1 F1080 X43.204 Y26.233 E1072.45879
G0 F9000 X41.79 Y26.233
G1 F1080 X53.244 Y37.688 E1074.47924
G0 F9000 X51.83 Y37.688
G1 F1080 X40.375 Y26.233 E1076.49977
G0 F9000 X38.961 Y26.233
G1 F1080 X50.416 Y37.688 E1078.5203
G0 F9000 X49.001 Y37.688
G1 F1080 X37.547 Y26.233 E1080.54074
G0 F9000 X36.133 Y26.233
G1 F1080 X47.587 Y37.688 E1082.56118
G0 F9000 X46.173 Y37.688
G1 F1080 X34.718 Y26.233 E1084.58171
G0 F9000 X33.304 Y26.233
G1 F1080 X44.759 Y37.688 E1086.60224
G0 F9000 X43.344 Y37.688
G1 F1080 X31.89 Y26.233 E1088.62268
G0 F9000 X30.476 Y26.233
G1 F1080 X41.93 Y37.688 E1090.64313
G0 F9000 X40.719 Y37.891
G1 F1080 X29.062 Y26.233 E1092.69938
G0 F9000 X27.647 Y26.233
G1 F1080 X39.769 Y38.355 E1094.83756
G0 F9000 X39.011 Y39.011
G1 F1080 X26.233 Y26.233 E1097.09145
G0 F9000 X24.819 Y26.233
G1 F1080 X38.438 Y39.852 E1099.49368
G0 F9000 X38.086 Y40.914
G1 F1080 X23.405 Y26.233 E1102.08324
G0 F9000 X21.991 Y26.233
G1 F1080 X38.009 Y42.251 E1104.90863
G0 F9000 X38.849 Y42.251
G0 X38.995 Y43.551
G0 X38.995 Y43.551
G0 X38.218 Y43.875
G1 F1080 X20.576 Y26.233 E1108.02048
G0 F9000 X19.162 Y26.233
G1 F1080 X22.412 Y29.483 E1108.59374
G0 F9000 X22.303 Y30.318
G0 X21.013 Y30.221
G0 X21.013 Y30.221
G0 X20.902 Y29.388
G1 F1080 X17.748 Y26.233 E1109.15016
G0 F9000 X16.334 Y26.233
G1 F1080 X19.724 Y29.623 E1109.74812
G0 F9000 X18.743 Y30.057
G1 F1080 X14.919 Y26.233 E1110.42263
G0 F9000 X14.919 Y25.394
G0 X12.394 Y35.861
G0 X12.394 Y35.861
G0 X13.234 Y35.861
G1 F1080 X38.109 Y60.736 E1114.81029
G0 F9000 X38.009 Y62.05
G1 F1080 X13.234 Y37.275 E1119.18032
G0 F9000 X13.234 Y38.69
G1 F1080 X38.112 Y63.568 E1123.56851
G0 F9000 X38.939 Y63.4
G0 X38.97 Y63.43
G0 X39.681 Y64.897
G0 X41.166 Y65.634
G0 X41.003 Y66.459
G1 F1080 X42.378 Y67.127 E1123.78511
G1 X43.792 Y67.127 E1123.98245
G1 X45.206 Y67.127 E1124.1798
G1 X46.62 Y67.127 E1124.37715
G1 X48.035 Y67.127 E1124.57446
G1 X49.449 Y67.127 E1124.77181
G1 X50.863 Y67.127 E1124.96916
G1 X52.277 Y67.127 E1125.16651
G1 X53.691 Y67.127 E1125.36386
G1 X55.106 Y67.127 E1125.56117
G1 X56.52 Y67.127 E1125.75852
G1 X57.934 Y67.127 E1125.95587
G1 X59.348 Y67.127 E1126.15322
G1 X60.763 Y67.127 E1126.35071
G1 X62.177 Y67.127 E1126.54806
G1 X63.591 Y67.127 E1126.7454
G1 X65.005 Y67.127 E1126.94275
G1 X66.419 Y67.127 E1127.1401
G1 X67.834 Y67.127 E1127.33741
G1 X69.248 Y67.127 E1127.53476
G1 X70.662 Y67.127 E1127.73211
G1 X72.076 Y67.127 E1127.92946
G1 X73.49 Y67.127 E1128.12681
G1 X74.905 Y67.127 E1128.32412
G1 X76.319 Y67.127 E1128.52147
G1 X77.733 Y67.127 E1128.71882
G1 X79.147 Y67.127 E1128.91617
G1 X80.562 Y67.127 E1129.11366
G1 X81.976 Y67.127 E1129.31101
G1 X83.39 Y67.127 E1129.50836
G1 X84.804 Y67.127 E1129.7057
G1 X86.218 Y67.127 E1129.90305
G1 X87.633 Y67.127 E1130.10037
G1 X89.047 Y67.127 E1130.29771
G1 X90.461 Y67.127 E1130.49506
G1 X91.875 Y67.127 E1130.69241
G1 X93.289 Y67.127 E1130.88976
G1 X94.704 Y67.127 E1131.08707
G1 X96.118 Y67.127 E1131.28442
G1 X97.532 Y67.127 E1131.48177
G1 X98.946 Y67.127 E1131.67912
G1 X100.361 Y67.127 E1131.87661
G1 X101.775 Y67.127 E1132.07396
G1 X103.189 Y67.127 E1132.27131
G1 X104.603 Y67.127 E1132.46866
G1 X106.017 Y67.127 E1132.666
G1 X107.432 Y67.127 E1132.86332
G1 X108.846 Y67.127 E1133.06067
G1 X110.26 Y67.127 E1133.25801
G1 X111.674 Y67.127 E1133.45536
G1 X113.088 Y67.127 E1133.65271
G1 X114.503 Y67.127 E1133.85002
G1 X115.918 Y67.127 E1134.04751
G1 X117.332 Y67.127 E1134.24486
G1 X118.746 Y67.127 E1134.44221
G1 X120.16 Y67.127 E1134.63956
G1 X121.574 Y67.127 E1134.83691
G1 X122.989 Y67.127 E1135.03422
G1 X124.403 Y67.127 E1135.23157
G1 X125.817 Y67.127 E1135.42892
G1 X127.231 Y67.127 E1135.62627
G1 X128.645 Y67.127 E1135.82362
G1 X130.06 Y67.127 E1136.02093
G1 X131.474 Y67.127 E1136.21828
G1 X132.888 Y67.127 E1136.41563
G1 X134.302 Y67.127 E1136.61297
G1 X135.717 Y67.127 E1136.81046
G1 X137.131 Y67.127 E1137.00781
G1 X138.545 Y67.127 E1137.20516
G1 X139.959 Y67.127 E1137.40251
G1 X141.373 Y67.127 E1137.59986
G1 X142.788 Y67.127 E1137.79717
G1 X144.202 Y67.127 E1137.99452
G1 X145.616 Y67.127 E1138.19187
G1 X147.03 Y67.127 E1138.38922
G1 X148.444 Y67.127 E1138.58657
G1 X149.859 Y67.127 E1138.78388
G1 X151.273 Y67.127 E1138.98123
G1 X152.687 Y67.127 E1139.17858
G1 X154.101 Y67.127 E1139.37593
G1 X155.516 Y67.127 E1139.57341
G1 X156.93 Y67.127 E1139.77076
G1 X158.344 Y67.127 E1139.96811
G1 X159.758 Y67.127 E1140.16546
G1 X161.172 Y67.127 E1140.36281
G1 X162.587 Y67.127 E1140.56012
G1 X164.001 Y67.127 E1140.75747
G1 X165.415 Y67.127 E1140.95482
G1 X166.829 Y67.127 E1141.15217
G1 X168.243 Y67.127 E1141.34952
G1 X169.658 Y67.127 E1141.54683
G1 X171.072 Y67.127 E1141.74418
G1 X172.486 Y67.127 E1141.94153
G1 X173.9 Y67.127 E1142.13888
G1 X175.315 Y67.127 E1142.33636
G1 X176.729 Y67.127 E1142.53371
G1 X178.143 Y67.127 E1142.73106
G1 X179.557 Y67.127 E1142.92841
G1 X180.971 Y67.127 E1143.12576
G1 X182.386 Y67.127 E1143.32307
G1 X183.8 Y67.127 E1143.52042
G1 X185.214 Y67.127 E1143.71777
G1 X186.628 Y67.127 E1143.91512
G1 X187.895 Y67.687 E1144.08789
G0 F9000 X188.177 Y66.555
G1 F1080 X189.75 Y68.128 E1144.36535
G0 F9000 X189.335 Y66.299
G1 F1080 X214.766 Y91.729 E1148.851
G0 F9000 X214.766 Y90.315
G1 F1080 X190.254 Y65.803 E1153.17464
G0 F9000 X190.982 Y65.117
G1 F1080 X214.766 Y88.901 E1157.36986
G0 F9000 X214.766 Y87.486
G1 F1080 X191.524 Y64.244 E1161.46948
G0 F9000 X191.836 Y63.143
G1 F1080 X214.766 Y86.072 E1165.51398
G0 F9000 X214.766 Y84.658
G1 F1080 X191.883 Y61.775 E1169.55028
G0 F9000 X191.517 Y59.995
G1 F1080 X214.766 Y83.244 E1173.65114
G0 F9000 X214.766 Y81.829
G1 F1080 X189.264 Y56.328 E1178.14931
G0 F9000 X190.196 Y55.846
G1 F1080 X214.766 Y80.415 E1182.48308
G0 F9000 X214.766 Y79.001
G1 F1080 X190.938 Y55.174 E1186.68598
G0 F9000 X191.494 Y54.315
G1 F1080 X214.766 Y77.587 E1190.7909
G0 F9000 X214.766 Y76.173
G1 F1080 X191.824 Y53.231 E1194.8376
G0 F9000 X191.884 Y51.876
G1 F1080 X214.766 Y74.758 E1198.87372
G0 F9000 X214.766 Y73.344
G1 F1080 X191.588 Y50.167 E1202.96197
G0 F9000 X191.019 Y51.205
G0 X191.047 Y53.458
G0 X190.216 Y54.897
G0 X188.088 Y56.566
G0 X188.088 Y56.566
G1 F1080 X189.579 Y58.057 E1203.22496
G0 F9000 X187.795 Y57.687
G1 F1080 X186.528 Y57.127 E1203.42227
G1 X185.114 Y57.127 E1203.61962
G1 X183.699 Y57.127 E1203.81693
G1 X182.285 Y57.127 E1204.01428
G1 X180.871 Y57.127 E1204.21163
G1 X179.457 Y57.127 E1204.40898
G1 X178.043 Y57.127 E1204.60633
G1 X176.628 Y57.127 E1204.80382
G1 X175.214 Y57.127 E1205.00116
G1 X173.8 Y57.127 E1205.19851
G1 X172.386 Y57.127 E1205.39586
G1 X170.971 Y57.127 E1205.59317
G1 X169.557 Y57.127 E1205.79052
G1 X168.143 Y57.127 E1205.98787
G1 X166.729 Y57.127 E1206.18522
G1 X165.315 Y57.127 E1206.38257
G1 X163.9 Y57.127 E1206.57988
G1 X162.486 Y57.127 E1206.77723
G1 X161.072 Y57.127 E1206.97458
G1 X159.658 Y57.127 E1207.17193
G1 X158.244 Y57.127 E1207.36928
G1 X156.829 Y57.127 E1207.56677
G1 X155.415 Y57.127 E1207.76412
G1 X154.001 Y57.127 E1207.96146
G1 X152.587 Y57.127 E1208.15881
G1 X151.172 Y57.127 E1208.35613
G1 X149.758 Y57.127 E1208.55347
G1 X148.344 Y57.127 E1208.75082
G1 X146.93 Y57.127 E1208.94817
G1 X145.516 Y57.127 E1209.14552
G1 X144.101 Y57.127 E1209.34283
G1 X142.687 Y57.127 E1209.54018
G1 X141.273 Y57.127 E1209.73753
G1 X139.859 Y57.127 E1209.93488
G1 X138.445 Y57.127 E1210.13223
G1 X137.03 Y57.127 E1210.32954
G1 X135.616 Y57.127 E1210.52689
G1 X134.202 Y57.127 E1210.72424
G1 X132.788 Y57.127 E1210.92159
G1 X131.373 Y57.127 E1211.1189
G1 X129.959 Y57.127 E1211.31625
G1 X128.545 Y57.127 E1211.5136
G1 X127.131 Y57.127 E1211.71095
G1 X125.717 Y57.127 E1211.90829
G1 X124.302 Y57.127 E1212.10561
G1 X122.888 Y57.127 E1212.30296
G1 X121.474 Y57.127 E1212.5003
G1 X120.06 Y57.127 E1212.69765
G1 X118.646 Y57.127 E1212.895
G1 X117.231 Y57.127 E1213.09231
G1 X115.817 Y57.127 E1213.28966
G1 X114.402 Y57.127 E1213.48715
G1 X112.988 Y57.127 E1213.6845
G1 X111.574 Y57.127 E1213.88185
G1 X110.16 Y57.127 E1214.0792
G1 X108.745 Y57.127 E1214.27651
G1 X107.331 Y57.127 E1214.47386
G1 X105.917 Y57.127 E1214.67121
G1 X104.503 Y57.127 E1214.86856
G1 X103.089 Y57.127 E1215.06591
G1 X101.674 Y57.127 E1215.2634
G1 X100.26 Y57.127 E1215.46074
G1 X98.846 Y57.127 E1215.65809
G1 X97.432 Y57.127 E1215.85544
G1 X96.017 Y57.127 E1216.05275
G1 X94.603 Y57.127 E1216.2501
G1 X93.189 Y57.127 E1216.44745
G1 X91.775 Y57.127 E1216.6448
G1 X90.361 Y57.127 E1216.84215
G1 X88.946 Y57.127 E1217.03946
G1 X87.532 Y57.127 E1217.23681
G1 X86.118 Y57.127 E1217.43416
G1 X84.704 Y57.127 E1217.63151
G1 X83.29 Y57.127 E1217.82886
G1 X81.875 Y57.127 E1218.02635
G1 X80.461 Y57.127 E1218.22369
G1 X79.047 Y57.127 E1218.42104
G1 X77.633 Y57.127 E1218.61839
G1 X76.218 Y57.127 E1218.8157
G1 X74.804 Y57.127 E1219.01305
G1 X73.39 Y57.127 E1219.2104
G1 X71.976 Y57.127 E1219.40775
G1 X70.562 Y57.127 E1219.6051
G1 X69.147 Y57.127 E1219.80241
G1 X67.733 Y57.127 E1219.99976
G1 X66.319 Y57.127 E1220.19711
G1 X64.905 Y57.127 E1220.39446
G1 X63.491 Y57.127 E1220.59181
G1 X62.076 Y57.127 E1220.7893
G1 X60.662 Y57.127 E1220.98665
G1 X59.248 Y57.127 E1221.18399
G1 X57.834 Y57.127 E1221.38134
G1 X56.419 Y57.127 E1221.57866
G1 X55.005 Y57.127 E1221.776
G1 X53.591 Y57.127 E1221.97335
G1 X52.177 Y57.127 E1222.1707
G1 X50.763 Y57.127 E1222.36805
G1 X49.348 Y57.127 E1222.56536
G1 X47.934 Y57.127 E1222.76271
G1 X46.52 Y57.127 E1222.96006
G1 X45.106 Y57.127 E1223.15741
G1 X43.692 Y57.127 E1223.35476
G1 X42.277 Y57.127 E1223.55225
G1 X40.87 Y56.427 E1223.74825
G0 F9000 X41.122 Y55.622
G0 X41.131 Y58.536
G0 X39.681 Y59.36
G0 X38.85 Y60.799
G0 X38.847 Y63.449
G0 X41.167 Y68.621
G0 X40.933 Y67.803
G1 F1080 X13.234 Y40.104 E1228.63404
G0 F9000 X13.234 Y41.518
G1 F1080 X39.94 Y68.224 E1233.34467
G0 F9000 X39.142 Y68.841
G1 F1080 X13.234 Y42.932 E1237.91463
G0 F9000 X13.234 Y44.346
G1 F1080 X38.528 Y69.641 E1242.37629
G0 F9000 X38.12 Y70.647
G1 F1080 X13.234 Y45.761 E1246.7659
G0 F9000 X13.234 Y47.175
G1 F1080 X38.009 Y71.95 E1251.13592
G0 F9000 X38.849 Y71.95
G0 X38.934 Y73.357
G0 X38.934 Y73.357
G0 X38.099 Y73.454
G1 F1080 X13.234 Y48.589 E1255.52182
G0 F9000 X13.234 Y50.003
G1 F1080 X41.022 Y77.792 E1260.42339
G0 F9000 X40.003 Y78.186
G1 F1080 X13.234 Y51.417 E1265.14514
G0 F9000 X13.234 Y52.832
G1 F1080 X39.197 Y78.795 E1269.72471
G0 F9000 X38.572 Y79.584
G1 F1080 X13.234 Y54.246 E1274.19404
G0 F9000 X13.234 Y55.66
G1 F1080 X38.142 Y80.568 E1278.58753
G0 F9000 X38.009 Y81.849
G1 F1080 X13.234 Y57.074 E1282.95755
G0 F9000 X13.234 Y58.489
G1 F1080 X38.086 Y83.341 E1287.34116
G0 F9000 X38.921 Y83.244
G0 X38.893 Y83.215
G0 X39.681 Y84.897
G0 X41.344 Y85.657
G0 X41.235 Y86.49
G1 F1080 X42.579 Y87.126 E1287.55221
G1 X43.993 Y87.126 E1287.74955
G1 X45.407 Y87.126 E1287.94673
G1 X46.821 Y87.126 E1288.1439
G1 X48.235 Y87.126 E1288.34107
G1 X49.65 Y87.126 E1288.53838
G1 X51.064 Y87.126 E1288.73573
G1 X52.478 Y87.126 E1288.93291
G1 X53.892 Y87.126 E1289.13008
G1 X55.306 Y87.126 E1289.32725
G1 X56.721 Y87.126 E1289.52456
G1 X58.135 Y87.126 E1289.72174
G1 X59.549 Y87.126 E1289.91891
G1 X60.963 Y87.126 E1290.11608
G1 X62.378 Y87.126 E1290.31339
G1 X63.792 Y87.126 E1290.51074
G1 X65.206 Y87.126 E1290.70791
G1 X66.62 Y87.126 E1290.90509
G1 X68.034 Y87.126 E1291.10226
G1 X69.449 Y87.126 E1291.29957
G1 X70.863 Y87.126 E1291.49692
G1 X72.277 Y87.126 E1291.69409
G1 X73.691 Y87.126 E1291.89127
G1 X75.105 Y87.126 E1292.08844
G1 X76.52 Y87.126 E1292.28575
G1 X77.934 Y87.126 E1292.48292
G1 X79.348 Y87.126 E1292.6801
G1 X80.762 Y87.126 E1292.87727
G1 X82.177 Y87.126 E1293.07458
G1 X83.591 Y87.126 E1293.27193
G1 X85.005 Y87.126 E1293.4691
G1 X86.419 Y87.126 E1293.66627
G1 X87.833 Y87.126 E1293.86345
G1 X89.248 Y87.126 E1294.06076
G1 X90.662 Y87.126 E1294.25811
G1 X92.076 Y87.126 E1294.45528
G1 X93.49 Y87.126 E1294.65245
G1 X94.904 Y87.126 E1294.84963
G1 X96.319 Y87.126 E1295.04694
G1 X97.733 Y87.126 E1295.24411
G1 X99.147 Y87.126 E1295.44128
G1 X100.561 Y87.126 E1295.63845
G1 X101.976 Y87.126 E1295.83577
G1 X103.39 Y87.126 E1296.03312
G1 X104.804 Y87.126 E1296.23029
G1 X106.218 Y87.126 E1296.42746
G1 X107.632 Y87.126 E1296.62463
G1 X109.047 Y87.126 E1296.82195
G1 X110.461 Y87.126 E1297.01929
G1 X111.875 Y87.126 E1297.21647
G1 X113.289 Y87.126 E1297.41364
G1 X114.703 Y87.126 E1297.61081
G1 X116.118 Y87.127 E1297.80812
G1 X117.533 Y87.127 E1298.00544
G1 X118.947 Y87.127 E1298.20279
G1 X120.361 Y87.127 E1298.40013
G1 X121.775 Y87.127 E1298.59748
G1 X123.189 Y87.127 E1298.79483
G1 X124.604 Y87.127 E1298.99214
G1 X126.018 Y87.127 E1299.18949
G1 X127.432 Y87.127 E1299.38684
G1 X128.846 Y87.127 E1299.58419
G1 X130.261 Y87.127 E1299.78168
G1 X131.675 Y87.127 E1299.97903
G1 X133.089 Y87.127 E1300.17638
G1 X134.503 Y87.127 E1300.37373
G1 X135.917 Y87.127 E1300.57107
G1 X137.332 Y87.127 E1300.76839
G1 X138.746 Y87.127 E1300.96574
G1 X140.16 Y87.127 E1301.16308
G1 X141.574 Y87.127 E1301.36043
G1 X142.988 Y87.127 E1301.55778
G1 X144.403 Y87.127 E1301.75509
G1 X145.817 Y87.127 E1301.95244
G1 X147.231 Y87.127 E1302.14979
G1 X148.645 Y87.127 E1302.34714
G1 X150.06 Y87.127 E1302.54463
G1 X151.474 Y87.127 E1302.74198
G1 X152.888 Y87.127 E1302.93933
G1 X154.302 Y87.127 E1303.13668
G1 X155.716 Y87.127 E1303.33403
G1 X157.131 Y87.127 E1303.53134
G1 X158.545 Y87.127 E1303.72869
G1 X159.959 Y87.127 E1303.92604
G1 X161.373 Y87.127 E1304.12338
G1 X162.787 Y87.127 E1304.32073
G1 X164.202 Y87.127 E1304.51805
G1 X165.616 Y87.127 E1304.71539
G1 X167.03 Y87.127 E1304.91274
G1 X168.444 Y87.127 E1305.11009
G1 X169.858 Y87.127 E1305.30744
G1 X171.273 Y87.127 E1305.50475
G1 X172.687 Y87.127 E1305.7021
G1 X174.101 Y87.127 E1305.89945
G1 X175.515 Y87.127 E1306.0968
G1 X176.93 Y87.127 E1306.29411
G1 X178.344 Y87.127 E1306.49146
G1 X179.758 Y87.127 E1306.68881
G1 X181.172 Y87.127 E1306.88616
G1 X182.586 Y87.127 E1307.08351
G1 X184.001 Y87.127 E1307.28082
G1 X185.415 Y87.127 E1307.47817
G1 X186.829 Y87.127 E1307.67552
G1 X188.099 Y87.69 E1307.84879
G0 F9000 X188.354 Y86.531
G1 F1080 X190.352 Y88.529 E1308.20121
G0 F9000 X191.046 Y89.223
G1 F1080 X214.766 Y112.942 E1312.38506
G0 F9000 X214.766 Y111.528
G1 F1080 X189.477 Y86.24 E1316.84566
G0 F9000 X190.367 Y85.715
G1 F1080 X214.766 Y110.114 E1321.14936
G0 F9000 X214.766 Y108.699
G1 F1080 X191.069 Y85.003 E1325.32915
G0 F9000 X191.582 Y84.102
G1 F1080 X214.766 Y107.285 E1329.41845
G0 F9000 X214.766 Y105.871
G1 F1080 X191.859 Y82.965 E1333.4589
G0 F9000 X191.882 Y81.573
G1 F1080 X214.766 Y104.457 E1337.49537
G0 F9000 X214.766 Y103.043
G1 F1080 X191.375 Y79.652 E1341.62128
G0 F9000 X189.922 Y78.199
G1 F1080 X188.265 Y76.542 E1341.91355
G0 F9000 X189.407 Y76.269
G1 F1080 X214.766 Y101.628 E1346.38659
G0 F9000 X214.766 Y100.214
G1 F1080 X190.31 Y75.759 E1350.70026
G0 F9000 X191.025 Y75.06
G1 F1080 X214.766 Y98.8 E1354.88781
G0 F9000 X214.766 Y97.386
G1 F1080 X191.553 Y74.173 E1358.98231
G0 F9000 X191.847 Y73.054
G1 F1080 X214.766 Y95.972 E1363.02487
G0 F9000 X214.766 Y94.557
G1 F1080 X191.882 Y71.674 E1367.06126
G0 F9000 X191.446 Y69.823
G1 F1080 X214.766 Y93.143 E1371.17464
G0 F9000 X214.766 Y114.356
G1 F1080 X191.881 Y91.472 E1375.2112
G0 F9000 X191.871 Y92.876
G1 F1080 X214.766 Y115.771 E1379.24962
G0 F9000 X214.766 Y117.185
G1 F1080 X191.612 Y94.031 E1383.33372
G0 F9000 X191.112 Y94.946
G1 F1080 X214.766 Y118.599 E1387.50592
G0 F9000 X214.766 Y120.013
G1 F1080 X190.424 Y95.672 E1391.79948
G0 F9000 X189.549 Y96.211
G1 F1080 X214.766 Y121.427 E1396.24738
G0 F9000 X214.766 Y122.842
G1 F1080 X188.443 Y96.519 E1400.89046
G0 F9000 X188.215 Y97.705
G1 F1080 X186.929 Y97.127 E1401.09111
G1 X185.515 Y97.127 E1401.28846
G1 X184.101 Y97.127 E1401.4858
G1 X182.687 Y97.127 E1401.68315
G1 X181.273 Y97.127 E1401.8805
G1 X179.858 Y97.127 E1402.07781
G1 X178.444 Y97.127 E1402.27516
G1 X177.03 Y97.127 E1402.47251
G1 X175.616 Y97.127 E1402.66986
G1 X174.202 Y97.127 E1402.86721
G1 X172.787 Y97.127 E1403.0647
G1 X171.373 Y97.127 E1403.26205
G1 X169.959 Y97.127 E1403.4594
G1 X168.545 Y97.127 E1403.65675
G1 X167.13 Y97.127 E1403.85406
G1 X165.716 Y97.127 E1404.05141
G1 X164.302 Y97.127 E1404.24875
G1 X162.888 Y97.127 E1404.4461
G1 X161.474 Y97.127 E1404.64345
G1 X160.059 Y97.127 E1404.84076
G1 X158.645 Y97.127 E1405.03811
G1 X157.231 Y97.127 E1405.23546
G1 X155.817 Y97.127 E1405.43281
G1 X154.403 Y97.127 E1405.63016
G1 X152.988 Y97.127 E1405.82765
G1 X151.574 Y97.127 E1406.025
G1 X150.16 Y97.127 E1406.22235
G1 X148.746 Y97.127 E1406.4197
G1 X147.331 Y97.127 E1406.61701
G1 X145.917 Y97.127 E1406.81436
G1 X144.503 Y97.127 E1407.01171
G1 X143.089 Y97.127 E1407.20905
G1 X141.675 Y97.127 E1407.4064
G1 X140.26 Y97.127 E1407.60372
G1 X138.846 Y97.127 E1407.80106
G1 X137.432 Y97.127 E1407.99841
G1 X136.018 Y97.127 E1408.19576
G1 X134.604 Y97.127 E1408.39311
G1 X133.189 Y97.127 E1408.59042
G1 X131.775 Y97.127 E1408.78777
G1 X130.361 Y97.127 E1408.98512
G1 X128.947 Y97.127 E1409.18247
G1 X127.532 Y97.127 E1409.37978
G1 X126.118 Y97.127 E1409.57713
G1 X124.704 Y97.127 E1409.77448
G1 X123.29 Y97.127 E1409.97183
G1 X121.876 Y97.127 E1410.16918
G1 X120.461 Y97.127 E1410.36649
G1 X119.047 Y97.127 E1410.56384
G1 X117.633 Y97.127 E1410.76119
G1 X116.219 Y97.127 E1410.95854
G1 X114.805 Y97.127 E1411.15589
G1 X113.39 Y97.127 E1411.3532
G1 X111.976 Y97.127 E1411.55055
G1 X110.562 Y97.127 E1411.7479
G1 X109.148 Y97.127 E1411.94524
G1 X107.734 Y97.127 E1412.14259
G1 X106.319 Y97.127 E1412.34008
G1 X104.905 Y97.127 E1412.53743
G1 X103.491 Y97.127 E1412.73478
G1 X102.077 Y97.127 E1412.93213
G1 X100.662 Y97.127 E1413.12944
G1 X99.248 Y97.127 E1413.32679
G1 X97.834 Y97.127 E1413.52414
G1 X96.42 Y97.127 E1413.72149
G1 X95.006 Y97.127 E1413.91884
G1 X93.591 Y97.127 E1414.11615
G1 X92.177 Y97.127 E1414.3135
G1 X90.763 Y97.127 E1414.51085
G1 X89.349 Y97.127 E1414.7082
G1 X87.935 Y97.127 E1414.90554
G1 X86.52 Y97.127 E1415.10303
G1 X85.106 Y97.127 E1415.30038
G1 X83.692 Y97.127 E1415.49773
G1 X82.278 Y97.127 E1415.69508
G1 X80.863 Y97.127 E1415.89239
G1 X79.449 Y97.127 E1416.08974
G1 X78.035 Y97.127 E1416.28709
G1 X76.621 Y97.127 E1416.48444
G1 X75.207 Y97.127 E1416.68179
G1 X73.792 Y97.127 E1416.8791
G1 X72.378 Y97.127 E1417.07645
G1 X70.964 Y97.127 E1417.2738
G1 X69.55 Y97.127 E1417.47115
G1 X68.136 Y97.127 E1417.66849
G1 X66.721 Y97.127 E1417.86598
G1 X65.307 Y97.127 E1418.06333
G1 X63.893 Y97.127 E1418.26068
G1 X62.479 Y97.127 E1418.45803
G1 X61.064 Y97.127 E1418.65534
G1 X59.65 Y97.127 E1418.85269
G1 X58.236 Y97.127 E1419.05004
G1 X56.822 Y97.127 E1419.24739
G1 X55.408 Y97.127 E1419.44474
G1 X53.993 Y97.127 E1419.64205
G1 X52.579 Y97.127 E1419.8394
G1 X51.165 Y97.127 E1420.03675
G1 X49.751 Y97.127 E1420.2341
G1 X48.337 Y97.127 E1420.43145
G1 X46.922 Y97.127 E1420.62893
G1 X45.508 Y97.127 E1420.82628
G1 X44.094 Y97.127 E1421.02363
G1 X42.68 Y97.127 E1421.22098
G1 X41.351 Y96.505 E1421.404
G0 F9000 X41.2 Y97.768
G1 F1080 X13.234 Y69.802 E1426.33688
G0 F9000 X13.234 Y68.388
G1 F1080 X38.074 Y93.228 E1430.71837
G0 F9000 X38.009 Y91.749
G1 F1080 X13.234 Y66.974 E1435.08839
G0 F9000 X13.234 Y65.56
G1 F1080 X38.171 Y90.496 E1439.48691
G0 F9000 X38.615 Y89.527
G1 F1080 X13.234 Y64.145 E1443.96391
G0 F9000 X13.234 Y62.731
G1 F1080 X39.253 Y88.751 E1448.55345
G0 F9000 X40.073 Y88.157
G1 F1080 X13.234 Y61.317 E1453.28763
G0 F9000 X13.234 Y59.903
G1 F1080 X41.111 Y87.78 E1458.20481
G0 F9000 X41.222 Y88.614
G0 X41.533 Y85.782
G0 X39.681 Y84.897
G0 X38.847 Y83.449
G0 X38.85 Y80.799
G0 X39.681 Y79.36
G0 X41.119 Y78.529
G0 X42.331 Y78.528
G0 X42.331 Y77.686
G1 F1080 X41.119 Y76.475 E1458.41851
G0 F9000 X41.228 Y75.642
G0 X42.625 Y75.728
G0 X42.625 Y75.728
G0 X42.625 Y76.566
G1 F1080 X43.892 Y77.126 E1458.61582
G1 X45.307 Y77.126 E1458.81313
G1 X46.721 Y77.126 E1459.01048
G1 X48.135 Y77.126 E1459.20783
G1 X49.549 Y77.126 E1459.40517
G1 X50.963 Y77.126 E1459.60252
G1 X52.378 Y77.126 E1459.79984
G1 X53.792 Y77.126 E1459.99718
G1 X55.206 Y77.126 E1460.19453
G1 X56.62 Y77.126 E1460.39188
G1 X58.035 Y77.126 E1460.58937
G1 X59.449 Y77.126 E1460.78672
G1 X60.863 Y77.126 E1460.98407
G1 X62.277 Y77.126 E1461.18142
G1 X63.691 Y77.126 E1461.37877
G1 X65.106 Y77.126 E1461.57608
G1 X66.52 Y77.126 E1461.77343
G1 X67.934 Y77.126 E1461.97078
G1 X69.348 Y77.126 E1462.16813
G1 X70.762 Y77.126 E1462.36547
G1 X72.177 Y77.126 E1462.56279
G1 X73.591 Y77.126 E1462.76014
G1 X75.005 Y77.126 E1462.95748
G1 X76.419 Y77.126 E1463.15483
G1 X77.833 Y77.126 E1463.35218
G1 X79.248 Y77.126 E1463.54949
G1 X80.662 Y77.126 E1463.74684
G1 X82.076 Y77.126 E1463.94419
G1 X83.49 Y77.126 E1464.14154
G1 X84.905 Y77.126 E1464.33885
G1 X86.319 Y77.126 E1464.5362
G1 X87.733 Y77.126 E1464.73355
G1 X89.147 Y77.126 E1464.9309
G1 X90.561 Y77.126 E1465.12825
G1 X91.976 Y77.126 E1465.32556
G1 X93.39 Y77.126 E1465.52291
G1 X94.804 Y77.126 E1465.72026
G1 X96.218 Y77.126 E1465.91761
G1 X97.632 Y77.126 E1466.11496
G1 X99.047 Y77.126 E1466.31227
G1 X100.461 Y77.126 E1466.50962
G1 X101.875 Y77.126 E1466.70697
G1 X103.289 Y77.126 E1466.90431
G1 X104.704 Y77.126 E1467.1018
G1 X106.118 Y77.126 E1467.29915
G1 X107.532 Y77.126 E1467.4965
G1 X108.946 Y77.126 E1467.69385
G1 X110.36 Y77.126 E1467.8912
G1 X111.775 Y77.126 E1468.08851
G1 X113.189 Y77.126 E1468.28586
G1 X114.603 Y77.126 E1468.48321
G1 X116.018 Y77.127 E1468.68087
G1 X117.432 Y77.127 E1468.87822
G1 X118.846 Y77.127 E1469.07557
G1 X120.261 Y77.127 E1469.27288
G1 X121.675 Y77.127 E1469.47023
G1 X123.089 Y77.127 E1469.66758
G1 X124.503 Y77.127 E1469.86493
G1 X125.917 Y77.127 E1470.06228
G1 X127.332 Y77.127 E1470.25959
G1 X128.746 Y77.127 E1470.45694
G1 X130.16 Y77.127 E1470.65429
G1 X131.574 Y77.127 E1470.85164
G1 X132.989 Y77.127 E1471.04913
G1 X134.403 Y77.127 E1471.24648
G1 X135.817 Y77.127 E1471.44382
G1 X137.231 Y77.127 E1471.64117
G1 X138.645 Y77.127 E1471.83852
G1 X140.06 Y77.127 E1472.03583
G1 X141.474 Y77.127 E1472.23318
G1 X142.888 Y77.127 E1472.43053
G1 X144.302 Y77.127 E1472.62788
G1 X145.716 Y77.127 E1472.82523
G1 X147.131 Y77.127 E1473.02254
G1 X148.545 Y77.127 E1473.21989
G1 X149.959 Y77.127 E1473.41724
G1 X151.373 Y77.127 E1473.61459
G1 X152.788 Y77.127 E1473.81208
G1 X154.202 Y77.127 E1474.00943
G1 X155.616 Y77.127 E1474.20678
G1 X157.03 Y77.127 E1474.40412
G1 X158.444 Y77.127 E1474.60147
G1 X159.859 Y77.127 E1474.79879
G1 X161.273 Y77.127 E1474.99613
G1 X162.687 Y77.127 E1475.19348
G1 X164.101 Y77.127 E1475.39083
G1 X165.515 Y77.127 E1475.58818
G1 X166.93 Y77.127 E1475.78549
G1 X168.344 Y77.127 E1475.98284
G1 X169.758 Y77.127 E1476.18019
G1 X171.172 Y77.127 E1476.37754
G1 X172.587 Y77.127 E1476.57503
G1 X174.001 Y77.127 E1476.77238
G1 X175.415 Y77.127 E1476.96973
G1 X176.829 Y77.127 E1477.16708
G1 X178.243 Y77.127 E1477.36442
G1 X179.658 Y77.127 E1477.56174
G1 X181.072 Y77.127 E1477.75909
G1 X182.486 Y77.127 E1477.95643
G1 X183.9 Y77.127 E1478.15378
G1 X185.314 Y77.127 E1478.35113
G1 X186.729 Y77.127 E1478.54844
G1 X187.996 Y77.687 E1478.72122
G1 F1800 E1475.72122
G1 Z1.799
G0 F9000 X188.12 Y78.449
G0 X189.553 Y78.85
G0 X190.726 Y80.023
G0 X191.147 Y82.703
G0 X191.858 Y101.348
G0 X191.858 Y101.348
G1 Z1.299
G1 F1800 E1478.72122
G1 F1080 X214.766 Y124.256 E1482.76193
G0 F9000 X214.766 Y125.67
G1 F1080 X191.883 Y102.787 E1486.79822
G0 F9000 X191.641 Y103.96
G1 F1080 X214.766 Y127.085 E1490.87721
G0 F9000 X214.766 Y128.499
G1 F1080 X191.156 Y104.889 E1495.04174
G0 F9000 X190.481 Y105.628
G1 F1080 X214.766 Y129.913 E1499.32534
G0 F9000 X214.766 Y131.328
G1 F1080 X189.619 Y106.181 E1503.76098
G0 F9000 X188.532 Y106.507
G1 F1080 X214.766 Y132.742 E1508.38844
G0 F9000 X214.766 Y134.156
G1 F1080 X187.172 Y106.562 E1513.25571
G0 F9000 X185.758 Y106.562
G1 F1080 X214.766 Y135.57 E1518.37238
G0 F9000 X214.766 Y136.984
G1 F1080 X184.344 Y106.562 E1523.73847
G0 F9000 X182.929 Y106.562
G1 F1080 X214.766 Y138.399 E1529.35416
G0 F9000 X214.766 Y139.813
G1 F1080 X181.515 Y106.562 E1535.21925
G0 F9000 X180.101 Y106.562
G1 F1080 X214.766 Y141.227 E1541.33376
G0 F9000 X214.766 Y142.641
G1 F1080 X178.687 Y106.562 E1547.69768
G0 F9000 X177.273 Y106.563
G1 F1080 X214.766 Y144.056 E1554.31101
G0 F9000 X214.766 Y145.47
G1 F1080 X175.859 Y106.563 E1561.17376
G0 F9000 X174.445 Y106.563
G1 F1080 X214.766 Y146.884 E1568.28592
G0 F9000 X214.766 Y148.298
G1 F1080 X173.031 Y106.563 E1575.64749
G0 F9000 X171.616 Y106.563
G1 F1080 X214.766 Y149.712 E1583.25857
G0 F9000 X214.766 Y151.127
G1 F1080 X170.202 Y106.563 E1591.11915
G0 F9000 X168.788 Y106.563
G1 F1080 X214.766 Y152.541 E1599.22914
G0 F9000 X214.766 Y153.955
G1 F1080 X167.374 Y106.563 E1607.58854
G0 F9000 X165.96 Y106.563
G1 F1080 X214.766 Y155.369 E1616.19736
G0 F9000 X214.766 Y156.783
G1 F1080 X164.545 Y106.563 E1625.05568
G0 F9000 X163.131 Y106.563
G1 F1080 X214.766 Y158.198 E1634.1635
G0 F9000 X214.766 Y159.612
G1 F1080 X161.717 Y106.563 E1643.52073
G0 F9000 X160.303 Y106.563
G1 F1080 X214.766 Y161.026 E1653.12738
G0 F9000 X214.766 Y162.44
G1 F1080 X158.889 Y106.563 E1662.98344
G0 F9000 X157.474 Y106.563
G1 F1080 X214.766 Y163.855 E1673.08909
G0 F9000 X214.766 Y165.269
G1 F1080 X156.061 Y106.563 E1683.44406
G0 F9000 X154.647 Y106.563
G1 F1080 X214.766 Y166.683 E1694.04845
G0 F9000 X214.766 Y168.097
G1 F1080 X153.232 Y106.563 E1704.90234
G0 F9000 X151.818 Y106.563
G1 F1080 X214.766 Y169.511 E1716.00565
G0 F9000 X214.766 Y170.926
G1 F1080 X150.404 Y106.563 E1727.35845
G0 F9000 X148.99 Y106.563
G1 F1080 X214.766 Y172.34 E1738.96067
G0 F9000 X214.766 Y173.754
G1 F1080 X147.576 Y106.563 E1750.8123
G0 F9000 X146.161 Y106.563
G1 F1080 X214.766 Y175.168 E1762.91344
G0 F9000 X214.766 Y176.582
G1 F1080 X144.747 Y106.563 E1775.26398
G0 F9000 X143.333 Y106.563
G1 F1080 X158.063 Y121.294 E1777.86227
G0 F9000 X158.644 Y121.874
G1 F1080 X214.766 Y177.997 E1787.76164
G0 F9000 X214.766 Y179.411
G1 F1080 X159.396 Y124.041 E1797.52827
G0 F9000 X159.151 Y125.21
G1 F1080 X214.766 Y180.825 E1807.33811
G0 F9000 X214.766 Y182.239
G1 F1080 X158.637 Y126.11 E1817.23862
G0 F9000 X157.912 Y126.799
G1 F1080 X214.766 Y183.654 E1827.2671
G0 F9000 X214.766 Y185.068
G1 F1080 X156.972 Y127.273 E1837.46139
G0 F9000 X155.697 Y127.413
G1 F1080 X214.766 Y186.482 E1847.88048
G0 F9000 X214.766 Y187.896
G1 F1080 X133.434 Y106.564 E1862.22651
G0 F9000 X132.02 Y106.564
G1 F1080 X214.766 Y189.31 E1876.82196
G0 F9000 X214.766 Y190.725
G1 F1080 X130.606 Y106.564 E1891.6669
G0 F9000 X129.191 Y106.564
G1 F1080 X214.766 Y192.139 E1906.76135
G0 F9000 X214.766 Y193.553
G1 F1080 X127.777 Y106.564 E1922.10521
G0 F9000 X126.363 Y106.564
G1 F1080 X214.766 Y194.967 E1937.69848
G0 F9000 X214.766 Y196.381
G1 F1080 X124.949 Y106.564 E1953.54116
G0 F9000 X123.535 Y106.564
G1 F1080 X214.766 Y197.796 E1969.63335
G0 F9000 X214.766 Y199.21
G1 F1080 X122.12 Y106.564 E1985.97504
G0 F9000 X120.706 Y106.564
G1 F1080 X214.766 Y200.624 E2002.56614
G0 F9000 X214.766 Y202.038
G1 F1080 X119.292 Y106.564 E2019.40666
G0 F9000 X117.878 Y106.564
G1 F1080 X214.766 Y203.453 E2036.49668
G0 F9000 X214.766 Y204.867
G1 F1080 X116.464 Y106.564 E2053.83611
G0 F9000 X115.049 Y106.564
G1 F1080 X214.766 Y206.281 E2071.42504
G0 F9000 X214.766 Y207.695
G1 F1080 X113.636 Y106.565 E2089.26321
G0 F9000 X112.222 Y106.565
G1 F1080 X214.766 Y209.109 E2107.35079
G0 F9000 X214.766 Y210.524
G1 F1080 X110.807 Y106.565 E2125.68796
G0 F9000 X109.393 Y106.565
G1 F1080 X214.766 Y211.938 E2144.27455
G0 F9000 X214.766 Y213.352
G1 F1080 X107.979 Y106.565 E2163.11055
G0 F9000 X106.565 Y106.565
G1 F1080 X214.766 Y214.766 E2182.19596
G0 F9000 X214.766 Y216.18
G1 F1080 X105.151 Y106.565 E2201.53079
G0 F9000 X103.736 Y106.565
G1 F1080 X214.766 Y217.595 E2221.1152
G0 F9000 X214.766 Y219.009
G1 F1080 X102.322 Y106.565 E2240.94903
G0 F9000 X100.908 Y106.565
G1 F1080 X214.766 Y220.423 E2261.03227
G0 F9000 X214.766 Y221.837
G1 F1080 X211.516 Y218.587 E2261.60554
G0 F9000 X211.612 Y220.097
G1 F1080 X214.766 Y223.251 E2262.16187
G0 F9000 X214.766 Y224.666
G1 F1080 X211.376 Y221.276 E2262.75982
G0 F9000 X210.942 Y222.256
G1 F1080 X214.766 Y226.08 E2263.43433
G0 F9000 X214.766 Y227.494
G1 F1080 X210.329 Y223.057 E2264.21697
G0 F9000 X209.565 Y223.707
G1 F1080 X213.624 Y227.766 E2264.93293
G0 F9000 X212.209 Y227.766
G1 F1080 X208.66 Y224.216 E2265.55902
G0 F9000 X207.578 Y224.548
G1 F1080 X210.795 Y227.766 E2266.12655
G0 F9000 X209.381 Y227.766
G1 F1080 X206.213 Y224.598 E2266.68535
G0 F9000 X204.1 Y223.898
G1 F1080 X207.967 Y227.766 E2267.36753
G0 F9000 X206.552 Y227.766
G1 F1080 X85.352 Y106.565 E2288.74591
G0 F9000 X83.938 Y106.565
G1 F1080 X205.138 Y227.766 E2310.12428
G0 F9000 X203.724 Y227.766
G1 F1080 X82.524 Y106.565 E2331.50266
G0 F9000 X81.11 Y106.565
G1 F1080 X202.31 Y227.766 E2352.88103
G0 F9000 X200.896 Y227.766
G1 F1080 X79.695 Y106.565 E2374.25949
G0 F9000 X78.281 Y106.565
G1 F1080 X199.481 Y227.766 E2395.63787
G0 F9000 X198.067 Y227.766
G1 F1080 X76.867 Y106.565 E2417.01624
G0 F9000 X75.453 Y106.565
G1 F1080 X196.653 Y227.766 E2438.39462
G0 F9000 X195.239 Y227.766
G1 F1080 X74.039 Y106.565 E2459.77299
G0 F9000 X72.625 Y106.566
G1 F1080 X193.825 Y227.766 E2481.15128
G0 F9000 X192.41 Y227.766
G1 F1080 X71.211 Y106.566 E2502.52948
G0 F9000 X69.797 Y106.566
G1 F1080 X190.996 Y227.766 E2523.90768
G0 F9000 X189.582 Y227.766
G1 F1080 X68.382 Y106.566 E2545.28596
G0 F9000 X66.968 Y106.566
G1 F1080 X188.168 Y227.766 E2566.66425
G0 F9000 X186.753 Y227.766
G1 F1080 X65.554 Y106.566 E2588.04245
G0 F9000 X64.14 Y106.566
G1 F1080 X185.339 Y227.766 E2609.42065
G0 F9000 X183.925 Y227.766
G1 F1080 X62.726 Y106.566 E2630.79884
G0 F9000 X61.311 Y106.566
G1 F1080 X182.511 Y227.766 E2652.17713
G0 F9000 X181.097 Y227.766
G1 F1080 X59.897 Y106.566 E2673.55542
G0 F9000 X58.483 Y106.566
G1 F1080 X179.682 Y227.766 E2694.93362
G0 F9000 X178.268 Y227.766
G1 F1080 X159.325 Y208.822 E2698.27503
G0 F9000 X159.301 Y210.212
G1 F1080 X176.854 Y227.766 E2701.37127
G0 F9000 X175.44 Y227.766
G1 F1080 X158.893 Y211.219 E2704.28997
G0 F9000 X158.243 Y211.983
G1 F1080 X174.026 Y227.766 E2707.07391
G0 F9000 X172.611 Y227.766
G1 F1080 X157.387 Y212.541 E2709.75933
G0 F9000 X156.272 Y212.841
G1 F1080 X171.197 Y227.766 E2712.39193
G0 F9000 X169.783 Y227.766
G1 F1080 X154.594 Y212.576 E2715.07119
G0 F9000 X152.799 Y210.782
G1 F1080 X48.584 Y106.567 E2733.45351
G0 F9000 X47.17 Y106.567
G1 F1080 X168.369 Y227.766 E2754.83162
G0 F9000 X166.954 Y227.766
G1 F1080 X45.756 Y106.567 E2776.20964
G0 F9000 X44.341 Y106.567
G1 F1080 X165.54 Y227.766 E2797.58776
G0 F9000 X164.126 Y227.766
G1 F1080 X42.927 Y106.567 E2818.96587
G0 F9000 X41.466 Y106.52
G1 F1080 X162.712 Y227.766 E2840.35227
G0 F9000 X161.298 Y227.766
G1 F1080 X13.234 Y79.702 E2866.46905
G0 F9000 X13.234 Y78.288
G1 F1080 X38.06 Y103.114 E2870.84807
G0 F9000 X38.009 Y101.648
G1 F1080 X13.234 Y76.873 E2875.2181
G0 F9000 X13.234 Y75.459
G1 F1080 X38.201 Y100.426 E2879.62199
G0 F9000 X38.659 Y99.47
G1 F1080 X13.234 Y74.045 E2884.10667
G0 F9000 X13.234 Y72.631
G1 F1080 X39.31 Y98.707 E2888.70618
G0 F9000 X40.145 Y98.128
G1 F1080 X13.234 Y71.216 E2893.45305
G0 F9000 X12.394 Y71.216
G0 X12.394 Y81.116
G0 X12.394 Y81.116
G0 X13.234 Y81.116
G1 F1080 X159.883 Y227.766 E2919.32034
G0 F9000 X158.469 Y227.766
G1 F1080 X13.234 Y82.53 E2944.93821
G0 F9000 X13.234 Y83.944
G1 F1080 X157.055 Y227.766 E2970.30667
G0 F9000 X155.641 Y227.766
G1 F1080 X13.234 Y85.359 E2995.42563
G0 F9000 X13.234 Y86.773
G1 F1080 X47.313 Y120.852 E3001.43677
G0 F9000 X46.992 Y121.63
G0 X45.729 Y121.405
G0 X45.729 Y121.405
G0 X45.618 Y120.572
G1 F1080 X13.234 Y88.187 E3007.14903
G0 F9000 X13.234 Y89.601
G1 F1080 X44.501 Y120.869 E3012.66425
G0 F9000 X43.641 Y121.422
G1 F1080 X13.234 Y91.015 E3018.0277
G0 F9000 X13.234 Y92.43
G1 F1080 X42.991 Y122.187 E3023.27649
G0 F9000 X42.577 Y123.187
G1 F1080 X13.234 Y93.844 E3028.45226
G0 F9000 X13.234 Y95.258
G1 F1080 X42.549 Y124.573 E3033.62309
G0 F9000 X43.382 Y124.463
G0 X43.355 Y124.436
G0 X44.014 Y125.903
G0 X45.453 Y126.535
G0 X45.343 Y127.368
G1 F1080 X145.741 Y227.766 E3051.33214
G0 F9000 X144.327 Y227.766
G1 F1080 X13.234 Y96.672 E3074.45553
G0 F9000 X13.234 Y98.087
G1 F1080 X142.913 Y227.766 E3097.32941
G0 F9000 X141.499 Y227.766
G1 F1080 X13.234 Y99.501 E3119.95388
G0 F9000 X13.234 Y100.915
G1 F1080 X140.084 Y227.766 E3142.32885
G0 F9000 X138.67 Y227.766
G1 F1080 X13.234 Y102.329 E3164.45441
G0 F9000 X13.234 Y103.743
G1 F1080 X137.256 Y227.766 E3186.33055
G0 F9000 X135.842 Y227.766
G1 F1080 X13.234 Y105.158 E3207.95719
G0 F9000 X13.234 Y106.572
G1 F1080 X134.428 Y227.766 E3229.33442
G0 F9000 X133.013 Y227.766
G1 F1080 X13.234 Y107.986 E3250.46215
G0 F9000 X13.234 Y109.4
G1 F1080 X131.599 Y227.766 E3271.34046
G0 F9000 X130.185 Y227.766
G1 F1080 X13.234 Y110.814 E3291.96936
G0 F9000 X13.234 Y112.229
G1 F1080 X128.771 Y227.766 E3312.34876
G0 F9000 X127.357 Y227.766
G1 F1080 X13.234 Y113.643 E3332.47875
G0 F9000 X13.234 Y115.057
G1 F1080 X125.942 Y227.766 E3352.35923
G0 F9000 X124.528 Y227.766
G1 F1080 X13.234 Y116.471 E3371.9903
G0 F9000 X13.234 Y117.886
G1 F1080 X123.114 Y227.766 E3391.37187
G0 F9000 X121.7 Y227.766
G1 F1080 X13.234 Y119.3 E3410.50402
G0 F9000 X13.234 Y120.714
G1 F1080 X120.285 Y227.766 E3429.38668
G0 F9000 X118.871 Y227.766
G1 F1080 X13.234 Y122.128 E3448.01992
G0 F9000 X13.234 Y123.542
G1 F1080 X117.457 Y227.766 E3466.40375
G0 F9000 X116.043 Y227.766
G1 F1080 X13.234 Y124.957 E3484.53807
G0 F9000 X13.234 Y126.371
G1 F1080 X114.629 Y227.766 E3502.42298
G0 F9000 X113.214 Y227.766
G1 F1080 X13.234 Y127.785 E3520.05839
G0 F9000 X13.234 Y129.199
G1 F1080 X111.8 Y227.766 E3537.44439
G0 F9000 X110.386 Y227.766
G1 F1080 X13.234 Y130.613 E3554.58098
G0 F9000 X13.234 Y132.028
G1 F1080 X108.972 Y227.766 E3571.46806
G0 F9000 X107.558 Y227.766
G1 F1080 X13.234 Y133.442 E3588.10573
G0 F9000 X13.234 Y134.856
G1 F1080 X106.143 Y227.766 E3604.49389
G0 F9000 X104.729 Y227.766
G1 F1080 X13.234 Y136.27 E3620.63265
G0 F9000 X13.234 Y137.685
G1 F1080 X103.315 Y227.766 E3636.5219
G0 F9000 X101.901 Y227.766
G1 F1080 X13.234 Y139.099 E3652.16174
G0 F9000 X13.234 Y140.513
G1 F1080 X100.486 Y227.766 E3667.55208
G0 F9000 X99.072 Y227.766
G1 F1080 X13.234 Y141.927 E3682.693
G0 F9000 X13.234 Y143.341
G1 F1080 X97.658 Y227.766 E3697.58451
G0 F9000 X96.244 Y227.766
G1 F1080 X13.234 Y144.756 E3712.22652
G0 F9000 X13.234 Y146.17
G1 F1080 X94.83 Y227.766 E3726.61912
G0 F9000 X93.415 Y227.766
G1 F1080 X13.234 Y147.584 E3740.76221
G0 F9000 X13.234 Y148.998
G1 F1080 X92.001 Y227.766 E3754.6559
G0 F9000 X90.587 Y227.766
G1 F1080 X13.234 Y150.412 E3768.30016
G0 F9000 X13.234 Y151.827
G1 F1080 X89.173 Y227.766 E3781.69493
G0 F9000 X87.759 Y227.766
G1 F1080 X13.234 Y153.241 E3794.84028
G0 F9000 X13.234 Y154.655
G1 F1080 X86.344 Y227.766 E3807.73614
G0 F9000 X84.93 Y227.766
G1 F1080 X13.234 Y156.069 E3820.38257
G0 F9000 X13.234 Y157.483
G1 F1080 X83.516 Y227.766 E3832.7796
G0 F9000 X82.102 Y227.766
G1 F1080 X13.234 Y158.898 E3844.92712
G0 F9000 X13.234 Y160.312
G1 F1080 X80.687 Y227.766 E3856.82514
G0 F9000 X79.273 Y227.766
G1 F1080 X13.234 Y161.726 E3868.47375
G0 F9000 X13.234 Y163.14
G1 F1080 X77.859 Y227.766 E3879.87295
G0 F9000 X76.445 Y227.766
G1 F1080 X13.234 Y164.555 E3891.02264
G0 F9000 X13.234 Y165.969
G1 F1080 X75.031 Y227.766 E3901.92292
G0 F9000 X73.616 Y227.766
G1 F1080 X13.234 Y167.383 E3912.5737
G0 F9000 X13.234 Y168.797
G1 F1080 X72.202 Y227.766 E3922.97507
G0 F9000 X70.788 Y227.766
G1 F1080 X13.234 Y170.211 E3933.12702
G0 F9000 X13.234 Y171.626
G1 F1080 X69.374 Y227.766 E3943.02947
G0 F9000 X67.96 Y227.766
G1 F1080 X49.351 Y209.157 E3946.31188
G0 F9000 X49.218 Y210.439
G1 F1080 X66.545 Y227.766 E3949.36817
G0 F9000 X65.131 Y227.766
G1 F1080 X48.748 Y211.383 E3952.25794
G0 F9000 X48.061 Y212.11
G1 F1080 X63.717 Y227.766 E3955.01948
G0 F9000 X62.303 Y227.766
G1 F1080 X47.163 Y212.626 E3957.69
G0 F9000 X45.998 Y212.875
G1 F1080 X60.888 Y227.766 E3960.31651
G0 F9000 X59.474 Y227.766
G1 F1080 X43.892 Y212.184 E3963.065
G0 F9000 X43.177 Y211.468
G1 F1080 X13.234 Y181.525 E3968.3466
G0 F9000 X13.234 Y180.111
G1 F1080 X42.481 Y209.358 E3973.50543
G0 F9000 X42.73 Y208.193
G1 F1080 X13.234 Y178.697 E3978.70819
G0 F9000 X13.234 Y177.282
G1 F1080 X43.245 Y207.294 E3984.00187
G0 F9000 X43.973 Y206.608
G1 F1080 X13.234 Y175.868 E3989.42397
G0 F9000 X13.234 Y174.454
G1 F1080 X44.916 Y206.137 E3995.01239
G0 F9000 X46.199 Y206.005
G1 F1080 X13.234 Y173.04 E4000.82704
G0 F9000 X12.394 Y173.04
G0 X12.394 Y182.939
G0 X12.394 Y182.939
G0 X13.234 Y182.939
G1 F1080 X58.06 Y227.766 E4008.73392
G0 F9000 X56.646 Y227.766
G1 F1080 X13.234 Y184.354 E4016.3913
G0 F9000 X13.234 Y185.768
G1 F1080 X55.232 Y227.766 E4023.79926
G0 F9000 X53.817 Y227.766
G1 F1080 X13.234 Y187.182 E4030.95773
G0 F9000 X13.234 Y188.596
G1 F1080 X52.403 Y227.766 E4037.86678
G0 F9000 X50.989 Y227.766
G1 F1080 X13.234 Y190.01 E4044.52641
G0 F9000 X13.234 Y191.425
G1 F1080 X49.575 Y227.766 E4050.93655
G0 F9000 X48.161 Y227.766
G1 F1080 X13.234 Y192.839 E4057.09727
G0 F9000 X13.234 Y194.253
G1 F1080 X46.746 Y227.766 E4063.00849
G0 F9000 X45.332 Y227.766
G1 F1080 X13.234 Y195.667 E4068.67029
G0 F9000 X13.234 Y197.081
G1 F1080 X43.918 Y227.766 E4074.08269
G0 F9000 X42.504 Y227.766
G1 F1080 X13.234 Y198.496 E4079.24558
G0 F9000 X13.234 Y199.91
G1 F1080 X41.089 Y227.766 E4084.15897
G0 F9000 X39.675 Y227.766
G1 F1080 X13.234 Y201.324 E4088.82294
G0 F9000 X13.234 Y202.738
G1 F1080 X38.261 Y227.766 E4093.23751
G0 F9000 X36.847 Y227.766
G1 F1080 X13.234 Y204.153 E4097.40257
G0 F9000 X13.234 Y205.567
G1 F1080 X22.591 Y214.924 E4099.05304
G0 F9000 X22.379 Y215.747
G0 X21.148 Y215.616
G0 X21.148 Y215.616
G0 X21.036 Y214.783
G1 F1080 X13.234 Y206.981 E4100.42922
G0 F9000 X13.234 Y208.395
G1 F1080 X19.831 Y214.992 E4101.59285
G0 F9000 X18.831 Y215.407
G1 F1080 X13.234 Y209.809 E4102.58019
G0 F9000 X13.234 Y211.224
G1 F1080 X18.028 Y216.018 E4103.4258
G0 F9000 X17.358 Y216.762
G1 F1080 X13.234 Y212.638 E4104.15322
G0 F9000 X13.234 Y214.052
G1 F1080 X16.828 Y217.646 E4104.78716
G0 F9000 X16.469 Y218.701
G1 F1080 X13.234 Y215.466 E4105.35778
G0 F9000 X13.234 Y216.88
G1 F1080 X16.378 Y220.025 E4105.91243
G0 F9000 X17.211 Y219.914
G0 X17.352 Y220.427
G0 X17.229 Y220.795
G0 X17.691 Y221.653
G0 X16.914 Y221.975
G1 F1080 X13.234 Y218.295 E4106.56154
G0 F9000 X13.234 Y219.709
G1 F1080 X21.29 Y227.766 E4107.98262
G0 F9000 X19.876 Y227.766
G1 F1080 X13.234 Y221.123 E4109.15428
G0 F9000 X13.234 Y222.537
G1 F1080 X18.462 Y227.766 E4110.07652
G0 F9000 X17.048 Y227.766
G1 F1080 X13.234 Y223.952 E4110.74927
G0 F9000 X13.234 Y225.366
G1 F1080 X15.634 Y227.766 E4111.1726
G0 F9000 X14.219 Y227.766
G1 F1080 X13.234 Y226.78 E4111.34643
G0 F9000 X12.394 Y226.78
G0 X19.024 Y224.085
G0 X19.024 Y224.085
G1 F1080 X22.705 Y227.766 E4111.99572
G0 F9000 X24.119 Y227.766
G1 F1080 X20.974 Y224.621 E4112.55046
G0 F9000 X22.298 Y224.531
G1 F1080 X25.533 Y227.766 E4113.12108
G0 F9000 X26.947 Y227.766
G1 F1080 X23.353 Y224.171 E4113.75511
G0 F9000 X24.237 Y223.641
G1 F1080 X28.362 Y227.766 E4114.48271
G0 F9000 X29.776 Y227.766
G1 F1080 X24.982 Y222.971 E4115.3284
G0 F9000 X25.593 Y222.168
G1 F1080 X31.19 Y227.766 E4116.31574
G0 F9000 X32.604 Y227.766
G1 F1080 X26.007 Y221.168 E4117.47946
G0 F9000 X26.216 Y219.963
G1 F1080 X34.018 Y227.766 E4118.85573
G0 F9000 X35.433 Y227.766
G1 F1080 X26.075 Y218.409 E4120.50629
G0 F9000 X46.581 Y126.513
G0 X46.581 Y126.513
G0 X46.729 Y127.339
G1 F1080 X147.155 Y227.766 E4138.22037
G0 F9000 X148.57 Y227.766
G1 F1080 X47.73 Y126.926 E4156.00738
G0 F9000 X48.491 Y126.273
G1 F1080 X149.984 Y227.766 E4173.90958
G0 F9000 X151.398 Y227.766
G1 F1080 X49.047 Y125.415 E4191.96312
G0 F9000 X49.344 Y124.298
G1 F1080 X152.812 Y227.766 E4210.21369
G0 F9000 X154.227 Y227.766
G1 F1080 X49.066 Y122.605 E4228.76288
G0 F9000 X48.29 Y122.928
G0 X49.997 Y105.728
G0 X49.997 Y105.728
G0 X49.998 Y106.567
G1 F1080 X152.534 Y209.102 E4246.84896
G0 F9000 X152.834 Y207.988
G1 F1080 X51.413 Y106.567 E4264.73846
G0 F9000 X52.826 Y106.566
G1 F1080 X153.389 Y207.129 E4282.47662
G0 F9000 X154.156 Y206.482
G1 F1080 X54.24 Y106.566 E4300.10065
G0 F9000 X55.654 Y106.566
G1 F1080 X155.162 Y206.074 E4317.65272
G0 F9000 X156.552 Y206.05
G1 F1080 X57.069 Y106.566 E4335.20046
G1 F1800 E4332.20046
G1 Z1.799
G0 F9000 X57.068 Y105.728
G0 X86.765 Y105.727
G0 X86.765 Y105.727
G0 X86.766 Y106.565
G1 Z1.299
G1 F1800 E4335.20046
G1 F1080 X202.514 Y222.313 E4355.61708
G0 F9000 X201.815 Y220.2
G1 F1080 X88.181 Y106.565 E4375.6609
G0 F9000 X89.595 Y106.565
G1 F1080 X201.864 Y218.835 E4395.46395
G0 F9000 X202.196 Y217.752
G1 F1080 X91.009 Y106.565 E4415.07606
G0 F9000 X92.423 Y106.565
G1 F1080 X202.706 Y216.848 E4434.52871
G0 F9000 X203.355 Y216.083
G1 F1080 X93.838 Y106.565 E4453.84634
G0 F9000 X95.251 Y106.565
G1 F1080 X204.156 Y215.47 E4473.05593
G0 F9000 X205.137 Y215.036
G1 F1080 X96.665 Y106.565 E4492.18905
G0 F9000 X98.079 Y106.565
G1 F1080 X206.316 Y214.801 E4511.28073
G0 F9000 X207.825 Y214.896
G1 F1080 X99.494 Y106.565 E4530.38907
G1 F1800 E4527.38907
G1 Z1.799
G0 F9000 X99.493 Y105.727
G0 X134.848 Y106.564
G0 X134.848 Y106.564
G1 Z1.299
G1 F1800 E4530.38907
G1 F1080 X152.522 Y124.238 E4533.50656
G0 F9000 X152.661 Y122.963
G1 F1080 X136.262 Y106.563 E4536.39925
G0 F9000 X137.676 Y106.563
G1 F1080 X153.135 Y122.023 E4539.12612
G0 F9000 X153.824 Y121.297
G1 F1080 X139.09 Y106.563 E4541.72503
G0 F9000 X140.504 Y106.563
G1 F1080 X154.726 Y120.785 E4544.23363
G0 F9000 X155.894 Y120.539
G1 F1080 X141.919 Y106.563 E4546.69875
G1 F1800 E4543.69875
G1 Z1.799
G0 F9000 X143.237 Y105.731
G0 X41.119 Y105.727
G0 X39.681 Y104.897
G0 X38.847 Y103.449
G0 X38.85 Y80.799
G0 X39.681 Y79.36
G0 X41.119 Y78.529
G0 X186.378 Y78.52
G0 X214.766 Y60.616
G0 X214.766 Y60.616
G1 Z1.299
G1 F1800 E4546.69875
G1 F1080 X180.383 Y26.234 E4552.76342
G0 F9000 X181.797 Y26.234
G1 F1080 X214.766 Y59.202 E4558.57869
G0 F9000 X214.766 Y57.788
G1 F1080 X183.212 Y26.234 E4564.14445
G0 F9000 X184.626 Y26.234
G1 F1080 X214.766 Y56.374 E4569.4608
G0 F9000 X214.766 Y54.959
G1 F1080 X186.04 Y26.234 E4574.52765
G0 F9000 X187.454 Y26.234
G1 F1080 X214.766 Y53.545 E4579.34508
G0 F9000 X214.766 Y52.131
G1 F1080 X188.868 Y26.234 E4583.9131
G0 F9000 X190.283 Y26.234
G1 F1080 X214.766 Y50.717 E4588.23162
G0 F9000 X214.766 Y49.303
G1 F1080 X203.461 Y37.998 E4590.2257
G0 F9000 X203.001 Y37.538
G1 F1080 X191.697 Y26.234 E4592.21959
G0 F9000 X193.111 Y26.234
G1 F1080 X201.837 Y34.96 E4593.75876
G0 F9000 X201.846 Y33.555
G1 F1080 X194.525 Y26.234 E4595.0501
G0 F9000 X195.939 Y26.234
G1 F1080 X202.152 Y32.447 E4596.146
G0 F9000 X202.641 Y31.521
G1 F1080 X197.354 Y26.234 E4597.07857
G0 F9000 X198.768 Y26.234
G1 F1080 X203.269 Y30.735 E4597.87249
G0 F9000 X204.071 Y30.122
G1 F1080 X200.182 Y26.234 E4598.55838
G0 F9000 X201.596 Y26.234
G1 F1080 X205.031 Y29.668 E4599.16418
G0 F9000 X206.183 Y29.406
G1 F1080 X203.011 Y26.234 E4599.72369
G0 F9000 X204.425 Y26.234
G1 F1080 X207.652 Y29.461 E4600.29289
G0 F9000 X207.542 Y30.295
G0 X207.253 Y25.394
G0 X207.253 Y25.394
G0 X207.253 Y26.234
G1 F1080 X214.766 Y33.746 E4601.61801
G0 F9000 X214.766 Y35.16
G1 F1080 X205.839 Y26.234 E4603.19254
G0 F9000 X205.839 Y25.394
G0 X208.667 Y25.394
G0 X208.667 Y25.394
G0 X208.667 Y26.234
G1 F1080 X214.766 Y32.332 E4604.26825
G0 F9000 X214.766 Y30.918
G1 F1080 X210.082 Y26.234 E4605.09445
G0 F9000 X211.496 Y26.234
G1 F1080 X214.766 Y29.504 E4605.67124
G0 F9000 X214.766 Y28.089
G1 F1080 X212.91 Y26.234 E4605.99853
G0 F9000 X214.324 Y26.234
G1 F1080 X214.766 Y26.675 E4606.07641
G0 F9000 X211.538 Y33.347
G1 F1080 X214.766 Y36.575 E4606.64579
G0 F9000 X214.766 Y37.989
G1 F1080 X211.593 Y34.817 E4607.20538
G0 F9000 X211.331 Y35.969
G1 F1080 X214.766 Y39.403 E4607.81119
G0 F9000 X214.766 Y40.817
G1 F1080 X210.877 Y36.929 E4608.49708
G0 F9000 X210.264 Y37.73
G1 F1080 X214.766 Y42.231 E4609.29109
G0 F9000 X214.766 Y43.646
G1 F1080 X209.478 Y38.359 E4610.22374
G0 F9000 X208.553 Y38.847
G1 F1080 X214.766 Y45.06 E4611.31964
G0 F9000 X214.766 Y46.474
G1 F1080 X207.445 Y39.153 E4612.61098
G0 F9000 X206.04 Y39.163
G1 F1080 X214.766 Y47.888 E4614.15006
; LAYER:1
G0 F9000 X208.51 Y37.416 Z1.499
; TYPE:WALL-INNER
G1 F3600 X209.256 Y36.843 E4614.18135
G1 X209.829 Y36.097 E4614.21264
G1 X210.19 Y35.227 E4614.24396
G1 X210.312 Y34.294 E4614.27526
G1 X210.19 Y33.361 E4614.30656
G1 X209.829 Y32.491 E4614.33788
G1 X209.256 Y31.745 E4614.36917
G1 X208.51 Y31.172 E4614.40046
G1 X207.64 Y30.811 E4614.43179
G1 X206.707 Y30.689 E4614.46308
G1 X205.774 Y30.811 E4614.49438
G1 X204.904 Y31.172 E4614.52571
G1 X204.158 Y31.745 E4614.55699
G1 X203.585 Y32.491 E4614.58828
G1 X203.224 Y33.361 E4614.61961
G1 X203.102 Y34.294 E4614.6509
G1 X203.224 Y35.227 E4614.6822
G1 X203.585 Y36.097 E4614.71353
G1 X204.158 Y36.843 E4614.74481
G1 X204.904 Y37.416 E4614.7761
G1 X205.774 Y37.777 E4614.80743
G1 X206.707 Y37.899 E4614.83873
G1 X207.64 Y37.777 E4614.87002
G1 X208.177 Y37.555 E4614.88935
G0 F9000 X208.687 Y37.118
G0 X209.827 Y36.096
G0 X216.107 Y24.794
G0 X216.107 Y24.894
G1 F3600 X216.107 Y229.107 E4621.6815
G1 X11.894 Y229.107 E4628.47365
G1 X11.894 Y24.894 E4635.2658
G1 X215.747 Y24.894 E4642.04598
G1 F1800 E4639.04598
G1 Z1.999
G0 F9000 X216.107 Y24.794
G0 X205.797 Y30.985
G0 X204.905 Y31.174
G0 X190.125 Y40.398
G0 X190.204 Y40.325
G1 Z1.499
G1 F1800 E4642.04598
G1 F3600 X189.79 Y39.786 E4642.06859
G1 X189.251 Y39.372 E4642.09119
G1 X188.623 Y39.111 E4642.11381
G1 X187.987 Y39.028 E4642.13515
G1 X41.91 Y39.028 E4646.99369
G1 X41.274 Y39.111 E4647.01502
G1 X40.646 Y39.372 E4647.03764
G1 X40.107 Y39.786 E4647.06024
G1 X39.693 Y40.325 E4647.08285
G1 X39.432 Y40.954 E4647.1055
G1 X39.349 Y41.589 E4647.1268
G1 X39.349 Y42.667 E4647.16265
G1 X39.432 Y43.303 E4647.18399
G1 X39.693 Y43.931 E4647.20661
G1 X40.107 Y44.471 E4647.22924
G1 X40.647 Y44.884 E4647.25185
G1 X41.274 Y45.145 E4647.27444
G1 X41.91 Y45.228 E4647.29577
G1 X187.987 Y45.228 E4652.15431
G1 X188.623 Y45.145 E4652.17564
G1 X189.25 Y44.884 E4652.19823
G1 X189.79 Y44.471 E4652.22084
G1 X190.204 Y43.931 E4652.24347
G1 X190.465 Y43.303 E4652.26609
G1 X190.548 Y42.667 E4652.28743
G1 X190.548 Y41.814 E4652.3158
G1 X190.532 Y41.472 E4652.32718
G1 X190.465 Y40.955 E4652.34452
G1 X190.342 Y40.659 E4652.35519
G0 F9000 X190.125 Y40.398
G0 X190.126 Y40.383
G0 X190.548 Y41.815
G0 X190.202 Y43.93
G0 X188.618 Y49.218
G0 X188.623 Y49.111
G1 F3600 X187.987 Y49.028 E4652.37652
G1 X41.91 Y49.028 E4657.23506
G1 X41.274 Y49.111 E4657.25639
G1 X40.646 Y49.372 E4657.27901
G1 X40.107 Y49.786 E4657.30162
G1 X39.693 Y50.325 E4657.32422
G1 X39.432 Y50.954 E4657.34687
G1 X39.349 Y51.589 E4657.36817
G1 X39.349 Y52.667 E4657.40403
G1 X39.432 Y53.303 E4657.42536
G1 X39.693 Y53.931 E4657.44798
G1 X40.107 Y54.471 E4657.47061
G1 X40.647 Y54.884 E4657.49322
G1 X41.274 Y55.145 E4657.51581
G1 X41.91 Y55.228 E4657.53714
G1 X187.987 Y55.228 E4662.39568
G1 X188.623 Y55.145 E4662.41702
G1 X189.25 Y54.884 E4662.4396
G1 X189.79 Y54.471 E4662.46222
G1 X190.204 Y53.931 E4662.48485
G1 X190.465 Y53.303 E4662.50747
G1 X190.548 Y52.667 E4662.5288
G1 X190.548 Y51.814 E4662.55717
G1 X190.532 Y51.472 E4662.56856
G1 X190.465 Y50.955 E4662.5859
G1 X190.204 Y50.325 E4662.60858
G1 X189.79 Y49.786 E4662.63118
G1 X189.251 Y49.372 E4662.65379
G1 X188.956 Y49.25 E4662.66441
G0 F9000 X188.618 Y49.218
G0 X188.623 Y49.123
G0 X190.202 Y50.326
G0 X190.547 Y52.666
G0 X187.987 Y59.028
G0 X187.987 Y59.028
G1 F3600 X41.91 Y59.028 E4667.52295
G1 X41.274 Y59.111 E4667.54428
G1 X40.646 Y59.372 E4667.5669
G1 X40.107 Y59.786 E4667.5895
G1 X39.693 Y60.325 E4667.61211
G1 X39.432 Y60.954 E4667.63476
G1 X39.349 Y61.589 E4667.65606
G1 X39.349 Y62.667 E4667.69191
G1 X39.432 Y63.303 E4667.71325
G1 X39.693 Y63.931 E4667.73587
G1 X40.107 Y64.471 E4667.7585
G1 X40.647 Y64.884 E4667.78111
G1 X41.274 Y65.145 E4667.8037
G1 X41.91 Y65.228 E4667.82503
G1 X187.987 Y65.228 E4672.68357
G1 X188.623 Y65.145 E4672.7049
G1 X189.25 Y64.884 E4672.72749
G1 X189.79 Y64.471 E4672.7501
G1 X190.204 Y63.931 E4672.77274
G1 X190.465 Y63.303 E4672.79535
G1 X190.548 Y62.667 E4672.81669
G1 X190.548 Y61.814 E4672.84506
G1 X190.532 Y61.472 E4672.85645
G1 X190.465 Y60.955 E4672.87378
G1 X190.204 Y60.325 E4672.89647
G1 X189.79 Y59.786 E4672.91907
G1 X189.251 Y59.372 E4672.94168
G1 X188.623 Y59.111 E4672.9643
G1 X188.345 Y59.075 E4672.97362
G0 F9000 X187.987 Y59.03
G0 X189.788 Y59.788
G0 X190.532 Y61.473
G0 X190.202 Y63.93
G0 X187.987 Y69.028
G0 X187.987 Y69.028
G1 F3600 X41.91 Y69.028 E4677.83216
G1 X41.274 Y69.111 E4677.85349
G1 X40.646 Y69.372 E4677.87611
G1 X40.107 Y69.786 E4677.89872
G1 X39.693 Y70.325 E4677.92132
G1 X39.432 Y70.954 E4677.94397
G1 X39.349 Y71.589 E4677.96527
G1 X39.349 Y72.667 E4678.00113
G1 X39.432 Y73.303 E4678.02246
G1 X39.693 Y73.931 E4678.04508
G1 X40.107 Y74.471 E4678.06771
G1 X40.647 Y74.884 E4678.09032
G1 X41.274 Y75.145 E4678.11291
G1 X41.91 Y75.228 E4678.13424
G1 X187.987 Y75.228 E4682.99278
G1 X188.623 Y75.145 E4683.01412
G1 X189.25 Y74.884 E4683.03671
G1 X189.79 Y74.471 E4683.05932
G1 X190.204 Y73.931 E4683.08195
G1 X190.465 Y73.303 E4683.10457
G1 X190.548 Y72.667 E4683.1259
G1 X190.548 Y71.814 E4683.15427
G1 X190.532 Y71.472 E4683.16566
G1 X190.465 Y70.955 E4683.183
G1 X190.204 Y70.325 E4683.20568
G1 X189.79 Y69.786 E4683.22828
G1 X189.251 Y69.372 E4683.25089
G1 X188.623 Y69.111 E4683.27351
G1 X188.345 Y69.075 E4683.28283
G0 F9000 X187.987 Y69.03
G0 X189.788 Y69.788
G0 X190.532 Y71.473
G0 X190.202 Y73.93
G0 X187.987 Y79.028
G0 X187.987 Y79.028
G1 F3600 X41.91 Y79.028 E4688.14137
G1 X41.274 Y79.111 E4688.16271
G1 X40.646 Y79.372 E4688.18533
G1 X40.107 Y79.786 E4688.20793
G1 X39.693 Y80.325 E4688.23054
G1 X39.432 Y80.954 E4688.25319
G1 X39.349 Y81.589 E4688.27449
G1 X39.349 Y82.667 E4688.31034
G1 X39.432 Y83.303 E4688.33167
G1 X39.693 Y83.931 E4688.35429
G1 X40.107 Y84.471 E4688.37692
G1 X40.647 Y84.884 E4688.39953
G1 X41.274 Y85.145 E4688.42212
G1 X41.91 Y85.228 E4688.44346
G1 X187.987 Y85.228 E4693.302
G1 X188.623 Y85.145 E4693.32333
G1 X189.25 Y84.884 E4693.34592
G1 X189.79 Y84.471 E4693.36853
G1 X190.204 Y83.931 E4693.39116
G1 X190.465 Y83.303 E4693.41378
G1 X190.548 Y82.667 E4693.43511
G1 X190.548 Y81.814 E4693.46348
G1 X190.532 Y81.472 E4693.47487
G1 X190.465 Y80.955 E4693.49221
G1 X190.204 Y80.325 E4693.51489
G1 X189.79 Y79.786 E4693.5375
G1 X189.251 Y79.372 E4693.5601
G1 X188.623 Y79.111 E4693.58272
G1 X188.345 Y79.075 E4693.59205
G0 F9000 X187.987 Y79.03
G0 X189.788 Y79.788
G0 X190.532 Y81.473
G0 X190.202 Y83.93
G0 X187.987 Y89.028
G0 X187.987 Y89.028
G1 F3600 X41.91 Y89.028 E4698.45059
G1 X41.274 Y89.111 E4698.47192
G1 X40.646 Y89.372 E4698.49454
G1 X40.107 Y89.786 E4698.51714
G1 X39.693 Y90.325 E4698.53975
G1 X39.432 Y90.954 E4698.5624
G1 X39.349 Y91.589 E4698.5837
G1 X39.349 Y92.667 E4698.61955
G1 X39.432 Y93.303 E4698.64089
G1 X39.693 Y93.931 E4698.66351
G1 X40.107 Y94.471 E4698.68614
G1 X40.647 Y94.884 E4698.70875
G1 X41.274 Y95.145 E4698.73134
G1 X41.91 Y95.228 E4698.75267
G1 X187.987 Y95.228 E4703.61121
G1 X188.623 Y95.145 E4703.63254
G1 X189.25 Y94.884 E4703.65513
G1 X189.79 Y94.471 E4703.67774
G1 X190.204 Y93.931 E4703.70037
G1 X190.465 Y93.303 E4703.72299
G1 X190.548 Y92.667 E4703.74433
G1 X190.548 Y91.814 E4703.7727
G1 X190.532 Y91.472 E4703.78408
G1 X190.465 Y90.955 E4703.80142
G1 X190.204 Y90.325 E4703.82411
G1 X189.79 Y89.786 E4703.84671
G1 X189.251 Y89.372 E4703.86932
G1 X188.623 Y89.111 E4703.89193
G1 X188.345 Y89.075 E4703.90126
G0 F9000 X187.987 Y89.03
G0 X189.788 Y89.788
G0 X190.532 Y91.473
G0 X190.202 Y93.93
G0 X187.987 Y99.028
G0 X187.987 Y99.028
G1 F3600 X41.91 Y99.028 E4708.7598
G1 X41.274 Y99.111 E4708.78113
G1 X40.646 Y99.372 E4708.80375
G1 X40.107 Y99.786 E4708.82636
G1 X39.693 Y100.325 E4708.84896
G1 X39.432 Y100.954 E4708.87161
G1 X39.349 Y101.589 E4708.89291
G1 X39.349 Y102.667 E4708.92877
G1 X39.432 Y103.303 E4708.9501
G1 X39.693 Y103.931 E4708.97272
G1 X40.107 Y104.471 E4708.99535
G1 X40.647 Y104.884 E4709.01796
G1 X41.274 Y105.145 E4709.04055
G1 X41.91 Y105.228 E4709.06188
G1 X187.988 Y105.228 E4713.92046
G1 X188.622 Y105.145 E4713.94172
G1 X189.25 Y104.884 E4713.96434
G1 X189.79 Y104.471 E4713.98695
G1 X190.204 Y103.931 E4714.00959
G1 X190.465 Y103.303 E4714.0322
G1 X190.548 Y102.667 E4714.05354
G1 X190.548 Y101.589 E4714.08939
G1 X190.465 Y100.954 E4714.11069
G1 X190.204 Y100.325 E4714.13334
G1 X189.79 Y99.786 E4714.15595
G1 X189.251 Y99.372 E4714.17855
G1 X188.623 Y99.111 E4714.20117
G1 X188.345 Y99.075 E4714.2105
G1 F1800 E4711.2105
G1 Z1.999
G0 F9000 X187.885 Y99.105
G0 X41.276 Y99.113
G0 X39.695 Y100.326
G0 X39.35 Y102.666
G0 X40.109 Y104.469
G0 X41.911 Y105.227
G0 X180.018 Y105.15
G0 X157.436 Y122.5
G0 X157.436 Y122.5
G1 Z1.499
G1 F1800 E4714.2105
G1 F3600 X157.001 Y122.166 E4714.22874
G1 X156.493 Y121.955 E4714.24703
G1 X155.948 Y121.884 E4714.26531
G1 X155.402 Y121.955 E4714.28362
G1 X154.896 Y122.166 E4714.30186
G1 X154.459 Y122.5 E4714.32015
G1 X154.125 Y122.937 E4714.33845
G1 X153.914 Y123.443 E4714.35668
G1 X153.843 Y123.989 E4714.37499
G1 X153.914 Y124.534 E4714.39327
G1 X154.125 Y125.042 E4714.41157
G1 X154.459 Y125.477 E4714.42981
G1 X154.895 Y125.812 E4714.4481
G1 X155.402 Y126.023 E4714.46636
G1 X155.948 Y126.094 E4714.48468
G1 X156.493 Y126.023 E4714.50296
G1 X157.001 Y125.812 E4714.52125
G1 X157.436 Y125.477 E4714.53951
G1 X157.771 Y125.042 E4714.55777
G1 X157.982 Y124.534 E4714.57607
G1 X158.053 Y123.989 E4714.59435
G1 X157.982 Y123.443 E4714.61266
G1 X157.771 Y122.936 E4714.63093
G1 X157.656 Y122.786 E4714.63721
G1 F1800 E4711.63721
G1 Z1.999
G0 F9000 X157.433 Y122.622
G0 X158.051 Y123.989
G0 X155.948 Y207.323
G0 X155.948 Y207.323
G1 Z1.499
G1 F1800 E4714.63721
G1 F3600 X155.402 Y207.394 E4714.65553
G1 X154.896 Y207.605 E4714.67376
G1 X154.459 Y207.939 E4714.69206
G1 X154.125 Y208.376 E4714.71035
G1 X153.914 Y208.882 E4714.72858
G1 X153.843 Y209.428 E4714.7469
G1 X153.914 Y209.973 E4714.76518
G1 X154.125 Y210.481 E4714.78347
G1 X154.459 Y210.916 E4714.80171
G1 X154.895 Y211.251 E4714.82
G1 X155.402 Y211.462 E4714.83827
G1 X155.948 Y211.533 E4714.85658
G1 X156.493 Y211.462 E4714.87486
G1 X157.001 Y211.251 E4714.89315
G1 X157.436 Y210.916 E4714.91142
G1 X157.771 Y210.481 E4714.92968
G1 X157.982 Y209.973 E4714.94797
G1 X158.053 Y209.428 E4714.96625
G1 X157.982 Y208.882 E4714.98457
G1 X157.771 Y208.375 E4715.00283
G1 X157.436 Y207.939 E4715.02112
G1 X157.001 Y207.605 E4715.03936
G1 X156.493 Y207.394 E4715.05765
G1 X156.306 Y207.37 E4715.06392
G0 F9000 X203.224 Y218.774
G1 F3600 X203.102 Y219.707 E4715.09522
G1 X203.224 Y220.64 E4715.12652
G1 X203.585 Y221.51 E4715.15785
G1 X204.158 Y222.256 E4715.18913
G1 X204.904 Y222.829 E4715.22042
G1 X205.774 Y223.19 E4715.25175
G1 X206.707 Y223.312 E4715.28304
G1 X207.64 Y223.19 E4715.31434
G1 X208.51 Y222.829 E4715.34567
G1 X209.256 Y222.256 E4715.37695
G1 X209.829 Y221.51 E4715.40824
G1 X210.19 Y220.64 E4715.43957
G1 X210.312 Y219.707 E4715.47086
G1 X210.19 Y218.774 E4715.50216
G1 X209.829 Y217.904 E4715.53349
G1 X209.256 Y217.158 E4715.56478
G1 X208.51 Y216.585 E4715.59606
G1 X207.64 Y216.224 E4715.62739
G1 X206.707 Y216.102 E4715.65869
G1 X205.774 Y216.224 E4715.68998
G1 X204.904 Y216.585 E4715.72131
G1 X204.158 Y217.158 E4715.7526
G1 X203.585 Y217.904 E4715.78388
G1 X203.363 Y218.441 E4715.80321
G0 F9000 X48.034 Y209.428
G1 F3600 X47.963 Y208.882 E4715.82152
G1 X47.752 Y208.375 E4715.83979
G1 X47.417 Y207.939 E4715.85808
G1 X46.982 Y207.605 E4715.87632
G1 X46.474 Y207.394 E4715.89461
G1 X45.929 Y207.323 E4715.91289
G1 X45.383 Y207.394 E4715.93121
G1 X44.877 Y207.605 E4715.94944
G1 X44.44 Y207.939 E4715.96773
G1 X44.106 Y208.376 E4715.98603
G1 X43.895 Y208.882 E4716.00426
G1 X43.824 Y209.428 E4716.02257
G1 X43.895 Y209.973 E4716.04085
G1 X44.106 Y210.481 E4716.05915
G1 X44.44 Y210.916 E4716.07739
G1 X44.876 Y211.251 E4716.09568
G1 X45.383 Y211.462 E4716.11394
G1 X45.929 Y211.533 E4716.13226
G1 X46.474 Y211.462 E4716.15054
G1 X46.982 Y211.251 E4716.16883
G1 X47.417 Y210.916 E4716.18709
G1 X47.752 Y210.481 E4716.20536
G1 X47.963 Y209.973 E4716.22365
G1 X47.987 Y209.786 E4716.22992
G1 F1800 E4713.22992
G1 Z1.999
G0 F9000 X48.005 Y209.439
G0 X47.415 Y210.914
G0 X45.929 Y211.531
G0 X24.777 Y218.774
G0 X24.777 Y218.774
G1 Z1.499
G1 F1800 E4716.22992
G1 F3600 X24.416 Y217.904 E4716.26125
G1 X23.843 Y217.158 E4716.29254
G1 X23.097 Y216.585 E4716.32382
G1 X22.227 Y216.224 E4716.35515
G1 X21.294 Y216.102 E4716.38645
G1 X20.361 Y216.224 E4716.41774
G1 X19.491 Y216.585 E4716.44907
G1 X18.745 Y217.158 E4716.48036
G1 X18.172 Y217.904 E4716.51165
G1 X17.811 Y218.774 E4716.54297
G1 X17.689 Y219.707 E4716.57427
G1 X17.811 Y220.64 E4716.60557
G1 X18.172 Y221.51 E4716.63689
G1 X18.745 Y222.256 E4716.66818
G1 X19.491 Y222.829 E4716.69947
G1 X20.361 Y223.19 E4716.7308
G1 X21.294 Y223.312 E4716.76209
G1 X22.227 Y223.19 E4716.79339
G1 X23.097 Y222.829 E4716.82472
G1 X23.843 Y222.256 E4716.856
G1 X24.416 Y221.51 E4716.88729
G1 X24.777 Y220.64 E4716.91862
G1 X24.899 Y219.707 E4716.94991
G1 X24.824 Y219.132 E4716.9692
G0 F9000 X45.432 Y125.928
G0 X45.432 Y125.928
G0 X45.383 Y126.023
G1 F3600 X45.929 Y126.094 E4716.98751
G1 X46.474 Y126.023 E4717.00579
G1 X46.982 Y125.812 E4717.02409
G1 X47.417 Y125.477 E4717.04235
G1 X47.752 Y125.042 E4717.06061
G1 X47.963 Y124.534 E4717.07891
G1 X48.034 Y123.989 E4717.09719
G1 X47.963 Y123.443 E4717.1155
G1 X47.752 Y122.936 E4717.13376
G1 X47.417 Y122.5 E4717.15205
G1 X46.982 Y122.166 E4717.17029
G1 X46.474 Y121.955 E4717.18859
G1 X45.929 Y121.884 E4717.20687
G1 X45.383 Y121.955 E4717.22518
G1 X44.877 Y122.166 E4717.24342
G1 X44.44 Y122.5 E4717.26171
G1 X44.106 Y122.937 E4717.28
G1 X43.895 Y123.443 E4717.29824
G1 X43.824 Y123.989 E4717.31655
G1 X43.895 Y124.534 E4717.33483
G1 X44.106 Y125.042 E4717.35313
G1 X44.44 Y125.477 E4717.37137
G1 X44.876 Y125.812 E4717.38965
G1 X45.05 Y125.884 E4717.39592
G1 F1800 E4714.39592
G1 Z1.999
G0 F9000 X45.432 Y125.928
G0 X45.451 Y126.006
G0 X44.108 Y125.041
G0 X22.221 Y37.671
G0 X22.227 Y37.777
G1 Z1.499
G1 F1800 E4717.39592
G1 F3600 X23.097 Y37.416 E4717.42725
G1 X23.843 Y36.843 E4717.45853
G1 X24.416 Y36.097 E4717.48982
G1 X24.777 Y35.227 E4717.52115
G1 X24.899 Y34.294 E4717.55244
G1 X24.777 Y33.361 E4717.58374
G1 X24.416 Y32.491 E4717.61507
G1 X23.843 Y31.745 E4717.64636
G1 X23.097 Y31.172 E4717.67764
G1 X22.227 Y30.811 E4717.70897
G1 X21.294 Y30.689 E4717.74027
G1 X20.361 Y30.811 E4717.77156
G1 X19.491 Y31.172 E4717.80289
G1 X18.745 Y31.745 E4717.83418
G1 X18.172 Y32.491 E4717.86546
G1 X17.811 Y33.361 E4717.89679
G1 X17.689 Y34.294 E4717.92809
G1 X17.811 Y35.227 E4717.95938
G1 X18.172 Y36.097 E4717.99071
G1 X18.745 Y36.843 E4718.022
G1 X19.491 Y37.416 E4718.05329
G1 X20.361 Y37.777 E4718.08461
G1 X21.294 Y37.899 E4718.11591
G1 X21.869 Y37.824 E4718.1352
G0 F9000 X22.122 Y37.387
; TYPE:WALL-OUTER
G1 F3000 X22.895 Y37.067 E4718.16302
G1 X23.558 Y36.558 E4718.19082
G1 X24.067 Y35.895 E4718.21862
G1 X24.387 Y35.122 E4718.24645
G1 X24.496 Y34.294 E4718.27423
G1 X24.387 Y33.466 E4718.302
G1 X24.067 Y32.693 E4718.32983
G1 X23.558 Y32.03 E4718.35763
G1 X22.895 Y31.521 E4718.38543
G1 X22.122 Y31.201 E4718.41326
G1 X21.294 Y31.092 E4718.44103
G1 X20.466 Y31.201 E4718.46881
G1 X19.693 Y31.521 E4718.49664
G1 X19.03 Y32.03 E4718.52444
G1 X18.521 Y32.693 E4718.55224
G1 X18.201 Y33.466 E4718.58006
G1 X18.092 Y34.294 E4718.60784
G1 X18.201 Y35.122 E4718.63562
G1 X18.521 Y35.895 E4718.66344
G1 X19.03 Y36.558 E4718.69124
G1 X19.693 Y37.067 E4718.71905
G1 X20.466 Y37.387 E4718.74687
G1 X21.294 Y37.496 E4718.77465
G1 X21.765 Y37.434 E4718.79045
G0 F9000 X22.16 Y37.685
G0 X22.211 Y37.749
G0 X20.363 Y37.775
G0 X18.747 Y36.841
G0 X11.794 Y24.704
G0 X11.494 Y24.494
G1 F3000 X216.507 Y24.494 E4725.60921
G1 X216.507 Y229.507 E4732.42797
G1 X11.494 Y229.507 E4739.24673
G1 X11.494 Y24.854 E4746.05352
G1 F1800 E4743.05352
G1 Z1.999
G0 F9000 X11.794 Y24.704
G0 X39.767 Y40.412
G0 X39.767 Y40.412
