; Generated with MatterSlice 1.0
; filamentDiameter = 1.75
; extrusionWidth = 0.4
; firstLayerExtrusionWidth = 1
; layerThickness = 0.2
; firstLayerThickness = 0.3
; automatic settings before start_gcode
G21 ; set units to millimeters
M107 ; fan off
M190 S12 ; wait for bed temperature to be reached
M104 T0 S215 ; start heating extruder 0
T0 ; set the active extruder to 0
; settings from start_gcode
G28 X0 Y0 Z0 ; home all axes
G1 Z5 F5000 ; lift nozzle
M109 S210 ; set the extruder temp and wait
G28 X0 Y0 Z0 ; Home Z again in case there was filament on nozzle
M565 Z0
G29 ; probe the bed
; automatic settings after start_gcode
T0 ; set the active extruder to 0
G90 ; use absolute coordinates
G92 E0 ; reset the expected extruder position
M82 ; use absolute distance for extrusion
; Layer count: 14
; LAYER:0
M107
G0 F9000 X85.34 Y74.561 Z1.299
; TYPE:WALL-OUTER
G1 Z1.299
G1 F1800 E0
G1 F1080 X109.447 Y74.561 E3.00676
G1 X109.447 Y120.561 E8.74413
G1 X85.34 Y120.561 E11.75089
G1 X85.34 Y75.461 E17.37601
G0 F9000 X85.94 Y75.071
G0 X101.877 Y76.637
G0 X101.877 Y76.637
G0 X102.475 Y76.669
G1 F1080 X102.448 Y77.192 E17.44133
G1 X102.529 Y77.709 E17.5066
G1 X102.717 Y78.197 E17.57182
G1 X103.003 Y78.637 E17.63728
G1 X103.373 Y79.006 E17.70245
G1 X103.81 Y79.291 E17.76753
G1 X104.3 Y79.479 E17.83298
G1 X104.815 Y79.56 E17.89801
G1 X105.339 Y79.534 E17.96344
G1 X105.844 Y79.397 E18.02871
G1 X106.31 Y79.161 E18.09386
G1 X106.718 Y78.829 E18.15947
G1 X107.058 Y78.403 E18.22745
G1 X107.283 Y77.958 E18.28964
G1 X107.42 Y77.453 E18.3549
G1 X107.446 Y76.93 E18.42022
G1 X107.365 Y76.414 E18.48536
G1 X107.177 Y75.924 E18.55082
G1 X106.892 Y75.487 E18.61589
G1 X106.523 Y75.117 E18.68107
G1 X106.083 Y74.831 E18.74652
G1 X105.595 Y74.643 E18.81175
G1 X105.078 Y74.562 E18.87702
G1 X104.555 Y74.589 E18.94234
G1 X104.05 Y74.725 E19.00757
G1 X103.584 Y74.962 E19.07277
G1 X103.177 Y75.291 E19.13805
G1 X102.848 Y75.698 E19.20332
G1 X102.783 Y75.826 E19.22123
G0 F9000 X101.877 Y76.637
G0 X101.913 Y76.803
G0 X101.851 Y77.89
G0 X105.643 Y93.473
G0 X105.643 Y94.073
G1 F1080 X105.041 Y94.178 E19.29745
G1 X104.467 Y94.387 E19.37364
G1 X103.938 Y94.693 E19.44986
G1 X103.471 Y95.085 E19.52591
G1 X103.079 Y95.553 E19.60205
G1 X102.773 Y96.081 E19.67817
G1 X102.564 Y96.655 E19.75436
G1 X102.459 Y97.257 E19.83058
G1 X102.459 Y97.866 E19.90653
G1 X102.564 Y98.468 E19.98275
G1 X102.773 Y99.041 E20.05882
G1 X103.079 Y99.57 E20.13505
G1 X103.471 Y100.038 E20.21119
G1 X103.938 Y100.43 E20.28724
G1 X104.467 Y100.735 E20.3634
G1 X105.041 Y100.944 E20.43959
G1 X105.642 Y101.05 E20.51571
G1 X106.253 Y101.05 E20.59191
G1 X106.854 Y100.944 E20.66803
G1 X107.427 Y100.735 E20.7441
G1 X107.956 Y100.43 E20.82026
G1 X108.423 Y100.038 E20.89631
G1 X108.816 Y99.57 E20.97253
G1 X109.121 Y99.041 E21.0487
G1 X109.33 Y98.468 E21.12477
G1 X109.436 Y97.867 E21.20089
G1 X109.436 Y97.256 E21.27709
G1 X109.33 Y96.655 E21.35321
G1 X109.121 Y96.081 E21.4294
G1 X108.816 Y95.553 E21.50545
G1 X108.423 Y95.085 E21.58168
G1 X107.956 Y94.693 E21.65772
G1 X107.427 Y94.387 E21.73395
G1 X106.854 Y94.178 E21.81002
G1 X106.539 Y94.124 E21.84988
G0 F9000 X105.643 Y93.473
G0 X105.464 Y93.549
G0 X104.17 Y93.751
G0 X91.825 Y99.394
G0 X91.284 Y99.653
G1 F1080 X91.065 Y99.199 E21.91275
G1 X90.751 Y98.803 E21.97578
G1 X90.356 Y98.489 E22.03872
G1 X89.901 Y98.27 E22.1017
G1 X89.409 Y98.158 E22.16464
G1 X88.906 Y98.158 E22.22737
G1 X88.413 Y98.27 E22.29043
G1 X87.958 Y98.489 E22.35341
G1 X87.564 Y98.803 E22.41625
G1 X87.25 Y99.199 E22.47929
G1 X87.031 Y99.652 E22.54204
G1 X86.918 Y100.144 E22.605
G1 X86.918 Y100.65 E22.66812
G1 X87.031 Y101.142 E22.73108
G1 X87.25 Y101.596 E22.79395
G1 X87.564 Y101.99 E22.85679
G1 X87.958 Y102.304 E22.91963
G1 X88.412 Y102.524 E22.98255
G1 X88.906 Y102.636 E23.04573
G1 X89.409 Y102.636 E23.10846
G1 X89.901 Y102.524 E23.1714
G1 X90.357 Y102.304 E23.23455
G1 X90.751 Y101.99 E23.29739
G1 X91.065 Y101.596 E23.36022
G1 X91.284 Y101.141 E23.42321
G1 X91.396 Y100.649 E23.48614
G1 X91.396 Y100.541 E23.49961
G0 F9000 X91.825 Y99.394
G0 X103.209 Y115.496
G0 X103.209 Y115.496
G0 X103.584 Y115.962
G1 F1080 X103.177 Y116.291 E23.56489
G1 X102.848 Y116.698 E23.63016
G1 X102.611 Y117.164 E23.69537
G1 X102.475 Y117.669 E23.7606
G1 X102.448 Y118.192 E23.82592
G1 X102.529 Y118.709 E23.89119
G1 X102.717 Y119.197 E23.95641
G1 X103.003 Y119.637 E24.02187
G1 X103.373 Y120.006 E24.08704
G1 X103.81 Y120.291 E24.15211
G1 X104.3 Y120.479 E24.21757
G1 X104.815 Y120.56 E24.2826
G1 X105.339 Y120.534 E24.34803
G1 X105.844 Y120.397 E24.4133
G1 X106.31 Y120.161 E24.47845
G1 X106.718 Y119.829 E24.54405
G1 X107.058 Y119.403 E24.61204
G1 X107.283 Y118.958 E24.67423
G1 X107.42 Y118.453 E24.73949
G1 X107.446 Y117.93 E24.8048
G1 X107.365 Y117.414 E24.86995
G1 X107.177 Y116.924 E24.93541
G1 X106.892 Y116.487 E25.00048
G1 X106.523 Y116.117 E25.06566
G1 X106.083 Y115.831 E25.13111
G1 X105.595 Y115.643 E25.19634
G1 X105.078 Y115.562 E25.26161
G1 X104.555 Y115.589 E25.32693
G1 X104.416 Y115.626 E25.34487
G0 F9000 X103.036 Y115.119
; TYPE:WALL-INNER
G1 F1080 X102.466 Y115.58 E25.4363
G1 X102.005 Y116.15 E25.52774
G1 X101.672 Y116.803 E25.61916
G1 X101.482 Y117.512 E25.71071
G1 X101.444 Y118.244 E25.80213
G1 X101.558 Y118.969 E25.89367
G1 X101.785 Y119.561 E25.97275
G1 X86.34 Y119.561 E27.89914
G1 X86.34 Y102.011 E30.08807
G1 X86.398 Y102.131 E30.10469
G1 X86.853 Y102.701 E30.19566
G1 X87.422 Y103.155 E30.28645
G1 X88.079 Y103.474 E30.37754
G1 X88.794 Y103.636 E30.46898
G1 X89.522 Y103.636 E30.55978
G1 X90.234 Y103.474 E30.65086
G1 X90.893 Y103.156 E30.74212
G1 X91.462 Y102.701 E30.83299
G1 X91.917 Y102.131 E30.92396
G1 X92.234 Y101.473 E31.01505
G1 X92.396 Y100.762 E31.106
G1 X92.396 Y100.032 E31.19705
G1 X92.234 Y99.321 E31.28801
G1 X91.918 Y98.664 E31.37894
G1 X91.463 Y98.092 E31.4701
G1 X90.891 Y97.636 E31.56134
G1 X90.232 Y97.32 E31.65249
G1 X89.522 Y97.158 E31.74332
G1 X88.794 Y97.158 E31.83412
G1 X88.081 Y97.32 E31.92532
G1 X87.423 Y97.637 E32.01642
G1 X86.852 Y98.092 E32.10748
G1 X86.397 Y98.664 E32.19864
G1 X86.34 Y98.783 E32.2151
G1 X86.34 Y75.561 E35.11147
G1 X101.795 Y75.561 E37.03911
G1 X101.672 Y75.803 E37.07297
G1 X101.482 Y76.512 E37.16452
G1 X101.444 Y77.244 E37.25594
G1 X101.558 Y77.969 E37.34748
G1 X101.821 Y78.654 E37.43899
G1 X102.222 Y79.27 E37.53067
G1 X102.74 Y79.787 E37.62195
G1 X103.353 Y80.187 E37.71324
G1 X104.04 Y80.45 E37.805
G1 X104.762 Y80.564 E37.89616
G1 X105.496 Y80.527 E37.98783
G1 X106.205 Y80.336 E38.07941
G1 X106.858 Y80.004 E38.17078
G1 X107.433 Y79.537 E38.26317
G1 X107.904 Y78.946 E38.35743
G1 X108.222 Y78.318 E38.44522
G1 X108.413 Y77.61 E38.53669
G1 X108.447 Y76.936 E38.62086
G1 X108.447 Y93.822 E40.72697
G1 X107.852 Y93.478 E40.8127
G1 X107.113 Y93.208 E40.91083
G1 X106.339 Y93.073 E41.00882
G1 X105.556 Y93.073 E41.10648
G1 X104.782 Y93.208 E41.20448
G1 X104.042 Y93.477 E41.30268
G1 X103.362 Y93.871 E41.40071
G1 X102.761 Y94.376 E41.49861
G1 X102.257 Y94.977 E41.59644
G1 X101.864 Y95.656 E41.6943
G1 X101.594 Y96.396 E41.79254
G1 X101.459 Y97.17 E41.89054
G1 X101.459 Y97.953 E41.9882
G1 X101.594 Y98.727 E42.08619
G1 X101.864 Y99.466 E42.18433
G1 X102.257 Y100.146 E42.28228
G1 X102.761 Y100.747 E42.38011
G1 X103.363 Y101.253 E42.4782
G1 X104.043 Y101.645 E42.5761
G1 X104.781 Y101.913 E42.67402
G1 X105.554 Y102.05 E42.77194
G1 X106.341 Y102.05 E42.8701
G1 X107.114 Y101.913 E42.96801
G1 X107.851 Y101.645 E43.06583
G1 X108.447 Y101.301 E43.15166
G1 X108.447 Y117.858 E45.21674
G1 X108.336 Y117.154 E45.30563
G1 X108.073 Y116.467 E45.39738
G1 X107.673 Y115.854 E45.48867
G1 X107.156 Y115.336 E45.57995
G1 X106.54 Y114.935 E45.67163
G1 X105.855 Y114.672 E45.76315
G1 X105.13 Y114.558 E45.85468
G1 X104.398 Y114.596 E45.94611
G1 X103.851 Y114.742 E46.01672
G0 F9000 X103.403 Y115.309
G0 X105.114 Y114.861
G0 X106.966 Y115.571
G0 X108.447 Y117.936
G0 X108.447 Y117.936
G1 F1080 X108.447 Y119.561 E46.2194
G1 X108.099 Y119.561 E46.2628
G1 X108.222 Y119.318 E46.29677
G1 X108.354 Y118.829 E46.35995
G1 F1800 E43.35995
G1 Z1.799
G0 F9000 X108.447 Y100.871
G0 X106.314 Y101.749
G0 X104.171 Y101.371
G0 X102.505 Y99.972
G0 X101.76 Y97.927
G0 X102.137 Y95.784
G0 X108.447 Y76.858
G0 X108.447 Y76.858
G1 Z1.299
G1 F1800 E46.35995
G1 F1080 X108.336 Y76.154 E46.44884
G1 X108.109 Y75.561 E46.52803
G1 X108.447 Y75.561 E46.57019
G1 X108.447 Y75.958 E46.61971
G0 F9000 X107.917 Y79.632
; TYPE:FILL
G1 F1080 X107.592 Y80.015 E46.63537
G1 X108.006 Y81.136 E46.78442
G0 F9000 X108.006 Y82.55
G1 F1080 X106.237 Y80.782 E47.09636
G0 F9000 X105.032 Y80.99
G1 F1080 X108.006 Y83.964 E47.62094
G0 F9000 X108.006 Y85.378
G1 F1080 X103.245 Y80.617 E48.46073
G0 F9000 X101.39 Y78.763
G1 F1080 X98.627 Y76 E48.94809
G0 F9000 X97.213 Y76
G1 F1080 X108.006 Y86.793 E50.85185
G0 F9000 X108.006 Y88.207
G1 F1080 X95.799 Y76 E53.00502
G0 F9000 X94.385 Y76
G1 F1080 X108.006 Y89.621 E55.40761
G0 F9000 X108.006 Y91.035
G1 F1080 X92.971 Y76.001 E58.05952
G0 F9000 X91.557 Y76.001
G1 F1080 X108.006 Y92.449 E60.96085
G0 F9000 X106.858 Y92.716
G1 F1080 X90.143 Y76.001 E63.90918
G0 F9000 X88.729 Y76.001
G1 F1080 X105.384 Y92.656 E66.84693
G0 F9000 X104.247 Y92.933
G1 F1080 X87.314 Y76.001 E69.83363
G0 F9000 X86.778 Y76.879
G1 F1080 X103.298 Y93.398 E72.74748
G0 F9000 X102.502 Y94.017
G1 F1080 X86.778 Y78.293 E75.52102
G0 F9000 X86.778 Y79.707
G1 F1080 X101.858 Y94.786 E78.18087
G0 F9000 X101.372 Y95.715
G1 F1080 X86.778 Y81.122 E80.75499
G0 F9000 X86.778 Y82.536
G1 F1080 X101.071 Y96.828 E83.27602
G0 F9000 X101.06 Y98.231
G1 F1080 X86.778 Y83.95 E85.79512
G0 F9000 X86.778 Y85.364
G1 F1080 X102.316 Y100.902 E88.53584
G0 F9000 X102.606 Y101.192
G1 F1080 X108.006 Y106.592 E89.48834
G0 F9000 X108.006 Y108.006
G1 F1080 X86.779 Y86.779 E93.23254
G0 F9000 X86.779 Y88.193
G1 F1080 X108.006 Y109.42 E96.97674
G0 F9000 X108.006 Y110.834
G1 F1080 X86.779 Y89.608 E100.72085
G0 F9000 X86.779 Y91.022
G1 F1080 X108.007 Y112.249 E104.46513
G0 F9000 X108.007 Y113.663
G1 F1080 X86.779 Y92.436 E108.20942
G0 F9000 X86.779 Y93.85
G1 F1080 X89.667 Y96.738 E108.71883
G0 F9000 X88.327 Y96.812
G1 F1080 X86.779 Y95.264 E108.99188
G0 F9000 X86.779 Y96.679
G1 F1080 X87.305 Y97.204 E109.08457
G0 F9000 X87.671 Y97.962
G0 X87.606 Y97.929
G0 X89.487 Y97.46
G0 X91.248 Y98.307
G0 X92.056 Y100.088
G0 X91.991 Y100.058
G0 X92.813 Y99.884
G1 F1080 X108.007 Y115.078 E111.76462
G0 F9000 X105.718 Y114.204
G1 F1080 X92.741 Y101.226 E114.0537
G0 F9000 X92.348 Y102.248
G1 F1080 X104.273 Y114.172 E116.15705
G0 F9000 X103.217 Y114.53
G1 F1080 X91.732 Y103.046 E118.18278
G0 F9000 X90.908 Y103.636
G1 F1080 X102.366 Y115.094 E120.20384
G0 F9000 X101.692 Y115.834
G1 F1080 X89.865 Y104.007 E122.28999
G0 F9000 X88.452 Y104.009
G1 F1080 X101.223 Y116.779 E124.54256
G0 F9000 X101.016 Y117.987
G1 F1080 X86.779 Y103.75 E127.0538
G0 F9000 X86.779 Y105.164
G1 F1080 X100.735 Y119.12 E129.51548
G0 F9000 X99.321 Y119.12
G1 F1080 X86.779 Y106.578 E131.72774
G0 F9000 X86.779 Y107.992
G1 F1080 X97.907 Y119.12 E133.69059
G0 F9000 X96.493 Y119.12
G1 F1080 X86.779 Y109.407 E135.40394
G0 F9000 X86.779 Y110.821
G1 F1080 X95.078 Y119.12 E136.86779
G0 F9000 X93.664 Y119.119
G1 F1080 X86.779 Y112.235 E138.08214
G0 F9000 X86.779 Y113.649
G1 F1080 X92.249 Y119.119 E139.04698
G0 F9000 X90.835 Y119.119
G1 F1080 X86.779 Y115.063 E139.76241
G0 F9000 X86.779 Y116.478
G1 F1080 X89.421 Y119.119 E140.22834
G0 F9000 X88.007 Y119.119
G1 F1080 X86.779 Y117.892 E140.44486
G0 F9000 X105.276 Y102.448
G1 F1080 X108.005 Y105.177 E140.92623
G0 F9000 X108.005 Y103.762
G1 F1080 X107.235 Y102.285 E141.15994
G1 X108.005 Y102.348 E141.2563
G1 F1800 E138.2563
G1 Z1.799
G0 F9000 X107.759 Y101.341
G0 X85.981 Y119.92
G0 X101.857 Y77.019
G0 X101.016 Y76.974
G1 Z1.299
G1 F1800 E141.2563
G1 F1080 X100.042 Y76 E141.42811
G1 F1800 E138.42811
G1 Z1.799
G0 F9000 X118.552 Y75.554
; TYPE:WALL-OUTER
G1 Z1.299
G1 F1800 E141.42811
G1 F1080 X142.659 Y75.554 E144.43486
G1 X142.659 Y121.553 E150.17211
G1 X138.047 Y121.553 E150.74735
G1 X138.552 Y121.527 E150.81042
G1 X139.057 Y121.39 E150.87568
G1 X139.523 Y121.154 E150.94083
G1 X139.931 Y120.822 E151.00644
G1 X140.27 Y120.397 E151.07424
G1 X140.496 Y119.951 E151.1366
G1 X140.632 Y119.446 E151.20184
G1 X140.659 Y118.924 E151.26703
G1 X140.578 Y118.407 E151.3323
G1 X140.39 Y117.917 E151.39776
G1 X140.105 Y117.48 E151.46283
G1 X139.736 Y117.11 E151.52801
G1 X139.296 Y116.824 E151.59346
G1 X138.808 Y116.636 E151.65869
G1 X138.291 Y116.555 E151.72396
G1 X137.768 Y116.582 E151.78927
G1 X137.263 Y116.718 E151.8545
G1 X136.797 Y116.955 E151.91971
G1 X136.39 Y117.284 E151.98499
G1 X136.061 Y117.691 E152.05026
G1 X135.824 Y118.158 E152.11558
G1 X135.688 Y118.662 E152.18069
G1 X135.661 Y119.185 E152.24601
G1 X135.742 Y119.702 E152.31128
G1 X135.93 Y120.19 E152.3765
G1 X136.215 Y120.629 E152.44178
G1 X136.585 Y121 E152.50714
G1 X137.024 Y121.284 E152.57235
G1 X137.511 Y121.471 E152.63742
G1 X138.022 Y121.553 E152.70197
G1 X118.552 Y121.553 E155.13037
G1 X118.552 Y76.454 E160.75537
G0 F9000 X119.152 Y76.064
G0 X135.09 Y77.63
G0 X135.09 Y77.63
G0 X135.688 Y77.662
G1 F1080 X135.661 Y78.185 E160.82069
G1 X135.742 Y78.702 E160.88595
G1 X135.93 Y79.19 E160.95118
G1 X136.215 Y79.629 E161.01646
G1 X136.585 Y80 E161.08181
G1 X137.024 Y80.284 E161.14703
G1 X137.511 Y80.471 E161.21209
G1 X138.028 Y80.554 E161.2774
G1 X138.552 Y80.527 E161.34284
G1 X139.057 Y80.39 E161.40811
G1 X139.523 Y80.154 E161.47326
G1 X139.931 Y79.822 E161.53887
G1 X140.27 Y79.397 E161.60667
G1 X140.496 Y78.951 E161.66903
G1 X140.632 Y78.446 E161.73426
G1 X140.659 Y77.924 E161.79946
G1 X140.578 Y77.407 E161.86473
G1 X140.39 Y76.917 E161.93019
G1 X140.105 Y76.48 E161.99526
G1 X139.736 Y76.11 E162.06043
G1 X139.296 Y75.824 E162.12589
G1 X138.808 Y75.636 E162.19111
G1 X138.291 Y75.555 E162.25638
G1 X137.768 Y75.582 E162.3217
G1 X137.263 Y75.718 E162.38693
G1 X136.797 Y75.955 E162.45214
G1 X136.39 Y76.284 E162.51741
G1 X136.061 Y76.691 E162.58269
G1 X135.996 Y76.82 E162.60071
G0 F9000 X135.09 Y77.63
G0 X135.126 Y77.796
G0 X135.064 Y78.883
G0 X138.854 Y94.466
G0 X138.854 Y95.066
G1 F1080 X138.253 Y95.172 E162.67682
G1 X137.68 Y95.38 E162.75285
G1 X137.151 Y95.686 E162.82908
G1 X136.684 Y96.078 E162.90512
G1 X136.291 Y96.546 E162.98135
G1 X135.986 Y97.074 E163.0574
G1 X135.777 Y97.648 E163.13359
G1 X135.671 Y98.249 E163.20971
G1 X135.671 Y98.86 E163.28591
G1 X135.777 Y99.461 E163.36203
G1 X135.986 Y100.034 E163.4381
G1 X136.291 Y100.563 E163.51427
G1 X136.684 Y101.031 E163.59049
G1 X137.151 Y101.423 E163.66654
G1 X137.68 Y101.728 E163.7427
G1 X138.253 Y101.937 E163.81877
G1 X138.854 Y102.043 E163.89489
G1 X139.465 Y102.043 E163.97109
G1 X140.066 Y101.937 E164.04721
G1 X140.64 Y101.728 E164.1234
G1 X141.168 Y101.423 E164.19945
G1 X141.635 Y101.031 E164.2755
G1 X142.027 Y100.563 E164.35164
G1 X142.333 Y100.034 E164.42787
G1 X142.542 Y99.461 E164.50394
G1 X142.647 Y98.859 E164.58016
G1 X142.647 Y98.25 E164.65612
G1 X142.542 Y97.648 E164.73233
G1 X142.333 Y97.074 E164.80853
G1 X142.027 Y96.546 E164.88464
G1 X141.635 Y96.078 E164.96078
G1 X141.168 Y95.686 E165.03683
G1 X140.64 Y95.38 E165.11295
G1 X140.066 Y95.172 E165.18909
G1 X139.75 Y95.117 E165.2291
G0 F9000 X138.854 Y94.466
G0 X138.67 Y94.544
G0 X137.384 Y94.744
G0 X125.038 Y100.387
G0 X124.497 Y100.646
G1 F1080 X124.278 Y100.192 E165.29197
G1 X123.964 Y99.796 E165.355
G1 X123.568 Y99.482 E165.41804
G1 X123.114 Y99.263 E165.48091
G1 X122.622 Y99.151 E165.54384
G1 X122.118 Y99.151 E165.6067
G1 X121.626 Y99.263 E165.66964
G1 X121.171 Y99.482 E165.73262
G1 X120.777 Y99.796 E165.79546
G1 X120.462 Y100.191 E165.85847
G1 X120.243 Y100.646 E165.92145
G1 X120.131 Y101.138 E165.98439
G1 X120.131 Y101.642 E166.04725
G1 X120.243 Y102.134 E166.11018
G1 X120.462 Y102.589 E166.17317
G1 X120.777 Y102.983 E166.23608
G1 X121.171 Y103.298 E166.299
G1 X121.626 Y103.517 E166.36198
G1 X122.118 Y103.629 E166.42492
G1 X122.622 Y103.629 E166.48778
G1 X123.114 Y103.517 E166.55071
G1 X123.569 Y103.298 E166.61369
G1 X123.964 Y102.983 E166.67671
G1 X124.278 Y102.589 E166.73955
G1 X124.497 Y102.134 E166.80253
G1 X124.609 Y101.642 E166.86546
G1 X124.609 Y101.534 E166.87893
G0 F9000 X125.447 Y100.314
; TYPE:WALL-INNER
G1 F1080 X125.131 Y99.657 E166.96986
G1 X124.676 Y99.084 E167.06112
G1 X124.103 Y98.629 E167.15238
G1 X123.446 Y98.313 E167.24331
G1 X122.735 Y98.151 E167.33427
G1 X122.005 Y98.151 E167.42532
G1 X121.294 Y98.313 E167.51627
G1 X120.636 Y98.63 E167.60736
G1 X120.066 Y99.084 E167.69825
G1 X119.61 Y99.656 E167.78949
G1 X119.552 Y99.776 E167.80612
G1 X119.552 Y76.554 E170.70249
G1 X135.009 Y76.554 E172.63037
G1 X134.885 Y76.798 E172.66451
G1 X134.695 Y77.505 E172.75582
G1 X134.657 Y78.237 E172.84724
G1 X134.771 Y78.962 E172.93878
G1 X135.034 Y79.647 E173.0303
G1 X135.433 Y80.261 E173.12163
G1 X135.952 Y80.781 E173.21326
G1 X136.568 Y81.18 E173.3048
G1 X137.25 Y81.442 E173.39593
G1 X137.975 Y81.558 E173.4875
G1 X138.71 Y81.52 E173.5793
G1 X139.418 Y81.329 E173.67076
G1 X140.071 Y80.997 E173.76213
G1 X140.646 Y80.53 E173.85452
G1 X141.115 Y79.94 E173.94852
G1 X141.435 Y79.311 E174.03655
G1 X141.625 Y78.603 E174.12798
G1 X141.659 Y77.949 E174.20966
G1 X141.659 Y94.815 E176.31328
G1 X141.064 Y94.47 E176.39906
G1 X140.325 Y94.202 E176.49711
G1 X139.553 Y94.066 E176.59488
G1 X138.766 Y94.066 E176.69304
G1 X137.994 Y94.203 E176.79083
G1 X137.256 Y94.47 E176.88872
G1 X136.575 Y94.864 E176.98685
G1 X135.974 Y95.368 E177.08468
G1 X135.469 Y95.97 E177.18268
G1 X135.076 Y96.65 E177.28064
G1 X134.808 Y97.388 E177.37857
G1 X134.671 Y98.161 E177.47648
G1 X134.671 Y98.948 E177.57464
G1 X134.808 Y99.721 E177.67256
G1 X135.076 Y100.458 E177.77037
G1 X135.468 Y101.139 E177.86837
G1 X135.974 Y101.741 E177.96646
G1 X136.576 Y102.246 E178.06446
G1 X137.256 Y102.638 E178.16236
G1 X137.993 Y102.906 E178.26017
G1 X138.766 Y103.043 E178.35809
G1 X139.553 Y103.043 E178.45625
G1 X140.326 Y102.906 E178.55416
G1 X141.064 Y102.638 E178.65209
G1 X141.659 Y102.294 E178.73781
G1 X141.659 Y118.847 E180.8024
G1 X141.549 Y118.147 E180.89077
G1 X141.286 Y117.46 E180.98252
G1 X140.886 Y116.847 E181.07382
G1 X140.369 Y116.329 E181.1651
G1 X139.753 Y115.928 E181.25678
G1 X139.068 Y115.665 E181.34829
G1 X138.343 Y115.551 E181.43983
G1 X137.611 Y115.589 E181.53125
G1 X136.902 Y115.779 E181.6228
G1 X136.249 Y116.112 E181.71423
G1 X135.679 Y116.573 E181.80566
G1 X135.218 Y117.144 E181.8972
G1 X134.885 Y117.798 E181.98873
G1 X134.695 Y118.505 E182.08004
G1 X134.657 Y119.237 E182.17146
G1 X134.771 Y119.962 E182.263
G1 X134.998 Y120.553 E182.34196
G1 X119.552 Y120.553 E184.26847
G1 X119.552 Y103.003 E186.45741
G1 X119.611 Y103.125 E186.47431
G1 X120.066 Y103.694 E186.56518
G1 X120.635 Y104.149 E186.65605
G1 X121.294 Y104.467 E186.74731
G1 X122.005 Y104.629 E186.83826
G1 X122.735 Y104.629 E186.92931
G1 X123.446 Y104.467 E187.02026
G1 X124.104 Y104.15 E187.11136
G1 X124.676 Y103.694 E187.2026
G1 X125.13 Y103.124 E187.29349
G1 X125.447 Y102.466 E187.38459
G1 X125.609 Y101.755 E187.47554
G1 X125.609 Y101.196 E187.54526
G1 F1800 E184.54526
G1 Z1.799
G0 F9000 X125.072 Y100.468
G0 X139.124 Y116.125
G0 X140.65 Y117.038
G0 X141.659 Y118.949
G0 X141.659 Y118.949
G1 Z1.299
G1 F1800 E187.54526
G1 F1080 X141.659 Y120.553 E187.74532
G1 X141.312 Y120.553 E187.7886
G1 X141.435 Y120.311 E187.82246
G1 X141.561 Y119.841 E187.88315
G1 F1800 E184.88315
G1 Z1.799
G0 F9000 X141.659 Y101.864
G0 X139.526 Y102.742
G0 X137.384 Y102.364
G0 X140.936 Y94.744
G0 X141.659 Y77.847
G0 X141.659 Y77.847
G1 Z1.299
G1 F1800 E187.88315
G1 F1080 X141.549 Y77.147 E187.97153
G1 X141.322 Y76.554 E188.05072
G1 X141.659 Y76.554 E188.09276
G1 X141.659 Y76.947 E188.14177
G0 F9000 X140.561 Y81.164
; TYPE:FILL
G1 F1080 X141.218 Y81.821 E188.25766
G0 F9000 X141.218 Y83.235
G1 F1080 X139.674 Y81.691 E188.53
G0 F9000 X138.537 Y81.969
G1 F1080 X141.218 Y84.649 E189.00281
G0 F9000 X141.218 Y86.064
G1 F1080 X136.953 Y81.799 E189.75511
G0 F9000 X137.256 Y81.015
G0 X137.222 Y80.982
G0 X135.669 Y80.07
G0 X135.198 Y78.956
G0 X134.413 Y79.259
G1 F1080 X132.148 Y76.994 E190.15463
G0 F9000 X130.734 Y76.994
G1 F1080 X141.218 Y87.478 E192.00389
G0 F9000 X141.218 Y88.892
G1 F1080 X129.319 Y76.994 E194.10265
G0 F9000 X127.905 Y76.994
G1 F1080 X141.218 Y90.306 E196.45082
G0 F9000 X141.218 Y91.72
G1 F1080 X126.491 Y76.994 E199.0484
G0 F9000 X125.077 Y76.994
G1 F1080 X141.218 Y93.135 E201.89549
G0 F9000 X140.446 Y93.777
G1 F1080 X123.663 Y76.994 E204.85582
G0 F9000 X122.248 Y76.994
G1 F1080 X138.88 Y93.625 E207.78942
G0 F9000 X137.685 Y93.845
G1 F1080 X120.834 Y76.994 E210.76175
G0 F9000 X119.991 Y77.565
G1 F1080 X136.705 Y94.279 E213.7099
G0 F9000 X135.882 Y94.87
G1 F1080 X119.991 Y78.979 E216.51289
G0 F9000 X119.991 Y80.393
G1 F1080 X135.201 Y95.603 E219.19576
G0 F9000 X134.667 Y96.483
G1 F1080 X119.991 Y81.808 E221.78435
G0 F9000 X119.991 Y83.222
G1 F1080 X134.329 Y97.559 E224.31332
G0 F9000 X134.23 Y98.874
G1 F1080 X119.991 Y84.636 E226.82483
G0 F9000 X119.991 Y86.05
G1 F1080 X134.797 Y100.856 E229.43644
G0 F9000 X136.856 Y102.915
G1 F1080 X141.218 Y107.277 E230.20585
G0 F9000 X141.218 Y108.691
G1 F1080 X119.991 Y87.464 E233.95004
G0 F9000 X119.991 Y88.878
G1 F1080 X141.218 Y110.105 E237.69424
G0 F9000 X141.218 Y111.519
G1 F1080 X119.991 Y90.292 E241.43844
G0 F9000 X119.991 Y91.706
G1 F1080 X141.218 Y112.934 E245.18273
G0 F9000 X141.218 Y114.348
G1 F1080 X119.991 Y93.121 E248.92693
G0 F9000 X119.991 Y94.535
G1 F1080 X123.28 Y97.824 E249.50707
G0 F9000 X121.79 Y97.749
G1 F1080 X119.991 Y95.949 E249.82448
G0 F9000 X119.991 Y97.363
G1 F1080 X120.725 Y98.098 E249.95404
G0 F9000 X121.091 Y98.855
G0 X121.028 Y98.826
G0 X122.7 Y98.453
G0 X124.461 Y99.299
G0 X125.117 Y100.666
G0 X125.935 Y100.479
G1 F1080 X141.218 Y115.762 E252.64978
G0 F9000 X139.339 Y115.298
G1 F1080 X126.009 Y101.968 E255.00104
G0 F9000 X125.661 Y103.033
G1 F1080 X137.767 Y115.14 E257.13649
G0 F9000 X136.634 Y115.421
G1 F1080 X125.09 Y103.877 E259.17272
G0 F9000 X124.328 Y104.529
G1 F1080 X135.749 Y115.95 E261.18725
G0 F9000 X135.043 Y116.659
G1 F1080 X123.329 Y104.944 E263.25355
G0 F9000 X122.039 Y105.068
G1 F1080 X134.517 Y117.546 E265.45453
G0 F9000 X134.244 Y118.687
G1 F1080 X119.991 Y104.434 E267.9686
G0 F9000 X119.991 Y105.848
G1 F1080 X134.254 Y120.112 E270.48451
G0 F9000 X132.84 Y120.112
G1 F1080 X119.991 Y107.263 E272.75093
G0 F9000 X119.991 Y108.677
G1 F1080 X131.426 Y120.112 E274.76793
G0 F9000 X130.012 Y120.112
G1 F1080 X119.991 Y110.091 E276.53552
G0 F9000 X119.991 Y111.505
G1 F1080 X128.597 Y120.112 E278.05361
G0 F9000 X127.183 Y120.112
G1 F1080 X119.991 Y112.92 E279.32219
G0 F9000 X119.991 Y114.334
G1 F1080 X125.768 Y120.111 E280.34119
G0 F9000 X124.354 Y120.111
G1 F1080 X119.991 Y115.749 E281.11069
G0 F9000 X119.991 Y117.163
G1 F1080 X122.94 Y120.111 E281.63077
G0 F9000 X121.526 Y120.111
G1 F1080 X119.991 Y118.577 E281.90144
G0 F9000 X119.991 Y119.991
G1 F1080 X120.111 Y120.111 E281.9226
G0 F9000 X138.838 Y103.482
G1 F1080 X141.218 Y105.863 E282.34249
G0 F9000 X141.218 Y104.448
G1 F1080 X140.153 Y103.383 E282.53035
G1 F1800 E279.53035
G1 Z1.799
G0 F9000 X140.008 Y102.657
G0 X119.193 Y120.912
G0 X135.085 Y77.72
G0 X134.244 Y77.676
G1 Z1.299
G1 F1800 E282.53035
G1 F1080 X133.562 Y76.994 E282.65065
G1 F1800 E279.65065
G1 Z1.799
G0 F9000 X137.094 Y133.466
; TYPE:WALL-OUTER
G1 Z1.299
G1 F1800 E282.65065
G1 F1080 X136.589 Y133.602 E282.71588
G1 X136.122 Y133.839 E282.78119
G1 X135.715 Y134.168 E282.84647
G1 X135.386 Y134.575 E282.91174
G1 X135.149 Y135.042 E282.97706
G1 X135.013 Y135.547 E283.04229
G1 X134.986 Y136.07 E283.10761
G1 X135.069 Y136.587 E283.17292
G1 X135.256 Y137.074 E283.23798
G1 X135.54 Y137.513 E283.3032
G1 X135.911 Y137.884 E283.36864
G1 X136.35 Y138.169 E283.43392
G1 X136.838 Y138.356 E283.4991
G1 X137.354 Y138.438 E283.56427
G1 X137.878 Y138.411 E283.62971
G1 X138.382 Y138.275 E283.69482
G1 X138.849 Y138.038 E283.76014
G1 X139.257 Y137.707 E283.82567
G1 X139.596 Y137.28 E283.89367
G1 X139.822 Y136.835 E283.95592
G1 X139.958 Y136.33 E284.02115
G1 X139.985 Y135.807 E284.08647
G1 X139.903 Y135.291 E284.15163
G1 X139.716 Y134.803 E284.21681
G1 X139.431 Y134.364 E284.2821
G1 X139.06 Y133.993 E284.34754
G1 X138.622 Y133.709 E284.41264
G1 X138.133 Y133.521 E284.47799
G1 X137.99 Y133.499 E284.49603
G0 F9000 X135.175 Y133.884
G0 X139.57 Y133.991
G0 X139.97 Y134.001
G0 X141.475 Y134.039
G0 X141.985 Y133.439
G1 F1080 X141.985 Y179.439 E290.23341
G1 X117.878 Y179.439 E293.24016
G1 X117.878 Y133.439 E298.97754
G1 X141.085 Y133.439 E301.87204
G0 F9000 X141.475 Y134.039
G0 X138.895 Y152.36
G0 X138.895 Y152.36
G0 X138.791 Y152.95
G1 F1080 X138.18 Y152.95 E301.94825
G1 X137.579 Y153.056 E302.02437
G1 X137.006 Y153.265 E302.10044
G1 X136.477 Y153.57 E302.1766
G1 X136.009 Y153.962 E302.25274
G1 X135.617 Y154.43 E302.32889
G1 X135.312 Y154.959 E302.40505
G1 X135.103 Y155.532 E302.48112
G1 X134.997 Y156.133 E302.55724
G1 X134.997 Y156.744 E302.63344
G1 X135.103 Y157.345 E302.70956
G1 X135.312 Y157.918 E302.78563
G1 X135.617 Y158.447 E302.8618
G1 X136.009 Y158.915 E302.93794
G1 X136.477 Y159.307 E303.01408
G1 X137.006 Y159.612 E303.09024
G1 X137.579 Y159.821 E303.16632
G1 X138.18 Y159.927 E303.24243
G1 X138.791 Y159.927 E303.31864
G1 X139.392 Y159.821 E303.39476
G1 X139.965 Y159.612 E303.47083
G1 X140.494 Y159.307 E303.54699
G1 X140.961 Y158.915 E303.62304
G1 X141.353 Y158.447 E303.69918
G1 X141.659 Y157.918 E303.7754
G1 X141.867 Y157.345 E303.85143
G1 X141.973 Y156.744 E303.92755
G1 X141.973 Y156.133 E304.00376
G1 X141.867 Y155.532 E304.07988
G1 X141.659 Y154.959 E304.15591
G1 X141.353 Y154.43 E304.23213
G1 X140.961 Y153.962 E304.30827
G1 X140.494 Y153.57 E304.38432
G1 X139.965 Y153.265 E304.46048
G1 X139.665 Y153.156 E304.50029
G0 F9000 X138.895 Y152.36
G0 X138.86 Y152.373
G0 X137.398 Y152.378
G0 X124.364 Y158.271
G0 X123.823 Y158.53
G1 F1080 X123.604 Y158.075 E304.56327
G1 X123.289 Y157.681 E304.62619
G1 X122.895 Y157.366 E304.68911
G1 X122.44 Y157.147 E304.75209
G1 X121.948 Y157.035 E304.81502
G1 X121.444 Y157.035 E304.87788
G1 X120.952 Y157.147 E304.94082
G1 X120.497 Y157.366 E305.0038
G1 X120.103 Y157.681 E305.06672
G1 X119.788 Y158.075 E305.12963
G1 X119.569 Y158.53 E305.19262
G1 X119.457 Y159.022 E305.25555
G1 X119.457 Y159.526 E305.31841
G1 X119.569 Y160.018 E305.38135
G1 X119.788 Y160.473 E305.44433
G1 X120.103 Y160.867 E305.50725
G1 X120.497 Y161.182 E305.57016
G1 X120.952 Y161.401 E305.63314
G1 X121.444 Y161.513 E305.69608
G1 X121.948 Y161.513 E305.75894
G1 X122.44 Y161.401 E305.82187
G1 X122.895 Y161.182 E305.88486
G1 X123.289 Y160.867 E305.94777
G1 X123.604 Y160.473 E306.01069
G1 X123.823 Y160.018 E306.07367
G1 X123.935 Y159.526 E306.13661
G1 X123.935 Y159.418 E306.15008
G0 F9000 X124.364 Y158.271
G0 X135.747 Y174.373
G0 X135.747 Y174.373
G0 X136.122 Y174.839
G1 F1080 X135.715 Y175.168 E306.21535
G1 X135.386 Y175.575 E306.28063
G1 X135.149 Y176.042 E306.34594
G1 X135.013 Y176.547 E306.41117
G1 X134.986 Y177.07 E306.47649
G1 X135.069 Y177.587 E306.5418
G1 X135.256 Y178.074 E306.60687
G1 X135.54 Y178.513 E306.67208
G1 X135.911 Y178.884 E306.73752
G1 X136.35 Y179.169 E306.8028
G1 X136.838 Y179.356 E306.86798
G1 X137.354 Y179.438 E306.93315
G1 X137.878 Y179.411 E306.99859
G1 X138.382 Y179.275 E307.0637
G1 X138.849 Y179.038 E307.12902
G1 X139.257 Y178.707 E307.19455
G1 X139.596 Y178.28 E307.26255
G1 X139.822 Y177.835 E307.3248
G1 X139.958 Y177.33 E307.39003
G1 X139.985 Y176.807 E307.45535
G1 X139.903 Y176.291 E307.52051
G1 X139.716 Y175.803 E307.5857
G1 X139.431 Y175.364 E307.65098
G1 X139.06 Y174.993 E307.71642
G1 X138.622 Y174.709 E307.78153
G1 X138.133 Y174.521 E307.84687
G1 X137.617 Y174.439 E307.91204
G1 X137.094 Y174.466 E307.97735
G1 X136.954 Y174.503 E307.99542
G0 F9000 X135.575 Y173.996
; TYPE:WALL-INNER
G1 F1080 X135.004 Y174.457 E308.08695
G1 X134.543 Y175.028 E308.17848
G1 X134.21 Y175.682 E308.27001
G1 X134.02 Y176.39 E308.36144
G1 X133.982 Y177.123 E308.45299
G1 X134.098 Y177.848 E308.54457
G1 X134.325 Y178.439 E308.62353
G1 X118.878 Y178.439 E310.55017
G1 X118.878 Y160.887 E312.73935
G1 X118.937 Y161.009 E312.75625
G1 X119.392 Y161.578 E312.84712
G1 X119.961 Y162.033 E312.93799
G1 X120.62 Y162.351 E313.02925
G1 X121.331 Y162.513 E313.1202
G1 X122.061 Y162.513 E313.21125
G1 X122.772 Y162.351 E313.30221
G1 X123.431 Y162.033 E313.39347
G1 X124 Y161.578 E313.48434
G1 X124.455 Y161.009 E313.57521
G1 X124.773 Y160.35 E313.66647
G1 X124.935 Y159.639 E313.75742
G1 X124.935 Y158.909 E313.84847
G1 X124.773 Y158.198 E313.93943
G1 X124.455 Y157.539 E314.03069
G1 X124 Y156.97 E314.12156
G1 X123.431 Y156.515 E314.21243
G1 X122.772 Y156.197 E314.30369
G1 X122.061 Y156.035 E314.39464
G1 X121.331 Y156.035 E314.48569
G1 X120.62 Y156.197 E314.57664
G1 X119.961 Y156.515 E314.66791
G1 X119.392 Y156.97 E314.75878
G1 X118.937 Y157.539 E314.84965
G1 X118.878 Y157.661 E314.86655
G1 X118.878 Y134.439 E317.76292
G1 X134.334 Y134.439 E319.69068
G1 X134.21 Y134.682 E319.72471
G1 X134.02 Y135.39 E319.81614
G1 X133.982 Y136.123 E319.90768
G1 X134.098 Y136.848 E319.99926
G1 X134.36 Y137.53 E320.09038
G1 X134.758 Y138.145 E320.18175
G1 X135.278 Y138.665 E320.27347
G1 X135.894 Y139.065 E320.36508
G1 X136.578 Y139.327 E320.45644
G1 X137.301 Y139.442 E320.54775
G1 X138.035 Y139.404 E320.63942
G1 X138.742 Y139.214 E320.73073
G1 X139.396 Y138.881 E320.82227
G1 X139.972 Y138.415 E320.91467
G1 X140.442 Y137.823 E321.00895
G1 X140.761 Y137.195 E321.09681
G1 X140.951 Y136.487 E321.18824
G1 X140.985 Y135.831 E321.27017
G1 X140.985 Y152.699 E323.37404
G1 X140.389 Y152.355 E323.45987
G1 X139.652 Y152.087 E323.55768
G1 X138.879 Y151.95 E323.65559
G1 X138.092 Y151.95 E323.75375
G1 X137.319 Y152.087 E323.85167
G1 X136.582 Y152.355 E323.94948
G1 X135.902 Y152.747 E324.04738
G1 X135.299 Y153.252 E324.14548
G1 X134.794 Y153.855 E324.24358
G1 X134.402 Y154.535 E324.34147
G1 X134.134 Y155.272 E324.43929
G1 X133.997 Y156.045 E324.5372
G1 X133.997 Y156.832 E324.63536
G1 X134.134 Y157.605 E324.73327
G1 X134.402 Y158.342 E324.83109
G1 X134.794 Y159.022 E324.92898
G1 X135.299 Y159.625 E325.02708
G1 X135.902 Y160.13 E325.12518
G1 X136.582 Y160.522 E325.22308
G1 X137.319 Y160.79 E325.32089
G1 X138.092 Y160.927 E325.41881
G1 X138.879 Y160.927 E325.51697
G1 X139.652 Y160.79 E325.61488
G1 X140.389 Y160.522 E325.71269
G1 X140.985 Y160.178 E325.79852
G1 X140.985 Y176.729 E327.86286
G1 X140.874 Y176.031 E327.95101
G1 X140.612 Y175.347 E328.04237
G1 X140.212 Y174.731 E328.13397
G1 X139.693 Y174.212 E328.22552
G1 X139.078 Y173.813 E328.31695
G1 X138.394 Y173.55 E328.40836
G1 X137.67 Y173.435 E328.49979
G1 X136.937 Y173.473 E328.59134
G1 X136.391 Y173.619 E328.66183
G0 F9000 X135.941 Y174.187
G0 X137.653 Y173.738
G0 X139.502 Y174.447
G0 X140.985 Y176.831
G0 X140.985 Y176.831
G1 F1080 X140.985 Y178.439 E328.86239
G1 X140.637 Y178.439 E328.90579
G1 X140.761 Y178.195 E328.93993
G1 X140.887 Y177.723 E329.00086
G1 F1800 E326.00086
G1 Z1.799
G0 F9000 X140.985 Y159.748
G0 X138.852 Y160.626
G0 X136.71 Y160.248
G0 X135.042 Y158.848
G0 X134.298 Y156.805
G0 X134.676 Y154.663
G0 X140.985 Y135.729
G0 X140.985 Y135.729
G1 Z1.299
G1 F1800 E329.00086
G1 F1080 X140.874 Y135.031 E329.08901
G1 X140.647 Y134.439 E329.16809
G1 X140.985 Y134.439 E329.21025
G1 X140.985 Y134.829 E329.25889
G0 F9000 X140.205 Y138.79
; TYPE:FILL
G1 F1080 X139.962 Y139.255 E329.31857
G1 X140.543 Y140.543 E329.49481
G0 F9000 X140.543 Y141.958
G1 F1080 X138.357 Y139.771 E329.88048
G0 F9000 X137.013 Y139.841
G1 F1080 X140.543 Y143.372 E330.50322
G0 F9000 X140.543 Y144.786
G1 F1080 X130.635 Y134.877 E332.25097
G0 F9000 X132.049 Y134.877
G1 F1080 X133.582 Y136.41 E332.52137
G0 F9000 X133.65 Y135.065
G1 F1080 X133.463 Y134.877 E332.55444
G0 F9000 X133.463 Y134.039
G0 X129.22 Y134.039
G0 X129.22 Y134.039
G0 X129.22 Y134.877
G1 F1080 X140.544 Y146.201 E334.55187
G0 F9000 X140.544 Y147.615
G1 F1080 X127.806 Y134.877 E336.7987
G0 F9000 X126.393 Y134.878
G1 F1080 X140.544 Y149.029 E339.29478
G0 F9000 X140.544 Y150.444
G1 F1080 X124.979 Y134.878 E342.04035
G0 F9000 X123.564 Y134.878
G1 F1080 X140.544 Y151.858 E345.03543
G0 F9000 X138.781 Y151.509
G1 F1080 X122.15 Y134.878 E347.96895
G0 F9000 X120.736 Y134.878
G1 F1080 X137.47 Y151.612 E350.92063
G0 F9000 X136.396 Y151.953
G1 F1080 X119.322 Y134.878 E353.93238
G0 F9000 X119.317 Y136.288
G1 F1080 X135.521 Y152.491 E356.79049
G0 F9000 X134.79 Y153.174
G1 F1080 X119.317 Y137.702 E359.51966
G0 F9000 X119.317 Y139.116
G1 F1080 X134.201 Y154 E362.14503
G0 F9000 X133.769 Y154.982
G1 F1080 X119.317 Y140.531 E364.6941
G0 F9000 X119.317 Y141.945
G1 F1080 X133.556 Y156.184 E367.2057
G0 F9000 X133.724 Y157.766
G1 F1080 X119.317 Y143.359 E369.74693
G0 F9000 X119.317 Y144.773
G1 F1080 X140.545 Y166.001 E373.4913
G0 F9000 X140.545 Y167.415
G1 F1080 X119.317 Y146.187 E377.23568
G0 F9000 X119.317 Y147.602
G1 F1080 X140.545 Y168.829 E380.97997
G0 F9000 X140.545 Y170.243
G1 F1080 X119.317 Y149.016 E384.72425
G0 F9000 X119.317 Y150.43
G1 F1080 X140.545 Y171.657 E388.46854
G0 F9000 X140.545 Y173.072
G1 F1080 X124.881 Y157.408 E391.23149
G0 F9000 X124.125 Y157.774
G0 X123.197 Y156.846
G0 X123.197 Y156.846
G0 X123.561 Y156.088
G1 F1080 X119.317 Y151.844 E391.98008
G0 F9000 X119.317 Y153.259
G1 F1080 X121.653 Y155.594 E392.39204
G0 F9000 X120.439 Y155.794
G1 F1080 X119.317 Y155.38 E392.58998
G1 X119.527 Y156.296 E392.70719
G0 F9000 X120.055 Y156.952
G0 X120.045 Y156.87
G0 X118.906 Y158.299
G0 X118.906 Y160.249
G0 X120.123 Y161.777
G0 X120.581 Y161.888
G0 X120.218 Y162.645
G1 F1080 X133.648 Y176.075 E395.07609
G0 F9000 X134.037 Y175.049
G1 F1080 X121.939 Y162.952 E397.20995
G0 F9000 X123.088 Y162.686
G1 F1080 X134.626 Y174.224 E399.24512
G0 F9000 X135.404 Y173.588
G1 F1080 X123.976 Y162.16 E401.26089
G0 F9000 X124.672 Y161.441
G1 F1080 X136.393 Y173.162 E403.32834
G0 F9000 X137.639 Y172.995
G1 F1080 X125.174 Y160.529 E405.52711
G0 F9000 X125.374 Y159.316
G1 F1080 X139.843 Y173.784 E408.07918
G0 F9000 X139.104 Y174.212
G0 X137.653 Y173.738
G0 X135.741 Y174.251
G0 X134.493 Y175.791
G0 X133.584 Y177.425
G0 X133.584 Y177.425
G1 F1080 X119.317 Y163.158 E410.59572
G0 F9000 X119.317 Y164.572
G1 F1080 X132.743 Y177.998 E412.96391
G0 F9000 X131.329 Y177.998
G1 F1080 X119.317 Y165.986 E415.08269
G0 F9000 X119.317 Y167.401
G1 F1080 X129.915 Y177.998 E416.95197
G0 F9000 X128.501 Y177.998
G1 F1080 X119.317 Y168.815 E418.57183
G0 F9000 X119.317 Y170.229
G1 F1080 X127.086 Y177.998 E419.94219
G0 F9000 X125.671 Y177.997
G1 F1080 X119.317 Y171.643 E421.06297
G0 F9000 X119.317 Y173.058
G1 F1080 X124.257 Y177.997 E421.93424
G0 F9000 X122.843 Y177.997
G1 F1080 X119.317 Y174.472 E422.55609
G0 F9000 X119.317 Y175.886
G1 F1080 X121.429 Y177.997 E422.92854
G0 F9000 X120.015 Y177.997
G1 F1080 X119.317 Y177.3 E423.05157
G0 F9000 X137.157 Y161.199
G1 F1080 X140.545 Y164.586 E423.64909
G0 F9000 X140.545 Y163.172
G1 F1080 X138.739 Y161.366 E423.96764
G0 F9000 X139.939 Y161.153
G1 F1080 X140.545 Y161.758 E424.07445
G1 F1800 E421.07445
G1 Z1.799
G0 F9000 X110.175 Y156.394
; TYPE:WALL-OUTER
G1 Z1.299
G1 F1800 E424.07445
G1 F1080 X110.175 Y155.783 E424.15065
G1 X110.069 Y155.182 E424.22677
G1 X109.86 Y154.609 E424.30284
G1 X109.555 Y154.08 E424.37901
G1 X109.162 Y153.612 E424.45523
G1 X108.695 Y153.22 E424.53128
G1 X108.166 Y152.915 E424.60744
G1 X107.593 Y152.706 E424.68351
G1 X106.992 Y152.6 E424.75963
G1 X106.381 Y152.6 E424.83583
G1 X105.78 Y152.706 E424.91195
G1 X105.206 Y152.915 E424.98814
G1 X104.677 Y153.22 E425.0643
G1 X104.21 Y153.612 E425.14035
G1 X103.818 Y154.08 E425.21649
G1 X103.512 Y154.609 E425.29272
G1 X103.303 Y155.182 E425.36879
G1 X103.198 Y155.784 E425.44501
G1 X103.198 Y156.393 E425.52096
G1 X103.303 Y156.995 E425.59718
G1 X103.512 Y157.569 E425.67337
G1 X103.818 Y158.097 E425.74949
G1 X104.21 Y158.565 E425.82563
G1 X104.677 Y158.957 E425.90168
G1 X105.206 Y159.263 E425.9779
G1 X105.78 Y159.472 E426.05409
G1 X106.382 Y159.577 E426.13031
G1 X106.991 Y159.577 E426.20627
G1 X107.593 Y159.472 E426.28249
G1 X108.166 Y159.263 E426.35856
G1 X108.695 Y158.957 E426.43478
G1 X109.162 Y158.565 E426.51083
G1 X109.555 Y158.097 E426.58705
G1 X109.86 Y157.569 E426.66311
G1 X109.969 Y157.268 E426.70303
G0 F9000 X92.135 Y158.672
G1 F1080 X92.023 Y158.18 E426.76597
G1 X91.804 Y157.725 E426.82895
G1 X91.49 Y157.332 E426.89169
G1 X91.096 Y157.016 E426.95469
G1 X90.64 Y156.797 E427.01778
G1 X90.148 Y156.685 E427.08072
G1 X89.645 Y156.685 E427.14345
G1 X89.153 Y156.797 E427.20639
G1 X88.697 Y157.016 E427.26948
G1 X88.303 Y157.332 E427.33248
G1 X87.989 Y157.725 E427.39522
G1 X87.77 Y158.179 E427.45809
G1 X87.657 Y158.671 E427.52105
G1 X87.657 Y159.177 E427.58416
G1 X87.77 Y159.669 E427.64712
G1 X87.989 Y160.122 E427.70988
G1 X88.303 Y160.518 E427.77291
G1 X88.698 Y160.832 E427.83585
G1 X89.153 Y161.051 E427.89883
G1 X89.645 Y161.163 E427.96177
G1 X90.148 Y161.163 E428.0245
G1 X90.64 Y161.051 E428.08744
G1 X91.095 Y160.832 E428.15042
G1 X91.49 Y160.518 E428.21336
G1 X91.804 Y160.122 E428.27639
G1 X92.023 Y159.668 E428.33926
G1 X92.047 Y159.563 E428.35269
G0 F9000 X92.735 Y158.672
G0 X103.947 Y174.023
G0 X103.947 Y174.023
G0 X104.323 Y174.489
G1 F1080 X103.916 Y174.818 E428.41797
G1 X103.587 Y175.225 E428.48324
G1 X103.35 Y175.692 E428.54856
G1 X103.214 Y176.197 E428.61379
G1 X103.187 Y176.719 E428.67899
G1 X103.268 Y177.236 E428.74426
G1 X103.456 Y177.726 E428.80971
G1 X103.742 Y178.164 E428.87496
G1 X104.111 Y178.533 E428.94005
G1 X104.549 Y178.819 E429.00529
G1 X105.039 Y179.007 E429.07075
G1 X105.556 Y179.088 E429.13602
G1 X106.078 Y179.061 E429.20121
G1 X106.583 Y178.925 E429.26644
G1 X107.049 Y178.688 E429.33165
G1 X107.457 Y178.357 E429.39718
G1 X107.797 Y177.93 E429.46526
G1 X108.022 Y177.485 E429.52745
G1 X108.159 Y176.981 E429.5926
G1 X108.185 Y176.457 E429.65803
G1 X108.104 Y175.941 E429.72318
G1 X107.916 Y175.453 E429.78841
G1 X107.631 Y175.014 E429.85369
G1 X107.261 Y174.643 E429.91904
G1 X106.822 Y174.359 E429.98425
G1 X106.335 Y174.172 E430.04932
G1 X105.818 Y174.089 E430.11463
G1 X105.294 Y174.116 E430.18007
G1 X105.154 Y174.153 E430.19813
G0 F9000 X103.947 Y174.023
G0 X103.87 Y173.96
G0 X105.854 Y173.388
G0 X107.703 Y174.097
G0 X108.782 Y175.76
G0 X109.586 Y178.579
G0 X110.186 Y179.089
G1 F1080 X86.079 Y179.089 E433.20489
G1 X86.079 Y133.089 E438.94226
G1 X110.186 Y133.089 E441.94902
G1 X110.186 Y178.189 E447.57414
G1 F1800 E444.57414
G1 Z1.799
G0 F9000 X109.586 Y178.579
G0 X108.028 Y160.05
G0 X105.6 Y160.15
G0 X103.714 Y159.06
G0 X102.625 Y157.175
G0 X102.625 Y155.002
G0 X106.231 Y138.64
G0 X106.078 Y138.061
G1 Z1.299
G1 F1800 E447.57414
G1 F1080 X106.583 Y137.925 E447.63937
G1 X107.049 Y137.688 E447.70458
G1 X107.457 Y137.357 E447.7701
G1 X107.797 Y136.93 E447.83818
G1 X108.022 Y136.485 E447.90038
G1 X108.159 Y135.981 E447.96552
G1 X108.185 Y135.457 E448.03096
G1 X108.104 Y134.941 E448.0961
G1 X107.916 Y134.453 E448.16133
G1 X107.631 Y134.014 E448.22661
G1 X107.261 Y133.643 E448.29196
G1 X106.822 Y133.359 E448.35718
G1 X106.335 Y133.172 E448.42224
G1 X105.818 Y133.089 E448.48755
G1 X105.294 Y133.116 E448.55299
G1 X104.789 Y133.253 E448.61826
G1 X104.323 Y133.489 E448.68341
G1 X103.916 Y133.818 E448.74868
G1 X103.587 Y134.225 E448.81396
G1 X103.35 Y134.692 E448.87927
G1 X103.214 Y135.197 E448.94451
G1 X103.187 Y135.719 E449.0097
G1 X103.268 Y136.236 E449.07497
G1 X103.456 Y136.726 E449.14043
G1 X103.742 Y137.164 E449.20567
G1 X104.111 Y137.533 E449.27076
G1 X104.549 Y137.819 E449.336
G1 X105.039 Y138.007 E449.40146
G1 X105.182 Y138.029 E449.41951
G0 F9000 X106.235 Y139.054
; TYPE:WALL-INNER
G1 F1080 X106.944 Y138.864 E449.51106
G1 X107.597 Y138.531 E449.60248
G1 X108.171 Y138.066 E449.69462
G1 X108.643 Y137.473 E449.78915
G1 X108.961 Y136.845 E449.87695
G1 X109.152 Y136.138 E449.96829
G1 X109.186 Y135.464 E450.05246
G1 X109.186 Y152.349 E452.15845
G1 X108.59 Y152.005 E452.24428
G1 X107.853 Y151.737 E452.3421
G1 X107.08 Y151.6 E452.44001
G1 X106.293 Y151.6 E452.53817
G1 X105.52 Y151.737 E452.63609
G1 X104.782 Y152.005 E452.73401
G1 X104.102 Y152.397 E452.83191
G1 X103.5 Y152.903 E452.93
G1 X102.996 Y153.504 E453.02783
G1 X102.603 Y154.184 E453.12578
G1 X102.333 Y154.923 E453.22392
G1 X102.198 Y155.697 E453.32191
G1 X102.198 Y156.48 E453.41957
G1 X102.333 Y157.254 E453.51757
G1 X102.603 Y157.994 E453.61581
G1 X102.996 Y158.673 E453.71367
G1 X103.5 Y159.274 E453.8115
G1 X104.101 Y159.779 E453.9094
G1 X104.781 Y160.173 E454.00743
G1 X105.521 Y160.442 E454.10563
G1 X106.295 Y160.577 E454.20363
G1 X107.078 Y160.577 E454.30129
G1 X107.852 Y160.442 E454.39928
G1 X108.591 Y160.172 E454.49741
G1 X109.186 Y159.828 E454.58314
G1 X109.186 Y176.385 E456.64822
G1 X109.075 Y175.681 E456.73711
G1 X108.812 Y174.996 E456.82863
G1 X108.413 Y174.382 E456.91996
G1 X107.894 Y173.862 E457.01159
G1 X107.278 Y173.463 E457.10313
G1 X106.596 Y173.201 E457.19425
G1 X105.871 Y173.085 E457.28583
G1 X105.136 Y173.123 E457.37763
G1 X104.428 Y173.314 E457.46909
G1 X103.776 Y173.645 E457.56029
G1 X103.205 Y174.107 E457.6519
G1 X102.744 Y174.678 E457.74343
G1 X102.411 Y175.332 E457.83497
G1 X102.221 Y176.04 E457.9264
G1 X102.183 Y176.771 E458.01769
G1 X102.297 Y177.496 E458.10923
G1 X102.524 Y178.089 E458.18843
G1 X87.079 Y178.089 E460.11481
G1 X87.079 Y160.538 E462.30387
G1 X87.136 Y160.657 E462.32033
G1 X87.591 Y161.229 E462.41149
G1 X88.163 Y161.685 E462.50273
G1 X88.822 Y162.001 E462.59388
G1 X89.532 Y162.163 E462.68471
G1 X90.261 Y162.163 E462.77564
G1 X90.971 Y162.001 E462.86647
G1 X91.63 Y161.685 E462.95762
G1 X92.202 Y161.229 E463.04886
G1 X92.657 Y160.657 E463.14003
G1 X92.973 Y160 E463.23096
G1 X93.135 Y159.289 E463.32191
G1 X93.135 Y158.559 E463.41296
G1 X92.973 Y157.848 E463.50391
G1 X92.656 Y157.19 E463.59501
G1 X92.202 Y156.621 E463.6858
G1 X91.632 Y156.164 E463.77692
G1 X90.971 Y155.847 E463.86835
G1 X90.261 Y155.685 E463.95919
G1 X89.532 Y155.685 E464.05011
G1 X88.822 Y155.847 E464.14094
G1 X88.161 Y156.164 E464.23238
G1 X87.591 Y156.621 E464.3235
G1 X87.137 Y157.19 E464.41429
G1 X87.079 Y157.31 E464.43091
G1 X87.079 Y134.089 E467.32716
G1 X102.535 Y134.089 E469.25492
G1 X102.411 Y134.332 E469.28895
G1 X102.221 Y135.04 E469.38038
G1 X102.183 Y135.771 E469.47167
G1 X102.297 Y136.496 E469.56321
G1 X102.56 Y137.183 E469.65496
G1 X102.961 Y137.797 E469.74643
G1 X103.478 Y138.314 E469.83762
G1 X104.092 Y138.715 E469.92909
G1 X104.779 Y138.978 E470.02084
G1 X105.336 Y139.065 E470.09115
G0 F9000 X106.19 Y138.651
G0 X106.18 Y138.661
G0 X107.955 Y137.852
G0 X109.186 Y135.385
G0 X109.186 Y135.385
G1 F1080 X109.075 Y134.681 E470.18005
G1 X108.848 Y134.089 E470.25913
G1 X109.186 Y134.089 E470.30128
G1 X109.186 Y134.485 E470.35067
G1 F1800 E467.35067
G1 Z1.799
G0 F9000 X109.186 Y152.78
G0 X107.053 Y151.901
G0 X106.321 Y160.276
G0 X109.186 Y176.464
G0 X109.186 Y176.464
G1 Z1.299
G1 F1800 E470.35067
G1 F1080 X109.186 Y178.089 E470.55335
G1 X108.837 Y178.089 E470.59688
G1 X108.961 Y177.845 E470.63102
G1 X109.093 Y177.357 E470.69407
G0 F9000 X108.745 Y173.799
; TYPE:FILL
G1 F1080 X93.574 Y158.628 E473.37006
G0 F9000 X93.443 Y159.911
G1 F1080 X106.227 Y172.695 E475.62501
G0 F9000 X104.859 Y172.741
G1 F1080 X93.022 Y160.904 E477.71292
G0 F9000 X92.364 Y161.66
G1 F1080 X103.828 Y173.125 E479.73513
G0 F9000 X102.997 Y173.708
G1 F1080 X91.516 Y162.227 E481.76025
G0 F9000 X90.446 Y162.571
G1 F1080 X102.351 Y174.476 E483.86015
G0 F9000 X101.92 Y175.46
G1 F1080 X88.939 Y162.478 E486.14994
G0 F9000 X87.519 Y162.472
G1 F1080 X101.746 Y176.699 E488.65942
G0 F9000 X101.281 Y177.648
G1 F1080 X87.519 Y163.886 E491.08688
G0 F9000 X87.519 Y165.301
G1 F1080 X99.866 Y177.648 E493.26475
G0 F9000 X98.452 Y177.648
G1 F1080 X87.519 Y166.715 E495.1932
G0 F9000 X87.519 Y168.129
G1 F1080 X97.038 Y177.648 E496.87224
G0 F9000 X95.624 Y177.648
G1 F1080 X87.519 Y169.543 E498.30187
G0 F9000 X87.519 Y170.957
G1 F1080 X94.209 Y177.648 E499.482
G0 F9000 X92.795 Y177.648
G1 F1080 X87.519 Y172.372 E500.41263
G0 F9000 X87.519 Y173.786
G1 F1080 X91.381 Y177.648 E501.09384
G0 F9000 X89.967 Y177.648
G1 F1080 X87.519 Y175.2 E501.52564
G0 F9000 X87.519 Y176.614
G1 F1080 X88.553 Y177.648 E501.70802
G0 F9000 X108.745 Y172.385
G1 F1080 X87.518 Y151.158 E505.45222
G0 F9000 X87.518 Y149.744
G1 F1080 X108.745 Y170.971 E509.19642
G0 F9000 X108.745 Y169.557
G1 F1080 X87.518 Y148.329 E512.94071
G0 F9000 X87.518 Y146.915
G1 F1080 X108.745 Y168.142 E516.68491
G0 F9000 X108.745 Y166.728
G1 F1080 X87.518 Y145.501 E520.4291
G0 F9000 X87.518 Y144.087
G1 F1080 X108.745 Y165.314 E524.1733
G0 F9000 X108.745 Y163.9
G1 F1080 X105.778 Y160.933 E524.69665
G0 F9000 X107.252 Y160.992
G1 F1080 X108.745 Y162.486 E524.96008
G0 F9000 X108.745 Y161.071
G1 F1080 X108.388 Y160.714 E525.02305
G0 F9000 X107.385 Y160.143
G0 X105.6 Y160.15
G0 X103.714 Y159.06
G0 X101.841 Y156.995
G0 X101.841 Y156.995
G1 F1080 X87.518 Y142.672 E527.54947
G0 F9000 X87.518 Y141.258
G1 F1080 X101.781 Y155.521 E530.0653
G0 F9000 X102.06 Y154.386
G1 F1080 X87.518 Y139.844 E532.63034
G0 F9000 X87.518 Y138.43
G1 F1080 X102.526 Y153.437 E535.27749
G0 F9000 X103.144 Y152.642
G1 F1080 X87.518 Y137.016 E538.03374
G0 F9000 X87.518 Y135.601
G1 F1080 X103.914 Y151.997 E540.9258
G0 F9000 X104.844 Y151.513
G1 F1080 X87.859 Y134.528 E543.92176
G0 F9000 X89.273 Y134.528
G1 F1080 X105.957 Y151.211 E546.86454
G0 F9000 X107.36 Y151.201
G1 F1080 X90.687 Y134.528 E549.80546
G0 F9000 X92.102 Y134.528
G1 F1080 X108.745 Y151.172 E552.74119
G0 F9000 X108.745 Y149.758
G1 F1080 X93.516 Y134.528 E555.42749
G0 F9000 X94.929 Y134.527
G1 F1080 X108.745 Y148.343 E557.86448
G0 F9000 X108.745 Y146.929
G1 F1080 X96.344 Y134.527 E560.05196
G0 F9000 X97.758 Y134.527
G1 F1080 X108.745 Y145.515 E561.99003
G0 F9000 X108.745 Y144.101
G1 F1080 X103.494 Y138.85 E562.91624
G0 F9000 X102.423 Y137.779
G1 F1080 X99.172 Y134.527 E563.48977
G0 F9000 X100.586 Y134.527
G1 F1080 X101.747 Y135.688 E563.69456
G0 F9000 X102.586 Y135.73
G0 X102.559 Y135.701
G0 X103.196 Y137.606
G0 X104.858 Y138.685
G0 X105.545 Y138.69
G0 X105.586 Y139.527
G1 F1080 X108.745 Y142.687 E564.25186
G0 F9000 X108.745 Y141.272
G1 F1080 X106.824 Y139.35 E564.59079
G0 F9000 X107.805 Y138.918
G1 F1080 X108.745 Y139.151 E564.75651
G1 X108.57 Y138.269 E564.86866
G0 F9000 X90.19 Y156.085
G0 X90.19 Y156.085
G0 X90.19 Y155.243
G1 F1080 X87.518 Y152.572 E565.33989
G0 F9000 X87.518 Y153.986
G1 F1080 X88.41 Y155.585 E565.58493
G1 X87.518 Y155.4 E565.69855
; LAYER:1
G1 F1800 E562.69855
G1 Z1.799
G0 F9000 X85.44 Y120.461 Z1.499
; TYPE:WALL-INNER
G1 Z1.499
G1 F1800 E565.69855
G1 F3600 X85.44 Y74.661 E567.22186
G1 X103.955 Y74.661 E567.83768
G1 X103.529 Y74.878 E567.85358
G1 X103.106 Y75.22 E567.87167
G1 X102.764 Y75.643 E567.88976
G1 X102.517 Y76.128 E567.90786
G1 X102.376 Y76.654 E567.92598
G1 X102.348 Y77.197 E567.94406
G1 X102.432 Y77.735 E567.96217
G1 X102.628 Y78.243 E567.98028
G1 X102.924 Y78.7 E567.99839
G1 X103.309 Y79.084 E568.01648
G1 X103.765 Y79.38 E568.03456
G1 X104.274 Y79.576 E568.0527
G1 X104.81 Y79.66 E568.07074
G1 X105.354 Y79.633 E568.08886
G1 X105.88 Y79.491 E568.10698
G1 X106.365 Y79.245 E568.12507
G1 X106.788 Y78.902 E568.14318
G1 X107.131 Y78.479 E568.16129
G1 X107.377 Y77.995 E568.17935
G1 X107.519 Y77.468 E568.19751
G1 X107.546 Y76.925 E568.21559
G1 X107.462 Y76.388 E568.23367
G1 X107.266 Y75.879 E568.25181
G1 X106.97 Y75.423 E568.26989
G1 X106.586 Y75.038 E568.28798
G1 X106.129 Y74.742 E568.30608
G1 X105.919 Y74.661 E568.31357
G1 X109.347 Y74.661 E568.42759
G1 X109.347 Y96.409 E569.15093
G1 X109.212 Y96.038 E569.16406
G1 X108.898 Y95.495 E569.18492
G1 X108.494 Y95.014 E569.20581
G1 X108.014 Y94.611 E569.22666
G1 X107.47 Y94.296 E569.24757
G1 X106.88 Y94.081 E569.26845
G1 X106.261 Y93.973 E569.28935
G1 X105.634 Y93.973 E569.31021
G1 X105.016 Y94.081 E569.33107
G1 X104.424 Y94.296 E569.35202
G1 X103.88 Y94.611 E569.37293
G1 X103.4 Y95.014 E569.39377
G1 X102.997 Y95.495 E569.41465
G1 X102.682 Y96.038 E569.43553
G1 X102.467 Y96.63 E569.45647
G1 X102.359 Y97.248 E569.47734
G1 X102.359 Y97.875 E569.49819
G1 X102.467 Y98.494 E569.51909
G1 X102.682 Y99.084 E569.53998
G1 X102.997 Y99.627 E569.56086
G1 X103.4 Y100.109 E569.58175
G1 X103.881 Y100.512 E569.60263
G1 X104.425 Y100.826 E569.62352
G1 X105.015 Y101.041 E569.6444
G1 X105.633 Y101.15 E569.66527
G1 X106.262 Y101.15 E569.6862
G1 X106.88 Y101.041 E569.70707
G1 X107.469 Y100.826 E569.72792
G1 X108.013 Y100.512 E569.74881
G1 X108.494 Y100.109 E569.76968
G1 X108.898 Y99.627 E569.7906
G1 X109.212 Y99.083 E569.81149
G1 X109.347 Y98.713 E569.82459
G1 X109.347 Y120.461 E570.54793
G1 X105.939 Y120.461 E570.66129
G1 X106.365 Y120.245 E570.67717
G1 X106.788 Y119.902 E570.69528
G1 X107.131 Y119.479 E570.7134
G1 X107.377 Y118.995 E570.73146
G1 X107.519 Y118.468 E570.74961
G1 X107.546 Y117.925 E570.76769
G1 X107.462 Y117.388 E570.78577
G1 X107.266 Y116.879 E570.80391
G1 X106.97 Y116.423 E570.82199
G1 X106.586 Y116.038 E570.84008
G1 X106.129 Y115.742 E570.85819
G1 X105.621 Y115.546 E570.8763
G1 X105.083 Y115.462 E570.89441
G1 X104.54 Y115.49 E570.91249
G1 X104.014 Y115.631 E570.93061
G1 X103.529 Y115.878 E570.94871
G1 X103.106 Y116.22 E570.9668
G1 X102.764 Y116.643 E570.98489
G1 X102.517 Y117.128 E571.00299
G1 X102.376 Y117.654 E571.02111
G1 X102.348 Y118.197 E571.03919
G1 X102.432 Y118.735 E571.0573
G1 X102.628 Y119.243 E571.07541
G1 X102.924 Y119.7 E571.09352
G1 X103.309 Y120.084 E571.11161
G1 X103.765 Y120.38 E571.12969
G1 X103.975 Y120.461 E571.13718
G1 X85.8 Y120.461 E571.74168
G0 F9000 X88.927 Y102.636
G0 X88.927 Y102.636
G0 X88.895 Y102.736
G1 F3600 X89.42 Y102.736 E571.75914
G1 X89.935 Y102.619 E571.77671
G1 X90.411 Y102.389 E571.79429
G1 X90.822 Y102.061 E571.81178
G1 X91.15 Y101.649 E571.82929
G1 X91.379 Y101.174 E571.84683
G1 X91.496 Y100.66 E571.86437
G1 X91.496 Y100.134 E571.88186
G1 X91.379 Y99.62 E571.89939
G1 X91.15 Y99.145 E571.91693
G1 X90.822 Y98.732 E571.93447
G1 X90.41 Y98.404 E571.95199
G1 X89.934 Y98.175 E571.96956
G1 X89.42 Y98.058 E571.98709
G1 X88.895 Y98.058 E572.00455
G1 X88.38 Y98.175 E572.02212
G1 X87.905 Y98.404 E572.03966
G1 X87.493 Y98.732 E572.05717
G1 X87.165 Y99.145 E572.07471
G1 X86.936 Y99.619 E572.09222
G1 X86.818 Y100.133 E572.10976
G1 X86.818 Y100.661 E572.12732
G1 X86.936 Y101.175 E572.14486
G1 X87.165 Y101.649 E572.16237
G1 X87.493 Y102.061 E572.17989
G1 X87.904 Y102.389 E572.19738
G1 X88.379 Y102.619 E572.21493
G1 X88.543 Y102.656 E572.22052
G0 F9000 X88.94 Y102.336
; TYPE:WALL-OUTER
G1 F3000 X89.375 Y102.336 E572.23499
G1 X89.802 Y102.239 E572.24955
G1 X90.196 Y102.048 E572.26412
G1 X90.537 Y101.776 E572.27863
G1 X90.809 Y101.435 E572.29313
G1 X90.999 Y101.041 E572.30768
G1 X91.096 Y100.615 E572.32221
G1 X91.096 Y100.179 E572.33672
G1 X90.999 Y99.753 E572.35125
G1 X90.809 Y99.359 E572.3658
G1 X90.537 Y99.017 E572.38033
G1 X90.196 Y98.745 E572.39484
G1 X89.801 Y98.555 E572.40942
G1 X89.375 Y98.458 E572.42395
G1 X88.94 Y98.458 E572.43842
G1 X88.513 Y98.555 E572.45298
G1 X88.119 Y98.745 E572.46753
G1 X87.778 Y99.017 E572.48204
G1 X87.506 Y99.359 E572.49657
G1 X87.316 Y99.752 E572.51109
G1 X87.218 Y100.178 E572.52563
G1 X87.218 Y100.616 E572.5402
G1 X87.316 Y101.042 E572.55473
G1 X87.506 Y101.435 E572.56925
G1 X87.778 Y101.776 E572.58376
G1 X88.119 Y102.048 E572.59827
G1 X88.512 Y102.239 E572.6128
G1 X88.588 Y102.256 E572.61539
G0 F9000 X88.94 Y102.636
G0 X89.073 Y102.594
G0 X90.409 Y102.388
G0 X102.56 Y98.442
G0 X102.855 Y98.39
G1 F3000 X103.046 Y98.914 E572.63394
G1 X103.326 Y99.397 E572.65251
G1 X103.684 Y99.825 E572.67107
G1 X104.111 Y100.183 E572.6896
G1 X104.594 Y100.462 E572.70815
G1 X105.119 Y100.653 E572.72674
G1 X105.668 Y100.75 E572.74528
G1 X106.227 Y100.75 E572.76387
G1 X106.776 Y100.653 E572.78241
G1 X107.3 Y100.462 E572.80096
G1 X107.783 Y100.183 E572.81952
G1 X108.21 Y99.825 E572.83805
G1 X108.569 Y99.397 E572.85663
G1 X108.848 Y98.914 E572.87518
G1 X109.039 Y98.39 E572.89373
G1 X109.136 Y97.841 E572.91227
G1 X109.136 Y97.282 E572.93087
G1 X109.039 Y96.733 E572.94941
G1 X108.848 Y96.208 E572.96799
G1 X108.569 Y95.726 E572.98651
G1 X108.21 Y95.298 E573.00509
G1 X107.783 Y94.94 E573.02363
G1 X107.3 Y94.66 E573.0422
G1 X106.776 Y94.469 E573.06075
G1 X106.226 Y94.373 E573.07932
G1 X105.669 Y94.373 E573.09784
G1 X105.119 Y94.469 E573.11641
G1 X104.594 Y94.66 E573.13499
G1 X104.111 Y94.94 E573.15356
G1 X103.684 Y95.298 E573.17209
G1 X103.326 Y95.726 E573.19065
G1 X103.046 Y96.208 E573.20919
G1 X102.855 Y96.733 E573.22777
G1 X102.759 Y97.283 E573.24634
G1 X102.759 Y97.84 E573.26487
G1 X102.793 Y98.035 E573.27145
G0 F9000 X102.56 Y98.442
G0 X104.527 Y115.598
G0 X104.527 Y115.598
G0 X104.603 Y115.887
G1 F3000 X104.158 Y116.006 E573.28677
G1 X103.748 Y116.215 E573.30208
G1 X103.391 Y116.505 E573.31738
G1 X103.101 Y116.862 E573.33268
G1 X102.892 Y117.272 E573.34798
G1 X102.773 Y117.717 E573.3633
G1 X102.749 Y118.176 E573.37859
G1 X102.821 Y118.631 E573.39391
G1 X102.986 Y119.06 E573.4092
G1 X103.237 Y119.447 E573.42454
G1 X103.562 Y119.771 E573.4398
G1 X103.948 Y120.022 E573.45512
G1 X104.378 Y120.187 E573.47044
G1 X104.831 Y120.259 E573.48569
G1 X105.291 Y120.236 E573.50101
G1 X105.736 Y120.116 E573.51634
G1 X106.146 Y119.908 E573.53163
G1 X106.503 Y119.617 E573.54695
G1 X106.794 Y119.26 E573.56227
G1 X107.002 Y118.85 E573.57756
G1 X107.122 Y118.405 E573.59289
G1 X107.145 Y117.946 E573.60818
G1 X107.073 Y117.492 E573.62347
G1 X106.908 Y117.062 E573.63878
G1 X106.657 Y116.676 E573.6541
G1 X106.333 Y116.351 E573.66936
G1 X105.946 Y116.1 E573.6847
G1 X105.517 Y115.935 E573.69999
G1 X105.062 Y115.863 E573.71531
G1 X104.963 Y115.868 E573.71861
G0 F9000 X104.527 Y115.598
G0 X104.473 Y115.543
G0 X106.129 Y115.743
G0 X107.265 Y116.88
G0 X109.447 Y120.651
G0 X109.747 Y120.861
G1 F3000 X85.04 Y120.861 E574.54037
G1 X85.04 Y74.261 E576.09029
G1 X109.747 Y74.261 E576.91205
G1 X109.747 Y120.501 E578.45
G1 F1800 E575.45
G1 Z1.999
G0 F9000 X109.447 Y120.651
G0 X107.477 Y100.801
G0 X108.897 Y99.626
G0 X109.535 Y97.875
G0 X105.368 Y79.525
G0 X105.291 Y79.236
G1 Z1.499
G1 F1800 E578.45
G1 F3000 X105.736 Y79.116 E578.46533
G1 X106.146 Y78.908 E578.48062
G1 X106.503 Y78.617 E578.49594
G1 X106.794 Y78.26 E578.51126
G1 X107.002 Y77.85 E578.52655
G1 X107.122 Y77.405 E578.54188
G1 X107.145 Y76.946 E578.55716
G1 X107.073 Y76.492 E578.57245
G1 X106.908 Y76.062 E578.58777
G1 X106.657 Y75.676 E578.60308
G1 X106.333 Y75.351 E578.61835
G1 X105.946 Y75.1 E578.63369
G1 X105.517 Y74.935 E578.64898
G1 X105.062 Y74.863 E578.6643
G1 X104.603 Y74.887 E578.67958
G1 X104.158 Y75.006 E578.69491
G1 X103.748 Y75.215 E578.71021
G1 X103.391 Y75.505 E578.72551
G1 X103.101 Y75.862 E578.74081
G1 X102.892 Y76.272 E578.75611
G1 X102.773 Y76.717 E578.77143
G1 X102.749 Y77.176 E578.78672
G1 X102.821 Y77.631 E578.80204
G1 X102.986 Y78.06 E578.81733
G1 X103.237 Y78.447 E578.83267
G1 X103.562 Y78.771 E578.84794
G1 X103.948 Y79.022 E578.86325
G1 X104.378 Y79.187 E578.87857
G1 X104.831 Y79.259 E578.89382
G1 X104.931 Y79.254 E578.89715
G0 F9000 X105.198 Y79.78
; TYPE:FILL
G1 F3600 X85.579 Y99.399 E579.81997
G0 F9000 X85.579 Y99.965
G1 F3600 X105.918 Y79.625 E580.77668
G0 F9000 X104.637 Y79.775
G1 F3600 X85.579 Y98.833 E581.67311
G0 F9000 X85.579 Y98.268
G1 F3600 X104.164 Y79.683 E582.54729
G0 F9000 X103.755 Y79.526
G1 F3600 X85.579 Y97.702 E583.40223
G0 F9000 X85.579 Y97.137
G1 F3600 X103.403 Y79.312 E584.24064
G0 F9000 X103.088 Y79.062
G1 F3600 X85.579 Y96.571 E585.06421
G0 F9000 X85.579 Y96.006
G1 F3600 X102.806 Y78.778 E585.87454
G0 F9000 X102.584 Y78.435
G1 F3600 X85.579 Y95.44 E586.67441
G0 F9000 X85.579 Y94.874
G1 F3600 X102.403 Y78.05 E587.46576
G0 F9000 X102.271 Y77.616
G1 F3600 X85.579 Y94.308 E588.2509
G0 F9000 X85.579 Y93.743
G1 F3600 X102.211 Y77.11 E589.03324
G0 F9000 X102.277 Y76.479
G1 F3600 X85.579 Y93.177 E589.81866
G0 F9000 X85.579 Y92.611
G1 F3600 X102.736 Y75.453 E590.6257
G0 F9000 X102.823 Y74.801
G1 F3600 X85.579 Y92.046 E591.43683
G0 F9000 X85.579 Y91.48
G1 F3600 X102.258 Y74.801 E592.22135
G0 F9000 X101.692 Y74.801
G1 F3600 X85.579 Y90.914 E592.97926
G0 F9000 X85.579 Y90.349
G1 F3600 X101.126 Y74.801 E593.71057
G0 F9000 X100.561 Y74.801
G1 F3600 X85.579 Y89.783 E594.41527
G0 F9000 X85.579 Y89.217
G1 F3600 X99.995 Y74.801 E595.09336
G0 F9000 X99.429 Y74.801
G1 F3600 X85.579 Y88.652 E595.74484
G0 F9000 X85.579 Y88.086
G1 F3600 X98.864 Y74.801 E596.36973
G0 F9000 X98.298 Y74.801
G1 F3600 X85.579 Y87.52 E596.96799
G0 F9000 X85.579 Y86.955
G1 F3600 X97.732 Y74.801 E597.53966
G0 F9000 X97.167 Y74.801
G1 F3600 X85.579 Y86.389 E598.08472
G0 F9000 X85.579 Y85.823
G1 F3600 X96.601 Y74.801 E598.60316
G0 F9000 X96.035 Y74.801
G1 F3600 X85.579 Y85.257 E599.09498
G0 F9000 X85.579 Y84.692
G1 F3600 X95.47 Y74.801 E599.56022
G0 F9000 X94.904 Y74.801
G1 F3600 X85.579 Y84.126 E599.99884
G0 F9000 X85.579 Y83.56
G1 F3600 X94.338 Y74.801 E600.41084
G0 F9000 X93.772 Y74.801
G1 F3600 X85.579 Y82.995 E600.79623
G0 F9000 X85.579 Y82.429
G1 F3600 X93.207 Y74.801 E601.15503
G0 F9000 X92.641 Y74.801
G1 F3600 X85.579 Y81.863 E601.48721
G0 F9000 X85.579 Y81.298
G1 F3600 X92.075 Y74.801 E601.79278
G0 F9000 X91.51 Y74.801
G1 F3600 X85.579 Y80.732 E602.07176
G0 F9000 X85.579 Y80.166
G1 F3600 X90.944 Y74.801 E602.32411
G0 F9000 X90.378 Y74.801
G1 F3600 X85.579 Y79.601 E602.54987
G0 F9000 X85.579 Y79.035
G1 F3600 X89.813 Y74.801 E602.74902
G0 F9000 X89.247 Y74.801
G1 F3600 X85.579 Y78.469 E602.92155
G0 F9000 X85.579 Y77.904
G1 F3600 X88.681 Y74.801 E603.06748
G0 F9000 X88.116 Y74.801
G1 F3600 X85.579 Y77.338 E603.18682
G0 F9000 X85.579 Y76.772
G1 F3600 X87.55 Y74.801 E603.27953
G0 F9000 X86.984 Y74.801
G1 F3600 X85.579 Y76.207 E603.34564
G0 F9000 X85.579 Y75.641
G1 F3600 X86.419 Y74.801 E603.38515
G0 F9000 X85.853 Y74.801
G1 F3600 X85.579 Y75.075 E603.39804
G0 F9000 X85.34 Y75.075
G0 X104.114 Y74.709
G0 X104.114 Y74.709
G0 X104.098 Y74.658
G1 F3600 X104.463 Y74.575 E603.41011
G1 X105.036 Y74.568 E603.42646
G1 X105.628 Y74.541 E603.44213
G1 X105.625 Y74.828 E603.45167
G0 F9000 X106.663 Y74.921
G1 F3600 X106.865 Y75.002 E603.4573
G1 X107.349 Y74.801 E603.47473
G0 F9000 X107.915 Y74.801
G1 F3600 X107.198 Y75.518 E603.50846
G0 F9000 X107.411 Y75.87
G1 F3600 X108.48 Y74.801 E603.55874
G0 F9000 X109.046 Y74.801
G1 F3600 X107.568 Y76.279 E603.62826
G0 F9000 X107.66 Y76.752
G1 F3600 X109.206 Y75.207 E603.70095
G0 F9000 X109.206 Y75.772
G1 F3600 X107.666 Y77.312 E603.77339
G0 F9000 X107.51 Y78.034
G1 F3600 X109.206 Y76.338 E603.85317
G0 F9000 X109.206 Y76.904
G1 F3600 X87.809 Y98.3 E604.85959
G0 F9000 X88.722 Y97.953
G1 F3600 X109.206 Y77.469 E605.8231
G0 F9000 X109.206 Y78.035
G1 F3600 X89.324 Y97.917 E606.75828
G0 F9000 X89.806 Y98.001
G1 F3600 X109.206 Y78.601 E607.6708
G0 F9000 X109.206 Y79.166
G1 F3600 X90.217 Y98.155 E608.56399
G0 F9000 X90.578 Y98.359
G1 F3600 X109.206 Y79.732 E609.44017
G0 F9000 X109.206 Y80.298
G1 F3600 X90.893 Y98.61 E610.30153
G0 F9000 X91.149 Y98.92
G1 F3600 X109.206 Y80.864 E611.15085
G0 F9000 X109.206 Y81.429
G1 F3600 X91.365 Y99.27 E611.99004
G0 F9000 X91.533 Y99.668
G1 F3600 X109.206 Y81.995 E612.82132
G0 F9000 X109.206 Y82.561
G1 F3600 X91.636 Y100.131 E613.64776
G0 F9000 X91.627 Y100.705
G1 F3600 X109.206 Y83.126 E614.47462
G0 F9000 X109.206 Y83.692
G1 F3600 X91.356 Y101.542 E615.31423
G0 F9000 X90.302 Y102.596
G1 F3600 X85.579 Y107.319 E615.53639
G0 F9000 X85.579 Y107.884
G1 F3600 X109.206 Y84.258 E616.64771
G0 F9000 X109.206 Y84.823
G1 F3600 X85.579 Y108.45 E617.75905
G0 F9000 X85.579 Y109.016
G1 F3600 X109.206 Y85.389 E618.87039
G0 F9000 X109.206 Y85.955
G1 F3600 X85.579 Y109.581 E619.98171
G0 F9000 X85.579 Y110.147
G1 F3600 X109.206 Y86.52 E621.09305
G0 F9000 X109.206 Y87.086
G1 F3600 X85.579 Y110.713 E622.20439
G0 F9000 X85.579 Y111.278
G1 F3600 X109.206 Y87.652 E623.31571
G0 F9000 X109.206 Y88.217
G1 F3600 X85.579 Y111.844 E624.42705
G0 F9000 X85.579 Y112.41
G1 F3600 X109.206 Y88.783 E625.53839
G0 F9000 X109.206 Y89.349
G1 F3600 X104.401 Y94.154 E625.7644
G0 F9000 X105.218 Y93.903
G1 F3600 X109.206 Y89.914 E625.95201
G0 F9000 X109.206 Y90.48
G1 F3600 X105.853 Y93.833 E626.10973
G0 F9000 X106.397 Y93.854
G1 F3600 X109.206 Y91.046 E626.24183
G0 F9000 X109.206 Y91.612
G1 F3600 X106.879 Y93.938 E626.35126
G0 F9000 X106.637 Y94.18
G1 F3600 X106.76 Y94.34 E626.35616
G1 X107.08 Y94.303 E626.36687
G0 F9000 X107.299 Y94.084
G1 F3600 X109.206 Y92.177 E626.45657
G0 F9000 X109.206 Y92.743
G1 F3600 X107.688 Y94.261 E626.52798
G0 F9000 X107.483 Y94.465
G1 F3600 X107.574 Y94.658 E626.53213
G1 X107.841 Y94.673 E626.54102
G0 F9000 X108.045 Y94.469
G1 F3600 X109.206 Y93.309 E626.59561
G0 F9000 X109.206 Y93.874
G1 F3600 X108.36 Y94.72 E626.6354
G0 F9000 X108.161 Y94.919
G1 F3600 X108.223 Y95.139 E626.63939
G1 X108.556 Y95.09 E626.64337
G1 X109.206 Y94.723 E626.66925
G1 X108.814 Y95.397 E626.68299
G1 X108.782 Y95.712 E626.68705
G1 X109.025 Y95.751 E626.6912
G1 X109.206 Y95.571 E626.69969
G0 F9000 X109.36 Y96.549
G1 F3600 X109.392 Y96.798 E626.70811
G1 X109.434 Y97.322 E626.72415
G1 X109.439 Y97.882 E626.73965
G1 X109.366 Y98.522 E626.76006
G1 X109.605 Y98.566 E626.76814
G0 F9000 X109.192 Y99.545
G1 F3600 X108.912 Y99.825 E626.78131
G0 F9000 X109.206 Y100.097
G1 F3600 X88.983 Y120.319 E627.73252
G0 F9000 X88.418 Y120.319
G1 F3600 X108.205 Y100.532 E628.66324
G0 F9000 X109.206 Y100.663
G1 F3600 X89.549 Y120.319 E629.58782
G0 F9000 X90.115 Y120.319
G1 F3600 X109.206 Y101.228 E630.4858
G0 F9000 X109.206 Y101.794
G1 F3600 X90.68 Y120.319 E631.35718
G0 F9000 X91.246 Y120.319
G1 F3600 X109.206 Y102.36 E632.20194
G0 F9000 X109.206 Y102.925
G1 F3600 X91.812 Y120.319 E633.0201
G0 F9000 X92.377 Y120.319
G1 F3600 X109.206 Y103.491 E633.81167
G0 F9000 X109.206 Y104.057
G1 F3600 X92.943 Y120.319 E634.5766
G0 F9000 X93.509 Y120.319
G1 F3600 X109.206 Y104.622 E635.31494
G0 F9000 X109.206 Y105.188
G1 F3600 X94.074 Y120.319 E636.02668
G0 F9000 X94.64 Y120.319
G1 F3600 X109.206 Y105.754 E636.7118
G0 F9000 X109.206 Y106.319
G1 F3600 X95.206 Y120.319 E637.37032
G0 F9000 X95.771 Y120.319
G1 F3600 X109.206 Y106.885 E638.00223
G0 F9000 X109.206 Y107.451
G1 F3600 X96.337 Y120.319 E638.60753
G0 F9000 X96.903 Y120.319
G1 F3600 X109.206 Y108.016 E639.18622
G0 F9000 X109.206 Y108.582
G1 F3600 X97.469 Y120.319 E639.7383
G0 F9000 X98.034 Y120.319
G1 F3600 X109.206 Y109.148 E640.26377
G0 F9000 X109.206 Y109.713
G1 F3600 X98.6 Y120.319 E640.76264
G0 F9000 X99.166 Y120.319
G1 F3600 X102.377 Y117.108 E640.91368
G0 F9000 X102.227 Y117.824
G1 F3600 X99.731 Y120.319 E641.03106
G0 F9000 X100.297 Y120.319
G1 F3600 X102.234 Y118.382 E641.12217
G0 F9000 X102.328 Y118.854
G1 F3600 X100.863 Y120.319 E641.19108
G0 F9000 X101.428 Y120.319
G1 F3600 X102.485 Y119.262 E641.2408
G0 F9000 X102.701 Y119.612
G1 F3600 X101.994 Y120.319 E641.27405
G0 F9000 X102.56 Y120.319
G1 F3600 X103.096 Y120.065 E641.2925
G1 X103.125 Y120.319 E641.301
G0 F9000 X104.117 Y120.459
G1 F3600 X104.35 Y120.508 E641.3086
G1 X104.87 Y120.554 E641.32414
G1 X105.448 Y120.542 E641.34077
G1 X105.798 Y120.475 E641.35263
G0 F9000 X106.594 Y120.245
G1 F3600 X106.63 Y120.209 E641.35432
G0 F9000 X107.084 Y120.32
G1 F3600 X109.206 Y118.198 E641.45413
G0 F9000 X109.206 Y117.632
G1 F3600 X107.095 Y119.744 E641.55345
G0 F9000 X107.65 Y120.32
G1 F3600 X109.206 Y118.764 E641.62664
G0 F9000 X109.206 Y119.329
G1 F3600 X108.217 Y120.319 E641.67318
G0 F9000 X108.782 Y120.319
G1 F3600 X109.206 Y119.895 E641.69313
G0 F9000 X107.611 Y118.662
G1 F3600 X109.206 Y117.067 E641.76815
G0 F9000 X109.206 Y116.501
G1 F3600 X107.681 Y118.027 E641.83991
G0 F9000 X107.624 Y117.518
G1 F3600 X109.206 Y115.935 E641.91434
G0 F9000 X109.206 Y115.37
G1 F3600 X107.494 Y117.082 E641.99487
G0 F9000 X107.314 Y116.696
G1 F3600 X109.206 Y114.804 E642.08386
G0 F9000 X109.206 Y114.238
G1 F3600 X107.092 Y116.353 E642.18332
G0 F9000 X106.813 Y116.066
G1 F3600 X109.206 Y113.673 E642.29588
G0 F9000 X109.206 Y113.107
G1 F3600 X106.499 Y115.814 E642.42321
G0 F9000 X106.148 Y115.599
G1 F3600 X109.206 Y112.541 E642.56705
G0 F9000 X109.206 Y111.976
G1 F3600 X105.74 Y115.442 E642.73008
G0 F9000 X105.269 Y115.348
G1 F3600 X109.206 Y111.41 E642.91529
G0 F9000 X109.206 Y110.844
G1 F3600 X104.711 Y115.34 E643.12674
G0 F9000 X103.995 Y115.49
G1 F3600 X109.206 Y110.278 E643.37188
G0 F9000 X107.04 Y101.131
G1 F3600 X87.852 Y120.319 E644.27442
G0 F9000 X87.286 Y120.319
G1 F3600 X106.324 Y101.281 E645.16991
G0 F9000 X105.751 Y101.289
G1 F3600 X86.72 Y120.319 E646.06505
G0 F9000 X86.155 Y120.319
G1 F3600 X105.25 Y101.225 E646.96319
G0 F9000 X104.798 Y101.111
G1 F3600 X85.589 Y120.319 E647.8667
G0 F9000 X85.579 Y119.764
G1 F3600 X104.383 Y100.959 E648.75121
G0 F9000 X104.022 Y100.755
G1 F3600 X85.579 Y119.198 E649.61871
G0 F9000 X85.579 Y118.632
G1 F3600 X103.683 Y100.529 E650.47024
G0 F9000 X103.375 Y100.271
G1 F3600 X85.579 Y118.067 E651.30731
G0 F9000 X85.579 Y117.501
G1 F3600 X103.105 Y99.975 E652.13168
G0 F9000 X102.854 Y99.661
G1 F3600 X85.579 Y116.935 E652.94422
G0 F9000 X85.579 Y116.369
G1 F3600 X102.646 Y99.303 E653.74698
G0 F9000 X102.47 Y98.913
G1 F3600 X85.579 Y115.804 E654.54148
G0 F9000 X85.579 Y115.238
G1 F3600 X102.324 Y98.494 E655.32909
G0 F9000 X102.24 Y98.012
G1 F3600 X85.579 Y114.672 E656.11275
G0 F9000 X85.579 Y114.107
G1 F3600 X102.218 Y97.468 E656.89539
G0 F9000 X102.288 Y96.832
G1 F3600 X85.579 Y113.541 E657.68133
G0 F9000 X85.579 Y112.975
G1 F3600 X102.538 Y96.016 E658.47903
G0 F9000 X90.58 Y102.049
G0 X89.933 Y102.617
G0 X89.429 Y102.631
G0 X89.465 Y102.867
G1 F3600 X85.579 Y106.753 E658.66182
G0 F9000 X85.579 Y106.187
G1 F3600 X88.891 Y102.875 E658.81761
G0 F9000 X88.428 Y102.773
G1 F3600 X85.579 Y105.621 E658.95159
G0 F9000 X85.579 Y105.056
G1 F3600 X88.03 Y102.605 E659.06688
G0 F9000 X87.681 Y102.389
G1 F3600 X85.579 Y104.49 E659.16573
G0 F9000 X85.579 Y103.924
G1 F3600 X87.372 Y102.132 E659.25004
G0 F9000 X87.121 Y101.817
G1 F3600 X85.579 Y103.359 E659.32257
G0 F9000 X85.579 Y102.793
G1 F3600 X86.916 Y101.456 E659.38546
G0 F9000 X86.762 Y101.045
G1 F3600 X85.579 Y102.227 E659.44108
G0 F9000 X85.579 Y101.662
G1 F3600 X86.678 Y100.563 E659.49277
G0 F9000 X86.711 Y99.964
G1 F3600 X85.579 Y101.096 E659.54602
G0 F9000 X85.579 Y100.53
G1 F3600 X87.061 Y99.048 E659.61573
G1 F1800 E656.61573
G1 Z1.999
G0 F9000 X120.031 Y101.127
; TYPE:WALL-INNER
G1 Z1.499
G1 F1800 E659.61573
G1 F3600 X120.031 Y101.653 E659.63322
G1 X120.148 Y102.167 E659.65076
G1 X120.377 Y102.643 E659.66832
G1 X120.706 Y103.054 E659.68584
G1 X121.117 Y103.383 E659.70335
G1 X121.593 Y103.612 E659.72091
G1 X122.107 Y103.729 E659.73845
G1 X122.633 Y103.729 E659.75594
G1 X123.147 Y103.612 E659.77347
G1 X123.622 Y103.383 E659.79101
G1 X124.035 Y103.054 E659.80858
G1 X124.363 Y102.642 E659.82609
G1 X124.592 Y102.167 E659.84363
G1 X124.709 Y101.653 E659.86116
G1 X124.709 Y101.127 E659.87866
G1 X124.592 Y100.613 E659.89619
G1 X124.363 Y100.138 E659.91373
G1 X124.035 Y99.725 E659.93127
G1 X123.622 Y99.397 E659.94881
G1 X123.147 Y99.168 E659.96635
G1 X122.633 Y99.051 E659.98388
G1 X122.107 Y99.051 E660.00138
G1 X121.593 Y99.168 E660.01891
G1 X121.118 Y99.397 E660.03645
G1 X120.706 Y99.725 E660.05397
G1 X120.377 Y100.138 E660.07153
G1 X120.148 Y100.613 E660.08907
G1 X120.111 Y100.775 E660.09459
G0 F9000 X120.131 Y101.159
G0 X120.033 Y101.172
G0 X120.707 Y99.726
G0 X122.107 Y99.053
G0 X135.571 Y98.869
G0 X135.571 Y98.869
G1 F3600 X135.68 Y99.487 E660.11547
G1 X135.895 Y100.076 E660.13632
G1 X136.209 Y100.62 E660.15721
G1 X136.613 Y101.102 E660.17813
G1 X137.094 Y101.505 E660.199
G1 X137.638 Y101.819 E660.21989
G1 X138.227 Y102.034 E660.24075
G1 X138.845 Y102.143 E660.26162
G1 X139.474 Y102.143 E660.28254
G1 X140.092 Y102.034 E660.30341
G1 X140.683 Y101.819 E660.32433
G1 X141.226 Y101.505 E660.34519
G1 X141.706 Y101.102 E660.36604
G1 X142.109 Y100.62 E660.38693
G1 X142.424 Y100.077 E660.40781
G1 X142.559 Y99.707 E660.42091
G1 X142.559 Y121.453 E661.14419
G1 X139.154 Y121.453 E661.25744
G1 X139.578 Y121.238 E661.27325
G1 X140.001 Y120.894 E661.29138
G1 X140.343 Y120.473 E661.30942
G1 X140.59 Y119.987 E661.32756
G1 X140.731 Y119.461 E661.34567
G1 X140.759 Y118.919 E661.36372
G1 X140.675 Y118.381 E661.38183
G1 X140.479 Y117.872 E661.39997
G1 X140.183 Y117.416 E661.41805
G1 X139.799 Y117.031 E661.43614
G1 X139.342 Y116.735 E661.45425
G1 X138.834 Y116.539 E661.47236
G1 X138.296 Y116.455 E661.49047
G1 X137.753 Y116.483 E661.50855
G1 X137.227 Y116.624 E661.52667
G1 X136.742 Y116.871 E661.54477
G1 X136.319 Y117.213 E661.56286
G1 X135.977 Y117.637 E661.58098
G1 X135.73 Y118.122 E661.59908
G1 X135.589 Y118.647 E661.61716
G1 X135.561 Y119.19 E661.63525
G1 X135.645 Y119.728 E661.65336
G1 X135.841 Y120.236 E661.67147
G1 X136.137 Y120.692 E661.68955
G1 X136.521 Y121.078 E661.70766
G1 X136.978 Y121.374 E661.72577
G1 X137.183 Y121.453 E661.73308
G1 X118.652 Y121.453 E662.34942
G1 X118.652 Y75.654 E663.8727
G1 X137.168 Y75.654 E664.48854
G1 X136.742 Y75.871 E664.50445
G1 X136.319 Y76.213 E664.52254
G1 X135.977 Y76.637 E664.54066
G1 X135.73 Y77.122 E664.55876
G1 X135.589 Y77.647 E664.57684
G1 X135.561 Y78.19 E664.59492
G1 X135.645 Y78.728 E664.61303
G1 X135.841 Y79.236 E664.63114
G1 X136.137 Y79.692 E664.64923
G1 X136.521 Y80.078 E664.66734
G1 X136.978 Y80.374 E664.68544
G1 X137.485 Y80.569 E664.70351
G1 X138.023 Y80.655 E664.72163
G1 X138.568 Y80.626 E664.73979
G1 X139.093 Y80.484 E664.75787
G1 X139.578 Y80.238 E664.77596
G1 X140.001 Y79.894 E664.7941
G1 X140.343 Y79.473 E664.81214
G1 X140.59 Y78.987 E664.83027
G1 X140.731 Y78.461 E664.84838
G1 X140.759 Y77.919 E664.86643
G1 X140.675 Y77.381 E664.88454
G1 X140.479 Y76.872 E664.90268
G1 X140.183 Y76.416 E664.92077
G1 X139.799 Y76.031 E664.93885
G1 X139.342 Y75.735 E664.95696
G1 X139.132 Y75.654 E664.96445
G1 X142.559 Y75.654 E665.07843
G1 X142.559 Y97.403 E665.8018
G1 X142.424 Y97.031 E665.81497
G1 X142.109 Y96.488 E665.83585
G1 X141.706 Y96.007 E665.85672
G1 X141.226 Y95.604 E665.87756
G1 X140.683 Y95.289 E665.89844
G1 X140.091 Y95.075 E665.91938
G1 X139.474 Y94.966 E665.94022
G1 X138.845 Y94.966 E665.96114
G1 X138.227 Y95.075 E665.98201
G1 X137.638 Y95.289 E666.00285
G1 X137.093 Y95.604 E666.02379
G1 X136.613 Y96.007 E666.04464
G1 X136.209 Y96.488 E666.06553
G1 X135.895 Y97.031 E666.08639
G1 X135.68 Y97.622 E666.10731
G1 X135.571 Y98.24 E666.12818
G1 X135.571 Y98.509 E666.13713
G0 F9000 X135.971 Y98.834
; TYPE:WALL-OUTER
G1 F3000 X136.068 Y99.383 E666.15567
G1 X136.259 Y99.907 E666.17422
G1 X136.538 Y100.39 E666.19277
G1 X136.897 Y100.818 E666.21135
G1 X137.324 Y101.176 E666.22989
G1 X137.807 Y101.455 E666.24844
G1 X138.331 Y101.646 E666.26699
G1 X138.88 Y101.743 E666.28553
G1 X139.439 Y101.743 E666.30412
G1 X139.988 Y101.646 E666.32267
G1 X140.513 Y101.455 E666.34125
G1 X140.995 Y101.176 E666.35977
G1 X141.422 Y100.818 E666.3783
G1 X141.78 Y100.39 E666.39686
G1 X142.06 Y99.907 E666.41543
G1 X142.251 Y99.383 E666.43398
G1 X142.347 Y98.833 E666.45255
G1 X142.347 Y98.276 E666.47108
G1 X142.251 Y97.726 E666.48965
G1 X142.06 Y97.201 E666.50823
G1 X141.78 Y96.719 E666.52677
G1 X141.422 Y96.291 E666.54533
G1 X140.995 Y95.933 E666.56386
G1 X140.513 Y95.653 E666.5824
G1 X139.988 Y95.463 E666.60097
G1 X139.439 Y95.366 E666.61951
G1 X138.88 Y95.366 E666.6381
G1 X138.331 Y95.463 E666.65665
G1 X137.807 Y95.653 E666.67519
G1 X137.324 Y95.933 E666.69375
G1 X136.897 Y96.291 E666.71229
G1 X136.538 Y96.719 E666.73087
G1 X136.259 Y97.201 E666.74939
G1 X136.068 Y97.726 E666.76797
G1 X135.971 Y98.275 E666.78651
G1 X135.971 Y98.474 E666.79313
G0 F9000 X135.671 Y98.834
G0 X124.609 Y101.172
G0 X124.609 Y101.172
G0 X124.309 Y101.172
G1 F3000 X124.212 Y100.746 E666.80767
G1 X124.022 Y100.352 E666.82221
G1 X123.75 Y100.01 E666.83675
G1 X123.408 Y99.738 E666.85128
G1 X123.014 Y99.548 E666.86583
G1 X122.588 Y99.451 E666.88036
G1 X122.152 Y99.451 E666.89486
G1 X121.726 Y99.548 E666.90939
G1 X121.332 Y99.738 E666.92394
G1 X120.991 Y100.01 E666.93845
G1 X120.718 Y100.352 E666.95301
G1 X120.528 Y100.746 E666.96755
G1 X120.431 Y101.172 E666.98209
G1 X120.431 Y101.608 E666.99659
G1 X120.528 Y102.034 E667.01112
G1 X120.718 Y102.428 E667.02567
G1 X120.991 Y102.769 E667.0402
G1 X121.332 Y103.042 E667.05472
G1 X121.726 Y103.232 E667.06927
G1 X122.152 Y103.329 E667.0838
G1 X122.588 Y103.329 E667.09831
G1 X123.014 Y103.232 E667.11284
G1 X123.408 Y103.042 E667.12739
G1 X123.75 Y102.769 E667.14194
G1 X124.022 Y102.428 E667.15645
G1 X124.212 Y102.034 E667.171
G1 X124.309 Y101.608 E667.18553
G1 X124.309 Y101.532 E667.18806
G0 F9000 X124.609 Y101.172
G0 X136.773 Y116.976
G0 X136.773 Y116.976
G0 X136.961 Y117.208
G1 F3000 X136.604 Y117.498 E667.20335
G1 X136.314 Y117.856 E667.21868
G1 X136.105 Y118.266 E667.23398
G1 X135.986 Y118.71 E667.24927
G1 X135.962 Y119.169 E667.26456
G1 X136.034 Y119.624 E667.27988
G1 X136.199 Y120.053 E667.29517
G1 X136.45 Y120.439 E667.31048
G1 X136.774 Y120.765 E667.32577
G1 X137.161 Y121.015 E667.34109
G1 X137.59 Y121.18 E667.35638
G1 X138.044 Y121.253 E667.37168
G1 X138.505 Y121.229 E667.38703
G1 X138.949 Y121.109 E667.40233
G1 X139.359 Y120.901 E667.41762
G1 X139.716 Y120.61 E667.43294
G1 X140.006 Y120.254 E667.44821
G1 X140.215 Y119.843 E667.46354
G1 X140.334 Y119.398 E667.47887
G1 X140.358 Y118.94 E667.49412
G1 X140.286 Y118.485 E667.50944
G1 X140.121 Y118.055 E667.52476
G1 X139.87 Y117.669 E667.54007
G1 X139.546 Y117.344 E667.55534
G1 X139.159 Y117.093 E667.57068
G1 X138.73 Y116.928 E667.58597
G1 X138.275 Y116.856 E667.60129
G1 X137.816 Y116.88 E667.61658
G1 X137.371 Y116.999 E667.6319
G1 X137.282 Y117.044 E667.63521
G0 F9000 X136.773 Y116.976
G0 X136.696 Y116.915
G0 X138.296 Y116.456
G0 X139.797 Y117.033
G0 X142.659 Y121.643
G0 X142.959 Y121.853
G1 F3000 X118.252 Y121.853 E668.45697
G1 X118.252 Y75.254 E670.00686
G1 X142.959 Y75.254 E670.82862
G1 X142.959 Y121.493 E672.36653
G1 F1800 E669.36653
G1 Z1.999
G0 F9000 X142.659 Y121.643
G0 X140.69 Y101.793
G0 X142.108 Y100.619
G0 X142.746 Y98.868
G0 X138.582 Y80.518
G0 X138.505 Y80.229
G1 Z1.499
G1 F1800 E672.36653
G1 F3000 X138.949 Y80.109 E672.38183
G1 X139.359 Y79.901 E672.39712
G1 X139.716 Y79.61 E672.41244
G1 X140.006 Y79.254 E672.42771
G1 X140.215 Y78.843 E672.44305
G1 X140.334 Y78.398 E672.45837
G1 X140.358 Y77.94 E672.47362
G1 X140.286 Y77.485 E672.48895
G1 X140.121 Y77.055 E672.50426
G1 X139.87 Y76.669 E672.51958
G1 X139.546 Y76.344 E672.53484
G1 X139.159 Y76.093 E672.55018
G1 X138.73 Y75.928 E672.56547
G1 X138.275 Y75.856 E672.58079
G1 X137.816 Y75.88 E672.59608
G1 X137.371 Y75.999 E672.6114
G1 X136.961 Y76.208 E672.62671
G1 X136.604 Y76.498 E672.64201
G1 X136.314 Y76.856 E672.65733
G1 X136.105 Y77.266 E672.67264
G1 X135.986 Y77.71 E672.68792
G1 X135.962 Y78.169 E672.70321
G1 X136.034 Y78.624 E672.71853
G1 X136.199 Y79.053 E672.73382
G1 X136.45 Y79.439 E672.74913
G1 X136.774 Y79.765 E672.76442
G1 X137.161 Y80.015 E672.77975
G1 X137.59 Y80.18 E672.79503
G1 X138.044 Y80.253 E672.81033
G1 X138.145 Y80.248 E672.81369
G0 F9000 X138.769 Y80.716
; TYPE:FILL
G1 F3600 X118.791 Y100.694 E673.75339
G0 F9000 X118.791 Y101.259
G1 F3600 X139.877 Y80.174 E674.74519
G0 F9000 X140.28 Y79.771
G1 F3600 X142.417 Y77.633 E674.84573
G0 F9000 X142.417 Y77.068
G1 F3600 X140.82 Y78.665 E674.92085
G0 F9000 X140.893 Y78.027
G1 F3600 X142.417 Y76.502 E674.99256
G0 F9000 X142.417 Y75.936
G1 F3600 X140.837 Y77.517 E675.0669
G0 F9000 X140.707 Y77.081
G1 F3600 X141.994 Y75.794 E675.12744
G0 F9000 X141.429 Y75.794
G1 F3600 X140.529 Y76.693 E675.16975
G0 F9000 X140.306 Y76.35
G1 F3600 X140.58 Y75.794 E675.19593
G1 X140.028 Y76.063 E675.21635
G0 F9000 X139 Y75.393
G1 F3600 X138.529 Y75.581 E675.23402
G1 X137.986 Y75.559 E675.24957
G1 X137.342 Y75.638 E675.27045
G1 X137.303 Y75.394 E675.27866
G0 F9000 X136.337 Y75.794
G1 F3600 X118.791 Y93.34 E676.10397
G0 F9000 X118.791 Y93.905
G1 F3600 X135.586 Y77.111 E676.89394
G0 F9000 X135.438 Y77.824
G1 F3600 X118.791 Y94.471 E677.67696
G0 F9000 X118.791 Y95.037
G1 F3600 X135.448 Y78.38 E678.46045
G0 F9000 X135.543 Y78.851
G1 F3600 X118.791 Y95.602 E679.24839
G0 F9000 X118.791 Y96.168
G1 F3600 X135.699 Y79.261 E680.04367
G0 F9000 X135.916 Y79.609
G1 F3600 X118.791 Y96.734 E680.84918
G0 F9000 X118.791 Y97.3
G1 F3600 X136.168 Y79.922 E681.66656
G0 F9000 X136.455 Y80.202
G1 F3600 X118.791 Y97.865 E682.4974
G0 F9000 X118.791 Y98.431
G1 F3600 X136.798 Y80.424 E683.34439
G0 F9000 X137.185 Y80.603
G1 F3600 X118.791 Y98.997 E684.20959
G0 F9000 X118.791 Y99.562
G1 F3600 X137.622 Y80.732 E685.09532
G0 F9000 X138.13 Y80.789
G1 F3600 X118.791 Y100.128 E686.00497
G0 F9000 X120.004 Y100.612
G1 F3600 X118.791 Y101.825 E686.06202
G0 F9000 X118.791 Y102.391
G1 F3600 X119.89 Y101.292 E686.11372
G0 F9000 X119.926 Y101.822
G1 F3600 X118.791 Y102.956 E686.16708
G0 F9000 X118.791 Y103.522
G1 F3600 X120.042 Y102.271 E686.22592
G0 F9000 X120.226 Y102.653
G1 F3600 X118.791 Y104.088 E686.29342
G0 F9000 X118.791 Y104.653
G1 F3600 X120.466 Y102.979 E686.37218
G0 F9000 X120.746 Y103.265
G1 F3600 X118.791 Y105.219 E686.46412
G0 F9000 X118.791 Y105.785
G1 F3600 X121.063 Y103.513 E686.57099
G0 F9000 X121.446 Y103.696
G1 F3600 X118.791 Y106.35 E686.69584
G0 F9000 X118.791 Y106.916
G1 F3600 X121.886 Y103.821 E686.84142
G0 F9000 X122.405 Y103.869
G1 F3600 X118.791 Y107.482 E687.01139
G0 F9000 X118.791 Y108.048
G1 F3600 X123.066 Y103.773 E687.21247
G0 F9000 X123.012 Y103.54
G0 X123.034 Y103.517
G0 X124.034 Y103.053
G0 X124.519 Y102.035
G0 X124.752 Y102.087
G1 F3600 X142.417 Y84.422 E688.04338
G0 F9000 X142.417 Y84.987
G1 F3600 X118.791 Y108.613 E689.15468
G0 F9000 X118.791 Y109.179
G1 F3600 X142.417 Y85.553 E690.26597
G0 F9000 X142.417 Y86.119
G1 F3600 X118.791 Y109.745 E691.37727
G0 F9000 X118.791 Y110.31
G1 F3600 X142.418 Y86.684 E692.48858
G0 F9000 X142.418 Y87.249
G1 F3600 X118.791 Y110.876 E693.59993
G0 F9000 X118.791 Y111.442
G1 F3600 X142.418 Y87.815 E694.71127
G0 F9000 X142.418 Y88.381
G1 F3600 X118.791 Y112.007 E695.82259
G0 F9000 X118.791 Y112.573
G1 F3600 X142.418 Y88.946 E696.93393
G0 F9000 X142.418 Y89.512
G1 F3600 X118.791 Y113.139 E698.04527
G0 F9000 X118.791 Y113.704
G1 F3600 X136.123 Y96.373 E698.86049
G0 F9000 X136.977 Y95.518
G1 F3600 X142.418 Y90.078 E699.11639
G0 F9000 X142.418 Y90.644
G1 F3600 X138.087 Y94.975 E699.32011
G0 F9000 X138.795 Y94.832
G1 F3600 X142.418 Y91.209 E699.49053
G0 F9000 X142.418 Y91.775
G1 F3600 X139.367 Y94.826 E699.63404
G0 F9000 X139.866 Y94.893
G1 F3600 X142.418 Y92.341 E699.75407
G0 F9000 X142.418 Y92.906
G1 F3600 X140.317 Y95.007 E699.8529
G0 F9000 X140.732 Y95.158
G1 F3600 X142.418 Y93.472 E699.9322
G0 F9000 X142.418 Y94.038
G1 F3600 X141.091 Y95.365 E699.99462
G0 F9000 X141.428 Y95.593
G1 F3600 X142.418 Y94.603 E700.04119
G0 F9000 X142.418 Y95.169
G1 F3600 X141.736 Y95.851 E700.07327
G0 F9000 X142.005 Y96.148
G1 F3600 X142.418 Y96.017 E700.09268
G1 X142.255 Y96.463 E700.10848
G0 F9000 X142.818 Y97.597
G1 F3600 X142.627 Y98.071 E700.12641
G1 X142.652 Y98.612 E700.14199
G1 X142.629 Y99.2 E700.1597
G1 X142.48 Y99.632 E700.17236
G1 X142.21 Y99.902 E700.18506
G0 F9000 X142.418 Y100.826
G1 F3600 X121.932 Y121.311 E701.14863
G0 F9000 X121.367 Y121.311
G1 F3600 X140.726 Y101.952 E702.05922
G0 F9000 X140.507 Y101.605
G1 F3600 X140.305 Y101.807 E702.06872
G0 F9000 X139.903 Y102.209
G1 F3600 X120.801 Y121.311 E702.96722
G0 F9000 X120.235 Y121.311
G1 F3600 X139.264 Y102.282 E703.86229
G0 F9000 X138.718 Y102.263
G1 F3600 X119.67 Y121.311 E704.75825
G0 F9000 X119.104 Y121.311
G1 F3600 X138.237 Y102.179 E705.65818
G0 F9000 X137.816 Y102.034
G1 F3600 X118.791 Y121.058 E706.55304
G0 F9000 X118.791 Y120.493
G1 F3600 X137.426 Y101.858 E707.42957
G0 F9000 X137.067 Y101.651
G1 F3600 X118.791 Y119.927 E708.28922
G0 F9000 X118.791 Y119.361
G1 F3600 X136.752 Y101.401 E709.13402
G0 F9000 X136.456 Y101.131
G1 F3600 X118.791 Y118.796 E709.96493
G0 F9000 X118.791 Y118.23
G1 F3600 X136.197 Y100.824 E710.78365
G0 F9000 X135.97 Y100.486
G1 F3600 X118.791 Y117.664 E711.59168
G0 F9000 X118.791 Y117.099
G1 F3600 X135.763 Y100.127 E712.38999
G0 F9000 X135.612 Y99.712
G1 F3600 X118.791 Y116.533 E713.1812
G0 F9000 X118.791 Y115.967
G1 F3600 X135.497 Y99.262 E713.96697
G0 F9000 X135.43 Y98.763
G1 F3600 X118.791 Y115.401 E714.7496
G0 F9000 X118.791 Y114.836
G1 F3600 X135.436 Y98.191 E715.53253
G0 F9000 X135.582 Y97.48
G1 F3600 X118.791 Y114.27 E716.3223
G0 F9000 X118.552 Y114.27
G0 X122.498 Y121.311
G0 X122.498 Y121.311
G1 F3600 X142.418 Y101.392 E717.25925
G0 F9000 X142.418 Y101.957
G1 F3600 X123.064 Y121.311 E718.16961
G0 F9000 X123.629 Y121.311
G1 F3600 X142.418 Y102.523 E719.05336
G0 F9000 X142.418 Y103.089
G1 F3600 X124.195 Y121.311 E719.91049
G0 F9000 X124.761 Y121.311
G1 F3600 X142.418 Y103.654 E720.74102
G0 F9000 X142.418 Y104.22
G1 F3600 X125.326 Y121.311 E721.54495
G0 F9000 X125.892 Y121.311
G1 F3600 X142.418 Y104.786 E722.32226
G0 F9000 X142.418 Y105.351
G1 F3600 X126.458 Y121.311 E723.07297
G0 F9000 X127.023 Y121.311
G1 F3600 X142.418 Y105.917 E723.79708
G0 F9000 X142.418 Y106.483
G1 F3600 X127.589 Y121.311 E724.49457
G0 F9000 X128.154 Y121.312
G1 F3600 X142.418 Y107.048 E725.1655
G0 F9000 X142.418 Y107.614
G1 F3600 X128.72 Y121.312 E725.80981
G0 F9000 X129.285 Y121.312
G1 F3600 X142.418 Y108.18 E726.42753
G0 F9000 X142.418 Y108.745
G1 F3600 X129.851 Y121.312 E727.01864
G0 F9000 X130.417 Y121.312
G1 F3600 X142.418 Y109.311 E727.58313
G0 F9000 X142.418 Y109.877
G1 F3600 X130.983 Y121.312 E728.121
G0 F9000 X131.548 Y121.312
G1 F3600 X142.418 Y110.443 E728.63227
G0 F9000 X142.418 Y111.008
G1 F3600 X136.683 Y116.743 E728.90202
G0 F9000 X137.619 Y116.373
G1 F3600 X142.418 Y111.574 E729.12775
G0 F9000 X142.418 Y112.14
G1 F3600 X138.24 Y116.317 E729.32425
G0 F9000 X138.741 Y116.382
G1 F3600 X142.418 Y112.705 E729.4972
G0 F9000 X142.418 Y113.271
G1 F3600 X139.17 Y116.519 E729.64998
G0 F9000 X139.551 Y116.704
G1 F3600 X142.418 Y113.837 E729.78484
G0 F9000 X142.418 Y114.402
G1 F3600 X139.893 Y116.927 E729.9036
G0 F9000 X140.175 Y117.211
G1 F3600 X142.418 Y114.968 E730.00911
G0 F9000 X142.418 Y115.534
G1 F3600 X140.422 Y117.529 E730.10297
G0 F9000 X140.632 Y117.885
G1 F3600 X142.418 Y116.099 E730.18698
G0 F9000 X142.418 Y116.665
G1 F3600 X140.789 Y118.294 E730.2636
G0 F9000 X140.877 Y118.772
G1 F3600 X142.418 Y117.231 E730.33608
G0 F9000 X142.418 Y117.796
G1 F3600 X140.876 Y119.338 E730.40862
G0 F9000 X140.696 Y120.084
G1 F3600 X142.418 Y118.362 E730.48961
G0 F9000 X142.418 Y118.928
G1 F3600 X140.034 Y121.312 E730.60175
G0 F9000 X140.599 Y121.312
G1 F3600 X142.418 Y119.493 E730.68731
G0 F9000 X142.418 Y120.059
G1 F3600 X141.165 Y121.312 E730.74625
G0 F9000 X141.731 Y121.312
G1 F3600 X142.418 Y120.625 E730.77856
G0 F9000 X142.418 Y121.191
G1 F3600 X142.296 Y121.312 E730.78428
G0 F9000 X139.07 Y121.553
G0 X139.07 Y121.553
G0 X139.07 Y121.71
G1 F3600 X139.016 Y121.48 E730.78434
G1 X138.384 Y121.546 E730.80605
G1 X137.837 Y121.528 E730.82161
G1 X137.288 Y121.511 E730.83888
G1 X137.111 Y121.123 E730.84324
G1 X136.675 Y120.993 E730.84725
G1 X136.457 Y120.928 E730.85124
G1 X136.053 Y121.049 E730.8626
G1 X135.508 Y121.312 E730.88273
G0 F9000 X134.942 Y121.312
G1 F3600 X135.809 Y120.445 E730.92351
G0 F9000 X136.012 Y120.242
G1 F3600 X136.21 Y120.326 E730.92759
G1 X136.234 Y120.586 E730.93627
G0 F9000 X135.624 Y120.065
G1 F3600 X134.377 Y121.312 E730.99493
G0 F9000 X133.811 Y121.312
G1 F3600 X135.488 Y119.636 E731.07379
G0 F9000 X135.422 Y119.136
G1 F3600 X133.245 Y121.312 E731.17616
G0 F9000 X132.68 Y121.312
G1 F3600 X135.478 Y118.513 E731.30779
G0 F9000 X135.847 Y117.579
G1 F3600 X132.114 Y121.312 E731.48338
G0 F9000 X139.592 Y102.092
G0 X139.737 Y101.719
G0 X139.681 Y101.865
G0 X139.681 Y101.865
G1 F3600 X139.71 Y101.837 E731.48472
G0 F9000 X138.353 Y101.799
G0 X137.953 Y101.788
G0 X124.609 Y101.425
G0 X124.848 Y101.425
G1 F3600 X142.417 Y83.856 E732.31112
G0 F9000 X142.417 Y83.29
G1 F3600 X124.8 Y100.907 E733.13977
G0 F9000 X124.675 Y100.467
G1 F3600 X142.417 Y82.725 E733.9743
G0 F9000 X142.417 Y82.159
G1 F3600 X124.491 Y100.085 E734.81748
G0 F9000 X124.245 Y99.766
G1 F3600 X142.417 Y81.593 E735.67226
G0 F9000 X142.417 Y81.028
G1 F3600 X123.958 Y99.487 E736.54051
G0 F9000 X123.632 Y99.247
G1 F3600 X142.417 Y80.462 E737.4241
G0 F9000 X142.417 Y79.896
G1 F3600 X123.25 Y99.063 E738.32566
G0 F9000 X122.801 Y98.946
G1 F3600 X142.417 Y79.331 E739.24831
G0 F9000 X142.417 Y78.765
G1 F3600 X122.271 Y98.911 E740.19592
G0 F9000 X121.591 Y99.025
G1 F3600 X142.417 Y78.199 E741.17551
G0 F9000 X140.664 Y77.5
G0 X139.797 Y76.033
G0 X138.296 Y75.456
G0 X135.772 Y75.554
G0 X135.772 Y75.794
G1 F3600 X118.791 Y92.774 E741.97422
G0 F9000 X118.791 Y92.208
G1 F3600 X135.206 Y75.794 E742.74631
G0 F9000 X134.64 Y75.794
G1 F3600 X118.791 Y91.643 E743.4918
G0 F9000 X118.791 Y91.077
G1 F3600 X134.075 Y75.794 E744.21068
G0 F9000 X133.509 Y75.794
G1 F3600 X118.791 Y90.511 E744.90295
G0 F9000 X118.791 Y89.946
G1 F3600 X132.943 Y75.794 E745.56862
G0 F9000 X132.378 Y75.794
G1 F3600 X118.791 Y89.38 E746.20768
G0 F9000 X118.791 Y88.814
G1 F3600 X131.812 Y75.794 E746.82013
G0 F9000 X131.246 Y75.794
G1 F3600 X118.791 Y88.249 E747.40597
G0 F9000 X118.791 Y87.683
G1 F3600 X130.681 Y75.794 E747.96522
G0 F9000 X130.115 Y75.794
G1 F3600 X118.791 Y87.117 E748.49784
G0 F9000 X118.791 Y86.551
G1 F3600 X129.549 Y75.794 E749.00384
G0 F9000 X128.984 Y75.794
G1 F3600 X118.791 Y85.986 E749.48327
G0 F9000 X118.791 Y85.42
G1 F3600 X128.418 Y75.794 E749.93607
G0 F9000 X127.852 Y75.794
G1 F3600 X118.791 Y84.854 E750.36225
G0 F9000 X118.791 Y84.289
G1 F3600 X127.286 Y75.794 E750.76182
G0 F9000 X126.721 Y75.794
G1 F3600 X118.791 Y83.723 E751.1348
G0 F9000 X118.791 Y83.157
G1 F3600 X126.155 Y75.794 E751.48116
G0 F9000 X125.589 Y75.794
G1 F3600 X118.791 Y82.592 E751.80092
G0 F9000 X118.791 Y82.026
G1 F3600 X125.024 Y75.794 E752.09407
G0 F9000 X124.458 Y75.794
G1 F3600 X118.791 Y81.46 E752.36061
G0 F9000 X118.791 Y80.895
G1 F3600 X123.892 Y75.794 E752.60054
G0 F9000 X123.327 Y75.794
G1 F3600 X118.791 Y80.329 E752.81388
G0 F9000 X118.791 Y79.763
G1 F3600 X122.761 Y75.794 E753.00059
G0 F9000 X122.195 Y75.794
G1 F3600 X118.791 Y79.198 E753.16071
G0 F9000 X118.791 Y78.632
G1 F3600 X121.63 Y75.794 E753.29422
G0 F9000 X121.064 Y75.794
G1 F3600 X118.791 Y78.066 E753.40111
G0 F9000 X118.791 Y77.501
G1 F3600 X120.498 Y75.794 E753.48141
G0 F9000 X119.933 Y75.794
G1 F3600 X118.791 Y76.935 E753.5351
G0 F9000 X118.791 Y76.369
G1 F3600 X119.367 Y75.794 E753.56217
G0 F9000 X118.801 Y75.794
G1 F3600 X118.791 Y75.803 E753.56262
G1 F1800 E750.56262
G1 Z1.999
G0 F9000 X117.978 Y133.539
; TYPE:WALL-INNER
G1 Z1.499
G1 F1800 E753.56262
G1 F3600 X136.492 Y133.539 E754.17839
G1 X136.068 Y133.755 E754.19422
G1 X135.644 Y134.097 E754.21234
G1 X135.302 Y134.521 E754.23046
G1 X135.055 Y135.006 E754.24856
G1 X134.914 Y135.532 E754.26667
G1 X134.885 Y136.075 E754.28476
G1 X134.971 Y136.613 E754.30288
G1 X135.166 Y137.12 E754.32095
G1 X135.462 Y137.576 E754.33903
G1 X135.847 Y137.962 E754.35716
G1 X136.304 Y138.259 E754.37529
G1 X136.812 Y138.453 E754.39337
G1 X137.349 Y138.539 E754.41146
G1 X137.893 Y138.51 E754.42958
G1 X138.418 Y138.369 E754.44766
G1 X138.903 Y138.122 E754.46576
G1 X139.327 Y137.78 E754.48388
G1 X139.669 Y137.357 E754.50198
G1 X139.916 Y136.871 E754.52011
G1 X140.057 Y136.345 E754.53822
G1 X140.086 Y135.802 E754.55631
G1 X140 Y135.265 E754.57439
G1 X139.806 Y134.757 E754.59248
G1 X139.509 Y134.3 E754.61061
G1 X139.124 Y133.915 E754.62872
G1 X138.668 Y133.619 E754.6468
G1 X138.459 Y133.539 E754.65424
G1 X141.885 Y133.539 E754.76819
G1 X141.885 Y155.289 E755.4916
G1 X141.75 Y154.917 E755.50476
G1 X141.435 Y154.373 E755.52567
G1 X141.032 Y153.891 E755.54657
G1 X140.551 Y153.488 E755.56744
G1 X140.007 Y153.174 E755.58833
G1 X139.418 Y152.959 E755.60918
G1 X138.8 Y152.85 E755.63006
G1 X138.171 Y152.85 E755.65098
G1 X137.553 Y152.959 E755.67185
G1 X136.964 Y153.174 E755.6927
G1 X136.42 Y153.487 E755.71358
G1 X135.938 Y153.891 E755.7345
G1 X135.534 Y154.373 E755.75541
G1 X135.221 Y154.917 E755.77629
G1 X135.006 Y155.506 E755.79714
G1 X134.897 Y156.124 E755.81801
G1 X134.897 Y156.753 E755.83894
G1 X135.006 Y157.371 E755.85981
G1 X135.221 Y157.96 E755.88066
G1 X135.534 Y158.504 E755.90154
G1 X135.938 Y158.986 E755.92245
G1 X136.42 Y159.39 E755.94337
G1 X136.964 Y159.703 E755.96425
G1 X137.553 Y159.918 E755.9851
G1 X138.171 Y160.027 E756.00597
G1 X138.8 Y160.027 E756.02689
G1 X139.418 Y159.918 E756.04777
G1 X140.007 Y159.703 E756.06862
G1 X140.551 Y159.389 E756.08951
G1 X141.032 Y158.986 E756.11038
G1 X141.435 Y158.504 E756.13128
G1 X141.75 Y157.96 E756.15219
G1 X141.885 Y157.588 E756.16535
G1 X141.885 Y179.339 E756.88879
G1 X138.477 Y179.339 E757.00214
G1 X138.903 Y179.122 E757.01804
G1 X139.327 Y178.78 E757.03616
G1 X139.669 Y178.357 E757.05425
G1 X139.916 Y177.871 E757.07239
G1 X140.057 Y177.345 E757.0905
G1 X140.086 Y176.802 E757.10858
G1 X140 Y176.265 E757.12667
G1 X139.806 Y175.757 E757.14476
G1 X139.509 Y175.3 E757.16289
G1 X139.124 Y174.915 E757.181
G1 X138.668 Y174.619 E757.19908
G1 X138.159 Y174.424 E757.21721
G1 X137.622 Y174.338 E757.23529
G1 X137.079 Y174.367 E757.25338
G1 X136.553 Y174.508 E757.27149
G1 X136.068 Y174.755 E757.2896
G1 X135.644 Y175.097 E757.30771
G1 X135.302 Y175.521 E757.32583
G1 X135.055 Y176.006 E757.34393
G1 X134.914 Y176.532 E757.36205
G1 X134.885 Y177.075 E757.38013
G1 X134.971 Y177.613 E757.39825
G1 X135.166 Y178.12 E757.41632
G1 X135.462 Y178.576 E757.4344
G1 X135.847 Y178.962 E757.45254
G1 X136.304 Y179.259 E757.47066
G1 X136.513 Y179.339 E757.47811
G1 X117.978 Y179.339 E758.09458
G1 X117.978 Y133.899 E759.60592
G1 F1800 E756.60592
G1 Z1.999
G0 F9000 X117.878 Y133.539
G0 X121.424 Y157.04
G0 X121.424 Y157.04
G0 X121.433 Y156.935
G1 Z1.499
G1 F1800 E759.60592
G1 F3600 X120.919 Y157.052 E759.62346
G1 X120.443 Y157.281 E759.64103
G1 X120.032 Y157.61 E759.65854
G1 X119.703 Y158.021 E759.67605
G1 X119.474 Y158.497 E759.69361
G1 X119.357 Y159.011 E759.71115
G1 X119.357 Y159.537 E759.72864
G1 X119.474 Y160.051 E759.74618
G1 X119.703 Y160.527 E759.76374
G1 X120.032 Y160.938 E759.78125
G1 X120.443 Y161.267 E759.79876
G1 X120.919 Y161.496 E759.81633
G1 X121.433 Y161.613 E759.83387
G1 X121.959 Y161.613 E759.85136
G1 X122.473 Y161.496 E759.86889
G1 X122.949 Y161.267 E759.88646
G1 X123.36 Y160.938 E759.90397
G1 X123.689 Y160.527 E759.92148
G1 X123.918 Y160.051 E759.93905
G1 X124.035 Y159.537 E759.95659
G1 X124.035 Y159.011 E759.97408
G1 X123.918 Y158.497 E759.99161
G1 X123.689 Y158.021 E760.00918
G1 X123.36 Y157.61 E760.02669
G1 X122.949 Y157.281 E760.0442
G1 X122.473 Y157.052 E760.06177
G1 X121.959 Y156.935 E760.0793
G1 X121.793 Y156.935 E760.08482
G0 F9000 X121.478 Y157.335
; TYPE:WALL-OUTER
G1 F3000 X121.052 Y157.432 E760.09936
G1 X120.658 Y157.622 E760.1139
G1 X120.317 Y157.895 E760.12843
G1 X120.044 Y158.236 E760.14296
G1 X119.854 Y158.63 E760.15751
G1 X119.757 Y159.056 E760.17204
G1 X119.757 Y159.492 E760.18654
G1 X119.854 Y159.918 E760.20108
G1 X120.044 Y160.312 E760.21562
G1 X120.317 Y160.653 E760.23015
G1 X120.658 Y160.926 E760.24468
G1 X121.052 Y161.116 E760.25923
G1 X121.478 Y161.213 E760.27376
G1 X121.914 Y161.213 E760.28826
G1 X122.34 Y161.116 E760.30279
G1 X122.734 Y160.926 E760.31734
G1 X123.075 Y160.653 E760.33187
G1 X123.348 Y160.312 E760.3464
G1 X123.538 Y159.918 E760.36095
G1 X123.635 Y159.492 E760.37548
G1 X123.635 Y159.056 E760.38998
G1 X123.538 Y158.63 E760.40451
G1 X123.348 Y158.236 E760.41906
G1 X123.075 Y157.895 E760.43359
G1 X122.734 Y157.622 E760.44812
G1 X122.34 Y157.432 E760.46267
G1 X121.914 Y157.335 E760.4772
G1 X121.838 Y157.335 E760.47973
G0 F9000 X121.478 Y157.035
G0 X134.997 Y156.718
G0 X134.997 Y156.718
G0 X135.297 Y156.718
G1 F3000 X135.394 Y157.267 E760.49827
G1 X135.585 Y157.791 E760.51682
G1 X135.863 Y158.274 E760.53536
G1 X136.222 Y158.702 E760.55394
G1 X136.65 Y159.061 E760.57252
G1 X137.133 Y159.339 E760.59105
G1 X137.657 Y159.53 E760.6096
G1 X138.206 Y159.627 E760.62814
G1 X138.765 Y159.627 E760.64674
G1 X139.314 Y159.53 E760.66528
G1 X139.838 Y159.339 E760.68383
G1 X140.321 Y159.06 E760.70238
G1 X140.748 Y158.702 E760.72091
G1 X141.106 Y158.274 E760.73947
G1 X141.386 Y157.791 E760.75804
G1 X141.576 Y157.267 E760.77658
G1 X141.673 Y156.718 E760.79512
G1 X141.673 Y156.159 E760.81371
G1 X141.576 Y155.61 E760.83226
G1 X141.386 Y155.086 E760.8508
G1 X141.106 Y154.603 E760.86937
G1 X140.748 Y154.175 E760.88792
G1 X140.321 Y153.817 E760.90646
G1 X139.838 Y153.538 E760.92501
G1 X139.314 Y153.347 E760.94356
G1 X138.765 Y153.25 E760.9621
G1 X138.206 Y153.25 E760.98069
G1 X137.657 Y153.347 E760.99924
G1 X137.133 Y153.538 E761.01779
G1 X136.65 Y153.816 E761.03632
G1 X136.222 Y154.175 E761.0549
G1 X135.863 Y154.603 E761.07348
G1 X135.585 Y155.086 E761.09202
G1 X135.394 Y155.61 E761.11057
G1 X135.297 Y156.159 E761.12911
G1 X135.297 Y156.358 E761.13573
G0 F9000 X134.997 Y156.718
G0 X137.066 Y174.475
G0 X137.066 Y174.475
G0 X137.142 Y174.764
G1 F3000 X136.697 Y174.883 E761.15105
G1 X136.287 Y175.092 E761.16636
G1 X135.929 Y175.382 E761.18168
G1 X135.639 Y175.74 E761.197
G1 X135.43 Y176.15 E761.21231
G1 X135.311 Y176.595 E761.22763
G1 X135.287 Y177.054 E761.24292
G1 X135.36 Y177.508 E761.25821
G1 X135.525 Y177.937 E761.2735
G1 X135.775 Y178.323 E761.2888
G1 X136.1 Y178.649 E761.30411
G1 X136.487 Y178.9 E761.31945
G1 X136.916 Y179.064 E761.33472
G1 X137.37 Y179.137 E761.35002
G1 X137.83 Y179.113 E761.36534
G1 X138.274 Y178.994 E761.38063
G1 X138.684 Y178.785 E761.39593
G1 X139.042 Y178.495 E761.41126
G1 X139.332 Y178.138 E761.42655
G1 X139.541 Y177.727 E761.44189
G1 X139.66 Y177.282 E761.45721
G1 X139.684 Y176.823 E761.4725
G1 X139.611 Y176.369 E761.48779
G1 X139.447 Y175.94 E761.50307
G1 X139.196 Y175.553 E761.51841
G1 X138.871 Y175.228 E761.5337
G1 X138.485 Y174.978 E761.54899
G1 X138.055 Y174.813 E761.56431
G1 X137.601 Y174.74 E761.57961
G1 X137.502 Y174.745 E761.5829
G0 F9000 X137.066 Y174.475
G0 X137.012 Y174.42
G0 X138.666 Y174.621
G0 X139.805 Y175.759
G0 X141.985 Y179.529
G0 X142.285 Y179.739
G1 F3000 X117.578 Y179.739 E762.40466
G1 X117.578 Y133.139 E763.95458
G1 X142.285 Y133.139 E764.77634
G1 X142.285 Y179.379 E766.31429
G1 F1800 E763.31429
G1 Z1.999
G0 F9000 X141.985 Y179.529
G0 X140.015 Y159.678
G0 X141.434 Y158.503
G0 X142.072 Y156.752
G0 X137.906 Y138.402
G0 X137.83 Y138.113
G1 Z1.499
G1 F1800 E766.31429
G1 F3000 X138.274 Y137.994 E766.32958
G1 X138.684 Y137.785 E766.34488
G1 X139.042 Y137.495 E766.36021
G1 X139.332 Y137.138 E766.37551
G1 X139.541 Y136.727 E766.39084
G1 X139.66 Y136.282 E766.40616
G1 X139.684 Y135.823 E766.42145
G1 X139.611 Y135.369 E766.43674
G1 X139.447 Y134.94 E766.45202
G1 X139.196 Y134.553 E766.46736
G1 X138.871 Y134.228 E766.48265
G1 X138.485 Y133.978 E766.49794
G1 X138.055 Y133.813 E766.51326
G1 X137.601 Y133.74 E766.52856
G1 X137.142 Y133.764 E766.54384
G1 X136.697 Y133.883 E766.55917
G1 X136.287 Y134.092 E766.57447
G1 X135.929 Y134.382 E766.5898
G1 X135.639 Y134.74 E766.60512
G1 X135.43 Y135.15 E766.62043
G1 X135.311 Y135.595 E766.63575
G1 X135.287 Y136.054 E766.65103
G1 X135.36 Y136.508 E766.66633
G1 X135.525 Y136.937 E766.68162
G1 X135.775 Y137.323 E766.69691
G1 X136.1 Y137.649 E766.71222
G1 X136.487 Y137.9 E766.72756
G1 X136.916 Y138.064 E766.74284
G1 X137.37 Y138.137 E766.75813
G1 X137.47 Y138.132 E766.76146
G0 F9000 X137.991 Y138.628
; TYPE:FILL
G1 F3600 X118.117 Y158.502 E767.69628
G0 F9000 X118.117 Y159.067
G1 F3600 X138.91 Y138.275 E768.67429
G0 F9000 X139.824 Y137.361
G1 F3600 X141.744 Y135.441 E768.7646
G0 F9000 X141.744 Y134.875
G1 F3600 X140.174 Y136.446 E768.83847
G0 F9000 X140.224 Y135.83
G1 F3600 X141.744 Y134.309 E768.90999
G0 F9000 X141.744 Y133.744
G1 F3600 X140.152 Y135.335 E768.98485
G0 F9000 X139.908 Y135.579
G1 F3600 X139.753 Y135.452 E768.98982
G1 X139.796 Y135.126 E769.00075
G0 F9000 X140.013 Y134.909
G1 F3600 X141.243 Y133.679 E769.05861
G0 F9000 X140.678 Y133.679
G1 F3600 X139.825 Y134.532 E769.09873
G0 F9000 X139.623 Y134.734
G1 F3600 X139.424 Y134.649 E769.10282
G1 X139.5 Y134.29 E769.10694
G1 X139.83 Y133.678 E769.13104
G1 X139.218 Y134.008 E769.14186
G1 X138.913 Y134.029 E769.14585
G1 X138.563 Y133.814 E769.14995
G1 X138.106 Y133.705 E769.15428
G1 X137.966 Y133.279 E769.17136
G1 X137.234 Y133.445 E769.18702
G1 X136.646 Y133.751 E769.20907
G0 F9000 X135.587 Y133.678
G1 F3600 X118.117 Y151.148 E770.03081
G0 F9000 X118.117 Y150.582
G1 F3600 X135.022 Y133.678 E770.82594
G0 F9000 X134.456 Y133.678
G1 F3600 X118.117 Y150.016 E771.59445
G0 F9000 X118.117 Y149.451
G1 F3600 X133.89 Y133.678 E772.33637
G0 F9000 X133.324 Y133.678
G1 F3600 X118.117 Y148.885 E773.05166
G0 F9000 X118.117 Y148.319
G1 F3600 X132.759 Y133.678 E773.74035
G0 F9000 X132.193 Y133.678
G1 F3600 X118.117 Y147.754 E774.40244
G0 F9000 X118.117 Y147.188
G1 F3600 X131.627 Y133.678 E775.03791
G0 F9000 X131.062 Y133.678
G1 F3600 X118.117 Y146.622 E775.64678
G0 F9000 X118.117 Y146.057
G1 F3600 X130.496 Y133.678 E776.22905
G0 F9000 X129.93 Y133.678
G1 F3600 X118.117 Y145.491 E776.7847
G0 F9000 X118.117 Y144.925
G1 F3600 X129.365 Y133.678 E777.31375
G0 F9000 X128.799 Y133.678
G1 F3600 X118.117 Y144.36 E777.81619
G0 F9000 X118.117 Y143.794
G1 F3600 X128.233 Y133.678 E778.29202
G0 F9000 X127.668 Y133.678
G1 F3600 X118.117 Y143.228 E778.74125
G0 F9000 X118.117 Y142.663
G1 F3600 X127.102 Y133.678 E779.16387
G0 F9000 X126.536 Y133.678
G1 F3600 X118.117 Y142.097 E779.55988
G0 F9000 X118.117 Y141.531
G1 F3600 X125.971 Y133.678 E779.92928
G0 F9000 X125.405 Y133.678
G1 F3600 X118.117 Y140.965 E780.27206
G0 F9000 X118.117 Y140.4
G1 F3600 X124.839 Y133.678 E780.58825
G0 F9000 X124.274 Y133.678
G1 F3600 X118.117 Y139.834 E780.87783
G0 F9000 X118.117 Y139.268
G1 F3600 X123.708 Y133.678 E781.14079
G0 F9000 X123.142 Y133.678
G1 F3600 X118.117 Y138.703 E781.37715
G0 F9000 X118.117 Y138.137
G1 F3600 X122.576 Y133.678 E781.58689
G0 F9000 X122.011 Y133.678
G1 F3600 X118.117 Y137.571 E781.77003
G0 F9000 X118.117 Y137.006
G1 F3600 X121.445 Y133.678 E781.92656
G0 F9000 X120.879 Y133.678
G1 F3600 X118.117 Y136.44 E782.05648
G0 F9000 X118.117 Y135.874
G1 F3600 X120.314 Y133.678 E782.1598
G0 F9000 X119.748 Y133.678
G1 F3600 X118.117 Y135.309 E782.23651
G0 F9000 X118.117 Y134.743
G1 F3600 X119.182 Y133.678 E782.28661
G0 F9000 X118.617 Y133.678
G1 F3600 X118.117 Y134.177 E782.3101
G0 F9000 X117.878 Y134.177
G0 X135.009 Y135.641
G0 X135.009 Y135.641
G0 X134.768 Y135.628
G1 F3600 X118.117 Y152.279 E783.09332
G0 F9000 X118.117 Y151.714
G1 F3600 X134.969 Y134.862 E783.88598
G0 F9000 X134.763 Y136.2
G1 F3600 X118.117 Y152.845 E784.66893
G0 F9000 X118.117 Y153.411
G1 F3600 X134.848 Y136.68 E785.45591
G0 F9000 X135.004 Y137.09
G1 F3600 X118.117 Y153.976 E786.2502
G0 F9000 X118.117 Y154.542
G1 F3600 X135.212 Y137.448 E787.05427
G0 F9000 X135.457 Y137.768
G1 F3600 X118.117 Y155.108 E787.86989
G0 F9000 X118.117 Y155.673
G1 F3600 X135.739 Y138.051 E788.69878
G0 F9000 X136.078 Y138.278
G1 F3600 X118.117 Y156.239 E789.54361
G0 F9000 X118.117 Y156.805
G1 F3600 X136.456 Y138.466 E790.40622
G0 F9000 X136.883 Y138.605
G1 F3600 X118.117 Y157.37 E791.28889
G0 F9000 X118.117 Y157.936
G1 F3600 X137.377 Y138.677 E792.1948
G0 F9000 X137.375 Y138.438
G0 X141.744 Y138.835
G0 X141.744 Y138.835
G1 F3600 X123.243 Y157.336 E793.06503
G0 F9000 X123.537 Y157.608
G1 F3600 X141.744 Y139.401 E793.92143
G0 F9000 X141.744 Y139.966
G1 F3600 X123.788 Y157.922 E794.76602
G0 F9000 X123.978 Y158.298
G1 F3600 X141.744 Y140.532 E795.60168
G0 F9000 X141.744 Y141.098
G1 F3600 X124.114 Y158.728 E796.43094
G0 F9000 X124.175 Y159.233
G1 F3600 X141.744 Y141.663 E797.25736
G0 F9000 X141.744 Y142.229
G1 F3600 X124.101 Y159.872 E798.08723
G0 F9000 X123.867 Y159.82
G0 X123.876 Y159.81
G0 X123.359 Y160.937
G0 X122.241 Y161.446
G0 X122.295 Y161.678
G1 F3600 X118.117 Y165.856 E798.28375
G0 F9000 X118.117 Y166.421
G1 F3600 X141.744 Y142.795 E799.39507
G0 F9000 X141.744 Y143.36
G1 F3600 X118.117 Y166.987 E800.50641
G0 F9000 X118.117 Y167.553
G1 F3600 X141.744 Y143.926 E801.61775
G0 F9000 X141.744 Y144.492
G1 F3600 X118.117 Y168.118 E802.72907
G0 F9000 X118.117 Y168.684
G1 F3600 X141.744 Y145.058 E803.84039
G0 F9000 X141.744 Y145.623
G1 F3600 X118.117 Y169.25 E804.95173
G0 F9000 X118.117 Y169.815
G1 F3600 X141.744 Y146.189 E806.06305
G0 F9000 X141.744 Y146.755
G1 F3600 X118.117 Y170.381 E807.17437
G0 F9000 X118.117 Y170.947
G1 F3600 X141.744 Y147.32 E808.28571
G0 F9000 X141.744 Y147.886
G1 F3600 X118.117 Y171.512 E809.39703
G0 F9000 X118.117 Y172.078
G1 F3600 X134.952 Y155.244 E810.18887
G0 F9000 X134.779 Y155.982
G1 F3600 X118.117 Y172.644 E810.9726
G0 F9000 X118.117 Y173.21
G1 F3600 X134.756 Y156.571 E811.75525
G0 F9000 X134.812 Y157.08
G1 F3600 X118.117 Y173.775 E812.54053
G0 F9000 X118.117 Y174.341
G1 F3600 X134.918 Y157.54 E813.3308
G0 F9000 X135.07 Y157.954
