; Generated with MatterSlice 1.0
; filamentDiameter = 1.75
; extrusionWidth = 0.5
; firstLayerExtrusionWidth = 0.55
; layerThickness = 0.2
; firstLayerThickness = 0.3
; automatic settings before start_gcode
G21 ; set units to millimeters
M107 ; fan off
T0 ; set the active extruder to 0
; settings from start_gcode
M104 S215
M190 S60
M109 S215
G28
; automatic settings after start_gcode
T0 ; set the active extruder to 0
G90 ; use absolute coordinates
G92 E0 ; reset the expected extruder position
M82 ; use absolute distance for extrusion
; Layer count: 345
; Layer Change GCode
; LAYER:0
M400
M107
G0 F12000 X45.15 Y36.332 Z0.65
; TYPE:SKIRT
G1 Z0.35
G1 F6600 E0
G1 F600 X-45.149 Y36.332 E6.19442
G1 X-45.149 Y-36.33 E11.17897
G1 X45.15 Y-36.33 E17.37339
G1 X45.15 Y36.332 E22.35793
G0 F12000 X44.6 Y35.782
G1 F600 X-44.599 Y35.782 E28.4769
G1 X-44.599 Y-35.78 E33.38598
G1 X44.6 Y-35.78 E39.50495
G1 X44.6 Y35.782 E44.41403
G0 F12000 X44.05 Y35.232
G1 F600 X-44.049 Y35.232 E50.45754
G1 X-44.049 Y-35.23 E55.29116
G1 X44.05 Y-35.23 E61.33467
G1 X44.05 Y35.232 E66.16829
G0 F12000 X43.5 Y34.682
G1 F600 X-43.499 Y34.682 E72.13634
G1 X-43.499 Y-34.68 E76.8945
G1 X43.5 Y-34.68 E82.86255
G1 X43.5 Y34.682 E87.62072
G0 F12000 X40.225 Y31.407
G1 F600 X-40.224 Y31.407 E93.13944
G1 X-40.224 Y-31.405 E97.44828
G1 X16.225 Y-31.405 E101.32063
G1 X16.225 Y-21.405 E102.00662
G1 X19.775 Y-21.405 E102.25014
G1 X19.775 Y-31.405 E102.93614
G1 X40.225 Y-31.405 E104.33899
G1 X40.225 Y31.407 E108.64783
G0 F12000 X39.675 Y30.857
G1 F600 X-39.674 Y30.857 E114.09109
G1 X-39.674 Y-30.855 E118.32447
G1 X15.675 Y-30.855 E122.12136
G1 X15.675 Y-20.855 E122.80735
G1 X20.325 Y-20.855 E123.12634
G1 X20.325 Y-30.855 E123.81233
G1 X39.675 Y-30.855 E125.13972
G1 X39.675 Y30.857 E129.3731
G0 F12000 X39.125 Y30.307
G1 F600 X-39.124 Y30.307 E134.74091
G1 X-39.124 Y-30.305 E138.89883
G1 X15.125 Y-30.305 E142.62026
G1 X15.125 Y-20.305 E143.30625
G1 X20.875 Y-20.305 E143.7007
G1 X20.875 Y-30.305 E144.38669
G1 X39.125 Y-30.305 E145.63862
G1 X39.125 Y30.307 E149.79654
G0 F12000 X38.575 Y29.757
G1 F600 X-38.574 Y29.757 E155.08889
G1 X-38.574 Y-29.755 E159.17135
G1 X14.575 Y-29.755 E162.81732
G1 X14.575 Y-19.755 E163.50331
G1 X21.425 Y-19.755 E163.97322
G1 X21.425 Y-29.755 E164.65921
G1 X38.575 Y-29.755 E165.83568
G1 X38.575 Y29.757 E169.91815
G0 F12000 X38.025 Y29.207
G1 F600 X-38.024 Y29.207 E175.13503
G1 X-38.024 Y-29.205 E179.14204
G1 X14.025 Y-29.205 E182.71255
G1 X14.025 Y-19.205 E183.39854
G1 X21.975 Y-19.205 E183.9439
G1 X21.975 Y-29.205 E184.62989
G1 X38.025 Y-29.205 E185.73091
G1 X38.025 Y29.207 E189.73792
G0 F12000 X37.475 Y28.657
G1 F600 X-37.474 Y28.657 E194.87934
G1 X-37.474 Y-28.655 E198.81089
G1 X13.475 Y-28.655 E202.30594
G1 X13.475 Y-18.655 E202.99193
G1 X22.525 Y-18.655 E203.61276
G1 X22.525 Y-28.655 E204.29875
G1 X37.475 Y-28.655 E205.3243
G1 X37.475 Y28.657 E209.25585
G0 F12000 X36.925 Y28.107
G1 F600 X-36.924 Y28.107 E214.32182
G1 X-36.924 Y-28.105 E218.17791
G1 X12.925 Y-28.105 E221.5975
G1 X12.925 Y-18.105 E222.28349
G1 X23.075 Y-18.105 E222.97977
G1 X23.075 Y-28.105 E223.66576
G1 X36.925 Y-28.105 E224.61586
G1 X36.925 Y28.107 E228.47195
G0 F12000 X36.375 Y27.557
G1 F600 X-36.374 Y27.557 E233.46246
G1 X-36.374 Y-27.555 E237.24309
G1 X12.375 Y-27.555 E240.58722
G1 X12.375 Y-17.555 E241.27321
G1 X23.625 Y-17.555 E242.04495
G1 X23.625 Y-27.555 E242.73094
G1 X36.375 Y-27.555 E243.60558
G1 X36.375 Y27.557 E247.38621
G0 F12000 X35.825 Y27.007
G1 F600 X-35.824 Y27.007 E252.30126
G1 X-35.824 Y-27.005 E256.00643
G1 X11.825 Y-27.005 E259.2751
G1 X11.825 Y-17.005 E259.96109
G1 X24.175 Y-17.005 E260.80829
G1 X24.175 Y-27.005 E261.49428
G1 X35.825 Y-27.005 E262.29346
G1 X35.825 Y27.007 E265.99863
G0 F12000 X35.275 Y26.457
G1 F600 X-35.274 Y26.457 E270.83823
G1 X-35.274 Y-26.455 E274.46794
G1 X11.275 Y-26.455 E277.66115
G1 X11.275 Y-16.455 E278.34714
G1 X24.725 Y-16.455 E279.2698
G1 X24.725 Y-26.455 E279.95579
G1 X35.275 Y-26.455 E280.67951
G1 X35.275 Y26.457 E284.30922
G1 F6600 E280.30922
G1 Z0.65
G0 F12000 X35 Y26.182
G0 X34.175 Y25.357
G0 X10.725 Y-15.355
G0 X10.725 Y-15.905
; TYPE:WALL-OUTER
G1 Z0.35
G1 F6600 E284.40922
G1 F600 X25.275 Y-15.905 E285.40734
G1 X25.275 Y-25.905 E286.09333
G1 X34.725 Y-25.905 E286.74159
G1 X34.725 Y25.907 E290.29584
G1 X-34.724 Y25.907 E295.05998
G1 X-34.724 Y-25.905 E298.61423
G1 X10.725 Y-25.905 E301.73199
G1 X10.725 Y-15.905 E302.41798
G0 F12000 X10.725 Y-15.355
G0 X10.175 Y-15.355
; TYPE:WALL-INNER
G1 F600 X25.825 Y-15.355 E303.49155
G1 X25.825 Y-25.355 E304.17754
G1 X34.175 Y-25.355 E304.75034
G1 X34.175 Y25.357 E308.22914
G1 X-34.174 Y25.357 E312.91781
G1 X-34.174 Y-25.355 E316.39661
G1 X10.175 Y-25.355 E319.4389
G1 X10.175 Y-15.355 E320.1249
G0 F12000 X9.625 Y-14.805
G1 F600 X26.375 Y-14.805 E321.27393
G1 X26.375 Y-19.393 E321.58866
G0 F12000 X26.407 Y-19.393
G1 F600 X26.375 Y-19.569 E321.60093
G0 F12000 X26.439 Y-19.393
G1 F600 X26.947 Y-18.619 E321.66444
G1 X27.62 Y-17.985 E321.72787
G1 X28.422 Y-17.522 E321.7914
G1 X29.308 Y-17.257 E321.85483
G1 X30.232 Y-17.203 E321.91833
G1 X31.142 Y-17.364 E321.98172
G1 X31.992 Y-17.73 E322.04521
G1 X32.734 Y-18.282 E322.10865
G1 X33.329 Y-18.991 E322.17214
G0 F12000 X33.477 Y-18.991
G1 F600 X33.625 Y-19.581 E322.21387
G0 F12000 X33.625 Y-18.991
G1 F600 X33.625 Y-6.781 E323.05146
G0 F12000 X33.477 Y-6.781
G1 F600 X33.625 Y-6.191 E323.09319
G0 F12000 X33.329 Y-6.781
G1 F600 X32.734 Y-7.49 E323.15669
G1 X31.992 Y-8.042 E323.22013
G1 X31.142 Y-8.408 E323.28361
G1 X30.232 Y-8.569 E323.34701
G1 X29.308 Y-8.515 E323.4105
G1 X28.422 Y-8.25 E323.47394
G1 X27.62 Y-7.787 E323.53747
G1 X26.947 Y-7.153 E323.60089
G1 X26.439 Y-6.379 E323.6644
G1 X26.123 Y-5.51 E323.72783
G1 X26.016 Y-4.591 E323.7913
G1 X26.123 Y-3.673 E323.8547
G1 X26.439 Y-2.804 E323.91813
G1 X26.947 Y-2.03 E323.98164
G1 X27.62 Y-1.396 E324.04507
G1 X28.422 Y-0.933 E324.1086
G1 X29.308 Y-0.668 E324.17204
G1 X30.232 Y-0.614 E324.23553
G1 X31.142 Y-0.775 E324.29892
G1 X31.992 Y-1.141 E324.36241
G1 X32.734 Y-1.693 E324.42585
G1 X33.329 Y-2.402 E324.48934
G0 F12000 X33.477 Y-2.402
G1 F600 X33.625 Y-2.992 E324.53107
G0 F12000 X33.625 Y-2.402
G1 F600 X33.625 Y24.807 E326.39758
G1 X-33.624 Y24.807 E331.0108
G1 X-33.624 Y-2.804 E332.90489
G0 F12000 X-33.592 Y-2.804
G1 F600 X-33.624 Y-2.98 E332.91716
G0 F12000 X-33.56 Y-2.804
G1 F600 X-33.052 Y-2.03 E332.98067
G1 X-32.379 Y-1.396 E333.0441
G1 X-31.577 Y-0.933 E333.10762
G1 X-30.691 Y-0.668 E333.17106
G1 X-29.767 Y-0.614 E333.23455
G1 X-28.857 Y-0.775 E333.29795
G1 X-28.007 Y-1.141 E333.36143
G1 X-27.265 Y-1.693 E333.42487
G1 X-26.67 Y-2.402 E333.48837
G1 X-26.255 Y-3.229 E333.55184
G1 X-26.042 Y-4.13 E333.61535
G1 X-26.042 Y-5.053 E333.67867
G1 X-26.255 Y-5.954 E333.74218
G1 X-26.67 Y-6.781 E333.80566
G1 X-27.265 Y-7.49 E333.86915
G1 X-28.007 Y-8.042 E333.93259
G1 X-28.857 Y-8.408 E333.99608
G1 X-29.767 Y-8.569 E334.05947
G1 X-30.691 Y-8.515 E334.12296
G1 X-31.577 Y-8.25 E334.1864
G1 X-32.379 Y-7.787 E334.24993
G1 X-33.052 Y-7.153 E334.31336
G1 X-33.56 Y-6.379 E334.37687
G0 F12000 X-33.592 Y-6.379
G1 F600 X-33.624 Y-6.203 E334.38914
G0 F12000 X-33.624 Y-6.379
G1 F600 X-33.624 Y-19.393 E335.28189
G0 F12000 X-33.592 Y-19.393
G1 F600 X-33.624 Y-19.569 E335.29416
G0 F12000 X-33.56 Y-19.393
G1 F600 X-33.052 Y-18.619 E335.35767
G1 X-32.379 Y-17.985 E335.42109
G1 X-31.577 Y-17.522 E335.48462
G1 X-30.691 Y-17.257 E335.54806
G1 X-29.767 Y-17.203 E335.61155
G1 X-28.857 Y-17.364 E335.67495
G1 X-28.007 Y-17.73 E335.73843
G1 X-27.265 Y-18.282 E335.80187
G1 X-26.67 Y-18.991 E335.86537
G1 X-26.255 Y-19.818 E335.92884
G1 X-26.042 Y-20.719 E335.99235
G1 X-26.042 Y-21.642 E336.05567
G1 X-26.255 Y-22.543 E336.11918
G1 X-26.67 Y-23.37 E336.18265
G1 X-27.265 Y-24.079 E336.24615
G1 X-28.007 Y-24.631 E336.30959
G0 F12000 X-28.007 Y-24.718
G1 F600 X-28.411 Y-24.805 E336.33794
G0 F12000 X-28.007 Y-24.805
G1 F600 X9.625 Y-24.805 E338.91946
G1 X9.625 Y-14.805 E339.60545
G1 F6600 E335.60545
G1 Z0.65
G0 F12000 X25.825 Y-15.355
G0 X30.136 Y-17.76
G0 X30.167 Y-18.309
; TYPE:WALL-OUTER
G1 Z0.35
G1 F6600 E339.70545
G1 F600 X30.824 Y-18.425 E339.75121
G1 X31.438 Y-18.689 E339.79706
G1 X31.974 Y-19.088 E339.8429
G1 X32.403 Y-19.6 E339.88872
G1 X32.703 Y-20.196 E339.9345
G1 X32.857 Y-20.847 E339.98039
G1 X32.857 Y-21.514 E340.02614
G1 X32.703 Y-22.165 E340.07203
G1 X32.403 Y-22.761 E340.1178
G1 X31.974 Y-23.273 E340.16363
G1 X31.438 Y-23.672 E340.20946
G1 X30.824 Y-23.936 E340.25531
G1 X30.167 Y-24.052 E340.30108
G1 X29.5 Y-24.014 E340.34691
G1 X28.86 Y-23.822 E340.39275
G1 X28.282 Y-23.488 E340.43854
G1 X27.796 Y-23.03 E340.48435
G1 X27.429 Y-22.471 E340.53022
G1 X27.201 Y-21.844 E340.57599
G1 X27.123 Y-21.18 E340.62185
G1 X27.201 Y-20.517 E340.66765
G1 X27.429 Y-19.89 E340.71341
G1 X27.796 Y-19.331 E340.75929
G1 X28.282 Y-18.873 E340.8051
G1 X28.86 Y-18.539 E340.85089
G1 X29.5 Y-18.347 E340.89673
G1 X30.167 Y-18.309 E340.94256
G0 F12000 X30.136 Y-17.76
G0 X30.2 Y-17.756
; TYPE:WALL-INNER
G1 F600 X30.983 Y-17.894 E340.9971
G1 X31.715 Y-18.209 E341.05177
G1 X32.354 Y-18.685 E341.10643
G1 X32.866 Y-19.296 E341.16111
G1 X33.224 Y-20.007 E341.21572
G1 X33.407 Y-20.783 E341.27041
G1 X33.407 Y-21.578 E341.32495
G1 X33.224 Y-22.354 E341.37964
G1 X32.866 Y-23.065 E341.43425
G1 X32.354 Y-23.676 E341.48893
G1 X31.715 Y-24.152 E341.54359
G1 X30.983 Y-24.467 E341.59826
G1 X30.2 Y-24.605 E341.6528
G1 X29.404 Y-24.559 E341.7075
G1 X28.641 Y-24.331 E341.76212
G1 X27.951 Y-23.932 E341.8168
G1 X27.372 Y-23.386 E341.8714
G1 X26.934 Y-22.719 E341.92613
G1 X26.662 Y-21.971 E341.98073
G1 X26.569 Y-21.18 E342.03537
G1 X26.662 Y-20.39 E342.08994
G1 X26.934 Y-19.642 E342.14454
G1 X27.372 Y-18.975 E342.19927
G1 X27.951 Y-18.429 E342.25387
G1 X28.641 Y-18.03 E342.30855
G1 X29.404 Y-17.802 E342.36317
G1 X30.2 Y-17.756 E342.41787
G0 F12000 X33.224 Y-5.765
G0 X33.407 Y-4.989
G0 X33.407 Y-4.194
G0 X33.224 Y-3.418
G0 X32.866 Y-2.707
G0 X32.354 Y-2.096
G0 X31.715 Y-1.62
G0 X30.983 Y-1.305
G0 X30.2 Y-1.167
G0 X30.136 Y-1.171
G0 X30.167 Y-1.72
; TYPE:WALL-OUTER
G1 F600 X30.824 Y-1.836 E342.46364
G1 X31.438 Y-2.1 E342.50948
G1 X31.974 Y-2.499 E342.55532
G1 X32.403 Y-3.011 E342.60114
G1 X32.703 Y-3.607 E342.64692
G1 X32.857 Y-4.258 E342.69281
G1 X32.857 Y-4.925 E342.73856
G1 X32.703 Y-5.576 E342.78445
G1 X32.403 Y-6.172 E342.83023
G1 X31.974 Y-6.684 E342.87605
G1 X31.438 Y-7.083 E342.92189
G1 X30.824 Y-7.347 E342.96773
G1 X30.167 Y-7.463 E343.0135
G1 X29.5 Y-7.425 E343.05933
G1 X28.86 Y-7.233 E343.10517
G1 X28.282 Y-6.899 E343.15096
G1 X27.796 Y-6.441 E343.19677
G1 X27.429 Y-5.882 E343.24264
G1 X27.201 Y-5.255 E343.28841
G1 X27.123 Y-4.591 E343.33427
G1 X27.201 Y-3.928 E343.38007
G1 X27.429 Y-3.301 E343.42584
G1 X27.796 Y-2.742 E343.47171
G1 X28.282 Y-2.284 E343.51752
G1 X28.86 Y-1.95 E343.56331
G1 X29.5 Y-1.758 E343.60915
G1 X30.167 Y-1.72 E343.65498
G0 F12000 X30.136 Y-1.171
G0 X30.2 Y-1.167
; TYPE:WALL-INNER
G1 F600 X30.983 Y-1.305 E343.70952
G1 X31.715 Y-1.62 E343.76419
G1 X32.354 Y-2.096 E343.81885
G1 X32.866 Y-2.707 E343.87353
G1 X33.224 Y-3.418 E343.92814
G1 X33.407 Y-4.194 E343.98283
G1 X33.407 Y-4.989 E344.03737
G1 X33.224 Y-5.765 E344.09206
G1 X32.866 Y-6.476 E344.14667
G1 X32.354 Y-7.087 E344.20135
G1 X31.715 Y-7.563 E344.25601
G1 X30.983 Y-7.878 E344.31068
G1 X30.2 Y-8.016 E344.36522
G1 X29.404 Y-7.97 E344.41992
G1 X28.641 Y-7.742 E344.47455
G1 X27.951 Y-7.343 E344.52922
G1 X27.372 Y-6.797 E344.58382
G1 X26.934 Y-6.13 E344.63856
G1 X26.662 Y-5.382 E344.69316
G1 X26.569 Y-4.591 E344.74779
G1 X26.662 Y-3.801 E344.80236
G1 X26.934 Y-3.053 E344.85696
G1 X27.372 Y-2.386 E344.9117
G1 X27.951 Y-1.84 E344.96629
G1 X28.641 Y-1.441 E345.02097
G1 X29.404 Y-1.213 E345.0756
G1 X30.2 Y-1.167 E345.13029
G1 F6600 E341.13029
G1 Z0.65
G0 F12000 X-29.799 Y-1.167
G0 X-29.863 Y-1.171
G0 X-29.832 Y-1.72
; TYPE:WALL-OUTER
G1 Z0.35
G1 F6600 E345.23029
G1 F600 X-29.175 Y-1.836 E345.27606
G1 X-28.561 Y-2.1 E345.32191
G1 X-28.025 Y-2.499 E345.36774
G1 X-27.596 Y-3.011 E345.41357
G1 X-27.296 Y-3.607 E345.45934
G1 X-27.142 Y-4.258 E345.50523
G1 X-27.142 Y-4.925 E345.55099
G1 X-27.296 Y-5.576 E345.59688
G1 X-27.596 Y-6.172 E345.64265
G1 X-28.025 Y-6.684 E345.68847
G1 X-28.561 Y-7.083 E345.73431
G1 X-29.175 Y-7.347 E345.78016
G1 X-29.832 Y-7.463 E345.82592
G1 X-30.499 Y-7.425 E345.87175
G1 X-31.139 Y-7.233 E345.91759
G1 X-31.717 Y-6.899 E345.96338
G1 X-32.203 Y-6.441 E346.00919
G1 X-32.57 Y-5.882 E346.05507
G1 X-32.798 Y-5.255 E346.10083
G1 X-32.876 Y-4.591 E346.1467
G1 X-32.798 Y-3.928 E346.19249
G1 X-32.57 Y-3.301 E346.23826
G1 X-32.203 Y-2.742 E346.28413
G1 X-31.717 Y-2.284 E346.32994
G1 X-31.139 Y-1.95 E346.37574
G1 X-30.499 Y-1.758 E346.42157
G1 X-29.832 Y-1.72 E346.4674
G0 F12000 X-29.863 Y-1.171
G0 X-29.799 Y-1.167
; TYPE:WALL-INNER
G1 F600 X-29.016 Y-1.305 E346.52194
G1 X-28.284 Y-1.62 E346.57661
G1 X-27.645 Y-2.096 E346.63127
G1 X-27.133 Y-2.707 E346.68595
G1 X-26.775 Y-3.418 E346.74056
G1 X-26.592 Y-4.194 E346.79526
G1 X-26.592 Y-4.989 E346.84979
G1 X-26.775 Y-5.765 E346.90448
G1 X-27.133 Y-6.476 E346.95909
G1 X-27.645 Y-7.087 E347.01378
G1 X-28.284 Y-7.563 E347.06844
G1 X-29.016 Y-7.878 E347.1231
G1 X-29.799 Y-8.016 E347.17764
G1 X-30.595 Y-7.97 E347.23234
G1 X-31.358 Y-7.742 E347.28697
G1 X-32.048 Y-7.343 E347.34165
G1 X-32.627 Y-6.797 E347.39624
G1 X-33.065 Y-6.13 E347.45098
G1 X-33.337 Y-5.382 E347.50558
G1 X-33.43 Y-4.591 E347.56021
G1 X-33.337 Y-3.801 E347.61478
G1 X-33.065 Y-3.053 E347.66938
G1 X-32.627 Y-2.386 E347.72412
G1 X-32.048 Y-1.84 E347.77871
G1 X-31.358 Y-1.441 E347.83339
G1 X-30.595 Y-1.213 E347.88802
G1 X-29.799 Y-1.167 E347.94271
G0 F12000 X-29.016 Y-1.305
G0 X-28.284 Y-1.62
G0 X-27.645 Y-2.096
G0 X-27.133 Y-2.707
G0 X-26.775 Y-3.418
G0 X-26.592 Y-4.194
G0 X-26.592 Y-4.989
G0 X-26.775 Y-5.765
G0 X-29.863 Y-17.76
G0 X-29.832 Y-18.309
; TYPE:WALL-OUTER
G1 F600 X-29.175 Y-18.425 E347.98848
G1 X-28.561 Y-18.689 E348.03433
G1 X-28.025 Y-19.088 E348.08017
G1 X-27.596 Y-19.6 E348.12599
G1 X-27.296 Y-20.196 E348.17176
G1 X-27.142 Y-20.847 E348.21765
G1 X-27.142 Y-21.514 E348.26341
G1 X-27.296 Y-22.165 E348.3093
G1 X-27.596 Y-22.761 E348.35507
G1 X-28.025 Y-23.273 E348.40089
G1 X-28.561 Y-23.672 E348.44673
G1 X-29.175 Y-23.936 E348.49258
G1 X-29.832 Y-24.052 E348.53835
G1 X-30.499 Y-24.014 E348.58417
G1 X-31.139 Y-23.822 E348.63001
G1 X-31.717 Y-23.488 E348.67581
G1 X-32.203 Y-23.03 E348.72162
G1 X-32.57 Y-22.471 E348.76749
G1 X-32.798 Y-21.844 E348.81326
G1 X-32.876 Y-21.18 E348.85912
G1 X-32.798 Y-20.517 E348.90491
G1 X-32.57 Y-19.89 E348.95068
G1 X-32.203 Y-19.331 E348.99655
G1 X-31.717 Y-18.873 E349.04236
G1 X-31.139 Y-18.539 E349.08816
G1 X-30.499 Y-18.347 E349.13399
G1 X-29.832 Y-18.309 E349.17982
G0 F12000 X-29.863 Y-17.76
G0 X-29.799 Y-17.756
; TYPE:WALL-INNER
G1 F600 X-29.016 Y-17.894 E349.23437
G1 X-28.284 Y-18.209 E349.28903
G1 X-27.645 Y-18.685 E349.34369
G1 X-27.133 Y-19.296 E349.39838
G1 X-26.775 Y-20.007 E349.45298
G1 X-26.592 Y-20.783 E349.50768
G1 X-26.592 Y-21.578 E349.56221
G1 X-26.775 Y-22.354 E349.61691
G1 X-27.133 Y-23.065 E349.67151
G1 X-27.645 Y-23.676 E349.7262
G1 X-28.284 Y-24.152 E349.78086
G1 X-29.016 Y-24.467 E349.83553
G1 X-29.799 Y-24.605 E349.89007
G1 X-30.595 Y-24.559 E349.94476
G1 X-31.358 Y-24.331 E349.99939
G1 X-32.048 Y-23.932 E350.05407
G1 X-32.627 Y-23.386 E350.10866
G1 X-33.065 Y-22.719 E350.1634
G1 X-33.337 Y-21.971 E350.218
G1 X-33.43 Y-21.18 E350.27263
G1 X-33.337 Y-20.39 E350.3272
G1 X-33.065 Y-19.642 E350.3818
G1 X-32.627 Y-18.975 E350.43654
G1 X-32.048 Y-18.429 E350.49113
G1 X-31.358 Y-18.03 E350.54581
G1 X-30.595 Y-17.802 E350.60044
G1 X-29.799 Y-17.756 E350.65514
G0 F12000 X-30.595 Y-17.802
G0 X-31.358 Y-18.03
G0 X-32.048 Y-18.429
G0 X-32.627 Y-18.975
G0 X-33.065 Y-19.642
G0 X-33.337 Y-20.39
G0 X-33.624 Y-22.792
G1 F600 X-33.592 Y-22.968 E350.66741
G0 F12000 X-33.624 Y-22.968
G1 F600 X-33.624 Y-24.805 E350.79342
G1 X-32.379 Y-24.805 E350.87883
G0 F12000 X-32.379 Y-24.59
G1 F600 X-31.636 Y-24.805 E350.93189
G0 F12000 X-32.379 Y-24.376
G1 F600 X-33.052 Y-23.742 E350.99532
G1 X-33.56 Y-22.968 E351.05883
G1 F6600 E347.05883
G1 Z0.65
G0 F12000 X-32.048 Y-23.932
G0 X-31.358 Y-24.331
G0 X-30.595 Y-24.559
G0 X-29.799 Y-24.605
G0 X10.175 Y-22.968
G0 X10.175 Y-15.355
G0 X25.825 Y-15.355
G0 X26.375 Y-22.968
G1 Z0.35
G1 F6600 E351.15883
G1 F600 X26.375 Y-24.805 E351.28484
G1 X27.62 Y-24.805 E351.37025
G0 F12000 X27.62 Y-24.59
G1 F600 X28.363 Y-24.805 E351.42331
G0 F12000 X27.62 Y-24.376
G1 F600 X26.947 Y-23.742 E351.48674
G1 X26.439 Y-22.968 E351.55025
G0 F12000 X26.407 Y-22.968
G1 F600 X26.375 Y-22.792 E351.56252
G0 F12000 X27.951 Y-23.932
G0 X28.641 Y-24.331
G0 X29.404 Y-24.559
G0 X31.588 Y-24.805
G1 F600 X31.992 Y-24.718 E351.59087
G0 F12000 X31.992 Y-24.805
G1 F600 X33.625 Y-24.805 E351.70289
G1 X33.625 Y-23.37 E351.80133
G0 F12000 X33.477 Y-23.37
G1 F600 X33.625 Y-22.78 E351.84306
G0 F12000 X33.329 Y-23.37
G1 F600 X32.734 Y-24.079 E351.90655
G1 X31.992 Y-24.631 E351.96999
G0 F12000 X32.756 Y-24.53
; TYPE:FILL
G1 F600 X33.15 Y-24.389 E351.99744
G1 X33.15 Y-24.199 E352.02446
G1 X32.756 Y-24.405 E352.04204
G0 F12000 X31.063 Y-24.906
G1 F600 X30.216 Y-24.981 E352.06304
G1 X29.356 Y-24.956 E352.08428
G1 X28.531 Y-24.832 E352.11009
G0 F12000 X26.822 Y-24.042
G1 F600 X26.692 Y-23.855 E352.11446
G0 F12000 X26.246 Y-22.035
G1 F600 X26.196 Y-21.18 E352.13508
G1 X26.246 Y-20.326 E352.15567
G0 F12000 X27.372 Y-18.975
G0 X27.951 Y-18.429
G0 X28.641 Y-18.03
G0 X29.404 Y-17.802
G0 X30.2 Y-17.756
G0 X30.983 Y-17.894
G0 X31.715 Y-18.209
G0 X32.354 Y-18.685
G0 X33.692 Y-19.912
G1 F600 X33.791 Y-20.751 E352.17865
G1 X33.791 Y-21.61 E352.202
G1 X33.692 Y-22.449 E352.22497
G0 F12000 X33.692 Y-5.86
G1 F600 X33.791 Y-5.021 E352.24794
G1 X33.791 Y-4.162 E352.2713
G1 X33.692 Y-3.323 E352.29427
G0 F12000 X33.407 Y-4.989
G0 X33.224 Y-5.765
G0 X32.866 Y-6.476
G0 X32.354 Y-7.087
G0 X31.715 Y-7.563
G0 X30.983 Y-7.878
G0 X-28.936 Y-24.906
G1 F600 X-29.783 Y-24.981 E352.31527
G1 X-30.643 Y-24.956 E352.33652
G1 X-31.468 Y-24.832 E352.36232
G0 F12000 X-33.176 Y-24.042
G1 F600 X-33.306 Y-23.855 E352.3667
G0 F12000 X-33.753 Y-22.035
G1 F600 X-33.802 Y-21.18 E352.38731
G1 X-33.753 Y-20.326 E352.4079
G0 F12000 X-33.753 Y-5.446
G1 F600 X-33.802 Y-4.591 E352.42852
G1 X-33.753 Y-3.737 E352.44911
G0 F12000 X-33.274 Y-1.099
; TYPE:BOTTOM-FILL
G1 F600 X-32.564 Y-1.099 E352.49782
G0 F12000 X-33.274 Y-0.549
G1 F600 X-31.514 Y-0.549 E352.61855
G0 F12000 X-33.274 Y0
G1 F600 X33.275 Y0 E357.18375
G0 F12000 X33.275 Y0.549
G1 F600 X-33.274 Y0.55 E361.74894
G0 F12000 X-33.274 Y1.1
G1 F600 X33.275 Y1.099 E366.31414
G0 F12000 X33.275 Y1.649
G1 F600 X-33.274 Y1.65 E370.87934
G0 F12000 X-33.274 Y2.2
G1 F600 X33.275 Y2.199 E375.44453
G0 F12000 X33.275 Y2.749
G1 F600 X-33.274 Y2.75 E380.00973
G0 F12000 X-33.274 Y3.3
G1 F600 X33.275 Y3.299 E384.57493
G0 F12000 X33.275 Y3.849
G1 F600 X-33.274 Y3.85 E389.14012
G0 F12000 X-33.274 Y4.4
G1 F600 X33.275 Y4.399 E393.70532
G0 F12000 X33.275 Y4.949
G1 F600 X-33.274 Y4.95 E398.27052
G0 F12000 X-33.274 Y5.5
G1 F600 X33.275 Y5.499 E402.83571
G0 F12000 X33.275 Y6.049
G1 F600 X-33.274 Y6.05 E407.40091
G0 F12000 X-33.274 Y6.6
G1 F600 X33.275 Y6.599 E411.96611
G0 F12000 X33.275 Y7.149
G1 F600 X-33.274 Y7.15 E416.5313
G0 F12000 X-33.274 Y7.7
G1 F600 X33.275 Y7.699 E421.0965
G0 F12000 X33.275 Y8.249
G1 F600 X-33.274 Y8.25 E425.6617
G0 F12000 X-33.274 Y8.8
G1 F600 X33.275 Y8.799 E430.22689
G0 F12000 X33.275 Y9.349
G1 F600 X-33.274 Y9.35 E434.79209
G0 F12000 X-33.274 Y9.9
G1 F600 X33.275 Y9.899 E439.35729
G0 F12000 X33.275 Y10.449
G1 F600 X-33.274 Y10.45 E443.92248
G0 F12000 X-33.274 Y11
G1 F600 X33.275 Y10.999 E448.48768
G0 F12000 X33.275 Y11.549
G1 F600 X-33.274 Y11.55 E453.05288
G0 F12000 X-33.274 Y12.1
G1 F600 X33.275 Y12.099 E457.61807
G0 F12000 X33.275 Y12.649
G1 F600 X-33.274 Y12.65 E462.18327
G0 F12000 X-33.274 Y13.2
G1 F600 X33.275 Y13.199 E466.74847
G0 F12000 X33.275 Y13.749
G1 F600 X-33.274 Y13.75 E471.31366
G0 F12000 X-33.274 Y14.3
G1 F600 X33.275 Y14.299 E475.87886
G0 F12000 X33.275 Y14.849
G1 F600 X-33.274 Y14.85 E480.44406
G0 F12000 X-33.274 Y15.4
G1 F600 X33.275 Y15.399 E485.00926
G0 F12000 X33.275 Y15.949
G1 F600 X-33.274 Y15.95 E489.57445
G0 F12000 X-33.274 Y16.5
G1 F600 X33.275 Y16.499 E494.13965
G0 F12000 X33.275 Y17.049
G1 F600 X-33.274 Y17.05 E498.70485
G0 F12000 X-33.274 Y17.6
G1 F600 X33.275 Y17.599 E503.27004
G0 F12000 X33.275 Y18.149
G1 F600 X-33.274 Y18.15 E507.83524
G0 F12000 X-33.274 Y18.7
G1 F600 X33.275 Y18.699 E512.40044
G0 F12000 X33.275 Y19.249
G1 F600 X-33.274 Y19.25 E516.96563
G0 F12000 X-33.274 Y19.8
G1 F600 X33.275 Y19.799 E521.53083
G0 F12000 X33.275 Y20.349
G1 F600 X-33.274 Y20.35 E526.09603
G0 F12000 X-33.274 Y20.9
G1 F600 X33.275 Y20.899 E530.66122
G0 F12000 X33.275 Y21.449
G1 F600 X-33.274 Y21.45 E535.22642
G0 F12000 X-33.274 Y22
G1 F600 X33.275 Y21.999 E539.79162
G0 F12000 X33.275 Y22.549
G1 F600 X-33.274 Y22.55 E544.35681
G0 F12000 X-33.274 Y23.1
G1 F600 X33.275 Y23.099 E548.92201
G0 F12000 X33.275 Y23.649
G1 F600 X-33.274 Y23.65 E553.48721
G0 F12000 X-33.274 Y24.2
G1 F600 X33.275 Y24.199 E558.0524
G0 F12000 X33.275 Y-0.55
G1 F600 X31.506 Y-0.55 E558.17375
G0 F12000 X32.526 Y-1.1
G1 F600 X33.275 Y-1.1 E558.22514
G0 F12000 X28.482 Y-0.55
G1 F600 X-28.495 Y-0.549 E562.1337
G0 F12000 X-27.474 Y-1.099
G1 F600 X27.433 Y-1.1 E565.90027
G0 F12000 X26.84 Y-1.65
G1 F600 X-26.844 Y-1.649 E569.58294
G0 F12000 X-26.383 Y-2.199
G1 F600 X26.416 Y-2.2 E573.2049
G0 F12000 X26.086 Y-2.75
G1 F600 X-26.105 Y-2.749 E576.78515
G0 F12000 X-25.88 Y-3.299
G1 F600 X25.885 Y-3.3 E580.33618
G0 F12000 X25.75 Y-3.85
G1 F600 X-25.749 Y-3.849 E583.86896
G0 F12000 X-25.692 Y-4.399
G1 F600 X25.686 Y-4.4 E587.39344
G0 F12000 X25.706 Y-4.95
G1 F600 X-25.692 Y-4.949 E590.9193
G0 F12000 X-25.789 Y-5.499
G1 F600 X25.769 Y-5.5 E594.45612
G0 F12000 X25.947 Y-6.05
G1 F600 X-25.919 Y-6.049 E598.01408
G0 F12000 X-26.188 Y-6.599
G1 F600 X26.166 Y-6.6 E601.60551
G0 F12000 X26.527 Y-7.15
G1 F600 X-26.523 Y-7.149 E605.24469
G0 F12000 X-26.984 Y-7.699
G1 F600 X27.02 Y-7.7 E608.94932
G0 F12000 X27.725 Y-8.25
G1 F600 X-27.698 Y-8.249 E612.75128
G0 F12000 X-29.065 Y-8.799
G1 F600 X29.046 Y-8.8 E616.73764
G0 F12000 X30.928 Y-8.8
G1 F600 X33.275 Y-8.8 E616.89864
G0 F12000 X33.275 Y-8.25
G1 F600 X32.668 Y-7.975 E616.96563
G1 X33.081 Y-7.7 E616.99967
G0 F12000 X33.275 Y-9.35
G1 F600 X-33.274 Y-9.349 E621.56486
G0 F12000 X-33.274 Y-9.899
G1 F600 X33.275 Y-9.9 E626.13006
G0 F12000 X33.275 Y-10.45
G1 F600 X-33.274 Y-10.449 E630.69526
G0 F12000 X-33.274 Y-10.999
G1 F600 X33.275 Y-11 E635.26045
G0 F12000 X33.275 Y-11.55
G1 F600 X-33.274 Y-11.549 E639.82565
G0 F12000 X-33.274 Y-12.099
G1 F600 X33.275 Y-12.1 E644.39085
G0 F12000 X33.275 Y-12.65
G1 F600 X-33.274 Y-12.649 E648.95605
G0 F12000 X-33.274 Y-13.199
G1 F600 X33.275 Y-13.2 E653.52124
G0 F12000 X33.275 Y-13.75
G1 F600 X-33.274 Y-13.749 E658.08644
G0 F12000 X-33.274 Y-14.299
G1 F600 X33.275 Y-14.3 E662.65164
G0 F12000 X33.275 Y-14.85
G1 F600 X26.725 Y-14.85 E663.10096
G0 F12000 X26.725 Y-15.4
G1 F600 X33.275 Y-15.4 E663.55028
G0 F12000 X33.275 Y-15.95
G1 F600 X26.725 Y-15.95 E663.99961
G0 F12000 X26.725 Y-16.5
G1 F600 X33.275 Y-16.5 E664.44893
G0 F12000 X33.275 Y-17.05
G1 F600 X31.299 Y-17.05 E664.58448
G0 F12000 X32.407 Y-17.6
G1 F600 X33.275 Y-17.6 E664.64403
G0 F12000 X28.782 Y-17.05
G1 F600 X26.725 Y-17.05 E664.78513
G0 F12000 X26.725 Y-17.6
G1 F600 X27.589 Y-17.6 E664.8444
G1 F6600 E660.8444
G1 Z0.65
G0 F12000 X25.825 Y-15.355
G0 X10.175 Y-15.355
G0 X9.274 Y-17.6
G1 Z0.35
G1 F6600 E664.9444
G1 F600 X-27.593 Y-17.6 E667.47344
G0 F12000 X-26.919 Y-18.15
G1 F600 X9.274 Y-18.15 E669.95625
G0 F12000 X9.274 Y-18.7
G1 F600 X-26.457 Y-18.7 E672.40736
G0 F12000 X-26.149 Y-19.25
G1 F600 X9.274 Y-19.25 E674.83734
G0 F12000 X9.274 Y-19.8
G1 F600 X-25.901 Y-19.8 E677.25031
G0 F12000 X-25.77 Y-20.35
G1 F600 X9.274 Y-20.35 E679.6543
G0 F12000 X9.274 Y-20.9
G1 F600 X-25.692 Y-20.9 E682.05293
G0 F12000 X-25.692 Y-21.45
G1 F600 X9.274 Y-21.45 E684.45157
G0 F12000 X9.274 Y-22
G1 F600 X-25.768 Y-22 E686.85541
G0 F12000 X-25.898 Y-22.55
G1 F600 X9.274 Y-22.55 E689.26818
G0 F12000 X9.274 Y-23.1
G1 F600 X-26.144 Y-23.1 E691.69782
G0 F12000 X-26.448 Y-23.65
G1 F600 X9.274 Y-23.65 E694.14831
G0 F12000 X9.274 Y-24.2
G1 F600 X-26.91 Y-24.2 E696.6305
G0 F12000 X-26.592 Y-21.578
G0 X-26.592 Y-20.783
G0 X-26.775 Y-20.007
G0 X-27.133 Y-19.296
G0 X-28.702 Y-17.05
G1 F600 X9.274 Y-17.05 E699.23562
G0 F12000 X9.274 Y-16.5
G1 F600 X-33.274 Y-16.499 E702.15437
G0 F12000 X-33.274 Y-17.049
G1 F600 X-31.217 Y-17.049 E702.29548
G0 F12000 X-32.41 Y-17.599
G1 F600 X-33.274 Y-17.599 E702.35475
G0 F12000 X-33.274 Y-15.949
G1 F600 X9.274 Y-15.95 E705.2735
G0 F12000 X9.274 Y-15.4
G1 F600 X-33.274 Y-15.399 E708.19225
G0 F12000 X-33.274 Y-14.849
G1 F600 X9.275 Y-14.85 E711.11107
G0 F12000 X-30.956 Y-8.799
G1 F600 X-33.274 Y-8.799 E711.27008
G0 F12000 X-33.274 Y-8.249
G1 F600 X-32.628 Y-7.974 E711.33856
G1 X-33.147 Y-7.699 E711.37885
; Layer Change GCode
; LAYER:1
G0 F12000 X-33.147 Y-7.699 Z0.55
G0 X-33.354 Y-4.591
G0 X-33.264 Y-3.818
G0 X-32.998 Y-3.086
G0 X-32.569 Y-2.435
G0 X-32.003 Y-1.9
G0 X-31.328 Y-1.511
G0 X-30.582 Y-1.287
G0 X-29.861 Y-1.246
G0 X-29.833 Y-1.745
G0 X-29.861 Y-1.246
G0 X-30.582 Y-1.287
G0 X-31.328 Y-1.511
G0 X-32.003 Y-1.9
G0 X-33.448 Y-2.861
; TYPE:WALL-INNER
G1 F3600 X-32.955 Y-2.111 E711.41617
G1 X-32.303 Y-1.496 E711.45343
G1 X-31.527 Y-1.048 E711.49068
G1 X-30.669 Y-0.792 E711.52791
G1 X-29.774 Y-0.74 E711.56518
G1 X-28.893 Y-0.895 E711.60237
G1 X-28.07 Y-1.25 E711.63964
G1 X-27.351 Y-1.785 E711.6769
G1 X-26.776 Y-2.472 E711.71414
G1 X-26.373 Y-3.272 E711.75138
G1 X-26.167 Y-4.144 E711.78864
G1 X-26.167 Y-5.039 E711.82585
G1 X-26.373 Y-5.911 E711.8631
G1 X-26.776 Y-6.711 E711.90034
G1 X-27.351 Y-7.398 E711.93758
G1 X-28.07 Y-7.933 E711.97484
G1 X-28.893 Y-8.288 E712.01211
G1 X-29.774 Y-8.443 E712.0493
G1 X-30.669 Y-8.391 E712.08657
G1 X-31.527 Y-8.135 E712.1238
G1 X-32.303 Y-7.687 E712.16105
G1 X-32.955 Y-7.072 E712.19831
G1 X-33.448 Y-6.322 E712.23563
G0 F12000 X-33.598 Y-6.322
G1 F3600 X-33.749 Y-5.495 E712.27058
G0 F12000 X-33.749 Y-6.322
G1 F3600 X-33.749 Y-19.45 E712.81638
G0 F12000 X-33.598 Y-19.45
G1 F3600 X-33.749 Y-20.277 E712.85133
G0 F12000 X-33.448 Y-19.45
G1 F3600 X-32.955 Y-18.7 E712.88864
G1 X-32.303 Y-18.085 E712.92591
G1 X-31.527 Y-17.637 E712.96316
G1 X-30.669 Y-17.381 E713.00039
G1 X-29.774 Y-17.329 E713.03766
G1 X-28.893 Y-17.484 E713.07485
G1 X-28.07 Y-17.839 E713.11211
G1 X-27.351 Y-18.374 E713.14937
G1 X-26.776 Y-19.061 E713.18662
G1 X-26.373 Y-19.861 E713.22386
G1 X-26.167 Y-20.733 E713.26111
G1 X-26.167 Y-21.628 E713.29832
G1 X-26.373 Y-22.5 E713.33557
G1 X-26.776 Y-23.3 E713.37281
G1 X-27.351 Y-23.987 E713.41006
G1 X-28.07 Y-24.522 E713.44732
G0 F12000 X-28.07 Y-24.726
G1 F3600 X-28.893 Y-24.903 E713.48232
G1 X-29.194 Y-24.93 E713.49488
G0 F12000 X-28.07 Y-24.93
G1 F3600 X9.75 Y-24.93 E715.06726
G1 X9.75 Y-14.93 E715.48301
G1 X26.25 Y-14.93 E716.169
G1 X26.25 Y-19.45 E716.35692
G0 F12000 X26.4 Y-19.45
G1 F3600 X26.25 Y-20.277 E716.39186
G0 F12000 X26.551 Y-19.45
G1 F3600 X27.044 Y-18.7 E716.42918
G1 X27.696 Y-18.085 E716.46644
G1 X28.472 Y-17.637 E716.50369
G1 X29.33 Y-17.381 E716.54092
G1 X30.225 Y-17.329 E716.57819
G1 X31.106 Y-17.484 E716.61538
G1 X31.929 Y-17.839 E716.65264
G1 X32.648 Y-18.374 E716.6899
G1 X33.223 Y-19.061 E716.72715
G1 X33.626 Y-19.861 E716.76439
G0 F12000 X33.688 Y-19.861
G1 F3600 X33.75 Y-20.386 E716.78637
G0 F12000 X33.75 Y-19.861
G1 F3600 X33.75 Y-5.911 E717.36634
G0 F12000 X33.688 Y-5.911
G1 F3600 X33.75 Y-5.386 E717.38832
G0 F12000 X33.626 Y-5.911
G1 F3600 X33.223 Y-6.711 E717.42557
G1 X32.648 Y-7.398 E717.46281
G1 X31.929 Y-7.933 E717.50007
G1 X31.106 Y-8.288 E717.53734
G1 X30.225 Y-8.443 E717.57453
G1 X29.33 Y-8.391 E717.6118
G1 X28.472 Y-8.135 E717.64902
G1 X27.696 Y-7.687 E717.68628
G1 X27.044 Y-7.072 E717.72354
G1 X26.551 Y-6.322 E717.76085
G1 X26.245 Y-5.481 E717.79806
G1 X26.142 Y-4.591 E717.83531
G1 X26.245 Y-3.702 E717.87252
G1 X26.551 Y-2.861 E717.90973
G1 X27.044 Y-2.111 E717.94704
G1 X27.696 Y-1.496 E717.9843
G1 X28.472 Y-1.048 E718.02156
G1 X29.33 Y-0.792 E718.05878
G1 X30.225 Y-0.74 E718.09605
G1 X31.106 Y-0.895 E718.13324
G1 X31.929 Y-1.25 E718.17051
G1 X32.648 Y-1.785 E718.20777
G1 X33.223 Y-2.472 E718.24501
G1 X33.626 Y-3.272 E718.28226
G0 F12000 X33.688 Y-3.272
G1 F3600 X33.75 Y-3.797 E718.30424
G0 F12000 X33.75 Y-3.272
G1 F3600 X33.75 Y24.932 E719.47682
G1 X-33.749 Y24.932 E722.2831
G1 X-33.749 Y-2.861 E723.4386
G0 F12000 X-33.598 Y-2.861
G1 F3600 X-33.749 Y-3.688 E723.47355
G0 F12000 X-33.264 Y-3.818
G1 F3600 X-32.998 Y-3.086 E723.50593
G1 X-32.569 Y-2.435 E723.53835
G1 X-32.003 Y-1.9 E723.57073
G1 X-31.328 Y-1.511 E723.60312
G1 X-30.582 Y-1.287 E723.6355
G1 X-29.804 Y-1.242 E723.6679
G1 X-29.038 Y-1.378 E723.70024
G1 X-28.322 Y-1.686 E723.73265
G1 X-27.697 Y-2.151 E723.76504
G1 X-27.196 Y-2.748 E723.79744
G1 X-26.846 Y-3.444 E723.82983
G1 X-26.667 Y-4.203 E723.86225
G1 X-26.667 Y-4.98 E723.89455
G1 X-26.846 Y-5.739 E723.92697
G1 X-27.196 Y-6.435 E723.95936
G1 X-27.697 Y-7.032 E723.99177
G1 X-28.322 Y-7.497 E724.02415
G1 X-29.038 Y-7.805 E724.05656
G1 X-29.804 Y-7.941 E724.0889
G1 X-30.582 Y-7.896 E724.1213
G1 X-31.328 Y-7.672 E724.15369
G1 X-32.003 Y-7.283 E724.18608
G1 X-32.569 Y-6.748 E724.21846
G1 X-32.998 Y-6.097 E724.25087
G1 X-33.264 Y-5.365 E724.28325
G1 X-33.354 Y-4.591 E724.31565
G1 X-33.264 Y-3.818 E724.348
G0 F12000 X-32.998 Y-3.086
G0 X-32.569 Y-2.435
G0 X-32.003 Y-1.9
G0 X-31.328 Y-1.511
G0 X-30.582 Y-1.287
G0 X-29.861 Y-1.246
G0 X-29.833 Y-1.745
; TYPE:WALL-OUTER
G1 F2700 X-29.182 Y-1.86 E724.37548
G1 X-28.573 Y-2.122 E724.40305
G1 X-28.042 Y-2.517 E724.43056
G1 X-27.617 Y-3.025 E724.4581
G1 X-27.319 Y-3.616 E724.48562
G1 X-27.167 Y-4.261 E724.51317
G1 X-27.167 Y-4.922 E724.54065
G1 X-27.319 Y-5.567 E724.5682
G1 X-27.617 Y-6.158 E724.59572
G1 X-28.042 Y-6.666 E724.62325
G1 X-28.573 Y-7.061 E724.65077
G1 X-29.182 Y-7.323 E724.67833
G1 X-29.833 Y-7.438 E724.70582
G1 X-30.495 Y-7.4 E724.73338
G1 X-31.129 Y-7.21 E724.7609
G1 X-31.702 Y-6.879 E724.78841
G1 X-32.184 Y-6.425 E724.81594
G1 X-32.548 Y-5.871 E724.8435
G1 X-32.774 Y-5.249 E724.87101
G1 X-32.851 Y-4.591 E724.89856
G1 X-32.774 Y-3.934 E724.92606
G1 X-32.548 Y-3.312 E724.95357
G1 X-32.184 Y-2.758 E724.98113
G1 X-31.702 Y-2.304 E725.00866
G1 X-31.129 Y-1.973 E725.03617
G1 X-30.495 Y-1.783 E725.06369
G1 X-29.833 Y-1.745 E725.09126
G0 F12000 X-29.861 Y-1.246
G0 X-29.804 Y-1.242
G0 X-29.038 Y-1.378
G0 X-28.322 Y-1.686
G0 X-27.697 Y-2.151
G0 X-27.196 Y-2.748
G0 X-26.846 Y-3.444
G0 X-26.667 Y-4.203
G0 X-26.667 Y-4.98
G0 X-26.846 Y-5.739
G0 X-29.861 Y-17.835
G0 X-29.833 Y-18.334
G0 X-29.861 Y-17.835
G0 X-30.582 Y-17.876
G0 X-31.328 Y-18.1
G0 X-32.003 Y-18.489
G0 X-32.569 Y-19.024
G0 X-32.998 Y-19.675
G0 X-33.264 Y-20.407
G0 X-33.749 Y-22.084
; TYPE:WALL-INNER
G1 F3600 X-33.598 Y-22.911 E725.12621
G0 F12000 X-33.448 Y-22.911
G1 F3600 X-32.955 Y-23.661 E725.16352
G1 X-32.303 Y-24.276 E725.20079
G1 X-31.527 Y-24.724 E725.23804
G0 F12000 X-31.527 Y-24.827
G1 F3600 X-30.837 Y-24.93 E725.26704
G0 F12000 X-31.527 Y-24.93
G1 F3600 X-33.749 Y-24.93 E725.35942
G1 X-33.749 Y-22.911 E725.44336
G0 F12000 X-32.998 Y-22.686
G1 F3600 X-33.264 Y-21.954 E725.47574
G1 X-33.354 Y-21.18 E725.50814
G1 X-33.264 Y-20.407 E725.5405
G1 X-32.998 Y-19.675 E725.57288
G1 X-32.569 Y-19.024 E725.60529
G1 X-32.003 Y-18.489 E725.63767
G1 X-31.328 Y-18.1 E725.67006
G1 X-30.582 Y-17.876 E725.70244
G1 X-29.804 Y-17.831 E725.73484
G1 X-29.038 Y-17.967 E725.76719
G1 X-28.322 Y-18.275 E725.79959
G1 X-27.697 Y-18.74 E725.83198
G1 X-27.196 Y-19.337 E725.86438
G1 X-26.846 Y-20.033 E725.89677
G1 X-26.667 Y-20.792 E725.92919
G1 X-26.667 Y-21.569 E725.9615
G1 X-26.846 Y-22.328 E725.99392
G1 X-27.196 Y-23.024 E726.02631
G1 X-27.697 Y-23.621 E726.05871
G1 X-28.322 Y-24.086 E726.0911
G1 X-29.038 Y-24.394 E726.1235
G1 X-29.804 Y-24.53 E726.15585
G1 X-30.582 Y-24.485 E726.18824
G1 X-31.328 Y-24.261 E726.22063
G1 X-32.003 Y-23.872 E726.25302
G1 X-32.569 Y-23.337 E726.2854
G1 X-32.998 Y-22.686 E726.31781
G0 F12000 X-33.264 Y-21.954
G0 X-33.354 Y-21.18
G0 X-33.264 Y-20.407
G0 X-32.998 Y-19.675
G0 X-32.569 Y-19.024
G0 X-32.003 Y-18.489
G0 X-31.328 Y-18.1
G0 X-30.582 Y-17.876
G0 X-29.861 Y-17.835
G0 X-29.833 Y-18.334
; TYPE:WALL-OUTER
G1 F2700 X-29.182 Y-18.449 E726.3453
G1 X-28.573 Y-18.711 E726.37286
G1 X-28.042 Y-19.106 E726.40037
G1 X-27.617 Y-19.614 E726.42791
G1 X-27.319 Y-20.205 E726.45543
G1 X-27.167 Y-20.85 E726.48298
G1 X-27.167 Y-21.511 E726.51046
G1 X-27.319 Y-22.156 E726.53801
G1 X-27.617 Y-22.747 E726.56553
G1 X-28.042 Y-23.255 E726.59306
G1 X-28.573 Y-23.65 E726.62058
G1 X-29.182 Y-23.912 E726.64814
G1 X-29.833 Y-24.027 E726.67563
G1 X-30.495 Y-23.989 E726.7032
G1 X-31.129 Y-23.799 E726.73071
G1 X-31.702 Y-23.468 E726.75822
G1 X-32.184 Y-23.014 E726.78575
G1 X-32.548 Y-22.46 E726.81331
G1 X-32.774 Y-21.838 E726.84083
G1 X-32.851 Y-21.18 E726.86837
G1 X-32.774 Y-20.523 E726.89587
G1 X-32.548 Y-19.901 E726.92338
G1 X-32.184 Y-19.347 E726.95094
G1 X-31.702 Y-18.893 E726.97847
G1 X-31.129 Y-18.562 E727.00598
G1 X-30.495 Y-18.372 E727.0335
G1 X-29.833 Y-18.334 E727.06107
G1 F6600 E723.06107
G1 Z0.85
G0 F12000 X-29.861 Y-17.835
G0 X-29.804 Y-17.831
G0 X10.25 Y-15.43
G0 X10.75 Y-15.43
G0 X10.75 Y-15.93
G0 X10.75 Y-15.43
G0 X25.75 Y-15.43
G0 X26.25 Y-22.084
; TYPE:WALL-INNER
G1 Z0.55
G1 F6600 E727.16107
G1 F3600 X26.4 Y-22.911 E727.19601
G0 F12000 X26.25 Y-22.911
G1 F3600 X26.25 Y-24.93 E727.27995
G1 X28.472 Y-24.93 E727.37233
G0 F12000 X28.472 Y-24.827
G1 F3600 X29.162 Y-24.93 E727.40134
G0 F12000 X28.472 Y-24.724
G1 F3600 X27.696 Y-24.276 E727.43859
G1 X27.044 Y-23.661 E727.47585
G1 X26.551 Y-22.911 E727.51317
G0 F12000 X27.001 Y-22.686
G1 F3600 X26.735 Y-21.954 E727.54555
G1 X26.645 Y-21.18 E727.57794
G1 X26.735 Y-20.407 E727.6103
G1 X27.001 Y-19.675 E727.64268
G1 X27.43 Y-19.024 E727.67509
G1 X27.996 Y-18.489 E727.70747
G1 X28.671 Y-18.1 E727.73986
G1 X29.417 Y-17.876 E727.77225
G1 X30.195 Y-17.831 E727.80465
G1 X30.961 Y-17.967 E727.83699
G1 X31.677 Y-18.275 E727.8694
G1 X32.302 Y-18.74 E727.90178
G1 X32.803 Y-19.337 E727.93419
G1 X33.153 Y-20.033 E727.96657
G1 X33.332 Y-20.792 E727.999
G1 X33.332 Y-21.569 E728.0313
G1 X33.153 Y-22.328 E728.06372
G1 X32.803 Y-23.024 E728.09611
G1 X32.302 Y-23.621 E728.12851
G1 X31.677 Y-24.086 E728.1609
G1 X30.961 Y-24.394 E728.1933
G1 X30.195 Y-24.53 E728.22565
G1 X29.417 Y-24.485 E728.25805
G1 X28.671 Y-24.261 E728.29043
G1 X27.996 Y-23.872 E728.32282
G1 X27.43 Y-23.337 E728.3552
G1 X27.001 Y-22.686 E728.38762
G0 F12000 X26.735 Y-21.954
G0 X26.645 Y-21.18
G0 X26.735 Y-20.407
G0 X27.001 Y-19.675
G0 X27.43 Y-19.024
G0 X27.996 Y-18.489
G0 X28.671 Y-18.1
G0 X29.417 Y-17.876
G0 X30.138 Y-17.835
G0 X30.166 Y-18.334
; TYPE:WALL-OUTER
G1 F2700 X30.817 Y-18.449 E728.4151
G1 X31.426 Y-18.711 E728.44266
G1 X31.957 Y-19.106 E728.47018
G1 X32.382 Y-19.614 E728.49771
G1 X32.68 Y-20.205 E728.52523
G1 X32.832 Y-20.85 E728.55278
G1 X32.832 Y-21.511 E728.58026
G1 X32.68 Y-22.156 E728.60781
G1 X32.382 Y-22.747 E728.63533
G1 X31.957 Y-23.255 E728.66287
G1 X31.426 Y-23.65 E728.69038
G1 X30.817 Y-23.912 E728.71795
G1 X30.166 Y-24.027 E728.74543
G1 X29.504 Y-23.989 E728.773
G1 X28.87 Y-23.799 E728.80052
G1 X28.297 Y-23.468 E728.82803
G1 X27.815 Y-23.014 E728.85556
G1 X27.451 Y-22.46 E728.88312
G1 X27.225 Y-21.838 E728.91063
G1 X27.148 Y-21.18 E728.93817
G1 X27.225 Y-20.523 E728.96567
G1 X27.451 Y-19.901 E728.99319
G1 X27.815 Y-19.347 E729.02075
G1 X28.297 Y-18.893 E729.04828
G1 X28.87 Y-18.562 E729.07579
G1 X29.504 Y-18.372 E729.10331
G1 X30.166 Y-18.334 E729.13087
G1 F6600 E725.13087
G1 Z0.85
G0 F12000 X30.138 Y-17.835
G0 X33.153 Y-5.739
G0 X33.332 Y-4.98
G0 X33.332 Y-4.203
G0 X33.153 Y-3.444
G0 X32.803 Y-2.748
G0 X32.302 Y-2.151
G0 X31.677 Y-1.686
G0 X30.961 Y-1.378
G0 X30.195 Y-1.242
G0 X30.138 Y-1.246
G0 X30.166 Y-1.745
G0 X30.138 Y-1.246
G0 X30.195 Y-1.242
G0 X30.961 Y-1.378
G0 X31.677 Y-1.686
G0 X32.302 Y-2.151
G0 X32.803 Y-2.748
G0 X33.153 Y-3.444
G0 X33.332 Y-4.203
G0 X33.75 Y-21.975
; TYPE:WALL-INNER
G1 Z0.55
G1 F6600 E729.23087
G1 F3600 X33.688 Y-22.5 E729.25285
G0 F12000 X33.626 Y-22.5
G1 F3600 X33.223 Y-23.3 E729.29009
G1 X32.648 Y-23.987 E729.32734
G1 X31.929 Y-24.522 E729.3646
G0 F12000 X31.929 Y-24.726
G1 F3600 X31.106 Y-24.903 E729.3996
G1 X30.805 Y-24.93 E729.41216
G0 F12000 X31.929 Y-24.93
G1 F3600 X33.75 Y-24.93 E729.48787
G1 X33.75 Y-22.5 E729.5889
G0 F12000 X33.332 Y-4.203
G0 X33.153 Y-3.444
G0 X32.803 Y-2.748
G0 X32.302 Y-2.151
G0 X31.677 Y-1.686
G0 X30.961 Y-1.378
G0 X30.195 Y-1.242
G0 X30.138 Y-1.246
G0 X30.166 Y-1.745
G0 X30.138 Y-1.246
G0 X30.195 Y-1.242
G1 F3600 X30.961 Y-1.378 E729.62124
G1 X31.677 Y-1.686 E729.65365
G1 X32.302 Y-2.151 E729.68604
G1 X32.803 Y-2.748 E729.71844
G1 X33.153 Y-3.444 E729.75083
G1 X33.332 Y-4.203 E729.78325
G1 X33.332 Y-4.98 E729.81555
G1 X33.153 Y-5.739 E729.84797
G1 X32.803 Y-6.435 E729.88036
G1 X32.302 Y-7.032 E729.91277
G1 X31.677 Y-7.497 E729.94515
G1 X30.961 Y-7.805 E729.97756
G1 X30.195 Y-7.941 E730.0099
G1 X29.417 Y-7.896 E730.0423
G1 X28.671 Y-7.672 E730.07469
G1 X27.996 Y-7.283 E730.10707
G1 X27.43 Y-6.748 E730.13946
G1 X27.001 Y-6.097 E730.17187
G1 X26.735 Y-5.365 E730.20425
G1 X26.645 Y-4.591 E730.23664
G1 X26.735 Y-3.818 E730.269
G1 X27.001 Y-3.086 E730.30138
G1 X27.43 Y-2.435 E730.33379
G1 X27.996 Y-1.9 E730.36617
G1 X28.671 Y-1.511 E730.39856
G1 X29.417 Y-1.287 E730.43095
G1 X30.195 Y-1.242 E730.46335
G0 F12000 X30.138 Y-1.246
G0 X30.166 Y-1.745
; TYPE:WALL-OUTER
G1 F2700 X30.817 Y-1.86 E730.49083
G1 X31.426 Y-2.122 E730.51839
G1 X31.957 Y-2.517 E730.54591
G1 X32.382 Y-3.025 E730.57344
G1 X32.68 Y-3.616 E730.60096
G1 X32.832 Y-4.261 E730.62851
G1 X32.832 Y-4.922 E730.65599
G1 X32.68 Y-5.567 E730.68354
G1 X32.382 Y-6.158 E730.71106
G1 X31.957 Y-6.666 E730.7386
G1 X31.426 Y-7.061 E730.76611
G1 X30.817 Y-7.323 E730.79368
G1 X30.166 Y-7.438 E730.82116
G1 X29.504 Y-7.4 E730.84873
G1 X28.87 Y-7.21 E730.87625
G1 X28.297 Y-6.879 E730.90376
G1 X27.815 Y-6.425 E730.93129
G1 X27.451 Y-5.871 E730.95885
G1 X27.225 Y-5.249 E730.98636
G1 X27.148 Y-4.591 E731.0139
G1 X27.225 Y-3.934 E731.04141
G1 X27.451 Y-3.312 E731.06892
G1 X27.815 Y-2.758 E731.09648
G1 X28.297 Y-2.304 E731.12401
G1 X28.87 Y-1.973 E731.15152
G1 X29.504 Y-1.783 E731.17904
G1 X30.166 Y-1.745 E731.2066
G1 F6600 E727.2066
G1 Z0.85
G0 F12000 X30.138 Y-1.246
G0 X29.417 Y-1.287
G0 X28.671 Y-1.511
G0 X27.996 Y-1.9
G0 X10.75 Y-15.43
G0 X10.75 Y-15.93
G0 X10.75 Y-15.43
G0 X10.25 Y-15.43
; TYPE:WALL-INNER
G1 Z0.55
G1 F6600 E731.3066
G1 F3600 X25.75 Y-15.43 E731.95102
G1 X25.75 Y-25.43 E732.36677
G1 X34.25 Y-25.43 E732.72016
G1 X34.25 Y25.432 E734.83476
G1 X-34.249 Y25.432 E737.68261
G1 X-34.249 Y-25.43 E739.79721
G1 X10.25 Y-25.43 E741.64726
G1 X10.25 Y-15.43 E742.06301
G0 F12000 X10.75 Y-15.43
G0 X10.75 Y-15.93
; TYPE:WALL-OUTER
G1 F2700 X25.25 Y-15.93 E742.66585
G1 X25.25 Y-25.93 E743.08161
G1 X34.75 Y-25.93 E743.47657
G1 X34.75 Y25.932 E745.63274
G1 X-34.749 Y25.932 E748.52217
G1 X-34.749 Y-25.93 E750.67835
G1 X10.75 Y-25.93 E752.56997
G1 X10.75 Y-15.93 E752.98573
G0 F12000 X10.75 Y-15.43
G0 X10.999 Y-14.629
; TYPE:FILL
G1 F3600 X11 Y24.632 E754.61801
G0 F12000 X10.5 Y24.632
G1 F3600 X10.499 Y-14.629 E756.25029
G0 F12000 X9.999 Y-14.629
G1 F3600 X10 Y24.632 E757.88257
G0 F12000 X9.5 Y24.632
G1 F3600 X9.499 Y-14.629 E759.51486
G0 F12000 X11.499 Y-14.629
G1 F3600 X11.5 Y24.632 E761.14714
G0 F12000 X12 Y24.632
G1 F3600 X11.999 Y-14.629 E762.77942
G0 F12000 X12.499 Y-14.629
G1 F3600 X12.5 Y24.632 E764.41171
G0 F12000 X13 Y24.632
G1 F3600 X12.999 Y-14.629 E766.04399
G0 F12000 X13.499 Y-14.629
G1 F3600 X13.5 Y24.632 E767.67627
G0 F12000 X14 Y24.632
G1 F3600 X13.999 Y-14.629 E769.30855
G0 F12000 X14.499 Y-14.629
G1 F3600 X14.5 Y24.632 E770.94084
G0 F12000 X15 Y24.631
G1 F3600 X14.999 Y-14.629 E772.57308
G0 F12000 X15.499 Y-14.629
G1 F3600 X15.5 Y24.631 E774.20532
G0 F12000 X16 Y24.631
G1 F3600 X15.999 Y-14.629 E775.83756
G0 F12000 X16.5 Y-14.629
G1 F3600 X16.5 Y24.631 E777.4698
G0 F12000 X17 Y24.631
G1 F3600 X17 Y-14.629 E779.10204
G0 F12000 X17.5 Y-14.629
G1 F3600 X17.5 Y24.631 E780.73428
G0 F12000 X18 Y24.631
G1 F3600 X18 Y-14.629 E782.36652
G0 F12000 X18.5 Y-14.629
G1 F3600 X18.5 Y24.631 E783.99877
G0 F12000 X19 Y24.631
G1 F3600 X19 Y-14.629 E785.63101
G0 F12000 X19.5 Y-14.629
G1 F3600 X19.5 Y24.631 E787.26325
G0 F12000 X20 Y24.631
G1 F3600 X20 Y-14.629 E788.89549
G0 F12000 X20.5 Y-14.629
G1 F3600 X20.5 Y24.631 E790.52773
G0 F12000 X21 Y24.631
G1 F3600 X21 Y-14.629 E792.15997
G0 F12000 X21.5 Y-14.629
G1 F3600 X21.5 Y24.631 E793.79221
G0 F12000 X22 Y24.631
G1 F3600 X22 Y-14.629 E795.42445
G0 F12000 X22.5 Y-14.629
G1 F3600 X22.5 Y24.631 E797.05669
G0 F12000 X23 Y24.631
G1 F3600 X23 Y-14.629 E798.68894
G0 F12000 X23.5 Y-14.629
G1 F3600 X23.5 Y24.631 E800.32118
G0 F12000 X24 Y24.631
G1 F3600 X24 Y-14.629 E801.95342
G0 F12000 X24.5 Y-14.629
G1 F3600 X24.5 Y24.631 E803.58566
G0 F12000 X25 Y24.631
G1 F3600 X25 Y-14.629 E805.2179
G0 F12000 X25.5 Y-14.629
G1 F3600 X25.5 Y24.631 E806.85014
G0 F12000 X26 Y24.631
G1 F3600 X26 Y-3.498 E808.01961
G0 F12000 X26.5 Y-2.391
G1 F3600 X26.5 Y24.631 E809.14305
G0 F12000 X27 Y24.631
G1 F3600 X27 Y-1.739 E810.23939
G0 F12000 X27.5 Y-1.268
G1 F3600 X27.5 Y24.631 E811.31615
G0 F12000 X28 Y24.631
G1 F3600 X28 Y-0.973 E812.38064
G0 F12000 X28.5 Y-0.726
G1 F3600 X28.5 Y24.631 E813.43486
G0 F12000 X29 Y24.631
G1 F3600 X29 Y-0.577 E814.48288
G0 F12000 X29.5 Y-0.481
G1 F3600 X29.5 Y24.631 E815.52692
G0 F12000 X30 Y24.631
G1 F3600 X30 Y-0.451 E816.56971
G0 F12000 X30.5 Y-0.482
G1 F3600 X30.5 Y24.631 E817.61379
G0 F12000 X31 Y24.631
G1 F3600 X31 Y-0.571 E818.66156
G0 F12000 X31.5 Y-0.738
G1 F3600 X31.5 Y24.631 E819.71628
G0 F12000 X32 Y24.631
G1 F3600 X32 Y-0.953 E820.77994
G0 F12000 X32.5 Y-1.299
G1 F3600 X32.5 Y24.631 E821.85799
G0 F12000 X33 Y24.631
G1 F3600 X33 Y-1.736 E822.9542
G0 F12000 X33.791 Y-4.173
G1 F3600 X33.791 Y-5.01 E822.98329
G0 F12000 X33 Y-7.445
G1 F3600 X33 Y-18.325 E823.43563
G0 F12000 X32.499 Y-17.888
G1 F3600 X32.5 Y-7.882 E823.85163
G0 F12000 X32 Y-8.228
G1 F3600 X31.999 Y-17.542 E824.23886
G0 F12000 X31.499 Y-17.327
G1 F3600 X31.5 Y-8.443 E824.60821
G0 F12000 X31 Y-8.61
G1 F3600 X30.999 Y-17.16 E824.96368
G0 F12000 X30.499 Y-17.071
G1 F3600 X30.5 Y-8.699 E825.31175
G0 F12000 X30 Y-8.73
G1 F3600 X29.999 Y-17.04 E825.65724
G0 F12000 X29.499 Y-17.07
G1 F3600 X29.5 Y-8.7 E826.00522
G0 F12000 X29 Y-8.604
G1 F3600 X28.999 Y-17.166 E826.36119
G0 F12000 X28.499 Y-17.315
G1 F3600 X28.5 Y-8.455 E826.72955
G0 F12000 X28 Y-8.208
G1 F3600 X27.999 Y-17.562 E827.11844
G0 F12000 X27.499 Y-17.856
G1 F3600 X27.5 Y-7.913 E827.53182
G0 F12000 X27 Y-7.442
G1 F3600 X26.999 Y-18.327 E827.98437
G0 F12000 X26.245 Y-20.349
G1 F3600 X26.196 Y-21.18 E828.01157
G1 X26.245 Y-22.012 E828.03881
G0 F12000 X26.999 Y-24.032
G1 F3600 X26.999 Y-24.629 E828.06363
G0 F12000 X29.373 Y-24.956
G1 F3600 X30.21 Y-24.98 E828.09141
G0 F12000 X33 Y-24.629
G1 F3600 X33 Y-24.033 E828.11619
G0 F12000 X33.791 Y-21.599
G1 F3600 X33.791 Y-20.762 E828.14528
G0 F12000 X32.803 Y-19.337
G0 X32.302 Y-18.74
G0 X31.677 Y-18.275
G0 X26.5 Y-14.629
G1 F3600 X26.5 Y-6.79 E828.47118
G0 F12000 X26 Y-5.683
G1 F3600 X26 Y-14.629 E828.84312
G1 F6600 E824.84312
G1 Z0.85
G0 F12000 X10.25 Y-15.43
G0 X8.999 Y-24.63
G1 Z0.55
G1 F6600 E828.94312
G1 F3600 X9 Y24.632 E830.99119
G0 F12000 X8.5 Y24.632
G1 F3600 X8.499 Y-24.63 E833.03927
G0 F12000 X7.999 Y-24.63
G1 F3600 X8 Y24.632 E835.08734
G0 F12000 X7.5 Y24.632
G1 F3600 X7.499 Y-24.63 E837.13542
G0 F12000 X6.999 Y-24.63
G1 F3600 X7 Y24.632 E839.1835
G0 F12000 X6.5 Y24.632
G1 F3600 X6.499 Y-24.63 E841.23157
G0 F12000 X5.999 Y-24.63
G1 F3600 X6 Y24.632 E843.27965
G0 F12000 X5.5 Y24.632
G1 F3600 X5.499 Y-24.63 E845.32772
G0 F12000 X4.999 Y-24.63
G1 F3600 X5 Y24.632 E847.3758
G0 F12000 X4.5 Y24.632
G1 F3600 X4.499 Y-24.63 E849.42388
G0 F12000 X3.999 Y-24.63
G1 F3600 X4 Y24.632 E851.47195
G0 F12000 X3.5 Y24.632
G1 F3600 X3.499 Y-24.63 E853.52003
G0 F12000 X2.999 Y-24.63
G1 F3600 X3 Y24.632 E855.5681
G0 F12000 X2.5 Y24.632
G1 F3600 X2.499 Y-24.63 E857.61618
G0 F12000 X1.999 Y-24.63
G1 F3600 X2 Y24.632 E859.66426
G0 F12000 X1.5 Y24.632
G1 F3600 X1.499 Y-24.63 E861.71233
G0 F12000 X0.999 Y-24.63
G1 F3600 X1 Y24.632 E863.76041
G0 F12000 X0.5 Y24.632
G1 F3600 X0.499 Y-24.63 E865.80848
G0 F12000 X0 Y-24.63
G1 F3600 X0 Y24.631 E867.85652
G0 F12000 X-0.499 Y24.631
G1 F3600 X-0.5 Y-24.63 E869.90455
G0 F12000 X-1 Y-24.63
G1 F3600 X-0.999 Y24.631 E871.95259
G0 F12000 X-1.499 Y24.631
G1 F3600 X-1.5 Y-24.63 E874.00062
G0 F12000 X-2 Y-24.63
G1 F3600 X-1.999 Y24.631 E876.04866
G0 F12000 X-2.499 Y24.631
G1 F3600 X-2.5 Y-24.63 E878.09669
G0 F12000 X-3 Y-24.63
G1 F3600 X-2.999 Y24.631 E880.14472
G0 F12000 X-3.499 Y24.631
G1 F3600 X-3.5 Y-24.63 E882.19276
G0 F12000 X-4 Y-24.63
G1 F3600 X-3.999 Y24.631 E884.24079
G0 F12000 X-4.499 Y24.631
G1 F3600 X-4.5 Y-24.63 E886.28883
G0 F12000 X-5 Y-24.63
G1 F3600 X-4.999 Y24.631 E888.33686
G0 F12000 X-5.499 Y24.631
G1 F3600 X-5.5 Y-24.63 E890.3849
G0 F12000 X-6 Y-24.63
G1 F3600 X-5.999 Y24.631 E892.43293
G0 F12000 X-6.499 Y24.631
G1 F3600 X-6.5 Y-24.63 E894.48097
G0 F12000 X-7 Y-24.63
G1 F3600 X-6.999 Y24.631 E896.529
G0 F12000 X-7.499 Y24.631
G1 F3600 X-7.5 Y-24.63 E898.57703
G0 F12000 X-8 Y-24.63
G1 F3600 X-7.999 Y24.631 E900.62507
G0 F12000 X-8.499 Y24.631
G1 F3600 X-8.5 Y-24.63 E902.6731
G0 F12000 X-9 Y-24.63
G1 F3600 X-8.999 Y24.631 E904.72114
G0 F12000 X-9.499 Y24.631
G1 F3600 X-9.5 Y-24.63 E906.76917
G0 F12000 X-10 Y-24.63
G1 F3600 X-9.999 Y24.631 E908.81721
G0 F12000 X-10.499 Y24.631
G1 F3600 X-10.5 Y-24.63 E910.86524
G0 F12000 X-11 Y-24.63
G1 F3600 X-10.999 Y24.631 E912.91327
G0 F12000 X-11.499 Y24.631
G1 F3600 X-11.5 Y-24.63 E914.96131
G0 F12000 X-12 Y-24.63
G1 F3600 X-11.999 Y24.631 E917.00934
G0 F12000 X-12.499 Y24.631
G1 F3600 X-12.5 Y-24.63 E919.05738
G0 F12000 X-13 Y-24.63
G1 F3600 X-12.999 Y24.631 E921.10541
G0 F12000 X-13.499 Y24.631
G1 F3600 X-13.5 Y-24.63 E923.15345
G0 F12000 X-14 Y-24.63
G1 F3600 X-13.999 Y24.631 E925.20148
G0 F12000 X-14.499 Y24.631
G1 F3600 X-14.5 Y-24.63 E927.24952
G0 F12000 X-15 Y-24.629
G1 F3600 X-14.999 Y24.631 E929.29751
G0 F12000 X-15.499 Y24.631
G1 F3600 X-15.5 Y-24.629 E931.3455
G0 F12000 X-16 Y-24.629
G1 F3600 X-15.999 Y24.631 E933.39349
G0 F12000 X-16.499 Y24.631
G1 F3600 X-16.5 Y-24.629 E935.44149
G0 F12000 X-17 Y-24.629
G1 F3600 X-16.999 Y24.631 E937.48948
G0 F12000 X-17.499 Y24.631
G1 F3600 X-17.5 Y-24.629 E939.53747
G0 F12000 X-18 Y-24.629
G1 F3600 X-17.999 Y24.631 E941.58547
G0 F12000 X-18.499 Y24.631
G1 F3600 X-18.5 Y-24.629 E943.63346
G0 F12000 X-19 Y-24.629
G1 F3600 X-18.999 Y24.631 E945.68145
G0 F12000 X-19.499 Y24.631
G1 F3600 X-19.5 Y-24.629 E947.72944
G0 F12000 X-20 Y-24.629
G1 F3600 X-19.999 Y24.631 E949.77744
G0 F12000 X-20.499 Y24.631
G1 F3600 X-20.5 Y-24.629 E951.82543
G0 F12000 X-21 Y-24.629
G1 F3600 X-20.999 Y24.631 E953.87342
G0 F12000 X-21.499 Y24.631
G1 F3600 X-21.5 Y-24.629 E955.92141
G0 F12000 X-22 Y-24.629
G1 F3600 X-21.999 Y24.631 E957.96941
G0 F12000 X-22.499 Y24.631
G1 F3600 X-22.5 Y-24.629 E960.0174
G0 F12000 X-23 Y-24.629
G1 F3600 X-22.999 Y24.631 E962.06539
G0 F12000 X-23.499 Y24.631
G1 F3600 X-23.5 Y-24.629 E964.11339
G0 F12000 X-24 Y-24.629
G1 F3600 X-23.999 Y24.631 E966.16138
G0 F12000 X-24.499 Y24.631
G1 F3600 X-24.5 Y-24.629 E968.20937
G0 F12000 X-25 Y-24.629
G1 F3600 X-24.999 Y24.631 E970.25736
G0 F12000 X-25.499 Y24.631
G1 F3600 X-25.5 Y-24.629 E972.30536
G0 F12000 X-26 Y-24.629
G1 F3600 X-26 Y-22.226 E972.40526
G0 F12000 X-26.5 Y-23.421
G1 F3600 X-26.5 Y-24.629 E972.45549
G0 F12000 X-27 Y-24.629
G1 F3600 X-27 Y-24.036 E972.48014
G0 F12000 X-29.789 Y-24.98
G1 F3600 X-30.626 Y-24.956 E972.50792
G0 F12000 X-33 Y-24.629
G1 F3600 X-33 Y-24.031 E972.53278
G0 F12000 X-33.754 Y-22.012
G1 F3600 X-33.802 Y-21.18 E972.56002
G1 X-33.754 Y-20.349 E972.58722
G0 F12000 X-33 Y-18.328
G1 F3600 X-33 Y-7.442 E973.0398
G0 F12000 X-32.5 Y-7.913
G1 F3600 X-32.5 Y-17.858 E973.45327
G0 F12000 X-32 Y-17.563
G1 F3600 X-32 Y-8.207 E973.84225
G0 F12000 X-31.5 Y-8.454
G1 F3600 X-31.5 Y-17.316 E974.21068
G0 F12000 X-31 Y-17.167
G1 F3600 X-31 Y-8.604 E974.56669
G0 F12000 X-30.5 Y-8.7
G1 F3600 X-30.5 Y-17.07 E974.91468
G0 F12000 X-30 Y-17.04
G1 F3600 X-30 Y-8.73 E975.26017
G0 F12000 X-29.5 Y-8.699
G1 F3600 X-29.5 Y-17.071 E975.60823
G0 F12000 X-29 Y-17.16
G1 F3600 X-29 Y-8.61 E975.9637
G0 F12000 X-28.5 Y-8.444
G1 F3600 X-28.5 Y-17.326 E976.33297
G0 F12000 X-28 Y-17.541
G1 F3600 X-28 Y-8.229 E976.72012
G0 F12000 X-27.5 Y-7.883
G1 F3600 X-27.5 Y-17.886 E977.136
G0 F12000 X-27 Y-18.322
G1 F3600 X-27 Y-7.446 E977.58817
G0 F12000 X-26.5 Y-6.83
G1 F3600 X-26.5 Y-18.938 E978.09156
G0 F12000 X-26 Y-20.133
G1 F3600 X-26 Y-5.633 E978.6944
G0 F12000 X-26 Y-3.548
G1 F3600 X-25.999 Y24.631 E979.86595
G0 F12000 X-26.499 Y24.631
G1 F3600 X-26.5 Y-2.351 E980.98773
G0 F12000 X-27 Y-1.735
G1 F3600 X-26.999 Y24.631 E982.0839
G0 F12000 X-27.499 Y24.631
G1 F3600 X-27.5 Y-1.298 E983.1619
G0 F12000 X-28 Y-0.952
G1 F3600 X-27.999 Y24.631 E984.22552
G0 F12000 X-28.499 Y24.631
G1 F3600 X-28.5 Y-0.737 E985.2802
G0 F12000 X-29 Y-0.571
G1 F3600 X-28.999 Y24.631 E986.32798
G0 F12000 X-29.499 Y24.631
G1 F3600 X-29.5 Y-0.482 E987.37205
G0 F12000 X-30 Y-0.451
G1 F3600 X-29.999 Y24.631 E988.41484
G0 F12000 X-30.499 Y24.631
G1 F3600 X-30.5 Y-0.481 E989.45888
G0 F12000 X-31 Y-0.577
G1 F3600 X-30.999 Y24.631 E990.5069
G0 F12000 X-31.499 Y24.631
G1 F3600 X-31.5 Y-0.727 E991.56117
G0 F12000 X-32 Y-0.974
G1 F3600 X-31.999 Y24.631 E992.6257
G0 F12000 X-32.499 Y24.631
G1 F3600 X-32.5 Y-1.268 E993.70245
G0 F12000 X-33 Y-1.739
G1 F3600 X-33 Y24.631 E994.79879
G0 F12000 X-33.754 Y-3.76
G1 F3600 X-33.802 Y-4.591 E994.82599
G1 X-33.754 Y-5.423 E994.85323
; Layer Change GCode
; LAYER:2
M400
M106 S153
G0 F12000 X-33.754 Y-5.423 Z0.75
G0 X-33.264 Y-3.818
G0 X-32.998 Y-3.086
G0 X-32.569 Y-2.435
G0 X-32.003 Y-1.9
G0 X-31.328 Y-1.511
G0 X-30.582 Y-1.287
G0 X-29.861 Y-1.246
G0 X-29.833 Y-1.745
G0 X-29.861 Y-1.246
G0 X-30.582 Y-1.287
G0 X-31.328 Y-1.511
G0 X-32.003 Y-1.9
G0 X-33.448 Y-2.861
; TYPE:WALL-INNER
G1 F3600 X-32.955 Y-2.111 E994.89054
G1 X-32.303 Y-1.496 E994.9278
G1 X-31.527 Y-1.048 E994.96506
G1 X-30.669 Y-0.792 E995.00228
G1 X-29.774 Y-0.74 E995.03955
G1 X-28.893 Y-0.895 E995.07674
G1 X-28.07 Y-1.25 E995.11401
G1 X-27.351 Y-1.785 E995.15127
G1 X-26.776 Y-2.472 E995.18851
G1 X-26.373 Y-3.272 E995.22576
G1 X-26.167 Y-4.144 E995.26301
G1 X-26.167 Y-5.039 E995.30022
G1 X-26.373 Y-5.911 E995.33747
G1 X-26.776 Y-6.711 E995.37471
G1 X-27.351 Y-7.398 E995.41196
G1 X-28.07 Y-7.933 E995.44922
G1 X-28.893 Y-8.288 E995.48648
G1 X-29.774 Y-8.443 E995.52367
G1 X-30.669 Y-8.391 E995.56094
G1 X-31.527 Y-8.135 E995.59817
G1 X-32.303 Y-7.687 E995.63542
G1 X-32.955 Y-7.072 E995.67269
G1 X-33.448 Y-6.322 E995.71
G0 F12000 X-33.598 Y-6.322
G1 F3600 X-33.749 Y-5.495 E995.74495
G0 F12000 X-33.749 Y-6.322
G1 F3600 X-33.749 Y-19.45 E996.29075
G0 F12000 X-33.598 Y-19.45
G1 F3600 X-33.749 Y-20.277 E996.3257
G0 F12000 X-33.448 Y-19.45
G1 F3600 X-32.955 Y-18.7 E996.36302
G1 X-32.303 Y-18.085 E996.40028
G1 X-31.527 Y-17.637 E996.43753
G1 X-30.669 Y-17.381 E996.47476
G1 X-29.774 Y-17.329 E996.51203
G1 X-28.893 Y-17.484 E996.54922
G1 X-28.07 Y-17.839 E996.58648
G1 X-27.351 Y-18.374 E996.62374
G1 X-26.776 Y-19.061 E996.66099
G1 X-26.373 Y-19.861 E996.69823
G1 X-26.167 Y-20.733 E996.73548
G1 X-26.167 Y-21.628 E996.77269
G1 X-26.373 Y-22.5 E996.80994
G1 X-26.776 Y-23.3 E996.84719
G1 X-27.351 Y-23.987 E996.88443
G1 X-28.07 Y-24.522 E996.92169
G0 F12000 X-28.07 Y-24.726
G1 F3600 X-28.893 Y-24.903 E996.95669
G1 X-29.194 Y-24.93 E996.96926
G0 F12000 X-28.07 Y-24.93
G1 F3600 X9.75 Y-24.93 E998.54163
G1 X9.75 Y-14.93 E998.95738
G1 X26.25 Y-14.93 E999.64337
G1 X26.25 Y-19.45 E999.83129
G0 F12000 X26.4 Y-19.45
G1 F3600 X26.25 Y-20.277 E999.86623
G0 F12000 X26.551 Y-19.45
G1 F3600 X27.044 Y-18.7 E999.90355
G1 X27.696 Y-18.085 E999.94081
G1 X28.472 Y-17.637 E999.97806
G1 X29.33 Y-17.381 E1000.01529
G1 X30.225 Y-17.329 E1000.05256
G1 X31.106 Y-17.484 E1000.08975
G1 X31.929 Y-17.839 E1000.12702
G1 X32.648 Y-18.374 E1000.16428
G1 X33.223 Y-19.061 E1000.20152
G1 X33.626 Y-19.861 E1000.23877
G0 F12000 X33.688 Y-19.861
G1 F3600 X33.75 Y-20.386 E1000.26074
G0 F12000 X33.75 Y-19.861
G1 F3600 X33.75 Y-5.911 E1000.84072
G0 F12000 X33.688 Y-5.911
G1 F3600 X33.75 Y-5.386 E1000.8627
G0 F12000 X33.626 Y-5.911
G1 F3600 X33.223 Y-6.711 E1000.89994
G1 X32.648 Y-7.398 E1000.93718
G1 X31.929 Y-7.933 E1000.97444
G1 X31.106 Y-8.288 E1001.01171
G1 X30.225 Y-8.443 E1001.0489
G1 X29.33 Y-8.391 E1001.08617
G1 X28.472 Y-8.135 E1001.1234
G1 X27.696 Y-7.687 E1001.16065
G1 X27.044 Y-7.072 E1001.19791
G1 X26.551 Y-6.322 E1001.23523
G1 X26.245 Y-5.481 E1001.27243
G1 X26.142 Y-4.591 E1001.30968
G1 X26.245 Y-3.702 E1001.34689
G1 X26.551 Y-2.861 E1001.3841
G1 X27.044 Y-2.111 E1001.42141
G1 X27.696 Y-1.496 E1001.45868
G1 X28.472 Y-1.048 E1001.49593
G1 X29.33 Y-0.792 E1001.53315
G1 X30.225 Y-0.74 E1001.57043
G1 X31.106 Y-0.895 E1001.60762
G1 X31.929 Y-1.25 E1001.64488
G1 X32.648 Y-1.785 E1001.68214
G1 X33.223 Y-2.472 E1001.71939
G1 X33.626 Y-3.272 E1001.75663
G0 F12000 X33.688 Y-3.272
G1 F3600 X33.75 Y-3.797 E1001.77861
G0 F12000 X33.75 Y-3.272
G1 F3600 X33.75 Y24.932 E1002.95119
G1 X-33.749 Y24.932 E1005.75748
G1 X-33.749 Y-2.861 E1006.91297
G0 F12000 X-33.598 Y-2.861
G1 F3600 X-33.749 Y-3.688 E1006.94793
G0 F12000 X-33.264 Y-3.818
G1 F3600 X-32.998 Y-3.086 E1006.98031
G1 X-32.569 Y-2.435 E1007.01272
G1 X-32.003 Y-1.9 E1007.0451
G1 X-31.328 Y-1.511 E1007.07749
G1 X-30.582 Y-1.287 E1007.10987
G1 X-29.804 Y-1.242 E1007.14227
G1 X-29.038 Y-1.378 E1007.17462
G1 X-28.322 Y-1.686 E1007.20702
G1 X-27.697 Y-2.151 E1007.23941
G1 X-27.196 Y-2.748 E1007.27181
G1 X-26.846 Y-3.444 E1007.3042
G1 X-26.667 Y-4.203 E1007.33662
G1 X-26.667 Y-4.98 E1007.36893
G1 X-26.846 Y-5.739 E1007.40135
G1 X-27.196 Y-6.435 E1007.43374
G1 X-27.697 Y-7.032 E1007.46614
G1 X-28.322 Y-7.497 E1007.49853
G1 X-29.038 Y-7.805 E1007.53093
G1 X-29.804 Y-7.941 E1007.56328
G1 X-30.582 Y-7.896 E1007.59567
G1 X-31.328 Y-7.672 E1007.62806
G1 X-32.003 Y-7.283 E1007.66045
G1 X-32.569 Y-6.748 E1007.69283
G1 X-32.998 Y-6.097 E1007.72524
G1 X-33.264 Y-5.365 E1007.75762
G1 X-33.354 Y-4.591 E1007.79002
G1 X-33.264 Y-3.818 E1007.82237
G0 F12000 X-32.998 Y-3.086
G0 X-32.569 Y-2.435
G0 X-32.003 Y-1.9
G0 X-31.328 Y-1.511
G0 X-30.582 Y-1.287
G0 X-29.861 Y-1.246
G0 X-29.833 Y-1.745
; TYPE:WALL-OUTER
G1 F2700 X-29.182 Y-1.86 E1007.84986
G1 X-28.573 Y-2.122 E1007.87742
G1 X-28.042 Y-2.517 E1007.90493
G1 X-27.617 Y-3.025 E1007.93247
G1 X-27.319 Y-3.616 E1007.95999
G1 X-27.167 Y-4.261 E1007.98754
G1 X-27.167 Y-4.922 E1008.01502
G1 X-27.319 Y-5.567 E1008.04257
G1 X-27.617 Y-6.158 E1008.07009
G1 X-28.042 Y-6.666 E1008.09763
G1 X-28.573 Y-7.061 E1008.12514
G1 X-29.182 Y-7.323 E1008.1527
G1 X-29.833 Y-7.438 E1008.18019
G1 X-30.495 Y-7.4 E1008.20776
G1 X-31.129 Y-7.21 E1008.23527
G1 X-31.702 Y-6.879 E1008.26278
G1 X-32.184 Y-6.425 E1008.29031
G1 X-32.548 Y-5.871 E1008.31787
G1 X-32.774 Y-5.249 E1008.34539
G1 X-32.851 Y-4.591 E1008.37293
G1 X-32.774 Y-3.934 E1008.40043
G1 X-32.548 Y-3.312 E1008.42795
G1 X-32.184 Y-2.758 E1008.4555
G1 X-31.702 Y-2.304 E1008.48303
G1 X-31.129 Y-1.973 E1008.51055
G1 X-30.495 Y-1.783 E1008.53806
G1 X-29.833 Y-1.745 E1008.56563
G0 F12000 X-29.861 Y-1.246
G0 X-29.804 Y-1.242
G0 X-29.038 Y-1.378
G0 X-28.322 Y-1.686
G0 X-27.697 Y-2.151
G0 X-27.196 Y-2.748
G0 X-26.846 Y-3.444
G0 X-26.667 Y-4.203
G0 X-26.667 Y-4.98
G0 X-26.846 Y-5.739
G0 X-29.861 Y-17.835
G0 X-29.833 Y-18.334
G0 X-29.861 Y-17.835
G0 X-30.582 Y-17.876
G0 X-31.328 Y-18.1
G0 X-32.003 Y-18.489
G0 X-32.569 Y-19.024
G0 X-32.998 Y-19.675
G0 X-33.264 Y-20.407
G0 X-33.749 Y-22.084
; TYPE:WALL-INNER
G1 F3600 X-33.598 Y-22.911 E1008.60058
G0 F12000 X-33.448 Y-22.911
G1 F3600 X-32.955 Y-23.661 E1008.6379
G1 X-32.303 Y-24.276 E1008.67516
G1 X-31.527 Y-24.724 E1008.71241
G0 F12000 X-31.527 Y-24.827
G1 F3600 X-30.837 Y-24.93 E1008.74142
G0 F12000 X-31.527 Y-24.93
G1 F3600 X-33.749 Y-24.93 E1008.8338
G1 X-33.749 Y-22.911 E1008.91774
G0 F12000 X-32.998 Y-22.686
G1 F3600 X-33.264 Y-21.954 E1008.95012
G1 X-33.354 Y-21.18 E1008.98251
G1 X-33.264 Y-20.407 E1009.01487
G1 X-32.998 Y-19.675 E1009.04725
G1 X-32.569 Y-19.024 E1009.07966
G1 X-32.003 Y-18.489 E1009.11204
G1 X-31.328 Y-18.1 E1009.14443
G1 X-30.582 Y-17.876 E1009.17681
G1 X-29.804 Y-17.831 E1009.20921
G1 X-29.038 Y-17.967 E1009.24156
G1 X-28.322 Y-18.275 E1009.27396
G1 X-27.697 Y-18.74 E1009.30635
G1 X-27.196 Y-19.337 E1009.33875
G1 X-26.846 Y-20.033 E1009.37114
G1 X-26.667 Y-20.792 E1009.40356
G1 X-26.667 Y-21.569 E1009.43587
G1 X-26.846 Y-22.328 E1009.46829
G1 X-27.196 Y-23.024 E1009.50068
G1 X-27.697 Y-23.621 E1009.53308
G1 X-28.322 Y-24.086 E1009.56547
G1 X-29.038 Y-24.394 E1009.59787
G1 X-29.804 Y-24.53 E1009.63022
G1 X-30.582 Y-24.485 E1009.66262
G1 X-31.328 Y-24.261 E1009.695
G1 X-32.003 Y-23.872 E1009.72739
G1 X-32.569 Y-23.337 E1009.75977
G1 X-32.998 Y-22.686 E1009.79218
G0 F12000 X-33.264 Y-21.954
G0 X-33.354 Y-21.18
G0 X-33.264 Y-20.407
G0 X-32.998 Y-19.675
G0 X-32.569 Y-19.024
G0 X-32.003 Y-18.489
G0 X-31.328 Y-18.1
G0 X-30.582 Y-17.876
G0 X-29.861 Y-17.835
G0 X-29.833 Y-18.334
; TYPE:WALL-OUTER
G1 F2700 X-29.182 Y-18.449 E1009.81967
G1 X-28.573 Y-18.711 E1009.84723
G1 X-28.042 Y-19.106 E1009.87475
G1 X-27.617 Y-19.614 E1009.90228
G1 X-27.319 Y-20.205 E1009.9298
G1 X-27.167 Y-20.85 E1009.95735
G1 X-27.167 Y-21.511 E1009.98483
G1 X-27.319 Y-22.156 E1010.01238
G1 X-27.617 Y-22.747 E1010.0399
G1 X-28.042 Y-23.255 E1010.06744
G1 X-28.573 Y-23.65 E1010.09495
G1 X-29.182 Y-23.912 E1010.12251
G1 X-29.833 Y-24.027 E1010.15
G1 X-30.495 Y-23.989 E1010.17757
G1 X-31.129 Y-23.799 E1010.20508
G1 X-31.702 Y-23.468 E1010.2326
G1 X-32.184 Y-23.014 E1010.26012
G1 X-32.548 Y-22.46 E1010.28768
G1 X-32.774 Y-21.838 E1010.3152
G1 X-32.851 Y-21.18 E1010.34274
G1 X-32.774 Y-20.523 E1010.37024
G1 X-32.548 Y-19.901 E1010.39776
G1 X-32.184 Y-19.347 E1010.42532
G1 X-31.702 Y-18.893 E1010.45285
G1 X-31.129 Y-18.562 E1010.48036
G1 X-30.495 Y-18.372 E1010.50787
G1 X-29.833 Y-18.334 E1010.53544
G1 F6600 E1006.53544
G1 Z1.05
G0 F12000 X-29.861 Y-17.835
G0 X-29.804 Y-17.831
G0 X10.25 Y-15.43
G0 X10.75 Y-15.43
G0 X10.75 Y-15.93
G0 X10.75 Y-15.43
G0 X25.75 Y-15.43
G0 X26.25 Y-22.084
; TYPE:WALL-INNER
G1 Z0.75
G1 F6600 E1010.63544
G1 F3600 X26.4 Y-22.911 E1010.67039
G0 F12000 X26.25 Y-22.911
G1 F3600 X26.25 Y-24.93 E1010.75433
G1 X28.472 Y-24.93 E1010.84671
G0 F12000 X28.472 Y-24.827
G1 F3600 X29.162 Y-24.93 E1010.87571
G0 F12000 X28.472 Y-24.724
G1 F3600 X27.696 Y-24.276 E1010.91296
G1 X27.044 Y-23.661 E1010.95023
G1 X26.551 Y-22.911 E1010.98754
G0 F12000 X27.001 Y-22.686
G1 F3600 X26.735 Y-21.954 E1011.01992
G1 X26.645 Y-21.18 E1011.05232
G1 X26.735 Y-20.407 E1011.08467
G1 X27.001 Y-19.675 E1011.11705
G1 X27.43 Y-19.024 E1011.14947
G1 X27.996 Y-18.489 E1011.18185
G1 X28.671 Y-18.1 E1011.21424
G1 X29.417 Y-17.876 E1011.24662
G1 X30.195 Y-17.831 E1011.27902
G1 X30.961 Y-17.967 E1011.31136
G1 X31.677 Y-18.275 E1011.34377
G1 X32.302 Y-18.74 E1011.37616
G1 X32.803 Y-19.337 E1011.40856
G1 X33.153 Y-20.033 E1011.44095
G1 X33.332 Y-20.792 E1011.47337
G1 X33.332 Y-21.569 E1011.50567
G1 X33.153 Y-22.328 E1011.53809
G1 X32.803 Y-23.024 E1011.57048
G1 X32.302 Y-23.621 E1011.60288
G1 X31.677 Y-24.086 E1011.63527
G1 X30.961 Y-24.394 E1011.66768
G1 X30.195 Y-24.53 E1011.70002
G1 X29.417 Y-24.485 E1011.73242
G1 X28.671 Y-24.261 E1011.7648
G1 X27.996 Y-23.872 E1011.79719
G1 X27.43 Y-23.337 E1011.82957
G1 X27.001 Y-22.686 E1011.86199
G0 F12000 X26.735 Y-21.954
G0 X26.645 Y-21.18
G0 X26.735 Y-20.407
G0 X27.001 Y-19.675
G0 X27.43 Y-19.024
G0 X27.996 Y-18.489
G0 X28.671 Y-18.1
G0 X29.417 Y-17.876
G0 X30.138 Y-17.835
G0 X30.166 Y-18.334
; TYPE:WALL-OUTER
G1 F2700 X30.817 Y-18.449 E1011.88947
G1 X31.426 Y-18.711 E1011.91704
G1 X31.957 Y-19.106 E1011.94455
G1 X32.382 Y-19.614 E1011.97209
G1 X32.68 Y-20.205 E1011.9996
G1 X32.832 Y-20.85 E1012.02716
G1 X32.832 Y-21.511 E1012.05464
G1 X32.68 Y-22.156 E1012.08219
G1 X32.382 Y-22.747 E1012.1097
G1 X31.957 Y-23.255 E1012.13724
G1 X31.426 Y-23.65 E1012.16476
G1 X30.817 Y-23.912 E1012.19232
G1 X30.166 Y-24.027 E1012.2198
G1 X29.504 Y-23.989 E1012.24737
G1 X28.87 Y-23.799 E1012.27489
G1 X28.297 Y-23.468 E1012.3024
G1 X27.815 Y-23.014 E1012.32993
G1 X27.451 Y-22.46 E1012.35749
G1 X27.225 Y-21.838 E1012.385
G1 X27.148 Y-21.18 E1012.41255
G1 X27.225 Y-20.523 E1012.44005
G1 X27.451 Y-19.901 E1012.46756
G1 X27.815 Y-19.347 E1012.49512
G1 X28.297 Y-18.893 E1012.52265
G1 X28.87 Y-18.562 E1012.55016
G1 X29.504 Y-18.372 E1012.57768
G1 X30.166 Y-18.334 E1012.60525
G1 F6600 E1008.60525
G1 Z1.05
G0 F12000 X30.138 Y-17.835
G0 X33.153 Y-5.739
G0 X33.332 Y-4.98
G0 X33.332 Y-4.203
G0 X33.153 Y-3.444
G0 X32.803 Y-2.748
G0 X32.302 Y-2.151
G0 X31.677 Y-1.686
G0 X30.961 Y-1.378
G0 X30.195 Y-1.242
G0 X30.138 Y-1.246
G0 X30.166 Y-1.745
G0 X30.138 Y-1.246
G0 X30.195 Y-1.242
G0 X30.961 Y-1.378
G0 X31.677 Y-1.686
G0 X32.302 Y-2.151
G0 X32.803 Y-2.748
G0 X33.153 Y-3.444
G0 X33.332 Y-4.203
G0 X33.75 Y-21.975
; TYPE:WALL-INNER
G1 Z0.75
G1 F6600 E1012.70525
G1 F3600 X33.688 Y-22.5 E1012.72722
G0 F12000 X33.626 Y-22.5
G1 F3600 X33.223 Y-23.3 E1012.76447
G1 X32.648 Y-23.987 E1012.80171
G1 X31.929 Y-24.522 E1012.83897
G0 F12000 X31.929 Y-24.726
G1 F3600 X31.106 Y-24.903 E1012.87397
G1 X30.805 Y-24.93 E1012.88654
G0 F12000 X31.929 Y-24.93
G1 F3600 X33.75 Y-24.93 E1012.96224
G1 X33.75 Y-22.5 E1013.06327
G0 F12000 X33.332 Y-4.203
G0 X33.153 Y-3.444
G0 X32.803 Y-2.748
G0 X32.302 Y-2.151
G0 X31.677 Y-1.686
G0 X30.961 Y-1.378
G0 X30.195 Y-1.242
G0 X30.138 Y-1.246
G0 X30.166 Y-1.745
G0 X30.138 Y-1.246
G0 X30.195 Y-1.242
G1 F3600 X30.961 Y-1.378 E1013.09562
G1 X31.677 Y-1.686 E1013.12802
G1 X32.302 Y-2.151 E1013.16041
G1 X32.803 Y-2.748 E1013.19281
G1 X33.153 Y-3.444 E1013.2252
G1 X33.332 Y-4.203 E1013.25762
G1 X33.332 Y-4.98 E1013.28993
G1 X33.153 Y-5.739 E1013.32235
G1 X32.803 Y-6.435 E1013.35474
G1 X32.302 Y-7.032 E1013.38714
G1 X31.677 Y-7.497 E1013.41952
G1 X30.961 Y-7.805 E1013.45193
G1 X30.195 Y-7.941 E1013.48427
G1 X29.417 Y-7.896 E1013.51667
G1 X28.671 Y-7.672 E1013.54906
G1 X27.996 Y-7.283 E1013.58145
G1 X27.43 Y-6.748 E1013.61383
G1 X27.001 Y-6.097 E1013.64624
G1 X26.735 Y-5.365 E1013.67862
G1 X26.645 Y-4.591 E1013.71102
G1 X26.735 Y-3.818 E1013.74337
G1 X27.001 Y-3.086 E1013.77575
G1 X27.43 Y-2.435 E1013.80817
G1 X27.996 Y-1.9 E1013.84055
G1 X28.671 Y-1.511 E1013.87294
G1 X29.417 Y-1.287 E1013.90532
G1 X30.195 Y-1.242 E1013.93772
G0 F12000 X30.138 Y-1.246
G0 X30.166 Y-1.745
; TYPE:WALL-OUTER
G1 F2700 X30.817 Y-1.86 E1013.9652
G1 X31.426 Y-2.122 E1013.99277
G1 X31.957 Y-2.517 E1014.02028
G1 X32.382 Y-3.025 E1014.04782
G1 X32.68 Y-3.616 E1014.07533
G1 X32.832 Y-4.261 E1014.10289
G1 X32.832 Y-4.922 E1014.13037
G1 X32.68 Y-5.567 E1014.15792
G1 X32.382 Y-6.158 E1014.18544
G1 X31.957 Y-6.666 E1014.21297
G1 X31.426 Y-7.061 E1014.24049
G1 X30.817 Y-7.323 E1014.26805
G1 X30.166 Y-7.438 E1014.29553
G1 X29.504 Y-7.4 E1014.3231
G1 X28.87 Y-7.21 E1014.35062
G1 X28.297 Y-6.879 E1014.37813
G1 X27.815 Y-6.425 E1014.40566
G1 X27.451 Y-5.871 E1014.43322
G1 X27.225 Y-5.249 E1014.46073
G1 X27.148 Y-4.591 E1014.48828
G1 X27.225 Y-3.934 E1014.51578
G1 X27.451 Y-3.312 E1014.54329
G1 X27.815 Y-2.758 E1014.57085
G1 X28.297 Y-2.304 E1014.59838
G1 X28.87 Y-1.973 E1014.62589
G1 X29.504 Y-1.783 E1014.65341
G1 X30.166 Y-1.745 E1014.68098
G1 F6600 E1010.68098
G1 Z1.05
G0 F12000 X30.138 Y-1.246
G0 X29.417 Y-1.287
G0 X28.671 Y-1.511
G0 X27.996 Y-1.9
G0 X10.75 Y-15.43
G0 X10.75 Y-15.93
G0 X10.75 Y-15.43
G0 X10.25 Y-15.43
; TYPE:WALL-INNER
G1 Z0.75
G1 F6600 E1014.78098
G1 F3600 X25.75 Y-15.43 E1015.42539
G1 X25.75 Y-25.43 E1015.84114
G1 X34.25 Y-25.43 E1016.19453
G1 X34.25 Y25.432 E1018.30913
G1 X-34.249 Y25.432 E1021.15699
G1 X-34.249 Y-25.43 E1023.27158
G1 X10.25 Y-25.43 E1025.12164
G1 X10.25 Y-15.43 E1025.53739
G0 F12000 X10.75 Y-15.43
G0 X10.75 Y-15.93
; TYPE:WALL-OUTER
G1 F2700 X25.25 Y-15.93 E1026.14023
G1 X25.25 Y-25.93 E1026.55598
G1 X34.75 Y-25.93 E1026.95094
G1 X34.75 Y25.932 E1029.10711
G1 X-34.749 Y25.932 E1031.99655
G1 X-34.749 Y-25.93 E1034.15272
G1 X10.75 Y-25.93 E1036.04435
G1 X10.75 Y-15.93 E1036.4601
G0 F12000 X10.75 Y-15.43
G0 X10.25 Y-15.43
G0 X9.449 Y-16
; TYPE:FILL
G1 F3600 X-33.449 Y-15.999 E1038.24359
G0 F12000 X-33.449 Y-16.499
G1 F3600 X9.449 Y-16.5 E1040.02708
G0 F12000 X9.449 Y-17
G1 F3600 X-33.449 Y-16.999 E1041.81057
G0 F12000 X-33.449 Y-17.499
G1 F3600 X-31.889 Y-17.499 E1041.87543
G0 F12000 X-32.651 Y-17.999
G1 F3600 X-33.449 Y-17.999 E1041.90861
G0 F12000 X-33.266 Y-18.499
G1 F3600 X-33.181 Y-18.499 E1041.91214
G0 F12000 X-33.754 Y-20.349
G1 F3600 X-33.802 Y-21.18 E1041.93934
G1 X-33.754 Y-22.012 E1041.96658
G0 F12000 X-33.449 Y-23.999
G1 F3600 X-32.857 Y-24.249 E1041.98383
G1 X-33.449 Y-24.499 E1042.01055
G0 F12000 X-30.626 Y-24.956
G1 F3600 X-29.789 Y-24.98 E1042.03833
G0 F12000 X-27.295 Y-24.5
G1 F3600 X9.449 Y-24.5 E1043.56597
G0 F12000 X9.449 Y-24
G1 F3600 X-26.97 Y-24 E1045.0801
G0 F12000 X-26.55 Y-23.5
G1 F3600 X9.449 Y-23.5 E1046.57676
G0 F12000 X9.449 Y-23
G1 F3600 X-26.289 Y-23 E1048.06257
G0 F12000 X-26.066 Y-22.5
G1 F3600 X9.449 Y-22.5 E1049.53912
G0 F12000 X9.449 Y-22
G1 F3600 X-25.947 Y-22 E1051.01071
G0 F12000 X-25.867 Y-21.5
G1 F3600 X9.449 Y-21.5 E1052.47898
G0 F12000 X9.449 Y-21
G1 F3600 X-25.867 Y-21 E1053.94725
G0 F12000 X-25.914 Y-20.5
G1 F3600 X9.449 Y-20.5 E1055.41747
G0 F12000 X9.449 Y-20
G1 F3600 X-26.033 Y-20 E1056.89264
G0 F12000 X-26.219 Y-19.5
G1 F3600 X9.449 Y-19.5 E1058.37554
G0 F12000 X9.449 Y-19
G1 F3600 X-26.47 Y-19 E1059.86888
G0 F12000 X-26.853 Y-18.5
G1 F3600 X9.449 Y-18.5 E1061.37814
G0 F12000 X9.449 Y-18
G1 F3600 X-27.35 Y-18 E1062.90807
G0 F12000 X-28.099 Y-17.5
G1 F3600 X9.449 Y-17.5 E1064.46913
G0 F12000 X9.449 Y-15.5
G1 F3600 X-33.449 Y-15.499 E1066.25263
G0 F12000 X-33.449 Y-14.999
G1 F3600 X9.449 Y-15 E1068.03612
G0 F12000 X26.55 Y-15
G1 F3600 X33.45 Y-15 E1068.32299
G0 F12000 X33.45 Y-15.5
G1 F3600 X26.55 Y-15.5 E1068.60985
G0 F12000 X26.55 Y-16
G1 F3600 X33.45 Y-16 E1068.89672
G0 F12000 X33.45 Y-16.5
G1 F3600 X26.55 Y-16.5 E1069.18359
G0 F12000 X26.55 Y-17
G1 F3600 X33.45 Y-17 E1069.47046
G0 F12000 X33.45 Y-17.5
G1 F3600 X31.903 Y-17.5 E1069.53478
G0 F12000 X32.651 Y-18
G1 F3600 X33.45 Y-18 E1069.568
G0 F12000 X33.321 Y-18.5
G1 F3600 X33.146 Y-18.5 E1069.57527
G0 F12000 X33.791 Y-20.762
G1 F3600 X33.791 Y-21.599 E1069.60436
G0 F12000 X33.45 Y-24
G1 F3600 X32.866 Y-24.25 E1069.6219
G1 X33.45 Y-24.5 E1069.64831
G0 F12000 X30.21 Y-24.98
G1 F3600 X29.373 Y-24.956 E1069.67609
G0 F12000 X27.318 Y-24.5
G1 F3600 X26.55 Y-24.5 E1069.70802
G0 F12000 X26.55 Y-24
G1 F3600 X26.965 Y-24 E1069.72527
G0 F12000 X26.245 Y-22.012
G1 F3600 X26.196 Y-21.18 E1069.75251
G1 X26.245 Y-20.349 E1069.77971
G0 F12000 X26.733 Y-18.5
G1 F3600 X26.684 Y-18.25 E1069.78325
G1 X27.348 Y-18 E1069.81275
G0 F12000 X28.11 Y-17.5
G1 F3600 X26.55 Y-17.5 E1069.87761
G0 F12000 X33.45 Y-14.5
G1 F3600 X-33.449 Y-14.499 E1072.65894
G0 F12000 X-33.449 Y-13.999
G1 F3600 X33.45 Y-14 E1075.44028
G0 F12000 X33.45 Y-13.5
G1 F3600 X-33.449 Y-13.499 E1078.22162
G0 F12000 X-33.449 Y-12.999
G1 F3600 X33.45 Y-13 E1081.00295
G0 F12000 X33.45 Y-12.5
G1 F3600 X-33.449 Y-12.499 E1083.78429
G0 F12000 X-33.449 Y-11.999
G1 F3600 X33.45 Y-12 E1086.56563
G0 F12000 X33.45 Y-11.5
G1 F3600 X-33.449 Y-11.499 E1089.34697
G0 F12000 X-33.449 Y-10.999
G1 F3600 X33.45 Y-11 E1092.1283
G0 F12000 X33.45 Y-10.5
G1 F3600 X-33.449 Y-10.499 E1094.90964
G0 F12000 X-33.449 Y-9.999
G1 F3600 X33.45 Y-10 E1097.69098
G0 F12000 X33.45 Y-9.5
G1 F3600 X-33.449 Y-9.499 E1100.47231
G0 F12000 X-33.449 Y-8.999
G1 F3600 X33.45 Y-9 E1103.25365
G0 F12000 X33.45 Y-8.5
G1 F3600 X31.369 Y-8.5 E1103.34017
G0 F12000 X32.342 Y-8
G1 F3600 X33.45 Y-8 E1103.38624
G0 F12000 X33.45 Y-7.5
G1 F3600 X32.954 Y-7.5 E1103.40686
G0 F12000 X33.791 Y-5.01
G1 F3600 X33.791 Y-4.173 E1103.43595
G0 F12000 X33.45 Y-1.5
G1 F3600 X32.77 Y-1.5 E1103.46422
G0 F12000 X32.099 Y-1
G1 F3600 X33.45 Y-1 E1103.52039
G0 F12000 X33.45 Y-0.5
G1 F3600 X30.599 Y-0.5 E1103.63892
G0 F12000 X29.258 Y-0.5
G1 F3600 X-29.406 Y-0.499 E1106.07788
G0 F12000 X-30.738 Y-0.499
G1 F3600 X-33.449 Y-0.499 E1106.19059
G0 F12000 X-33.449 Y0
G1 F3600 X33.45 Y0 E1108.97193
G0 F12000 X33.45 Y0.499
G1 F3600 X-33.449 Y0.5 E1111.75327
G0 F12000 X-33.449 Y1
G1 F3600 X33.45 Y0.999 E1114.53461
G0 F12000 X33.45 Y1.499
G1 F3600 X-33.449 Y1.5 E1117.31594
G0 F12000 X-33.449 Y2
G1 F3600 X33.45 Y1.999 E1120.09728
G0 F12000 X33.45 Y2.499
G1 F3600 X-33.449 Y2.5 E1122.87862
G0 F12000 X-33.449 Y3
G1 F3600 X33.45 Y2.999 E1125.65995
G0 F12000 X33.45 Y3.499
G1 F3600 X-33.449 Y3.5 E1128.44129
G0 F12000 X-33.449 Y4
G1 F3600 X33.45 Y3.999 E1131.22263
G0 F12000 X33.45 Y4.499
G1 F3600 X-33.449 Y4.5 E1134.00397
G0 F12000 X-33.449 Y5
G1 F3600 X33.45 Y4.999 E1136.7853
G0 F12000 X33.45 Y5.499
G1 F3600 X-33.449 Y5.5 E1139.56664
G0 F12000 X-33.449 Y6
G1 F3600 X33.45 Y5.999 E1142.34798
G0 F12000 X33.45 Y6.499
G1 F3600 X-33.449 Y6.5 E1145.12932
G0 F12000 X-33.449 Y7
G1 F3600 X33.45 Y6.999 E1147.91065
G0 F12000 X33.45 Y7.499
G1 F3600 X-33.449 Y7.5 E1150.69199
G0 F12000 X-33.449 Y8
G1 F3600 X33.45 Y7.999 E1153.47333
G0 F12000 X33.45 Y8.499
G1 F3600 X-33.449 Y8.5 E1156.25466
G0 F12000 X-33.449 Y9
G1 F3600 X33.45 Y8.999 E1159.036
G0 F12000 X33.45 Y9.499
G1 F3600 X-33.449 Y9.5 E1161.81734
G0 F12000 X-33.449 Y10
G1 F3600 X33.45 Y9.999 E1164.59868
G0 F12000 X33.45 Y10.499
G1 F3600 X-33.449 Y10.5 E1167.38001
G0 F12000 X-33.449 Y11
G1 F3600 X33.45 Y10.999 E1170.16135
G0 F12000 X33.45 Y11.499
G1 F3600 X-33.449 Y11.5 E1172.94269
G0 F12000 X-33.449 Y12
G1 F3600 X33.45 Y11.999 E1175.72402
G0 F12000 X33.45 Y12.499
G1 F3600 X-33.449 Y12.5 E1178.50536
G0 F12000 X-33.449 Y13
G1 F3600 X33.45 Y12.999 E1181.2867
G0 F12000 X33.45 Y13.499
G1 F3600 X-33.449 Y13.5 E1184.06804
G0 F12000 X-33.449 Y14
G1 F3600 X33.45 Y13.999 E1186.84937
G0 F12000 X33.45 Y14.499
G1 F3600 X-33.449 Y14.5 E1189.63071
G0 F12000 X-33.449 Y15
G1 F3600 X33.45 Y14.999 E1192.41205
G0 F12000 X33.45 Y15.499
G1 F3600 X-33.449 Y15.5 E1195.19339
G0 F12000 X-33.449 Y16
G1 F3600 X33.45 Y15.999 E1197.97472
G0 F12000 X33.45 Y16.499
G1 F3600 X-33.449 Y16.5 E1200.75606
G0 F12000 X-33.449 Y17
G1 F3600 X33.45 Y16.999 E1203.5374
G0 F12000 X33.45 Y17.499
G1 F3600 X-33.449 Y17.5 E1206.31873
G0 F12000 X-33.449 Y18
G1 F3600 X33.45 Y17.999 E1209.10007
G0 F12000 X33.45 Y18.499
G1 F3600 X-33.449 Y18.5 E1211.88141
G0 F12000 X-33.449 Y19
G1 F3600 X33.45 Y18.999 E1214.66275
G0 F12000 X33.45 Y19.499
G1 F3600 X-33.449 Y19.5 E1217.44408
G0 F12000 X-33.449 Y20
G1 F3600 X33.45 Y19.999 E1220.22542
G0 F12000 X33.45 Y20.499
G1 F3600 X-33.449 Y20.5 E1223.00676
G0 F12000 X-33.449 Y21
G1 F3600 X33.45 Y20.999 E1225.78809
G0 F12000 X33.45 Y21.499
G1 F3600 X-33.449 Y21.5 E1228.56943
G0 F12000 X-33.449 Y22
G1 F3600 X33.45 Y21.999 E1231.35077
G0 F12000 X33.45 Y22.499
G1 F3600 X-33.449 Y22.5 E1234.13211
G0 F12000 X-33.449 Y23
G1 F3600 X33.45 Y22.999 E1236.91344
G0 F12000 X33.45 Y23.499
G1 F3600 X-33.449 Y23.5 E1239.69478
G0 F12000 X-33.449 Y24
G1 F3600 X33.45 Y23.999 E1242.47612
G0 F12000 X33.45 Y24.499
G1 F3600 X-33.449 Y24.5 E1245.25745
G0 F12000 X-33.449 Y-0.999
G1 F3600 X-32.044 Y-0.999 E1245.31587
G0 F12000 X-32.745 Y-1.499
G1 F3600 X-33.449 Y-1.499 E1245.34514
G0 F12000 X-33.754 Y-3.76
G1 F3600 X-33.802 Y-4.591 E1245.37234
G1 X-33.754 Y-5.423 E1245.39957
G0 F12000 X-33.449 Y-7.499
G1 F3600 X-32.939 Y-7.499 E1245.42077
G0 F12000 X-33.449 Y-7.999
G1 F3600 X-32.361 Y-7.999 E1245.46601
G0 F12000 X-31.35 Y-8.499
G1 F3600 X-33.449 Y-8.499 E1245.55327
G0 F12000 X-28.628 Y-8.499
G1 F3600 X28.652 Y-8.5 E1247.9347
G0 F12000 X27.64 Y-8
G1 F3600 X-27.656 Y-7.999 E1250.23364
G0 F12000 X-27.044 Y-7.499
G1 F3600 X27.062 Y-7.5 E1252.48311
G0 F12000 X26.638 Y-7
G1 F3600 X-26.625 Y-6.999 E1254.69753
G0 F12000 X-26.334 Y-6.499
G1 F3600 X26.309 Y-6.5 E1256.88617
G0 F12000 X26.115 Y-6
G1 F3600 X-26.087 Y-5.999 E1259.05647
G0 F12000 X-25.968 Y-5.499
G1 F3600 X25.946 Y-5.5 E1261.21481
G0 F12000 X25.888 Y-5
G1 F3600 X-25.867 Y-4.999 E1263.36653
G0 F12000 X-25.867 Y-4.499
G1 F3600 X25.851 Y-4.5 E1265.51671
G0 F12000 X25.909 Y-4
G1 F3600 X-25.893 Y-3.999 E1267.67039
G0 F12000 X-26.012 Y-3.499
G1 F3600 X25.999 Y-3.5 E1269.83276
G0 F12000 X26.181 Y-3
G1 F3600 X-26.175 Y-2.999 E1272.00947
G0 F12000 X-26.426 Y-2.499
G1 F3600 X26.428 Y-2.5 E1274.20688
G0 F12000 X26.757 Y-2
G1 F3600 X-26.778 Y-1.999 E1276.43261
G0 F12000 X-27.23 Y-1.499
G1 F3600 X27.254 Y-1.5 E1278.69779
G0 F12000 X27.954 Y-1
G1 F3600 X-27.902 Y-0.999 E1281.02001
; Layer Change GCode
; LAYER:3
G0 F12000 X-27.902 Y-0.999 Z0.95
G0 X-29.861 Y-1.246
G0 X-29.833 Y-1.745
G0 X-29.861 Y-1.246
G0 X-30.582 Y-1.287
G0 X-31.328 Y-1.511
G0 X-32.003 Y-1.9
G0 X-33.448 Y-2.861
; TYPE:WALL-INNER
G1 F3600 X-32.955 Y-2.111 E1281.05733
G1 X-32.303 Y-1.496 E1281.09459
G1 X-31.527 Y-1.048 E1281.13184
G1 X-30.669 Y-0.792 E1281.16907
G1 X-29.774 Y-0.74 E1281.20634
G1 X-28.893 Y-0.895 E1281.24353
G1 X-28.07 Y-1.25 E1281.28079
G1 X-27.351 Y-1.785 E1281.31805
G1 X-26.776 Y-2.472 E1281.3553
G1 X-26.373 Y-3.272 E1281.39254
G1 X-26.167 Y-4.144 E1281.42979
G1 X-26.167 Y-5.039 E1281.467
G1 X-26.373 Y-5.911 E1281.50426
G1 X-26.776 Y-6.711 E1281.5415
G1 X-27.351 Y-7.398 E1281.57874
G1 X-28.07 Y-7.933 E1281.616
G1 X-28.893 Y-8.288 E1281.65327
G1 X-29.774 Y-8.443 E1281.69046
G1 X-30.669 Y-8.391 E1281.72773
G1 X-31.527 Y-8.135 E1281.76496
G1 X-32.303 Y-7.687 E1281.80221
G1 X-32.955 Y-7.072 E1281.83947
G1 X-33.448 Y-6.322 E1281.87679
G0 F12000 X-33.598 Y-6.322
G1 F3600 X-33.749 Y-5.495 E1281.91174
G0 F12000 X-33.749 Y-6.322
G1 F3600 X-33.749 Y-19.45 E1282.45754
G0 F12000 X-33.598 Y-19.45
G1 F3600 X-33.749 Y-20.277 E1282.49249
G0 F12000 X-33.448 Y-19.45
G1 F3600 X-32.955 Y-18.7 E1282.5298
G1 X-32.303 Y-18.085 E1282.56707
G1 X-31.527 Y-17.637 E1282.60432
G1 X-30.669 Y-17.381 E1282.64154
G1 X-29.774 Y-17.329 E1282.67882
G1 X-28.893 Y-17.484 E1282.71601
G1 X-28.07 Y-17.839 E1282.75327
G1 X-27.351 Y-18.374 E1282.79053
G1 X-26.776 Y-19.061 E1282.82778
G1 X-26.373 Y-19.861 E1282.86502
G1 X-26.167 Y-20.733 E1282.90227
G1 X-26.167 Y-21.628 E1282.93948
G1 X-26.373 Y-22.5 E1282.97673
G1 X-26.776 Y-23.3 E1283.01397
G1 X-27.351 Y-23.987 E1283.05122
G1 X-28.07 Y-24.522 E1283.08848
G0 F12000 X-28.07 Y-24.726
G1 F3600 X-28.893 Y-24.903 E1283.12348
G1 X-29.194 Y-24.93 E1283.13604
G0 F12000 X-28.07 Y-24.93
G1 F3600 X9.75 Y-24.93 E1284.70841
G1 X9.75 Y-14.93 E1285.12417
G1 X26.25 Y-14.93 E1285.81016
G1 X26.25 Y-19.45 E1285.99808
G0 F12000 X26.4 Y-19.45
G1 F3600 X26.25 Y-20.277 E1286.03302
G0 F12000 X26.551 Y-19.45
G1 F3600 X27.044 Y-18.7 E1286.07033
G1 X27.696 Y-18.085 E1286.1076
G1 X28.472 Y-17.637 E1286.14485
G1 X29.33 Y-17.381 E1286.18208
G1 X30.225 Y-17.329 E1286.21935
G1 X31.106 Y-17.484 E1286.25654
G1 X31.929 Y-17.839 E1286.2938
G1 X32.648 Y-18.374 E1286.33106
G1 X33.223 Y-19.061 E1286.36831
G1 X33.626 Y-19.861 E1286.40555
G0 F12000 X33.688 Y-19.861
G1 F3600 X33.75 Y-20.386 E1286.42753
G0 F12000 X33.75 Y-19.861
G1 F3600 X33.75 Y-5.911 E1287.0075
G0 F12000 X33.688 Y-5.911
G1 F3600 X33.75 Y-5.386 E1287.02948
G0 F12000 X33.626 Y-5.911
G1 F3600 X33.223 Y-6.711 E1287.06672
G1 X32.648 Y-7.398 E1287.10397
G1 X31.929 Y-7.933 E1287.14123
G1 X31.106 Y-8.288 E1287.17849
G1 X30.225 Y-8.443 E1287.21568
G1 X29.33 Y-8.391 E1287.25296
G1 X28.472 Y-8.135 E1287.29018
G1 X27.696 Y-7.687 E1287.32743
G1 X27.044 Y-7.072 E1287.3647
G1 X26.551 Y-6.322 E1287.40201
G1 X26.245 Y-5.481 E1287.43922
G1 X26.142 Y-4.591 E1287.47647
G1 X26.245 Y-3.702 E1287.51368
G1 X26.551 Y-2.861 E1287.55088
G1 X27.044 Y-2.111 E1287.5882
G1 X27.696 Y-1.496 E1287.62546
G1 X28.472 Y-1.048 E1287.66271
G1 X29.33 Y-0.792 E1287.69994
G1 X30.225 Y-0.74 E1287.73721
G1 X31.106 Y-0.895 E1287.7744
G1 X31.929 Y-1.25 E1287.81167
G1 X32.648 Y-1.785 E1287.84893
G1 X33.223 Y-2.472 E1287.88617
G1 X33.626 Y-3.272 E1287.92341
G0 F12000 X33.688 Y-3.272
G1 F3600 X33.75 Y-3.797 E1287.94539
G0 F12000 X33.75 Y-3.272
G1 F3600 X33.75 Y24.932 E1289.11798
G1 X-33.749 Y24.932 E1291.92426
G1 X-33.749 Y-2.861 E1293.07976
G0 F12000 X-33.598 Y-2.861
G1 F3600 X-33.749 Y-3.688 E1293.11471
G0 F12000 X-33.264 Y-3.818
G1 F3600 X-32.998 Y-3.086 E1293.14709
G1 X-32.569 Y-2.435 E1293.17951
G1 X-32.003 Y-1.9 E1293.21189
G1 X-31.328 Y-1.511 E1293.24428
G1 X-30.582 Y-1.287 E1293.27666
G1 X-29.804 Y-1.242 E1293.30906
G1 X-29.038 Y-1.378 E1293.3414
G1 X-28.322 Y-1.686 E1293.37381
G1 X-27.697 Y-2.151 E1293.4062
G1 X-27.196 Y-2.748 E1293.4386
G1 X-26.846 Y-3.444 E1293.47099
G1 X-26.667 Y-4.203 E1293.50341
G1 X-26.667 Y-4.98 E1293.53571
G1 X-26.846 Y-5.739 E1293.56813
G1 X-27.196 Y-6.435 E1293.60052
G1 X-27.697 Y-7.032 E1293.63292
G1 X-28.322 Y-7.497 E1293.66531
G1 X-29.038 Y-7.805 E1293.69772
G1 X-29.804 Y-7.941 E1293.73006
G1 X-30.582 Y-7.896 E1293.76246
G1 X-31.328 Y-7.672 E1293.79484
G1 X-32.003 Y-7.283 E1293.82723
G1 X-32.569 Y-6.748 E1293.85961
G1 X-32.998 Y-6.097 E1293.89203
G1 X-33.264 Y-5.365 E1293.92441
G1 X-33.354 Y-4.591 E1293.9568
G1 X-33.264 Y-3.818 E1293.98916
G0 F12000 X-32.998 Y-3.086
G0 X-32.569 Y-2.435
G0 X-32.003 Y-1.9
G0 X-31.328 Y-1.511
G0 X-30.582 Y-1.287
G0 X-29.861 Y-1.246
G0 X-29.833 Y-1.745
; TYPE:WALL-OUTER
G1 F2700 X-29.182 Y-1.86 E1294.01664
G1 X-28.573 Y-2.122 E1294.04421
G1 X-28.042 Y-2.517 E1294.07172
G1 X-27.617 Y-3.025 E1294.09926
G1 X-27.319 Y-3.616 E1294.12677
G1 X-27.167 Y-4.261 E1294.15433
G1 X-27.167 Y-4.922 E1294.18181
G1 X-27.319 Y-5.567 E1294.20936
G1 X-27.617 Y-6.158 E1294.23687
G1 X-28.042 Y-6.666 E1294.26441
G1 X-28.573 Y-7.061 E1294.29193
G1 X-29.182 Y-7.323 E1294.31949
G1 X-29.833 Y-7.438 E1294.34697
G1 X-30.495 Y-7.4 E1294.37454
G1 X-31.129 Y-7.21 E1294.40206
G1 X-31.702 Y-6.879 E1294.42957
G1 X-32.184 Y-6.425 E1294.4571
G1 X-32.548 Y-5.871 E1294.48466
G1 X-32.774 Y-5.249 E1294.51217
G1 X-32.851 Y-4.591 E1294.53972
G1 X-32.774 Y-3.934 E1294.56722
G1 X-32.548 Y-3.312 E1294.59473
G1 X-32.184 Y-2.758 E1294.62229
G1 X-31.702 Y-2.304 E1294.64982
G1 X-31.129 Y-1.973 E1294.67733
G1 X-30.495 Y-1.783 E1294.70485
G1 X-29.833 Y-1.745 E1294.73242
G0 F12000 X-29.861 Y-1.246
G0 X-29.804 Y-1.242
G0 X-29.038 Y-1.378
G0 X-28.322 Y-1.686
G0 X-27.697 Y-2.151
G0 X-27.196 Y-2.748
G0 X-26.846 Y-3.444
G0 X-26.667 Y-4.203
G0 X-26.667 Y-4.98
G0 X-26.846 Y-5.739
G0 X-29.861 Y-17.835
G0 X-29.833 Y-18.334
G0 X-29.861 Y-17.835
G0 X-30.582 Y-17.876
G0 X-31.328 Y-18.1
G0 X-32.003 Y-18.489
G0 X-32.569 Y-19.024
G0 X-32.998 Y-19.675
G0 X-33.264 Y-20.407
G0 X-33.749 Y-22.084
; TYPE:WALL-INNER
G1 F3600 X-33.598 Y-22.911 E1294.76737
G0 F12000 X-33.448 Y-22.911
G1 F3600 X-32.955 Y-23.661 E1294.80468
G1 X-32.303 Y-24.276 E1294.84195
G1 X-31.527 Y-24.724 E1294.8792
G0 F12000 X-31.527 Y-24.827
G1 F3600 X-30.837 Y-24.93 E1294.9082
G0 F12000 X-31.527 Y-24.93
G1 F3600 X-33.749 Y-24.93 E1295.00058
G1 X-33.749 Y-22.911 E1295.08452
G0 F12000 X-32.998 Y-22.686
G1 F3600 X-33.264 Y-21.954 E1295.1169
G1 X-33.354 Y-21.18 E1295.1493
G1 X-33.264 Y-20.407 E1295.18165
G1 X-32.998 Y-19.675 E1295.21403
G1 X-32.569 Y-19.024 E1295.24645
G1 X-32.003 Y-18.489 E1295.27883
G1 X-31.328 Y-18.1 E1295.31122
G1 X-30.582 Y-17.876 E1295.3436
G1 X-29.804 Y-17.831 E1295.376
G1 X-29.038 Y-17.967 E1295.40835
G1 X-28.322 Y-18.275 E1295.44075
G1 X-27.697 Y-18.74 E1295.47314
G1 X-27.196 Y-19.337 E1295.50554
G1 X-26.846 Y-20.033 E1295.53793
G1 X-26.667 Y-20.792 E1295.57035
G1 X-26.667 Y-21.569 E1295.60265
G1 X-26.846 Y-22.328 E1295.63508
G1 X-27.196 Y-23.024 E1295.66746
G1 X-27.697 Y-23.621 E1295.69987
G1 X-28.322 Y-24.086 E1295.73225
G1 X-29.038 Y-24.394 E1295.76466
G1 X-29.804 Y-24.53 E1295.797
G1 X-30.582 Y-24.485 E1295.8294
G1 X-31.328 Y-24.261 E1295.86179
G1 X-32.003 Y-23.872 E1295.89418
G1 X-32.569 Y-23.337 E1295.92656
G1 X-32.998 Y-22.686 E1295.95897
G0 F12000 X-33.264 Y-21.954
G0 X-33.354 Y-21.18
G0 X-33.264 Y-20.407
G0 X-32.998 Y-19.675
G0 X-32.569 Y-19.024
G0 X-32.003 Y-18.489
G0 X-31.328 Y-18.1
G0 X-30.582 Y-17.876
G0 X-29.861 Y-17.835
G0 X-29.833 Y-18.334
; TYPE:WALL-OUTER
G1 F2700 X-29.182 Y-18.449 E1295.98645
G1 X-28.573 Y-18.711 E1296.01402
G1 X-28.042 Y-19.106 E1296.04153
G1 X-27.617 Y-19.614 E1296.06907
G1 X-27.319 Y-20.205 E1296.09659
G1 X-27.167 Y-20.85 E1296.12414
G1 X-27.167 Y-21.511 E1296.15162
G1 X-27.319 Y-22.156 E1296.17917
G1 X-27.617 Y-22.747 E1296.20669
G1 X-28.042 Y-23.255 E1296.23422
G1 X-28.573 Y-23.65 E1296.26174
G1 X-29.182 Y-23.912 E1296.2893
G1 X-29.833 Y-24.027 E1296.31679
G1 X-30.495 Y-23.989 E1296.34435
G1 X-31.129 Y-23.799 E1296.37187
G1 X-31.702 Y-23.468 E1296.39938
G1 X-32.184 Y-23.014 E1296.42691
G1 X-32.548 Y-22.46 E1296.45447
G1 X-32.774 Y-21.838 E1296.48198
G1 X-32.851 Y-21.18 E1296.50953
G1 X-32.774 Y-20.523 E1296.53703
G1 X-32.548 Y-19.901 E1296.56454
G1 X-32.184 Y-19.347 E1296.5921
G1 X-31.702 Y-18.893 E1296.61963
G1 X-31.129 Y-18.562 E1296.64714
G1 X-30.495 Y-18.372 E1296.67466
G1 X-29.833 Y-18.334 E1296.70223
G1 F6600 E1292.70223
G1 Z1.25
G0 F12000 X-29.861 Y-17.835
G0 X-29.804 Y-17.831
G0 X10.25 Y-15.43
G0 X10.75 Y-15.43
G0 X10.75 Y-15.93
G0 X10.75 Y-15.43
G0 X25.75 Y-15.43
G0 X26.25 Y-22.084
; TYPE:WALL-INNER
G1 Z0.95
G1 F6600 E1296.80223
G1 F3600 X26.4 Y-22.911 E1296.83717
G0 F12000 X26.25 Y-22.911
G1 F3600 X26.25 Y-24.93 E1296.92111
G1 X28.472 Y-24.93 E1297.01349
G0 F12000 X28.472 Y-24.827
G1 F3600 X29.162 Y-24.93 E1297.0425
G0 F12000 X28.472 Y-24.724
G1 F3600 X27.696 Y-24.276 E1297.07975
G1 X27.044 Y-23.661 E1297.11701
G1 X26.551 Y-22.911 E1297.15433
G0 F12000 X27.001 Y-22.686
G1 F3600 X26.735 Y-21.954 E1297.18671
G1 X26.645 Y-21.18 E1297.2191
G1 X26.735 Y-20.407 E1297.25146
G1 X27.001 Y-19.675 E1297.28384
G1 X27.43 Y-19.024 E1297.31625
G1 X27.996 Y-18.489 E1297.34863
G1 X28.671 Y-18.1 E1297.38102
G1 X29.417 Y-17.876 E1297.4134
G1 X30.195 Y-17.831 E1297.4458
G1 X30.961 Y-17.967 E1297.47815
G1 X31.677 Y-18.275 E1297.51055
G1 X32.302 Y-18.74 E1297.54294
G1 X32.803 Y-19.337 E1297.57534
G1 X33.153 Y-20.033 E1297.60773
G1 X33.332 Y-20.792 E1297.64015
G1 X33.332 Y-21.569 E1297.67246
G1 X33.153 Y-22.328 E1297.70488
G1 X32.803 Y-23.024 E1297.73727
G1 X32.302 Y-23.621 E1297.76967
G1 X31.677 Y-24.086 E1297.80206
G1 X30.961 Y-24.394 E1297.83446
G1 X30.195 Y-24.53 E1297.86681
G1 X29.417 Y-24.485 E1297.89921
G1 X28.671 Y-24.261 E1297.93159
G1 X27.996 Y-23.872 E1297.96398
G1 X27.43 Y-23.337 E1297.99636
G1 X27.001 Y-22.686 E1298.02877
G0 F12000 X26.735 Y-21.954
G0 X26.645 Y-21.18
G0 X26.735 Y-20.407
G0 X27.001 Y-19.675
G0 X27.43 Y-19.024
G0 X27.996 Y-18.489
G0 X28.671 Y-18.1
G0 X29.417 Y-17.876
G0 X30.138 Y-17.835
G0 X30.166 Y-18.334
; TYPE:WALL-OUTER
G1 F2700 X30.817 Y-18.449 E1298.05626
G1 X31.426 Y-18.711 E1298.08382
G1 X31.957 Y-19.106 E1298.11134
G1 X32.382 Y-19.614 E1298.13887
G1 X32.68 Y-20.205 E1298.16639
G1 X32.832 Y-20.85 E1298.19394
G1 X32.832 Y-21.511 E1298.22142
G1 X32.68 Y-22.156 E1298.24897
G1 X32.382 Y-22.747 E1298.27649
G1 X31.957 Y-23.255 E1298.30403
G1 X31.426 Y-23.65 E1298.33154
G1 X30.817 Y-23.912 E1298.3591
G1 X30.166 Y-24.027 E1298.38659
G1 X29.504 Y-23.989 E1298.41416
G1 X28.87 Y-23.799 E1298.44167
G1 X28.297 Y-23.468 E1298.46919
G1 X27.815 Y-23.014 E1298.49671
G1 X27.451 Y-22.46 E1298.52427
G1 X27.225 Y-21.838 E1298.55179
G1 X27.148 Y-21.18 E1298.57933
G1 X27.225 Y-20.523 E1298.60683
G1 X27.451 Y-19.901 E1298.63435
G1 X27.815 Y-19.347 E1298.66191
G1 X28.297 Y-18.893 E1298.68944
G1 X28.87 Y-18.562 E1298.71695
G1 X29.504 Y-18.372 E1298.74446
G1 X30.166 Y-18.334 E1298.77203
G1 F6600 E1294.77203
G1 Z1.25
G0 F12000 X30.138 Y-17.835
G0 X33.153 Y-5.739
G0 X33.332 Y-4.98
G0 X33.332 Y-4.203
G0 X33.153 Y-3.444
G0 X32.803 Y-2.748
G0 X32.302 Y-2.151
G0 X31.677 Y-1.686
G0 X30.961 Y-1.378
G0 X30.195 Y-1.242
G0 X30.138 Y-1.246
G0 X30.166 Y-1.745
G0 X30.138 Y-1.246
G0 X30.195 Y-1.242
G0 X30.961 Y-1.378
G0 X31.677 Y-1.686
G0 X32.302 Y-2.151
G0 X32.803 Y-2.748
G0 X33.153 Y-3.444
G0 X33.332 Y-4.203
G0 X33.75 Y-21.975
; TYPE:WALL-INNER
G1 Z0.95
G1 F6600 E1298.87203
G1 F3600 X33.688 Y-22.5 E1298.89401
G0 F12000 X33.626 Y-22.5
G1 F3600 X33.223 Y-23.3 E1298.93125
G1 X32.648 Y-23.987 E1298.9685
G1 X31.929 Y-24.522 E1299.00576
G0 F12000 X31.929 Y-24.726
G1 F3600 X31.106 Y-24.903 E1299.04076
G1 X30.805 Y-24.93 E1299.05332
G0 F12000 X31.929 Y-24.93
G1 F3600 X33.75 Y-24.93 E1299.12903
G1 X33.75 Y-22.5 E1299.23006
G0 F12000 X33.332 Y-4.203
G0 X33.153 Y-3.444
G0 X32.803 Y-2.748
G0 X32.302 Y-2.151
G0 X31.677 Y-1.686
G0 X30.961 Y-1.378
G0 X30.195 Y-1.242
G0 X30.138 Y-1.246
G0 X30.166 Y-1.745
G0 X30.138 Y-1.246
G0 X30.195 Y-1.242
G1 F3600 X30.961 Y-1.378 E1299.2624
G1 X31.677 Y-1.686 E1299.29481
G1 X32.302 Y-2.151 E1299.32719
G1 X32.803 Y-2.748 E1299.3596
G1 X33.153 Y-3.444 E1299.39199
G1 X33.332 Y-4.203 E1299.42441
G1 X33.332 Y-4.98 E1299.45671
G1 X33.153 Y-5.739 E1299.48913
G1 X32.803 Y-6.435 E1299.52152
G1 X32.302 Y-7.032 E1299.55392
G1 X31.677 Y-7.497 E1299.58631
G1 X30.961 Y-7.805 E1299.61872
G1 X30.195 Y-7.941 E1299.65106
G1 X29.417 Y-7.896 E1299.68346
G1 X28.671 Y-7.672 E1299.71584
G1 X27.996 Y-7.283 E1299.74823
G1 X27.43 Y-6.748 E1299.78061
G1 X27.001 Y-6.097 E1299.81303
G1 X26.735 Y-5.365 E1299.84541
G1 X26.645 Y-4.591 E1299.8778
G1 X26.735 Y-3.818 E1299.91016
G1 X27.001 Y-3.086 E1299.94254
G1 X27.43 Y-2.435 E1299.97495
G1 X27.996 Y-1.9 E1300.00733
G1 X28.671 Y-1.511 E1300.03972
G1 X29.417 Y-1.287 E1300.0721
G1 X30.195 Y-1.242 E1300.1045
G0 F12000 X30.138 Y-1.246
G0 X30.166 Y-1.745
; TYPE:WALL-OUTER
G1 F2700 X30.817 Y-1.86 E1300.13199
G1 X31.426 Y-2.122 E1300.15955
G1 X31.957 Y-2.517 E1300.18707
G1 X32.382 Y-3.025 E1300.2146
G1 X32.68 Y-3.616 E1300.24212
G1 X32.832 Y-4.261 E1300.26967
G1 X32.832 Y-4.922 E1300.29715
G1 X32.68 Y-5.567 E1300.3247
G1 X32.382 Y-6.158 E1300.35222
G1 X31.957 Y-6.666 E1300.37976
G1 X31.426 Y-7.061 E1300.40727
G1 X30.817 Y-7.323 E1300.43484
G1 X30.166 Y-7.438 E1300.46232
G1 X29.504 Y-7.4 E1300.48989
G1 X28.87 Y-7.21 E1300.5174
G1 X28.297 Y-6.879 E1300.54492
G1 X27.815 Y-6.425 E1300.57245
G1 X27.451 Y-5.871 E1300.6
G1 X27.225 Y-5.249 E1300.62752
G1 X27.148 Y-4.591 E1300.65506
G1 X27.225 Y-3.934 E1300.68256
G1 X27.451 Y-3.312 E1300.71008
G1 X27.815 Y-2.758 E1300.73764
G1 X28.297 Y-2.304 E1300.76517
G1 X28.87 Y-1.973 E1300.79268
G1 X29.504 Y-1.783 E1300.82019
G1 X30.166 Y-1.745 E1300.84776
G1 F6600 E1296.84776
G1 Z1.25
G0 F12000 X30.138 Y-1.246
G0 X29.417 Y-1.287
G0 X28.671 Y-1.511
G0 X27.996 Y-1.9
G0 X10.75 Y-15.43
G0 X10.75 Y-15.93
G0 X10.75 Y-15.43
G0 X10.25 Y-15.43
; TYPE:WALL-INNER
G1 Z0.95
G1 F6600 E1300.94776
G1 F3600 X25.75 Y-15.43 E1301.59218
G1 X25.75 Y-25.43 E1302.00793
G1 X34.25 Y-25.43 E1302.36132
G1 X34.25 Y25.432 E1304.47591
G1 X-34.249 Y25.432 E1307.32377
G1 X-34.249 Y-25.43 E1309.43837
G1 X10.25 Y-25.43 E1311.28842
G1 X10.25 Y-15.43 E1311.70417
G0 F12000 X10.75 Y-15.43
G0 X10.75 Y-15.93
; TYPE:WALL-OUTER
G1 F2700 X25.25 Y-15.93 E1312.30701
G1 X25.25 Y-25.93 E1312.72276
G1 X34.75 Y-25.93 E1313.11773
G1 X34.75 Y25.932 E1315.2739
G1 X-34.749 Y25.932 E1318.16333
G1 X-34.749 Y-25.93 E1320.3195
G1 X10.75 Y-25.93 E1322.21113
G1 X10.75 Y-15.93 E1322.62688
G0 F12000 X10.75 Y-15.43
G0 X10.999 Y-14.629
; TYPE:FILL
G1 F3600 X11 Y24.632 E1324.25917
G0 F12000 X10.5 Y24.632
G1 F3600 X10.499 Y-14.629 E1325.89145
G0 F12000 X9.999 Y-14.629
G1 F3600 X10 Y24.632 E1327.52373
G0 F12000 X9.5 Y24.632
G1 F3600 X9.499 Y-14.629 E1329.15602
G0 F12000 X11.499 Y-14.629
G1 F3600 X11.5 Y24.632 E1330.7883
G0 F12000 X12 Y24.632
G1 F3600 X11.999 Y-14.629 E1332.42058
G0 F12000 X12.499 Y-14.629
G1 F3600 X12.5 Y24.632 E1334.05286
G0 F12000 X13 Y24.632
G1 F3600 X12.999 Y-14.629 E1335.68515
G0 F12000 X13.499 Y-14.629
G1 F3600 X13.5 Y24.632 E1337.31743
G0 F12000 X14 Y24.632
G1 F3600 X13.999 Y-14.629 E1338.94971
G0 F12000 X14.499 Y-14.629
G1 F3600 X14.5 Y24.632 E1340.58199
G0 F12000 X15 Y24.631
G1 F3600 X14.999 Y-14.629 E1342.21424
G0 F12000 X15.499 Y-14.629
G1 F3600 X15.5 Y24.631 E1343.84648
G0 F12000 X16 Y24.631
G1 F3600 X15.999 Y-14.629 E1345.47872
G0 F12000 X16.5 Y-14.629
G1 F3600 X16.5 Y24.631 E1347.11096
G0 F12000 X17 Y24.631
G1 F3600 X17 Y-14.629 E1348.7432
G0 F12000 X17.5 Y-14.629
G1 F3600 X17.5 Y24.631 E1350.37544
G0 F12000 X18 Y24.631
G1 F3600 X18 Y-14.629 E1352.00768
G0 F12000 X18.5 Y-14.629
G1 F3600 X18.5 Y24.631 E1353.63992
G0 F12000 X19 Y24.631
G1 F3600 X19 Y-14.629 E1355.27216
G0 F12000 X19.5 Y-14.629
G1 F3600 X19.5 Y24.631 E1356.90441
G0 F12000 X20 Y24.631
G1 F3600 X20 Y-14.629 E1358.53665
G0 F12000 X20.5 Y-14.629
G1 F3600 X20.5 Y24.631 E1360.16889
G0 F12000 X21 Y24.631
G1 F3600 X21 Y-14.629 E1361.80113
G0 F12000 X21.5 Y-14.629
G1 F3600 X21.5 Y24.631 E1363.43337
G0 F12000 X22 Y24.631
G1 F3600 X22 Y-14.629 E1365.06561
G0 F12000 X22.5 Y-14.629
G1 F3600 X22.5 Y24.631 E1366.69785
G0 F12000 X23 Y24.631
G1 F3600 X23 Y-14.629 E1368.33009
G0 F12000 X23.5 Y-14.629
G1 F3600 X23.5 Y24.631 E1369.96233
G0 F12000 X24 Y24.631
G1 F3600 X24 Y-14.629 E1371.59458
G0 F12000 X24.5 Y-14.629
G1 F3600 X24.5 Y24.631 E1373.22682
G0 F12000 X25 Y24.631
G1 F3600 X25 Y-14.629 E1374.85906
G0 F12000 X25.5 Y-14.629
G1 F3600 X25.5 Y24.631 E1376.4913
G0 F12000 X26 Y24.631
G1 F3600 X26 Y-3.498 E1377.66077
G0 F12000 X26.5 Y-2.391
G1 F3600 X26.5 Y24.631 E1378.78421
G0 F12000 X27 Y24.631
G1 F3600 X27 Y-1.739 E1379.88055
G0 F12000 X27.5 Y-1.268
G1 F3600 X27.5 Y24.631 E1380.9573
G0 F12000 X28 Y24.631
G1 F3600 X28 Y-0.973 E1382.02179
G0 F12000 X28.5 Y-0.726
G1 F3600 X28.5 Y24.631 E1383.07602
G0 F12000 X29 Y24.631
G1 F3600 X29 Y-0.577 E1384.12404
G0 F12000 X29.5 Y-0.481
G1 F3600 X29.5 Y24.631 E1385.16808
G0 F12000 X30 Y24.631
G1 F3600 X30 Y-0.451 E1386.21087
G0 F12000 X30.5 Y-0.482
G1 F3600 X30.5 Y24.631 E1387.25494
G0 F12000 X31 Y24.631
G1 F3600 X31 Y-0.571 E1388.30272
G0 F12000 X31.5 Y-0.738
G1 F3600 X31.5 Y24.631 E1389.35744
G0 F12000 X32 Y24.631
G1 F3600 X32 Y-0.953 E1390.4211
G0 F12000 X32.5 Y-1.299
G1 F3600 X32.5 Y24.631 E1391.49915
G0 F12000 X33 Y24.631
G1 F3600 X33 Y-1.736 E1392.59536
G0 F12000 X33.791 Y-4.173
G1 F3600 X33.791 Y-5.01 E1392.62445
G0 F12000 X33 Y-7.445
G1 F3600 X33 Y-18.325 E1393.07679
G0 F12000 X32.499 Y-17.888
G1 F3600 X32.5 Y-7.882 E1393.49279
G0 F12000 X32 Y-8.228
G1 F3600 X31.999 Y-17.542 E1393.88002
G0 F12000 X31.499 Y-17.327
G1 F3600 X31.5 Y-8.443 E1394.24937
G0 F12000 X31 Y-8.61
G1 F3600 X30.999 Y-17.16 E1394.60484
G0 F12000 X30.499 Y-17.071
G1 F3600 X30.5 Y-8.699 E1394.95291
G0 F12000 X30 Y-8.73
G1 F3600 X29.999 Y-17.04 E1395.2984
G0 F12000 X29.499 Y-17.07
G1 F3600 X29.5 Y-8.7 E1395.64638
G0 F12000 X29 Y-8.604
G1 F3600 X28.999 Y-17.166 E1396.00235
G0 F12000 X28.499 Y-17.315
G1 F3600 X28.5 Y-8.455 E1396.3707
G0 F12000 X28 Y-8.208
G1 F3600 X27.999 Y-17.562 E1396.7596
G0 F12000 X27.499 Y-17.856
G1 F3600 X27.5 Y-7.913 E1397.17298
G0 F12000 X27 Y-7.442
G1 F3600 X26.999 Y-18.327 E1397.62553
G0 F12000 X26.245 Y-20.349
G1 F3600 X26.196 Y-21.18 E1397.65273
G1 X26.245 Y-22.012 E1397.67996
G0 F12000 X26.999 Y-24.032
G1 F3600 X26.999 Y-24.629 E1397.70478
G0 F12000 X29.373 Y-24.956
G1 F3600 X30.21 Y-24.98 E1397.73257
G0 F12000 X33 Y-24.629
G1 F3600 X33 Y-24.033 E1397.75734
G0 F12000 X33.791 Y-21.599
G1 F3600 X33.791 Y-20.762 E1397.78644
G0 F12000 X32.803 Y-19.337
G0 X32.302 Y-18.74
G0 X31.677 Y-18.275
G0 X26.5 Y-14.629
G1 F3600 X26.5 Y-6.79 E1398.11234
G0 F12000 X26 Y-5.683
G1 F3600 X26 Y-14.629 E1398.48427
G1 F6600 E1394.48427
G1 Z1.25
G0 F12000 X10.25 Y-15.43
G0 X8.999 Y-24.63
G1 Z0.95
G1 F6600 E1398.58427
G1 F3600 X9 Y24.632 E1400.63235
G0 F12000 X8.5 Y24.632
G1 F3600 X8.499 Y-24.63 E1402.68043
G0 F12000 X7.999 Y-24.63
G1 F3600 X8 Y24.632 E1404.7285
G0 F12000 X7.5 Y24.632
G1 F3600 X7.499 Y-24.63 E1406.77658
G0 F12000 X6.999 Y-24.63
G1 F3600 X7 Y24.632 E1408.82465
G0 F12000 X6.5 Y24.632
G1 F3600 X6.499 Y-24.63 E1410.87273
G0 F12000 X5.999 Y-24.63
G1 F3600 X6 Y24.632 E1412.92081
G0 F12000 X5.5 Y24.632
G1 F3600 X5.499 Y-24.63 E1414.96888
G0 F12000 X4.999 Y-24.63
G1 F3600 X5 Y24.632 E1417.01696
G0 F12000 X4.5 Y24.632
G1 F3600 X4.499 Y-24.63 E1419.06503
G0 F12000 X3.999 Y-24.63
G1 F3600 X4 Y24.632 E1421.11311
G0 F12000 X3.5 Y24.632
G1 F3600 X3.499 Y-24.63 E1423.16119
G0 F12000 X2.999 Y-24.63
G1 F3600 X3 Y24.632 E1425.20926
G0 F12000 X2.5 Y24.632
G1 F3600 X2.499 Y-24.63 E1427.25734
G0 F12000 X1.999 Y-24.63
G1 F3600 X2 Y24.632 E1429.30541
G0 F12000 X1.5 Y24.632
G1 F3600 X1.499 Y-24.63 E1431.35349
G0 F12000 X0.999 Y-24.63
G1 F3600 X1 Y24.632 E1433.40157
G0 F12000 X0.5 Y24.632
G1 F3600 X0.499 Y-24.63 E1435.44964
G0 F12000 X0 Y-24.63
G1 F3600 X0 Y24.631 E1437.49768
G0 F12000 X-0.499 Y24.631
G1 F3600 X-0.5 Y-24.63 E1439.54571
G0 F12000 X-1 Y-24.63
G1 F3600 X-0.999 Y24.631 E1441.59375
G0 F12000 X-1.499 Y24.631
G1 F3600 X-1.5 Y-24.63 E1443.64178
G0 F12000 X-2 Y-24.63
G1 F3600 X-1.999 Y24.631 E1445.68981
G0 F12000 X-2.499 Y24.631
G1 F3600 X-2.5 Y-24.63 E1447.73785
G0 F12000 X-3 Y-24.63
G1 F3600 X-2.999 Y24.631 E1449.78588
G0 F12000 X-3.499 Y24.631
G1 F3600 X-3.5 Y-24.63 E1451.83392
G0 F12000 X-4 Y-24.63
G1 F3600 X-3.999 Y24.631 E1453.88195
G0 F12000 X-4.499 Y24.631
G1 F3600 X-4.5 Y-24.63 E1455.92999
G0 F12000 X-5 Y-24.63
G1 F3600 X-4.999 Y24.631 E1457.97802
G0 F12000 X-5.499 Y24.631
G1 F3600 X-5.5 Y-24.63 E1460.02605
G0 F12000 X-6 Y-24.63
G1 F3600 X-5.999 Y24.631 E1462.07409
G0 F12000 X-6.499 Y24.631
G1 F3600 X-6.5 Y-24.63 E1464.12212
G0 F12000 X-7 Y-24.63
G1 F3600 X-6.999 Y24.631 E1466.17016
G0 F12000 X-7.499 Y24.631
G1 F3600 X-7.5 Y-24.63 E1468.21819
G0 F12000 X-8 Y-24.63
G1 F3600 X-7.999 Y24.631 E1470.26623
G0 F12000 X-8.499 Y24.631
G1 F3600 X-8.5 Y-24.63 E1472.31426
G0 F12000 X-9 Y-24.63
G1 F3600 X-8.999 Y24.631 E1474.3623
G0 F12000 X-9.499 Y24.631
G1 F3600 X-9.5 Y-24.63 E1476.41033
G0 F12000 X-10 Y-24.63
G1 F3600 X-9.999 Y24.631 E1478.45836
G0 F12000 X-10.499 Y24.631
G1 F3600 X-10.5 Y-24.63 E1480.5064
G0 F12000 X-11 Y-24.63
G1 F3600 X-10.999 Y24.631 E1482.55443
G0 F12000 X-11.499 Y24.631
G1 F3600 X-11.5 Y-24.63 E1484.60247
G0 F12000 X-12 Y-24.63
G1 F3600 X-11.999 Y24.631 E1486.6505
G0 F12000 X-12.499 Y24.631
G1 F3600 X-12.5 Y-24.63 E1488.69854
G0 F12000 X-13 Y-24.63
G1 F3600 X-12.999 Y24.631 E1490.74657
G0 F12000 X-13.499 Y24.631
G1 F3600 X-13.5 Y-24.63 E1492.7946
G0 F12000 X-14 Y-24.63
G1 F3600 X-13.999 Y24.631 E1494.84264
G0 F12000 X-14.499 Y24.631
G1 F3600 X-14.5 Y-24.63 E1496.89067
G0 F12000 X-15 Y-24.629
G1 F3600 X-14.999 Y24.631 E1498.93867
G0 F12000 X-15.499 Y24.631
G1 F3600 X-15.5 Y-24.629 E1500.98666
G0 F12000 X-16 Y-24.629
G1 F3600 X-15.999 Y24.631 E1503.03465
G0 F12000 X-16.499 Y24.631
G1 F3600 X-16.5 Y-24.629 E1505.08265
G0 F12000 X-17 Y-24.629
G1 F3600 X-16.999 Y24.631 E1507.13064
G0 F12000 X-17.499 Y24.631
G1 F3600 X-17.5 Y-24.629 E1509.17863
G0 F12000 X-18 Y-24.629
G1 F3600 X-17.999 Y24.631 E1511.22662
G0 F12000 X-18.499 Y24.631
G1 F3600 X-18.5 Y-24.629 E1513.27462
G0 F12000 X-19 Y-24.629
G1 F3600 X-18.999 Y24.631 E1515.32261
G0 F12000 X-19.499 Y24.631
G1 F3600 X-19.5 Y-24.629 E1517.3706
G0 F12000 X-20 Y-24.629
G1 F3600 X-19.999 Y24.631 E1519.41859
G0 F12000 X-20.499 Y24.631
G1 F3600 X-20.5 Y-24.629 E1521.46659
G0 F12000 X-21 Y-24.629
G1 F3600 X-20.999 Y24.631 E1523.51458
G0 F12000 X-21.499 Y24.631
G1 F3600 X-21.5 Y-24.629 E1525.56257
G0 F12000 X-22 Y-24.629
G1 F3600 X-21.999 Y24.631 E1527.61057
G0 F12000 X-22.499 Y24.631
G1 F3600 X-22.5 Y-24.629 E1529.65856
G0 F12000 X-23 Y-24.629
G1 F3600 X-22.999 Y24.631 E1531.70655
G0 F12000 X-23.499 Y24.631
G1 F3600 X-23.5 Y-24.629 E1533.75454
G0 F12000 X-24 Y-24.629
G1 F3600 X-23.999 Y24.631 E1535.80254
G0 F12000 X-24.499 Y24.631
G1 F3600 X-24.5 Y-24.629 E1537.85053
G0 F12000 X-25 Y-24.629
G1 F3600 X-24.999 Y24.631 E1539.89852
G0 F12000 X-25.499 Y24.631
G1 F3600 X-25.5 Y-24.629 E1541.94652
G0 F12000 X-26 Y-24.629
G1 F3600 X-26 Y-22.226 E1542.04642
G0 F12000 X-26.5 Y-23.421
G1 F3600 X-26.5 Y-24.629 E1542.09664
G0 F12000 X-27 Y-24.629
G1 F3600 X-27 Y-24.036 E1542.1213
G0 F12000 X-29.789 Y-24.98
G1 F3600 X-30.626 Y-24.956 E1542.14908
G0 F12000 X-33 Y-24.629
G1 F3600 X-33 Y-24.031 E1542.17394
G0 F12000 X-33.754 Y-22.012
G1 F3600 X-33.802 Y-21.18 E1542.20117
G1 X-33.754 Y-20.349 E1542.22837
G0 F12000 X-33 Y-18.328
G1 F3600 X-33 Y-7.442 E1542.68096
G0 F12000 X-32.5 Y-7.913
G1 F3600 X-32.5 Y-17.858 E1543.09443
G0 F12000 X-32 Y-17.563
G1 F3600 X-32 Y-8.207 E1543.4834
G0 F12000 X-31.5 Y-8.454
G1 F3600 X-31.5 Y-17.316 E1543.85184
G0 F12000 X-31 Y-17.167
G1 F3600 X-31 Y-8.604 E1544.20785
G0 F12000 X-30.5 Y-8.7
G1 F3600 X-30.5 Y-17.07 E1544.55584
G0 F12000 X-30 Y-17.04
G1 F3600 X-30 Y-8.73 E1544.90133
G0 F12000 X-29.5 Y-8.699
G1 F3600 X-29.5 Y-17.071 E1545.24939
G0 F12000 X-29 Y-17.16
G1 F3600 X-29 Y-8.61 E1545.60486
G0 F12000 X-28.5 Y-8.444
G1 F3600 X-28.5 Y-17.326 E1545.97413
G0 F12000 X-28 Y-17.541
G1 F3600 X-28 Y-8.229 E1546.36128
G0 F12000 X-27.5 Y-7.883
G1 F3600 X-27.5 Y-17.886 E1546.77716
G0 F12000 X-27 Y-18.322
G1 F3600 X-27 Y-7.446 E1547.22933
G0 F12000 X-26.5 Y-6.83
G1 F3600 X-26.5 Y-18.938 E1547.73272
G0 F12000 X-26 Y-20.133
G1 F3600 X-26 Y-5.633 E1548.33556
G0 F12000 X-26 Y-3.548
G1 F3600 X-25.999 Y24.631 E1549.50711
G0 F12000 X-26.499 Y24.631
G1 F3600 X-26.5 Y-2.351 E1550.62889
G0 F12000 X-27 Y-1.735
G1 F3600 X-26.999 Y24.631 E1551.72506
G0 F12000 X-27.499 Y24.631
G1 F3600 X-27.5 Y-1.298 E1552.80306
G0 F12000 X-28 Y-0.952
G1 F3600 X-27.999 Y24.631 E1553.86668
G0 F12000 X-28.499 Y24.631
G1 F3600 X-28.5 Y-0.737 E1554.92136
G0 F12000 X-29 Y-0.571
G1 F3600 X-28.999 Y24.631 E1555.96913
G0 F12000 X-29.499 Y24.631
G1 F3600 X-29.5 Y-0.482 E1557.01321
G0 F12000 X-30 Y-0.451
G1 F3600 X-29.999 Y24.631 E1558.056
G0 F12000 X-30.499 Y24.631
G1 F3600 X-30.5 Y-0.481 E1559.10004
G0 F12000 X-31 Y-0.577
G1 F3600 X-30.999 Y24.631 E1560.14806
G0 F12000 X-31.499 Y24.631
G1 F3600 X-31.5 Y-0.727 E1561.20233
G0 F12000 X-32 Y-0.974
G1 F3600 X-31.999 Y24.631 E1562.26686
G0 F12000 X-32.499 Y24.631
G1 F3600 X-32.5 Y-1.268 E1563.34361
G0 F12000 X-33 Y-1.739
G1 F3600 X-33 Y24.631 E1564.43995
G0 F12000 X-33.754 Y-3.76
G1 F3600 X-33.802 Y-4.591 E1564.46715
G1 X-33.754 Y-5.423 E1564.49438
; Layer Change GCode
; LAYER:4
G0 F12000 X-33.754 Y-5.423 Z1.15
G0 X-33.264 Y-3.818
G0 X-32.998 Y-3.086
G0 X-32.569 Y-2.435
G0 X-32.003 Y-1.9
G0 X-31.328 Y-1.511
G0 X-30.582 Y-1.287
G0 X-29.861 Y-1.246
G0 X-29.833 Y-1.745
G0 X-29.861 Y-1.246
G0 X-30.582 Y-1.287
G0 X-31.328 Y-1.511
G0 X-32.003 Y-1.9
G0 X-33.448 Y-2.861
; TYPE:WALL-INNER
G1 F3600 X-32.955 Y-2.111 E1564.5317
G1 X-32.303 Y-1.496 E1564.56896
G1 X-31.527 Y-1.048 E1564.60621
G1 X-30.669 Y-0.792 E1564.64344
G1 X-29.774 Y-0.74 E1564.68071
G1 X-28.893 Y-0.895 E1564.7179
G1 X-28.07 Y-1.25 E1564.75517
G1 X-27.351 Y-1.785 E1564.79243
G1 X-26.776 Y-2.472 E1564.82967
G1 X-26.373 Y-3.272 E1564.86691
G1 X-26.167 Y-4.144 E1564.90417
G1 X-26.167 Y-5.039 E1564.94138
G1 X-26.373 Y-5.911 E1564.97863
G1 X-26.776 Y-6.711 E1565.01587
G1 X-27.351 Y-7.398 E1565.05312
G1 X-28.07 Y-7.933 E1565.09038
G1 X-28.893 Y-8.288 E1565.12764
G1 X-29.774 Y-8.443 E1565.16483
G1 X-30.669 Y-8.391 E1565.2021
G1 X-31.527 Y-8.135 E1565.23933
G1 X-32.303 Y-7.687 E1565.27658
G1 X-32.955 Y-7.072 E1565.31384
G1 X-33.448 Y-6.322 E1565.35116
G0 F12000 X-33.598 Y-6.322
G1 F3600 X-33.749 Y-5.495 E1565.38611
G0 F12000 X-33.749 Y-6.322
G1 F3600 X-33.749 Y-19.45 E1565.93191
G0 F12000 X-33.598 Y-19.45
G1 F3600 X-33.749 Y-20.277 E1565.96686
G0 F12000 X-33.448 Y-19.45
G1 F3600 X-32.955 Y-18.7 E1566.00417
G1 X-32.303 Y-18.085 E1566.04144
G1 X-31.527 Y-17.637 E1566.07869
G1 X-30.669 Y-17.381 E1566.11592
G1 X-29.774 Y-17.329 E1566.15319
G1 X-28.893 Y-17.484 E1566.19038
G1 X-28.07 Y-17.839 E1566.22764
G1 X-27.351 Y-18.374 E1566.2649
G1 X-26.776 Y-19.061 E1566.30215
G1 X-26.373 Y-19.861 E1566.33939
G1 X-26.167 Y-20.733 E1566.37664
G1 X-26.167 Y-21.628 E1566.41385
G1 X-26.373 Y-22.5 E1566.4511
G1 X-26.776 Y-23.3 E1566.48835
G1 X-27.351 Y-23.987 E1566.52559
G1 X-28.07 Y-24.522 E1566.56285
G0 F12000 X-28.07 Y-24.726
G1 F3600 X-28.893 Y-24.903 E1566.59785
G1 X-29.194 Y-24.93 E1566.61041
G0 F12000 X-28.07 Y-24.93
G1 F3600 X9.75 Y-24.93 E1568.18279
G1 X9.75 Y-14.93 E1568.59854
G1 X26.25 Y-14.93 E1569.28453
G1 X26.25 Y-19.45 E1569.47245
G0 F12000 X26.4 Y-19.45
G1 F3600 X26.25 Y-20.277 E1569.50739
G0 F12000 X26.551 Y-19.45
G1 F3600 X27.044 Y-18.7 E1569.54471
G1 X27.696 Y-18.085 E1569.58197
G1 X28.472 Y-17.637 E1569.61922
G1 X29.33 Y-17.381 E1569.65645
G1 X30.225 Y-17.329 E1569.69372
