; Generated with MatterSlice 1.0
; filamentDiameter = 1.75
; extrusionWidth = 0.5
; firstLayerExtrusionWidth = 0.55
; layerThickness = 0.2
; firstLayerThickness = 0.3
; automatic settings before start_gcode
G21 ; set units to millimeters
M107 ; fan off
T0 ; set the active extruder to 0
; settings from start_gcode
M104 S215
M190 S60
M109 S215
G28
; automatic settings after start_gcode
T0 ; set the active extruder to 0
G90 ; use absolute coordinates
G92 E0 ; reset the expected extruder position
M82 ; use absolute distance for extrusion
; Layer count: 125
; Layer Change GCode
; LAYER:0
M400
M107
G0 F12000 X51.65 Y-66.448 Z0.65
; TYPE:SKIRT
G1 Z0.35
G1 F6600 E0
G1 F600 X51.65 Y58.064 E8.5414
G1 X19.472 Y95.15 E11.9096
G1 X-20.386 Y95.15 E14.64382
G1 X-51.649 Y61.145 E17.81256
G1 X-51.649 Y-81.494 E27.59746
G1 X-19.219 Y-95.149 E30.01129
G1 X19.086 Y-95.149 E32.63898
G1 X51.65 Y-66.448 E35.61665
G0 F12000 X51.1 Y-66.2
G1 F600 X51.1 Y57.858 E44.12691
G1 X19.221 Y94.6 E47.46384
G1 X-20.145 Y94.6 E50.16431
G1 X-51.099 Y60.93 E53.30179
G1 X-51.099 Y-81.129 E63.04689
G1 X-19.107 Y-94.599 E65.42811
G1 X18.878 Y-94.599 E68.03384
G1 X51.1 Y-66.2 E70.98022
G0 F12000 X50.55 Y-65.951
G1 F600 X50.55 Y57.653 E79.45933
G1 X18.97 Y94.05 E82.76495
G1 X-19.903 Y94.05 E85.4316
G1 X-50.549 Y60.716 E88.53781
G1 X-50.549 Y-80.764 E98.2432
G1 X-18.996 Y-94.049 E100.59173
G1 X18.67 Y-94.049 E103.17558
G1 X50.55 Y-65.951 E106.0907
G0 F12000 X50 Y-65.703
G1 F600 X50 Y57.448 E114.53874
G1 X18.719 Y93.5 E117.81304
G1 X-19.662 Y93.5 E120.44594
G1 X-49.999 Y60.502 E123.52083
G1 X-49.999 Y-80.399 E133.18651
G1 X-18.885 Y-93.499 E135.50236
G1 X18.462 Y-93.499 E138.06433
G1 X50 Y-65.703 E140.94815
G0 F12000 X46.725 Y-64.224
G1 F600 X46.725 Y56.225 E149.21084
G1 X17.225 Y56.225 E151.23451
G1 X17.225 Y90.225 E153.56687
G1 X-18.224 Y90.225 E155.99864
G1 X-18.224 Y59.225 E158.12521
G1 X-46.724 Y59.225 E160.08028
G1 X-46.724 Y-78.224 E169.50915
G1 X-18.224 Y-78.224 E171.46422
G1 X-18.224 Y-90.224 E172.28741
G1 X17.225 Y-90.224 E174.71918
G1 X17.225 Y-64.224 E176.50275
G1 X46.725 Y-64.224 E178.52643
G0 F12000 X46.175 Y-63.674
G1 F600 X46.175 Y55.675 E186.71365
G1 X16.675 Y55.675 E188.73732
G1 X16.675 Y89.675 E191.06969
G1 X-17.674 Y89.675 E193.426
G1 X-17.674 Y58.675 E195.55257
G1 X-46.174 Y58.675 E197.50764
G1 X-46.174 Y-77.674 E206.86105
G1 X-17.674 Y-77.674 E208.81612
G1 X-17.674 Y-89.674 E209.63931
G1 X16.675 Y-89.674 E211.99562
G1 X16.675 Y-63.674 E213.77919
G1 X46.175 Y-63.674 E215.80286
G0 F12000 X45.625 Y-63.124
G1 F600 X45.625 Y55.125 E223.91463
G1 X16.125 Y55.125 E225.9383
G1 X16.125 Y89.125 E228.27067
G1 X-17.124 Y89.125 E230.55152
G1 X-17.124 Y58.125 E232.67809
G1 X-45.624 Y58.125 E234.63316
G1 X-45.624 Y-77.124 E243.91111
G1 X-17.124 Y-77.124 E245.86618
G1 X-17.124 Y-89.124 E246.68937
G1 X16.125 Y-89.124 E248.97022
G1 X16.125 Y-63.124 E250.75379
G1 X45.625 Y-63.124 E252.77747
G0 F12000 X45.075 Y-62.574
G1 F600 X45.075 Y54.575 E260.81377
G1 X15.575 Y54.575 E262.83744
G1 X15.575 Y88.575 E265.16981
G1 X-16.574 Y88.575 E267.3752
G1 X-16.574 Y57.575 E269.50177
G1 X-45.074 Y57.575 E271.45684
G1 X-45.074 Y-76.574 E280.65933
G1 X-16.574 Y-76.574 E282.61441
G1 X-16.574 Y-88.574 E283.4376
G1 X15.575 Y-88.574 E285.64299
G1 X15.575 Y-62.574 E287.42656
G1 X45.075 Y-62.574 E289.45023
G0 F12000 X44.525 Y-62.024
G1 F600 X44.525 Y54.025 E297.41108
G1 X15.025 Y54.025 E299.43475
G1 X15.025 Y88.025 E301.76712
G1 X-16.024 Y88.025 E303.89705
G1 X-16.024 Y57.025 E306.02362
G1 X-44.524 Y57.025 E307.97869
G1 X-44.524 Y-76.024 E317.10572
G1 X-16.024 Y-76.024 E319.0608
G1 X-16.024 Y-88.024 E319.88398
G1 X15.025 Y-88.024 E322.01392
G1 X15.025 Y-62.024 E323.79749
G1 X44.525 Y-62.024 E325.82116
G0 F12000 X43.975 Y-61.474
G1 F600 X43.975 Y53.475 E333.70655
G1 X14.475 Y53.475 E335.73022
G1 X14.475 Y87.475 E338.06259
G1 X-15.474 Y87.475 E340.11706
G1 X-15.474 Y56.475 E342.24363
G1 X-43.974 Y56.475 E344.1987
G1 X-43.974 Y-75.474 E353.25028
G1 X-15.474 Y-75.474 E355.20535
G1 X-15.474 Y-87.474 E356.02854
G1 X14.475 Y-87.474 E358.08301
G1 X14.475 Y-61.474 E359.86659
G1 X43.975 Y-61.474 E361.89026
G0 F12000 X43.425 Y-60.924
G1 F600 X43.425 Y52.925 E369.70019
G1 X14.575 Y52.925 E371.67927
G1 X14.575 Y-60.924 E379.4892
G1 X43.425 Y-60.924 E381.46828
G0 F12000 X42.875 Y-60.374
G1 F600 X42.875 Y52.375 E389.20275
G1 X15.125 Y52.375 E391.10638
G1 X15.125 Y-60.374 E398.84085
G1 X42.875 Y-60.374 E400.74447
G0 F12000 X42.325 Y-59.824
G1 F600 X42.325 Y51.825 E408.40349
G1 X15.675 Y51.825 E410.23165
G1 X15.675 Y-59.824 E417.89066
G1 X42.325 Y-59.824 E419.71883
G0 F12000 X41.775 Y-59.274
G1 F600 X41.775 Y51.275 E427.30238
G1 X16.225 Y51.275 E429.05509
G1 X16.225 Y-59.274 E436.63864
G1 X41.775 Y-59.274 E438.39134
G1 F6600 E434.39134
G1 Z0.65
G0 F12000 X13.925 Y-86.924
G1 Z0.35
G1 F6600 E438.49134
G1 F600 X13.925 Y86.925 E450.41722
G1 X-14.924 Y86.925 E452.39623
G1 X-14.924 Y55.925 E454.5228
G1 X-43.424 Y55.925 E456.47787
G1 X-43.424 Y-74.924 E465.45399
G1 X-14.924 Y-74.924 E467.40906
G1 X-14.924 Y-86.924 E468.23225
G1 X13.925 Y-86.924 E470.21126
G0 F12000 X13.375 Y-86.374
G1 F600 X13.375 Y86.375 E482.06167
G1 X-14.374 Y86.375 E483.96523
G1 X-14.374 Y-86.374 E495.81564
G1 X13.375 Y-86.374 E497.7192
G0 F12000 X12.825 Y-85.824
G1 F600 X12.825 Y85.825 E509.49415
G1 X-13.824 Y85.825 E511.32225
G1 X-13.824 Y-85.824 E523.0972
G1 X12.825 Y-85.824 E524.9253
G0 F12000 X12.275 Y-85.274
G1 F600 X12.275 Y85.275 E536.62479
G1 X-13.274 Y85.275 E538.37743
G1 X-13.274 Y-85.274 E550.07693
G1 X12.275 Y-85.274 E551.82956
G1 F6600 E547.82956
G1 Z0.65
G0 F12000 X-15.124 Y-74.374
G1 Z0.35
G1 F6600 E551.92956
G1 F600 X-15.124 Y55.375 E560.83022
G1 X-42.874 Y55.375 E562.73384
G1 X-42.874 Y-74.374 E571.6345
G1 X-15.124 Y-74.374 E573.53812
G0 F12000 X-15.674 Y-73.824
G1 F600 X-15.674 Y54.825 E582.36332
G1 X-42.324 Y54.825 E584.19148
G1 X-42.324 Y-73.824 E593.01668
G1 X-15.674 Y-73.824 E594.84484
G0 F12000 X-16.224 Y-73.274
G1 F600 X-16.224 Y54.275 E603.59458
G1 X-41.774 Y54.275 E605.34728
G1 X-41.774 Y-73.274 E614.09702
G1 X-16.224 Y-73.274 E615.84973
G1 F6600 E611.84973
G1 Z0.65
G0 F12000 X-14.499 Y-86.499
G0 X13.5 Y-86.499
G0 X15.5 Y-58.999
G0 X16.5 Y-58.999
G0 X17.325 Y-58.174
G0 X17.325 Y50.175
G0 X16.775 Y50.725
; TYPE:WALL-OUTER
G1 Z0.35
G1 F6600 E615.94973
G1 F600 X16.775 Y-58.724 E623.45782
G1 X41.225 Y-58.724 E625.13507
G1 X41.225 Y50.725 E632.64316
G1 X16.775 Y50.725 E634.32041
G0 F12000 X17.325 Y50.175
; TYPE:WALL-INNER
G1 F600 X17.325 Y-58.174 E641.75304
G1 X40.675 Y-58.174 E643.35483
G1 X40.675 Y50.175 E650.78747
G1 X17.325 Y50.175 E652.38925
G0 F12000 X17.875 Y49.625
G1 F600 X17.875 Y-57.624 E659.74643
G1 X40.125 Y-57.624 E661.27276
G1 X40.125 Y49.625 E668.62994
G1 X17.875 Y49.625 E670.15627
G0 F12000 X18.224 Y48.95
; TYPE:BOTTOM-FILL
G1 F600 X39.775 Y48.95 E671.63464
G0 F12000 X39.775 Y48.4
G1 F600 X18.224 Y48.4 E673.11302
G0 F12000 X18.224 Y47.85
G1 F600 X39.775 Y47.85 E674.5914
G0 F12000 X39.775 Y47.3
G1 F600 X18.224 Y47.3 E676.06978
G0 F12000 X18.224 Y46.75
G1 F600 X39.775 Y46.75 E677.54815
G0 F12000 X39.775 Y46.2
G1 F600 X18.224 Y46.2 E679.02653
G0 F12000 X18.224 Y45.65
G1 F600 X39.775 Y45.65 E680.50491
G0 F12000 X39.775 Y45.1
G1 F600 X18.224 Y45.1 E681.98329
G0 F12000 X18.224 Y44.55
G1 F600 X39.775 Y44.55 E683.46166
G0 F12000 X39.775 Y44
G1 F600 X18.224 Y44 E684.94004
G0 F12000 X18.224 Y43.45
G1 F600 X39.775 Y43.45 E686.41842
G0 F12000 X39.775 Y42.9
G1 F600 X18.224 Y42.9 E687.8968
G0 F12000 X18.224 Y42.35
G1 F600 X39.775 Y42.35 E689.37518
G0 F12000 X39.775 Y41.8
G1 F600 X18.224 Y41.8 E690.85355
G0 F12000 X18.224 Y41.25
G1 F600 X39.775 Y41.25 E692.33193
G0 F12000 X39.775 Y40.7
G1 F600 X18.224 Y40.7 E693.81031
G0 F12000 X18.224 Y40.15
G1 F600 X39.775 Y40.15 E695.28869
G0 F12000 X39.775 Y39.6
G1 F600 X18.224 Y39.6 E696.76706
G0 F12000 X18.224 Y39.05
G1 F600 X39.775 Y39.05 E698.24544
G0 F12000 X39.775 Y38.5
G1 F600 X18.224 Y38.5 E699.72382
G0 F12000 X18.224 Y37.95
G1 F600 X39.775 Y37.95 E701.2022
G0 F12000 X39.775 Y37.4
G1 F600 X18.224 Y37.4 E702.68057
G0 F12000 X18.224 Y36.85
G1 F600 X39.775 Y36.85 E704.15895
G0 F12000 X39.775 Y36.3
G1 F600 X18.224 Y36.3 E705.63733
G0 F12000 X18.224 Y35.75
G1 F600 X39.775 Y35.75 E707.11571
G0 F12000 X39.775 Y35.2
G1 F600 X18.224 Y35.2 E708.59409
G0 F12000 X18.224 Y34.65
G1 F600 X39.775 Y34.65 E710.07246
G0 F12000 X39.775 Y34.1
G1 F600 X18.224 Y34.1 E711.55084
G0 F12000 X18.224 Y33.55
G1 F600 X39.775 Y33.55 E713.02922
G0 F12000 X39.775 Y33
G1 F600 X18.224 Y33 E714.5076
G0 F12000 X18.224 Y32.45
G1 F600 X39.775 Y32.449 E715.98597
G0 F12000 X39.775 Y31.899
G1 F600 X18.224 Y31.9 E717.46435
G0 F12000 X18.224 Y31.35
G1 F600 X39.775 Y31.349 E718.94273
G0 F12000 X39.775 Y30.799
G1 F600 X18.224 Y30.8 E720.42111
G0 F12000 X18.224 Y30.25
G1 F600 X39.775 Y30.249 E721.89948
G0 F12000 X39.775 Y29.699
G1 F600 X18.224 Y29.7 E723.37786
G0 F12000 X18.224 Y29.15
G1 F600 X39.775 Y29.149 E724.85624
G0 F12000 X39.775 Y28.599
G1 F600 X18.224 Y28.6 E726.33462
G0 F12000 X18.224 Y28.05
G1 F600 X39.775 Y28.049 E727.81299
G0 F12000 X39.775 Y27.499
G1 F600 X18.224 Y27.5 E729.29137
G0 F12000 X18.224 Y26.95
G1 F600 X39.775 Y26.949 E730.76975
G0 F12000 X39.775 Y26.399
G1 F600 X18.224 Y26.4 E732.24813
G0 F12000 X18.224 Y25.85
G1 F600 X39.775 Y25.849 E733.72651
G0 F12000 X39.775 Y25.299
G1 F600 X18.224 Y25.3 E735.20488
G0 F12000 X18.224 Y24.75
G1 F600 X39.775 Y24.749 E736.68326
G0 F12000 X39.775 Y24.199
G1 F600 X18.224 Y24.2 E738.16164
G0 F12000 X18.224 Y23.65
G1 F600 X39.775 Y23.649 E739.64002
G0 F12000 X39.775 Y23.099
G1 F600 X18.224 Y23.1 E741.11839
G0 F12000 X18.224 Y22.55
G1 F600 X39.775 Y22.549 E742.59677
G0 F12000 X39.775 Y21.999
G1 F600 X18.224 Y22 E744.07515
G0 F12000 X18.224 Y21.45
G1 F600 X39.775 Y21.449 E745.55353
G0 F12000 X39.775 Y20.899
G1 F600 X18.224 Y20.9 E747.0319
G0 F12000 X18.224 Y20.35
G1 F600 X39.775 Y20.349 E748.51028
G0 F12000 X39.775 Y19.799
G1 F600 X18.224 Y19.8 E749.98866
G0 F12000 X18.224 Y19.25
G1 F600 X39.775 Y19.249 E751.46704
G0 F12000 X39.775 Y18.699
G1 F600 X18.224 Y18.7 E752.94542
G0 F12000 X18.224 Y18.15
G1 F600 X39.775 Y18.149 E754.42379
G0 F12000 X39.775 Y17.599
G1 F600 X18.224 Y17.6 E755.90217
G0 F12000 X18.224 Y17.05
G1 F600 X39.775 Y17.049 E757.38055
G0 F12000 X39.775 Y16.499
G1 F600 X18.224 Y16.5 E758.85893
G0 F12000 X18.224 Y15.949
G1 F600 X39.775 Y15.949 E760.3373
G0 F12000 X39.775 Y15.399
G1 F600 X18.224 Y15.399 E761.81568
G0 F12000 X18.224 Y14.849
G1 F600 X39.775 Y14.849 E763.29406
G0 F12000 X39.775 Y14.299
G1 F600 X18.224 Y14.299 E764.77244
G0 F12000 X18.224 Y13.749
G1 F600 X39.775 Y13.749 E766.25081
G0 F12000 X39.775 Y13.199
G1 F600 X18.224 Y13.199 E767.72919
G0 F12000 X18.224 Y12.649
G1 F600 X39.775 Y12.649 E769.20757
G0 F12000 X39.775 Y12.099
G1 F600 X18.224 Y12.099 E770.68595
G0 F12000 X18.224 Y11.549
G1 F600 X39.775 Y11.549 E772.16432
G0 F12000 X39.775 Y10.999
G1 F600 X18.224 Y10.999 E773.6427
G0 F12000 X18.224 Y10.449
G1 F600 X39.775 Y10.449 E775.12108
G0 F12000 X39.775 Y9.899
G1 F600 X18.224 Y9.899 E776.59946
G0 F12000 X18.224 Y9.349
G1 F600 X39.775 Y9.349 E778.07784
G0 F12000 X39.775 Y8.799
G1 F600 X18.224 Y8.799 E779.55621
G0 F12000 X18.224 Y8.249
G1 F600 X39.775 Y8.249 E781.03459
G0 F12000 X39.775 Y7.699
G1 F600 X18.224 Y7.699 E782.51297
G0 F12000 X18.224 Y7.149
G1 F600 X39.775 Y7.149 E783.99135
G0 F12000 X39.775 Y6.599
G1 F600 X18.224 Y6.599 E785.46972
G0 F12000 X18.224 Y6.049
G1 F600 X39.775 Y6.049 E786.9481
G0 F12000 X39.775 Y5.499
G1 F600 X18.224 Y5.499 E788.42648
G0 F12000 X18.224 Y4.949
G1 F600 X39.775 Y4.949 E789.90486
G0 F12000 X39.775 Y4.399
G1 F600 X18.224 Y4.399 E791.38323
G0 F12000 X18.224 Y3.849
G1 F600 X39.775 Y3.849 E792.86161
G0 F12000 X39.775 Y3.299
G1 F600 X18.224 Y3.299 E794.33999
G0 F12000 X18.224 Y2.749
G1 F600 X39.775 Y2.749 E795.81837
G0 F12000 X39.775 Y2.199
G1 F600 X18.224 Y2.199 E797.29675
G0 F12000 X18.224 Y1.649
G1 F600 X39.775 Y1.649 E798.77512
G0 F12000 X39.775 Y1.099
G1 F600 X18.224 Y1.099 E800.2535
G0 F12000 X18.224 Y0.549
G1 F600 X39.775 Y0.549 E801.73188
G0 F12000 X39.775 Y0
G1 F600 X18.224 Y0 E803.21026
G0 F12000 X18.224 Y-0.55
G1 F600 X39.775 Y-0.55 E804.68863
G0 F12000 X39.775 Y-1.1
G1 F600 X18.224 Y-1.1 E806.16701
G0 F12000 X18.224 Y-1.65
G1 F600 X39.775 Y-1.65 E807.64539
G0 F12000 X39.775 Y-2.2
G1 F600 X18.224 Y-2.2 E809.12377
G0 F12000 X18.224 Y-2.75
G1 F600 X39.775 Y-2.75 E810.60214
G0 F12000 X39.775 Y-3.3
G1 F600 X18.224 Y-3.3 E812.08052
G0 F12000 X18.224 Y-3.85
G1 F600 X39.775 Y-3.85 E813.5589
G0 F12000 X39.775 Y-4.4
G1 F600 X18.225 Y-4.4 E815.03721
G0 F12000 X18.225 Y-4.95
G1 F600 X39.775 Y-4.95 E816.51552
G0 F12000 X39.775 Y-5.5
G1 F600 X18.225 Y-5.5 E817.99383
G0 F12000 X18.225 Y-6.05
G1 F600 X39.775 Y-6.05 E819.47214
G0 F12000 X39.775 Y-6.6
G1 F600 X18.225 Y-6.6 E820.95044
G0 F12000 X18.225 Y-7.15
G1 F600 X39.775 Y-7.15 E822.42875
G0 F12000 X39.775 Y-7.7
G1 F600 X18.225 Y-7.7 E823.90706
G0 F12000 X18.225 Y-8.25
G1 F600 X39.775 Y-8.25 E825.38537
G0 F12000 X39.775 Y-8.8
G1 F600 X18.225 Y-8.8 E826.86368
G0 F12000 X18.225 Y-9.35
G1 F600 X39.775 Y-9.35 E828.34199
G0 F12000 X39.775 Y-9.9
G1 F600 X18.225 Y-9.9 E829.8203
G0 F12000 X18.225 Y-10.45
G1 F600 X39.775 Y-10.45 E831.29861
G0 F12000 X39.775 Y-11
G1 F600 X18.225 Y-11 E832.77692
G0 F12000 X18.225 Y-11.55
G1 F600 X39.775 Y-11.55 E834.25523
G0 F12000 X39.775 Y-12.1
G1 F600 X18.225 Y-12.1 E835.73354
G0 F12000 X18.225 Y-12.65
G1 F600 X39.775 Y-12.65 E837.21184
G0 F12000 X39.775 Y-13.2
G1 F600 X18.225 Y-13.2 E838.69015
G0 F12000 X18.225 Y-13.75
G1 F600 X39.775 Y-13.75 E840.16846
G0 F12000 X39.775 Y-14.3
G1 F600 X18.225 Y-14.3 E841.64677
G0 F12000 X18.225 Y-14.85
G1 F600 X39.775 Y-14.85 E843.12508
G0 F12000 X39.775 Y-15.4
G1 F600 X18.225 Y-15.4 E844.60339
G0 F12000 X18.225 Y-15.95
G1 F600 X39.775 Y-15.95 E846.0817
G0 F12000 X39.775 Y-16.5
G1 F600 X18.225 Y-16.5 E847.56001
G0 F12000 X18.225 Y-17.05
G1 F600 X39.775 Y-17.05 E849.03832
G0 F12000 X39.775 Y-17.6
G1 F600 X18.225 Y-17.6 E850.51663
G0 F12000 X18.225 Y-18.15
G1 F600 X39.775 Y-18.15 E851.99494
G0 F12000 X39.775 Y-18.7
G1 F600 X18.225 Y-18.7 E853.47324
G0 F12000 X18.225 Y-19.25
G1 F600 X39.775 Y-19.25 E854.95155
G0 F12000 X39.775 Y-19.8
G1 F600 X18.225 Y-19.8 E856.42986
G0 F12000 X18.225 Y-20.35
G1 F600 X39.775 Y-20.35 E857.90817
G0 F12000 X39.775 Y-20.9
G1 F600 X18.225 Y-20.9 E859.38648
G0 F12000 X18.225 Y-21.45
G1 F600 X39.775 Y-21.45 E860.86479
G0 F12000 X39.775 Y-22
G1 F600 X18.225 Y-22 E862.3431
G0 F12000 X18.225 Y-22.55
G1 F600 X39.775 Y-22.55 E863.82141
G0 F12000 X39.775 Y-23.1
G1 F600 X18.225 Y-23.1 E865.29972
G0 F12000 X18.225 Y-23.65
G1 F600 X39.775 Y-23.65 E866.77803
G0 F12000 X39.775 Y-24.2
G1 F600 X18.225 Y-24.2 E868.25633
G0 F12000 X18.225 Y-24.75
G1 F600 X39.775 Y-24.75 E869.73464
G0 F12000 X39.775 Y-25.3
G1 F600 X18.225 Y-25.3 E871.21295
G0 F12000 X18.225 Y-25.85
G1 F600 X39.775 Y-25.85 E872.69126
G0 F12000 X39.775 Y-26.4
G1 F600 X18.225 Y-26.4 E874.16957
G0 F12000 X18.225 Y-26.95
G1 F600 X39.775 Y-26.95 E875.64788
G0 F12000 X39.775 Y-27.5
G1 F600 X18.225 Y-27.5 E877.12619
G0 F12000 X18.225 Y-28.05
G1 F600 X39.775 Y-28.05 E878.6045
G0 F12000 X39.775 Y-28.6
G1 F600 X18.225 Y-28.6 E880.08281
G0 F12000 X18.225 Y-29.15
G1 F600 X39.775 Y-29.15 E881.56112
G0 F12000 X39.775 Y-29.7
G1 F600 X18.225 Y-29.7 E883.03943
G0 F12000 X18.224 Y-30.25
G1 F600 X39.775 Y-30.25 E884.5178
G0 F12000 X39.775 Y-30.8
G1 F600 X18.224 Y-30.8 E885.99618
G0 F12000 X18.224 Y-31.35
G1 F600 X39.775 Y-31.35 E887.47456
G0 F12000 X39.775 Y-31.9
G1 F600 X18.224 Y-31.9 E888.95294
G0 F12000 X18.224 Y-32.45
G1 F600 X39.775 Y-32.45 E890.43131
G0 F12000 X39.775 Y-33
G1 F600 X18.224 Y-33 E891.90969
G0 F12000 X18.224 Y-33.55
G1 F600 X39.775 Y-33.55 E893.38807
G0 F12000 X39.775 Y-34.1
G1 F600 X18.224 Y-34.1 E894.86645
G0 F12000 X18.224 Y-34.65
G1 F600 X39.775 Y-34.65 E896.34482
G0 F12000 X39.775 Y-35.2
G1 F600 X18.224 Y-35.2 E897.8232
G0 F12000 X18.224 Y-35.75
G1 F600 X39.775 Y-35.75 E899.30158
G0 F12000 X39.775 Y-36.3
G1 F600 X18.224 Y-36.3 E900.77996
G0 F12000 X18.224 Y-36.85
G1 F600 X39.775 Y-36.85 E902.25834
G0 F12000 X39.775 Y-37.4
G1 F600 X18.224 Y-37.4 E903.73671
G0 F12000 X18.224 Y-37.95
G1 F600 X39.775 Y-37.95 E905.21509
G0 F12000 X39.775 Y-38.5
G1 F600 X18.224 Y-38.5 E906.69347
G0 F12000 X18.224 Y-39.05
G1 F600 X39.775 Y-39.05 E908.17185
G0 F12000 X39.775 Y-39.6
G1 F600 X18.224 Y-39.6 E909.65022
G0 F12000 X18.224 Y-40.15
G1 F600 X39.775 Y-40.15 E911.1286
G0 F12000 X39.775 Y-40.7
G1 F600 X18.224 Y-40.7 E912.60698
G0 F12000 X18.224 Y-41.25
G1 F600 X39.775 Y-41.25 E914.08536
G0 F12000 X39.775 Y-41.8
G1 F600 X18.224 Y-41.8 E915.56373
G0 F12000 X18.224 Y-42.35
G1 F600 X39.775 Y-42.35 E917.04211
G0 F12000 X39.775 Y-42.9
G1 F600 X18.224 Y-42.9 E918.52049
G0 F12000 X18.224 Y-43.45
G1 F600 X39.775 Y-43.45 E919.99887
G0 F12000 X39.775 Y-44
G1 F600 X18.224 Y-44 E921.47724
G0 F12000 X18.224 Y-44.55
G1 F600 X39.775 Y-44.55 E922.95562
G0 F12000 X39.775 Y-45.1
G1 F600 X18.224 Y-45.1 E924.434
G0 F12000 X18.224 Y-45.65
G1 F600 X39.775 Y-45.65 E925.91238
G0 F12000 X39.775 Y-46.2
G1 F600 X18.224 Y-46.2 E927.39076
G0 F12000 X18.224 Y-46.75
G1 F600 X39.775 Y-46.75 E928.86913
G0 F12000 X39.775 Y-47.3
G1 F600 X18.224 Y-47.3 E930.34751
G0 F12000 X18.224 Y-47.85
G1 F600 X39.775 Y-47.85 E931.82589
G0 F12000 X39.775 Y-48.4
G1 F600 X18.224 Y-48.4 E933.30427
G0 F12000 X18.224 Y-48.95
G1 F600 X39.775 Y-48.95 E934.78264
G0 F12000 X39.775 Y-49.5
G1 F600 X18.224 Y-49.5 E936.26102
G0 F12000 X18.224 Y-50.05
G1 F600 X39.775 Y-50.05 E937.7394
G0 F12000 X39.775 Y-50.6
G1 F600 X18.224 Y-50.6 E939.21778
G0 F12000 X18.224 Y-51.15
G1 F600 X39.775 Y-51.15 E940.69615
G0 F12000 X39.775 Y-51.7
G1 F600 X18.224 Y-51.7 E942.17453
G0 F12000 X18.224 Y-52.25
G1 F600 X39.775 Y-52.25 E943.65291
G0 F12000 X39.775 Y-52.8
G1 F600 X18.224 Y-52.8 E945.13129
G0 F12000 X18.224 Y-53.35
G1 F600 X39.775 Y-53.35 E946.60966
G0 F12000 X39.775 Y-53.9
G1 F600 X18.224 Y-53.9 E948.08804
G0 F12000 X18.224 Y-54.45
G1 F600 X39.775 Y-54.45 E949.56642
G0 F12000 X39.775 Y-55
G1 F600 X18.224 Y-55 E951.0448
G0 F12000 X18.224 Y-55.55
G1 F600 X39.775 Y-55.55 E952.52318
G0 F12000 X39.775 Y-56.1
G1 F600 X18.224 Y-56.1 E954.00155
G0 F12000 X18.224 Y-56.65
G1 F600 X39.775 Y-56.65 E955.47993
G0 F12000 X39.775 Y-57.2
G1 F600 X18.224 Y-57.2 E956.95831
G1 F6600 E952.95831
G1 Z0.65
G0 F12000 X17.325 Y-58.174
G0 X16.5 Y-58.999
G0 X15.5 Y-58.999
G0 X13.5 Y-86.499
G0 X-14.499 Y-86.499
G0 X-16.499 Y-72.999
G0 X-17.324 Y-72.174
G0 X-40.674 Y53.175
G0 X-41.224 Y53.725
; TYPE:WALL-OUTER
G1 Z0.35
G1 F6600 E957.05831
G1 F600 X-41.224 Y-72.724 E965.73259
G1 X-16.774 Y-72.724 E967.40983
G1 X-16.774 Y53.725 E976.08411
G1 X-41.224 Y53.725 E977.76136
G0 F12000 X-40.674 Y53.175
; TYPE:WALL-INNER
G1 F600 X-40.674 Y-72.174 E986.36018
G1 X-17.324 Y-72.174 E987.96197
G1 X-17.324 Y53.175 E996.56078
G1 X-40.674 Y53.175 E998.16257
G0 F12000 X-40.124 Y52.625
G1 F600 X-40.124 Y-71.624 E1006.68593
G1 X-17.874 Y-71.624 E1008.21226
G1 X-17.874 Y52.625 E1016.73562
G1 X-40.124 Y52.625 E1018.26195
G0 F12000 X-39.774 Y52.25
; TYPE:BOTTOM-FILL
G1 F600 X-18.223 Y52.25 E1019.74033
G0 F12000 X-18.223 Y51.7
G1 F600 X-39.774 Y51.7 E1021.21871
G0 F12000 X-39.774 Y51.15
G1 F600 X-18.223 Y51.15 E1022.69708
G0 F12000 X-18.223 Y50.6
G1 F600 X-39.774 Y50.6 E1024.17546
G0 F12000 X-39.774 Y50.05
G1 F600 X-18.223 Y50.05 E1025.65384
G0 F12000 X-18.223 Y49.5
G1 F600 X-39.774 Y49.5 E1027.13222
G0 F12000 X-39.774 Y48.95
G1 F600 X-18.223 Y48.95 E1028.61059
G0 F12000 X-18.223 Y48.4
G1 F600 X-39.774 Y48.4 E1030.08897
G0 F12000 X-39.774 Y47.85
G1 F600 X-18.223 Y47.85 E1031.56735
G0 F12000 X-18.223 Y47.3
G1 F600 X-39.774 Y47.3 E1033.04573
G0 F12000 X-39.774 Y46.75
G1 F600 X-18.223 Y46.75 E1034.5241
G0 F12000 X-18.223 Y46.2
G1 F600 X-39.774 Y46.2 E1036.00248
G0 F12000 X-39.774 Y45.65
G1 F600 X-18.223 Y45.65 E1037.48086
G0 F12000 X-18.223 Y45.1
G1 F600 X-39.774 Y45.1 E1038.95924
G0 F12000 X-39.774 Y44.55
G1 F600 X-18.223 Y44.55 E1040.43762
G0 F12000 X-18.223 Y44
G1 F600 X-39.774 Y44 E1041.91599
G0 F12000 X-39.774 Y43.45
G1 F600 X-18.223 Y43.45 E1043.39437
G0 F12000 X-18.223 Y42.9
G1 F600 X-39.774 Y42.9 E1044.87275
G0 F12000 X-39.774 Y42.35
G1 F600 X-18.223 Y42.35 E1046.35113
G0 F12000 X-18.223 Y41.8
G1 F600 X-39.774 Y41.8 E1047.8295
G0 F12000 X-39.774 Y41.25
G1 F600 X-18.223 Y41.25 E1049.30788
G0 F12000 X-18.223 Y40.7
G1 F600 X-39.774 Y40.7 E1050.78626
G0 F12000 X-39.774 Y40.15
G1 F600 X-18.223 Y40.15 E1052.26464
G0 F12000 X-18.223 Y39.6
G1 F600 X-39.774 Y39.6 E1053.74301
G0 F12000 X-39.774 Y39.05
G1 F600 X-18.223 Y39.05 E1055.22139
G0 F12000 X-18.223 Y38.5
G1 F600 X-39.774 Y38.5 E1056.69977
G0 F12000 X-39.774 Y37.95
G1 F600 X-18.223 Y37.95 E1058.17815
G0 F12000 X-18.223 Y37.4
G1 F600 X-39.774 Y37.4 E1059.65652
G0 F12000 X-39.774 Y36.85
G1 F600 X-18.223 Y36.85 E1061.1349
G0 F12000 X-18.223 Y36.3
G1 F600 X-39.774 Y36.3 E1062.61328
G0 F12000 X-39.774 Y35.75
G1 F600 X-18.223 Y35.75 E1064.09166
G0 F12000 X-18.223 Y35.2
G1 F600 X-39.774 Y35.2 E1065.57004
G0 F12000 X-39.774 Y34.65
G1 F600 X-18.223 Y34.65 E1067.04841
G0 F12000 X-18.223 Y34.1
G1 F600 X-39.774 Y34.1 E1068.52679
G0 F12000 X-39.774 Y33.55
G1 F600 X-18.223 Y33.55 E1070.00517
G0 F12000 X-18.223 Y33
G1 F600 X-39.774 Y33 E1071.48355
G0 F12000 X-39.774 Y32.45
G1 F600 X-18.223 Y32.45 E1072.96192
G0 F12000 X-18.223 Y31.9
G1 F600 X-39.774 Y31.9 E1074.4403
G0 F12000 X-39.774 Y31.35
G1 F600 X-18.223 Y31.35 E1075.91868
G0 F12000 X-18.223 Y30.8
G1 F600 X-39.774 Y30.8 E1077.39706
G0 F12000 X-39.774 Y30.25
G1 F600 X-18.223 Y30.25 E1078.87543
G0 F12000 X-18.224 Y29.7
G1 F600 X-39.774 Y29.7 E1080.35374
G0 F12000 X-39.774 Y29.15
G1 F600 X-18.224 Y29.15 E1081.83205
G0 F12000 X-18.224 Y28.6
G1 F600 X-39.774 Y28.6 E1083.31036
G0 F12000 X-39.774 Y28.05
G1 F600 X-18.224 Y28.05 E1084.78867
G0 F12000 X-18.224 Y27.5
G1 F600 X-39.774 Y27.5 E1086.26698
G0 F12000 X-39.774 Y26.95
G1 F600 X-18.224 Y26.95 E1087.74529
G0 F12000 X-18.224 Y26.4
G1 F600 X-39.774 Y26.4 E1089.2236
G0 F12000 X-39.774 Y25.85
G1 F600 X-18.224 Y25.85 E1090.70191
G0 F12000 X-18.224 Y25.3
G1 F600 X-39.774 Y25.3 E1092.18022
G0 F12000 X-39.774 Y24.75
G1 F600 X-18.224 Y24.75 E1093.65853
G0 F12000 X-18.224 Y24.2
G1 F600 X-39.774 Y24.2 E1095.13683
G0 F12000 X-39.774 Y23.65
G1 F600 X-18.224 Y23.65 E1096.61514
G0 F12000 X-18.224 Y23.1
G1 F600 X-39.774 Y23.1 E1098.09345
G0 F12000 X-39.774 Y22.55
G1 F600 X-18.224 Y22.55 E1099.57176
G0 F12000 X-18.224 Y22
G1 F600 X-39.774 Y22 E1101.05007
G0 F12000 X-39.774 Y21.45
G1 F600 X-18.224 Y21.45 E1102.52838
G0 F12000 X-18.224 Y20.9
G1 F600 X-39.774 Y20.9 E1104.00669
G0 F12000 X-39.774 Y20.35
G1 F600 X-18.224 Y20.35 E1105.485
G0 F12000 X-18.224 Y19.8
G1 F600 X-39.774 Y19.8 E1106.96331
G0 F12000 X-39.774 Y19.25
G1 F600 X-18.224 Y19.25 E1108.44162
G0 F12000 X-18.224 Y18.7
G1 F600 X-39.774 Y18.7 E1109.91992
G0 F12000 X-39.774 Y18.15
G1 F600 X-18.224 Y18.15 E1111.39823
G0 F12000 X-18.224 Y17.6
G1 F600 X-39.774 Y17.6 E1112.87654
G0 F12000 X-39.774 Y17.05
G1 F600 X-18.224 Y17.05 E1114.35485
G0 F12000 X-18.224 Y16.5
G1 F600 X-39.774 Y16.5 E1115.83316
G0 F12000 X-39.774 Y15.95
G1 F600 X-18.224 Y15.95 E1117.31147
G0 F12000 X-18.224 Y15.4
G1 F600 X-39.774 Y15.4 E1118.78978
G0 F12000 X-39.774 Y14.85
G1 F600 X-18.224 Y14.85 E1120.26809
G0 F12000 X-18.224 Y14.3
G1 F600 X-39.774 Y14.3 E1121.7464
G0 F12000 X-39.774 Y13.75
G1 F600 X-18.224 Y13.75 E1123.22471
G0 F12000 X-18.224 Y13.2
G1 F600 X-39.774 Y13.2 E1124.70302
G0 F12000 X-39.774 Y12.65
G1 F600 X-18.224 Y12.65 E1126.18132
G0 F12000 X-18.224 Y12.1
G1 F600 X-39.774 Y12.1 E1127.65963
G0 F12000 X-39.774 Y11.55
G1 F600 X-18.224 Y11.55 E1129.13794
G0 F12000 X-18.224 Y11
G1 F600 X-39.774 Y11 E1130.61625
G0 F12000 X-39.774 Y10.45
G1 F600 X-18.224 Y10.45 E1132.09456
G0 F12000 X-18.224 Y9.9
G1 F600 X-39.774 Y9.9 E1133.57287
G0 F12000 X-39.774 Y9.35
G1 F600 X-18.224 Y9.35 E1135.05118
G0 F12000 X-18.224 Y8.8
G1 F600 X-39.774 Y8.8 E1136.52949
G0 F12000 X-39.774 Y8.25
G1 F600 X-18.224 Y8.25 E1138.0078
G0 F12000 X-18.224 Y7.7
G1 F600 X-39.774 Y7.7 E1139.48611
G0 F12000 X-39.774 Y7.15
G1 F600 X-18.224 Y7.15 E1140.96442
G0 F12000 X-18.224 Y6.6
G1 F600 X-39.774 Y6.6 E1142.44272
G0 F12000 X-39.774 Y6.05
G1 F600 X-18.224 Y6.05 E1143.92103
G0 F12000 X-18.224 Y5.5
G1 F600 X-39.774 Y5.5 E1145.39934
G0 F12000 X-39.774 Y4.95
G1 F600 X-18.224 Y4.95 E1146.87765
G0 F12000 X-18.224 Y4.4
G1 F600 X-39.774 Y4.4 E1148.35596
G0 F12000 X-39.774 Y3.85
G1 F600 X-18.224 Y3.85 E1149.83427
G0 F12000 X-18.224 Y3.3
G1 F600 X-39.774 Y3.3 E1151.31258
G0 F12000 X-39.774 Y2.75
G1 F600 X-18.224 Y2.75 E1152.79089
G0 F12000 X-18.224 Y2.2
G1 F600 X-39.774 Y2.2 E1154.2692
G0 F12000 X-39.774 Y1.65
G1 F600 X-18.224 Y1.65 E1155.74751
G0 F12000 X-18.224 Y1.1
G1 F600 X-39.774 Y1.1 E1157.22581
G0 F12000 X-39.774 Y0.55
G1 F600 X-18.224 Y0.55 E1158.70412
G0 F12000 X-18.224 Y0
G1 F600 X-39.774 Y0 E1160.18243
G0 F12000 X-39.774 Y-0.549
G1 F600 X-18.224 Y-0.549 E1161.66074
G0 F12000 X-18.224 Y-1.099
G1 F600 X-39.774 Y-1.099 E1163.13905
G0 F12000 X-39.774 Y-1.649
G1 F600 X-18.224 Y-1.649 E1164.61736
G0 F12000 X-18.224 Y-2.199
G1 F600 X-39.774 Y-2.199 E1166.09567
G0 F12000 X-39.774 Y-2.749
G1 F600 X-18.224 Y-2.749 E1167.57398
G0 F12000 X-18.224 Y-3.299
G1 F600 X-39.774 Y-3.299 E1169.05229
G0 F12000 X-39.774 Y-3.849
G1 F600 X-18.224 Y-3.849 E1170.5306
G0 F12000 X-18.224 Y-4.399
G1 F600 X-39.774 Y-4.399 E1172.00891
G0 F12000 X-39.774 Y-4.949
G1 F600 X-18.224 Y-4.949 E1173.48721
G0 F12000 X-18.224 Y-5.499
G1 F600 X-39.774 Y-5.499 E1174.96552
G0 F12000 X-39.774 Y-6.049
G1 F600 X-18.224 Y-6.049 E1176.44383
G0 F12000 X-18.224 Y-6.599
G1 F600 X-39.774 Y-6.599 E1177.92214
G0 F12000 X-39.774 Y-7.149
G1 F600 X-18.224 Y-7.149 E1179.40045
G0 F12000 X-18.224 Y-7.699
G1 F600 X-39.774 Y-7.699 E1180.87876
G0 F12000 X-39.774 Y-8.249
G1 F600 X-18.224 Y-8.249 E1182.35707
G0 F12000 X-18.224 Y-8.799
G1 F600 X-39.774 Y-8.799 E1183.83538
G0 F12000 X-39.774 Y-9.349
G1 F600 X-18.224 Y-9.349 E1185.31369
G0 F12000 X-18.223 Y-9.899
G1 F600 X-39.773 Y-9.899 E1186.792
G0 F12000 X-39.773 Y-10.449
G1 F600 X-18.223 Y-10.449 E1188.27031
G0 F12000 X-18.223 Y-10.999
G1 F600 X-39.773 Y-10.999 E1189.74861
G0 F12000 X-39.773 Y-11.549
G1 F600 X-18.223 Y-11.549 E1191.22692
G0 F12000 X-18.223 Y-12.099
G1 F600 X-39.773 Y-12.099 E1192.70523
G0 F12000 X-39.773 Y-12.649
G1 F600 X-18.223 Y-12.649 E1194.18354
G0 F12000 X-18.223 Y-13.199
G1 F600 X-39.773 Y-13.199 E1195.66185
G0 F12000 X-39.773 Y-13.749
G1 F600 X-18.223 Y-13.749 E1197.14016
G0 F12000 X-18.223 Y-14.299
G1 F600 X-39.773 Y-14.299 E1198.61847
G0 F12000 X-39.773 Y-14.849
G1 F600 X-18.223 Y-14.849 E1200.09678
G0 F12000 X-18.223 Y-15.399
G1 F600 X-39.773 Y-15.399 E1201.57509
G0 F12000 X-39.773 Y-15.949
G1 F600 X-18.223 Y-15.949 E1203.0534
G0 F12000 X-18.223 Y-16.5
G1 F600 X-39.773 Y-16.499 E1204.53171
G0 F12000 X-39.773 Y-17.049
G1 F600 X-18.223 Y-17.05 E1206.01001
G0 F12000 X-18.223 Y-17.6
G1 F600 X-39.773 Y-17.599 E1207.48832
G0 F12000 X-39.773 Y-18.149
G1 F600 X-18.223 Y-18.15 E1208.96663
G0 F12000 X-18.223 Y-18.7
G1 F600 X-39.773 Y-18.699 E1210.44494
G0 F12000 X-39.773 Y-19.249
G1 F600 X-18.223 Y-19.25 E1211.92325
G0 F12000 X-18.223 Y-19.8
G1 F600 X-39.773 Y-19.799 E1213.40156
G0 F12000 X-39.773 Y-20.349
G1 F600 X-18.223 Y-20.35 E1214.87987
G0 F12000 X-18.223 Y-20.9
G1 F600 X-39.773 Y-20.899 E1216.35818
G0 F12000 X-39.773 Y-21.449
G1 F600 X-18.223 Y-21.45 E1217.83649
G0 F12000 X-18.223 Y-22
G1 F600 X-39.773 Y-21.999 E1219.3148
G0 F12000 X-39.773 Y-22.549
G1 F600 X-18.223 Y-22.55 E1220.7931
G0 F12000 X-18.223 Y-23.1
G1 F600 X-39.773 Y-23.099 E1222.27141
G0 F12000 X-39.773 Y-23.649
G1 F600 X-18.223 Y-23.65 E1223.74972
G0 F12000 X-18.223 Y-24.2
G1 F600 X-39.773 Y-24.199 E1225.22803
G0 F12000 X-39.773 Y-24.749
G1 F600 X-18.223 Y-24.75 E1226.70634
G0 F12000 X-18.223 Y-25.3
G1 F600 X-39.773 Y-25.299 E1228.18465
G0 F12000 X-39.773 Y-25.849
G1 F600 X-18.223 Y-25.85 E1229.66296
G0 F12000 X-18.223 Y-26.4
G1 F600 X-39.773 Y-26.399 E1231.14127
G0 F12000 X-39.773 Y-26.949
G1 F600 X-18.223 Y-26.95 E1232.61958
G0 F12000 X-18.223 Y-27.5
G1 F600 X-39.773 Y-27.499 E1234.09789
G0 F12000 X-39.773 Y-28.049
G1 F600 X-18.223 Y-28.05 E1235.5762
G0 F12000 X-18.223 Y-28.6
G1 F600 X-39.773 Y-28.599 E1237.0545
G0 F12000 X-39.773 Y-29.149
G1 F600 X-18.223 Y-29.15 E1238.53281
G0 F12000 X-18.223 Y-29.7
G1 F600 X-39.773 Y-29.699 E1240.01112
G0 F12000 X-39.773 Y-30.249
G1 F600 X-18.223 Y-30.25 E1241.48943
G0 F12000 X-18.223 Y-30.8
G1 F600 X-39.773 Y-30.799 E1242.96774
G0 F12000 X-39.773 Y-31.349
G1 F600 X-18.223 Y-31.35 E1244.44605
G0 F12000 X-18.223 Y-31.9
G1 F600 X-39.773 Y-31.899 E1245.92436
G0 F12000 X-39.773 Y-32.449
G1 F600 X-18.223 Y-32.45 E1247.40267
G0 F12000 X-18.223 Y-33
G1 F600 X-39.773 Y-33 E1248.88098
G0 F12000 X-39.773 Y-33.55
G1 F600 X-18.223 Y-33.55 E1250.35929
G0 F12000 X-18.223 Y-34.1
G1 F600 X-39.773 Y-34.1 E1251.8376
G0 F12000 X-39.773 Y-34.65
G1 F600 X-18.223 Y-34.65 E1253.3159
G0 F12000 X-18.223 Y-35.2
G1 F600 X-39.773 Y-35.2 E1254.79421
G0 F12000 X-39.773 Y-35.75
G1 F600 X-18.223 Y-35.75 E1256.27252
G0 F12000 X-18.223 Y-36.3
G1 F600 X-39.773 Y-36.3 E1257.75083
G0 F12000 X-39.773 Y-36.85
G1 F600 X-18.223 Y-36.85 E1259.22914
G0 F12000 X-18.223 Y-37.4
G1 F600 X-39.773 Y-37.4 E1260.70745
G0 F12000 X-39.773 Y-37.95
G1 F600 X-18.223 Y-37.95 E1262.18576
G0 F12000 X-18.223 Y-38.5
G1 F600 X-39.773 Y-38.5 E1263.66407
G0 F12000 X-39.773 Y-39.05
G1 F600 X-18.223 Y-39.05 E1265.14238
G0 F12000 X-18.223 Y-39.6
G1 F600 X-39.773 Y-39.6 E1266.62069
G0 F12000 X-39.773 Y-40.15
G1 F600 X-18.223 Y-40.15 E1268.09899
G0 F12000 X-18.223 Y-40.7
G1 F600 X-39.773 Y-40.7 E1269.5773
G0 F12000 X-39.773 Y-41.25
G1 F600 X-18.223 Y-41.25 E1271.05561
G0 F12000 X-18.223 Y-41.8
G1 F600 X-39.773 Y-41.8 E1272.53392
G0 F12000 X-39.773 Y-42.35
G1 F600 X-18.223 Y-42.35 E1274.01223
G0 F12000 X-18.223 Y-42.9
G1 F600 X-39.773 Y-42.9 E1275.49054
G0 F12000 X-39.773 Y-43.45
G1 F600 X-18.223 Y-43.45 E1276.96885
G0 F12000 X-18.223 Y-44
G1 F600 X-39.773 Y-44 E1278.44716
G0 F12000 X-39.773 Y-44.55
G1 F600 X-18.223 Y-44.55 E1279.92547
G0 F12000 X-18.223 Y-45.1
G1 F600 X-39.773 Y-45.1 E1281.40378
G0 F12000 X-39.773 Y-45.65
G1 F600 X-18.223 Y-45.65 E1282.88209
G0 F12000 X-18.223 Y-46.2
G1 F600 X-39.773 Y-46.2 E1284.36039
G0 F12000 X-39.773 Y-46.75
G1 F600 X-18.223 Y-46.75 E1285.8387
G0 F12000 X-18.223 Y-47.3
G1 F600 X-39.773 Y-47.3 E1287.31701
G0 F12000 X-39.773 Y-47.85
G1 F600 X-18.223 Y-47.85 E1288.79532
G0 F12000 X-18.223 Y-48.4
G1 F600 X-39.773 Y-48.4 E1290.27363
G0 F12000 X-39.773 Y-48.95
G1 F600 X-18.223 Y-48.95 E1291.75194
G0 F12000 X-18.223 Y-49.5
G1 F600 X-39.773 Y-49.5 E1293.23025
G0 F12000 X-39.773 Y-50.05
G1 F600 X-18.223 Y-50.05 E1294.70856
G0 F12000 X-18.223 Y-50.6
G1 F600 X-39.773 Y-50.6 E1296.18687
G0 F12000 X-39.773 Y-51.15
G1 F600 X-18.223 Y-51.15 E1297.66518
G0 F12000 X-18.223 Y-51.7
G1 F600 X-39.773 Y-51.7 E1299.14349
G0 F12000 X-39.773 Y-52.25
G1 F600 X-18.223 Y-52.25 E1300.62179
G0 F12000 X-18.223 Y-52.8
G1 F600 X-39.773 Y-52.8 E1302.1001
G0 F12000 X-39.773 Y-53.35
G1 F600 X-18.223 Y-53.35 E1303.57841
G0 F12000 X-18.223 Y-53.9
G1 F600 X-39.773 Y-53.9 E1305.05672
G0 F12000 X-39.773 Y-54.45
G1 F600 X-18.223 Y-54.45 E1306.53503
G0 F12000 X-18.223 Y-55
G1 F600 X-39.773 Y-55 E1308.01334
G0 F12000 X-39.773 Y-55.55
G1 F600 X-18.223 Y-55.55 E1309.49165
G0 F12000 X-18.223 Y-56.1
G1 F600 X-39.773 Y-56.1 E1310.96996
G0 F12000 X-39.773 Y-56.65
G1 F600 X-18.223 Y-56.65 E1312.44827
G0 F12000 X-18.223 Y-57.2
G1 F600 X-39.773 Y-57.2 E1313.92658
G0 F12000 X-39.773 Y-57.75
G1 F600 X-18.223 Y-57.75 E1315.40488
G0 F12000 X-18.223 Y-58.3
G1 F600 X-39.773 Y-58.3 E1316.88319
G0 F12000 X-39.773 Y-58.85
G1 F600 X-18.223 Y-58.85 E1318.3615
G0 F12000 X-18.223 Y-59.4
G1 F600 X-39.773 Y-59.4 E1319.83981
G0 F12000 X-39.773 Y-59.95
G1 F600 X-18.223 Y-59.95 E1321.31812
G0 F12000 X-18.223 Y-60.5
G1 F600 X-39.773 Y-60.5 E1322.79643
G0 F12000 X-39.773 Y-61.05
G1 F600 X-18.223 Y-61.05 E1324.27474
G0 F12000 X-18.223 Y-61.6
G1 F600 X-39.773 Y-61.6 E1325.75305
G0 F12000 X-39.773 Y-62.15
G1 F600 X-18.223 Y-62.15 E1327.23136
G0 F12000 X-18.223 Y-62.7
G1 F600 X-39.773 Y-62.7 E1328.70967
G0 F12000 X-39.773 Y-63.25
G1 F600 X-18.223 Y-63.25 E1330.18798
G0 F12000 X-18.223 Y-63.8
G1 F600 X-39.773 Y-63.8 E1331.66628
G0 F12000 X-39.773 Y-64.35
G1 F600 X-18.223 Y-64.35 E1333.14459
G0 F12000 X-18.223 Y-64.9
G1 F600 X-39.773 Y-64.9 E1334.6229
G0 F12000 X-39.773 Y-65.45
G1 F600 X-18.223 Y-65.45 E1336.10121
G0 F12000 X-18.223 Y-66
G1 F600 X-39.773 Y-66 E1337.57952
G0 F12000 X-39.773 Y-66.55
G1 F600 X-18.223 Y-66.55 E1339.05783
G0 F12000 X-18.223 Y-67.1
G1 F600 X-39.773 Y-67.1 E1340.53614
G0 F12000 X-39.773 Y-67.65
G1 F600 X-18.223 Y-67.65 E1342.01445
G0 F12000 X-18.223 Y-68.2
G1 F600 X-39.773 Y-68.2 E1343.49276
G0 F12000 X-39.773 Y-68.75
G1 F600 X-18.223 Y-68.75 E1344.97107
G0 F12000 X-18.223 Y-69.3
G1 F600 X-39.773 Y-69.3 E1346.44938
G0 F12000 X-39.773 Y-69.85
G1 F600 X-18.223 Y-69.85 E1347.92768
G0 F12000 X-18.223 Y-70.4
G1 F600 X-39.773 Y-70.4 E1349.40599
G0 F12000 X-39.773 Y-70.95
G1 F600 X-18.223 Y-70.95 E1350.8843
G1 F6600 E1346.8843
G1 Z0.65
G0 F12000 X-17.324 Y-72.174
G0 X-16.499 Y-72.999
G0 X-14.499 Y-84.999
G0 X-12.999 Y-84.999
G0 X-12.174 Y-84.174
G0 X-12.174 Y84.175
G0 X-12.724 Y84.725
; TYPE:WALL-OUTER
G1 Z0.35
G1 F6600 E1350.9843
G1 F600 X-12.724 Y-84.724 E1362.60834
G1 X11.725 Y-84.724 E1364.28552
G1 X11.725 Y84.725 E1375.90955
G1 X-12.724 Y84.725 E1377.58673
G0 F12000 X-12.174 Y84.175
; TYPE:WALL-INNER
G1 F600 X-12.174 Y-84.174 E1389.13531
G1 X11.175 Y-84.174 E1390.73703
G1 X11.175 Y84.175 E1402.28561
G1 X-12.174 Y84.175 E1403.88732
G0 F12000 X-11.624 Y83.625
G1 F600 X-11.624 Y-83.624 E1415.36044
G1 X10.625 Y-83.624 E1416.8867
G1 X10.625 Y83.625 E1428.35982
G1 X-11.624 Y83.625 E1429.88608
G0 F12000 X-11.273 Y83.05
; TYPE:BOTTOM-FILL
G1 F600 X10.274 Y83.05 E1431.36419
G0 F12000 X10.274 Y82.5
G1 F600 X-11.273 Y82.5 E1432.84229
G0 F12000 X-11.273 Y81.95
G1 F600 X10.274 Y81.95 E1434.32039
G0 F12000 X10.274 Y81.4
G1 F600 X-11.273 Y81.4 E1435.79849
G0 F12000 X-11.273 Y80.85
G1 F600 X10.274 Y80.85 E1437.2766
G0 F12000 X10.274 Y80.3
G1 F600 X-11.273 Y80.3 E1438.7547
G0 F12000 X-11.273 Y79.75
G1 F600 X10.274 Y79.75 E1440.2328
G0 F12000 X10.274 Y79.2
G1 F600 X-11.273 Y79.2 E1441.71091
G0 F12000 X-11.273 Y78.65
G1 F600 X10.274 Y78.65 E1443.18901
G0 F12000 X10.274 Y78.1
G1 F600 X-11.273 Y78.1 E1444.66711
G0 F12000 X-11.273 Y77.55
G1 F600 X10.274 Y77.55 E1446.14522
G0 F12000 X10.274 Y77
G1 F600 X-11.273 Y77 E1447.62332
G0 F12000 X-11.273 Y76.45
G1 F600 X10.274 Y76.45 E1449.10142
G0 F12000 X10.274 Y75.9
G1 F600 X-11.273 Y75.9 E1450.57953
G0 F12000 X-11.273 Y75.35
G1 F600 X10.274 Y75.35 E1452.05763
G0 F12000 X10.274 Y74.8
G1 F600 X-11.273 Y74.8 E1453.53573
G0 F12000 X-11.273 Y74.25
G1 F600 X10.274 Y74.25 E1455.01384
G0 F12000 X10.274 Y73.7
G1 F600 X-11.273 Y73.7 E1456.49194
G0 F12000 X-11.273 Y73.15
G1 F600 X10.274 Y73.15 E1457.97004
G0 F12000 X10.274 Y72.6
G1 F600 X-11.273 Y72.6 E1459.44815
G0 F12000 X-11.273 Y72.05
G1 F600 X10.274 Y72.05 E1460.92625
G0 F12000 X10.274 Y71.5
G1 F600 X-11.273 Y71.5 E1462.40435
G0 F12000 X-11.273 Y70.95
G1 F600 X10.274 Y70.95 E1463.88246
G0 F12000 X10.274 Y70.4
G1 F600 X-11.273 Y70.4 E1465.36056
G0 F12000 X-11.273 Y69.85
G1 F600 X10.274 Y69.85 E1466.83866
G0 F12000 X10.274 Y69.3
G1 F600 X-11.273 Y69.3 E1468.31677
G0 F12000 X-11.273 Y68.75
G1 F600 X10.274 Y68.75 E1469.79487
G0 F12000 X10.274 Y68.2
G1 F600 X-11.273 Y68.2 E1471.27297
G0 F12000 X-11.273 Y67.65
G1 F600 X10.274 Y67.65 E1472.75108
G0 F12000 X10.274 Y67.1
G1 F600 X-11.273 Y67.1 E1474.22918
G0 F12000 X-11.273 Y66.55
G1 F600 X10.274 Y66.55 E1475.70728
G0 F12000 X10.274 Y66
G1 F600 X-11.273 Y66 E1477.18539
G0 F12000 X-11.273 Y65.45
G1 F600 X10.274 Y65.45 E1478.66349
G0 F12000 X10.274 Y64.9
G1 F600 X-11.273 Y64.9 E1480.14159
G0 F12000 X-11.273 Y64.35
G1 F600 X10.274 Y64.35 E1481.6197
G0 F12000 X10.274 Y63.8
G1 F600 X-11.273 Y63.8 E1483.0978
G0 F12000 X-11.273 Y63.25
G1 F600 X10.274 Y63.25 E1484.5759
G0 F12000 X10.274 Y62.7
G1 F600 X-11.273 Y62.7 E1486.05401
G0 F12000 X-11.273 Y62.15
G1 F600 X10.274 Y62.15 E1487.53211
G0 F12000 X10.274 Y61.6
G1 F600 X-11.273 Y61.6 E1489.01021
G0 F12000 X-11.273 Y61.05
G1 F600 X10.274 Y61.05 E1490.48832
G0 F12000 X10.274 Y60.5
G1 F600 X-11.273 Y60.5 E1491.96642
G0 F12000 X-11.273 Y59.95
G1 F600 X10.274 Y59.95 E1493.44452
G0 F12000 X10.274 Y59.4
G1 F600 X-11.273 Y59.4 E1494.92263
G0 F12000 X-11.273 Y58.85
G1 F600 X10.274 Y58.85 E1496.40073
G0 F12000 X10.274 Y58.3
G1 F600 X-11.273 Y58.3 E1497.87883
G0 F12000 X-11.273 Y57.75
G1 F600 X10.274 Y57.75 E1499.35694
G0 F12000 X10.274 Y57.2
G1 F600 X-11.273 Y57.2 E1500.83504
G0 F12000 X-11.273 Y56.65
G1 F600 X10.274 Y56.65 E1502.31314
G0 F12000 X10.274 Y56.1
G1 F600 X-11.273 Y56.1 E1503.79125
G0 F12000 X-11.273 Y55.55
G1 F600 X10.274 Y55.55 E1505.26935
G0 F12000 X10.274 Y55
G1 F600 X-11.273 Y55 E1506.74745
G0 F12000 X-11.273 Y54.45
G1 F600 X10.274 Y54.45 E1508.22556
G0 F12000 X10.274 Y53.9
G1 F600 X-11.273 Y53.9 E1509.70366
G0 F12000 X-11.273 Y53.35
G1 F600 X10.274 Y53.35 E1511.18176
G0 F12000 X10.274 Y52.8
G1 F600 X-11.273 Y52.8 E1512.65986
G0 F12000 X-11.273 Y52.25
G1 F600 X10.274 Y52.25 E1514.13797
G0 F12000 X10.274 Y51.7
G1 F600 X-11.273 Y51.7 E1515.61607
G0 F12000 X-11.273 Y51.15
G1 F600 X10.274 Y51.15 E1517.09417
G0 F12000 X10.274 Y50.6
G1 F600 X-11.273 Y50.6 E1518.57228
G0 F12000 X-11.273 Y50.05
G1 F600 X10.274 Y50.05 E1520.05038
G0 F12000 X10.274 Y49.5
G1 F600 X-11.273 Y49.5 E1521.52848
G0 F12000 X-11.273 Y48.95
G1 F600 X10.274 Y48.95 E1523.00659
G0 F12000 X10.274 Y48.4
G1 F600 X-11.273 Y48.4 E1524.48469
G0 F12000 X-11.273 Y47.85
G1 F600 X10.274 Y47.85 E1525.96279
G0 F12000 X10.274 Y47.3
G1 F600 X-11.273 Y47.3 E1527.4409
G0 F12000 X-11.273 Y46.75
G1 F600 X10.274 Y46.75 E1528.919
G0 F12000 X10.274 Y46.2
G1 F600 X-11.273 Y46.2 E1530.3971
G0 F12000 X-11.273 Y45.65
G1 F600 X10.274 Y45.65 E1531.87521
G0 F12000 X10.274 Y45.1
G1 F600 X-11.273 Y45.1 E1533.35331
G0 F12000 X-11.273 Y44.55
G1 F600 X10.274 Y44.55 E1534.83141
G0 F12000 X10.274 Y44
G1 F600 X-11.273 Y44 E1536.30952
G0 F12000 X-11.273 Y43.45
G1 F600 X10.274 Y43.45 E1537.78762
G0 F12000 X10.274 Y42.9
G1 F600 X-11.273 Y42.9 E1539.26572
G0 F12000 X-11.273 Y42.35
G1 F600 X10.274 Y42.35 E1540.74383
G0 F12000 X10.274 Y41.8
G1 F600 X-11.273 Y41.8 E1542.22193
G0 F12000 X-11.273 Y41.25
G1 F600 X10.274 Y41.25 E1543.70003
G0 F12000 X10.274 Y40.7
G1 F600 X-11.273 Y40.7 E1545.17814
G0 F12000 X-11.273 Y40.15
G1 F600 X10.274 Y40.15 E1546.65624
G0 F12000 X10.274 Y39.6
G1 F600 X-11.273 Y39.6 E1548.13434
G0 F12000 X-11.273 Y39.05
G1 F600 X10.274 Y39.05 E1549.61245
G0 F12000 X10.274 Y38.5
G1 F600 X-11.273 Y38.5 E1551.09055
G0 F12000 X-11.273 Y37.95
G1 F600 X10.274 Y37.95 E1552.56865
G0 F12000 X10.274 Y37.4
G1 F600 X-11.273 Y37.4 E1554.04676
G0 F12000 X-11.273 Y36.85
G1 F600 X10.274 Y36.85 E1555.52486
G0 F12000 X10.274 Y36.3
G1 F600 X-11.273 Y36.3 E1557.00296
G0 F12000 X-11.273 Y35.75
G1 F600 X10.274 Y35.75 E1558.48107
G0 F12000 X10.274 Y35.2
G1 F600 X-11.273 Y35.2 E1559.95917
G0 F12000 X-11.273 Y34.65
G1 F600 X10.274 Y34.65 E1561.43727
G0 F12000 X10.274 Y34.1
G1 F600 X-11.273 Y34.1 E1562.91538
G0 F12000 X-11.273 Y33.55
G1 F600 X10.274 Y33.55 E1564.39348
G0 F12000 X10.274 Y33
G1 F600 X-11.273 Y33 E1565.87158
G0 F12000 X-11.273 Y32.45
G1 F600 X10.274 Y32.45 E1567.34969
G0 F12000 X10.274 Y31.9
G1 F600 X-11.273 Y31.9 E1568.82779
G0 F12000 X-11.273 Y31.35
G1 F600 X10.274 Y31.35 E1570.30589
G0 F12000 X10.274 Y30.8
G1 F600 X-11.273 Y30.8 E1571.784
G0 F12000 X-11.273 Y30.25
G1 F600 X10.274 Y30.25 E1573.2621
G0 F12000 X10.274 Y29.7
G1 F600 X-11.273 Y29.7 E1574.7402
G0 F12000 X-11.273 Y29.15
G1 F600 X10.274 Y29.15 E1576.21831
G0 F12000 X10.274 Y28.6
G1 F600 X-11.273 Y28.6 E1577.69641
G0 F12000 X-11.273 Y28.05
G1 F600 X10.274 Y28.05 E1579.17451
G0 F12000 X10.274 Y27.5
G1 F600 X-11.273 Y27.5 E1580.65262
G0 F12000 X-11.273 Y26.95
G1 F600 X10.274 Y26.95 E1582.13072
G0 F12000 X10.274 Y26.4
G1 F600 X-11.273 Y26.4 E1583.60882
G0 F12000 X-11.273 Y25.85
G1 F600 X10.274 Y25.85 E1585.08693
G0 F12000 X10.274 Y25.3
G1 F600 X-11.273 Y25.3 E1586.56503
G0 F12000 X-11.273 Y24.75
G1 F600 X10.274 Y24.75 E1588.04313
G0 F12000 X10.274 Y24.2
G1 F600 X-11.273 Y24.2 E1589.52123
G0 F12000 X-11.273 Y23.65
G1 F600 X10.274 Y23.65 E1590.99934
G0 F12000 X10.274 Y23.1
G1 F600 X-11.273 Y23.1 E1592.47744
G0 F12000 X-11.273 Y22.55
G1 F600 X10.274 Y22.55 E1593.95554
G0 F12000 X10.274 Y22
G1 F600 X-11.273 Y22 E1595.43365
G0 F12000 X-11.273 Y21.45
G1 F600 X10.274 Y21.45 E1596.91175
G0 F12000 X10.274 Y20.9
G1 F600 X-11.273 Y20.9 E1598.38985
G0 F12000 X-11.273 Y20.35
G1 F600 X10.274 Y20.35 E1599.86796
G0 F12000 X10.274 Y19.8
G1 F600 X-11.273 Y19.8 E1601.34606
G0 F12000 X-11.273 Y19.25
G1 F600 X10.274 Y19.25 E1602.82416
G0 F12000 X10.274 Y18.7
G1 F600 X-11.273 Y18.7 E1604.30227
G0 F12000 X-11.273 Y18.15
G1 F600 X10.274 Y18.15 E1605.78037
G0 F12000 X10.274 Y17.6
G1 F600 X-11.273 Y17.6 E1607.25847
G0 F12000 X-11.273 Y17.05
G1 F600 X10.274 Y17.05 E1608.73658
G0 F12000 X10.274 Y16.5
G1 F600 X-11.273 Y16.5 E1610.21468
G0 F12000 X-11.273 Y15.95
G1 F600 X10.274 Y15.95 E1611.69278
G0 F12000 X10.274 Y15.4
G1 F600 X-11.273 Y15.4 E1613.17089
G0 F12000 X-11.274 Y14.85
G1 F600 X10.274 Y14.85 E1614.64906
G0 F12000 X10.274 Y14.3
G1 F600 X-11.274 Y14.3 E1616.12723
G0 F12000 X-11.274 Y13.75
G1 F600 X10.274 Y13.75 E1617.6054
G0 F12000 X10.274 Y13.2
G1 F600 X-11.274 Y13.2 E1619.08357
G0 F12000 X-11.274 Y12.65
G1 F600 X10.274 Y12.65 E1620.56175
G0 F12000 X10.274 Y12.1
G1 F600 X-11.274 Y12.1 E1622.03992
G0 F12000 X-11.274 Y11.55
G1 F600 X10.274 Y11.55 E1623.51809
G0 F12000 X10.274 Y11
G1 F600 X-11.274 Y11 E1624.99626
G0 F12000 X-11.274 Y10.45
G1 F600 X10.274 Y10.45 E1626.47443
G0 F12000 X10.274 Y9.9
G1 F600 X-11.274 Y9.9 E1627.95261
G0 F12000 X-11.274 Y9.35
G1 F600 X10.274 Y9.35 E1629.43078
G0 F12000 X10.274 Y8.8
G1 F600 X-11.274 Y8.8 E1630.90895
G0 F12000 X-11.274 Y8.25
G1 F600 X10.274 Y8.25 E1632.38712
G0 F12000 X10.274 Y7.699
G1 F600 X-11.274 Y7.7 E1633.86529
G0 F12000 X-11.274 Y7.15
G1 F600 X10.274 Y7.149 E1635.34347
G0 F12000 X10.274 Y6.599
G1 F600 X-11.274 Y6.6 E1636.82164
G0 F12000 X-11.274 Y6.05
G1 F600 X10.274 Y6.049 E1638.29981
G0 F12000 X10.274 Y5.499
G1 F600 X-11.274 Y5.5 E1639.77798
G0 F12000 X-11.274 Y4.95
G1 F600 X10.274 Y4.949 E1641.25615
G0 F12000 X10.274 Y4.399
G1 F600 X-11.274 Y4.4 E1642.73432
G0 F12000 X-11.274 Y3.85
G1 F600 X10.274 Y3.849 E1644.2125
G0 F12000 X10.274 Y3.299
G1 F600 X-11.274 Y3.3 E1645.69067
G0 F12000 X-11.274 Y2.75
G1 F600 X10.274 Y2.749 E1647.16884
G0 F12000 X10.274 Y2.199
G1 F600 X-11.274 Y2.2 E1648.64701
G0 F12000 X-11.274 Y1.65
G1 F600 X10.274 Y1.649 E1650.12518
G0 F12000 X10.274 Y1.099
G1 F600 X-11.274 Y1.1 E1651.60336
G0 F12000 X-11.274 Y0.55
G1 F600 X10.274 Y0.549 E1653.08153
G0 F12000 X10.275 Y0
G1 F600 X-11.273 Y0 E1654.5597
G0 F12000 X-11.273 Y-0.549
G1 F600 X10.275 Y-0.55 E1656.03787
G0 F12000 X10.275 Y-1.1
G1 F600 X-11.273 Y-1.099 E1657.51604
G0 F12000 X-11.273 Y-1.649
G1 F600 X10.275 Y-1.65 E1658.99422
G0 F12000 X10.275 Y-2.2
G1 F600 X-11.273 Y-2.199 E1660.47239
G0 F12000 X-11.273 Y-2.749
G1 F600 X10.275 Y-2.75 E1661.95056
G0 F12000 X10.275 Y-3.3
G1 F600 X-11.273 Y-3.299 E1663.42873
G0 F12000 X-11.273 Y-3.849
G1 F600 X10.275 Y-3.85 E1664.9069
G0 F12000 X10.275 Y-4.4
G1 F600 X-11.273 Y-4.399 E1666.38507
G0 F12000 X-11.273 Y-4.949
G1 F600 X10.275 Y-4.95 E1667.86325
G0 F12000 X10.275 Y-5.5
G1 F600 X-11.273 Y-5.499 E1669.34142
G0 F12000 X-11.273 Y-6.049
G1 F600 X10.275 Y-6.05 E1670.81959
G0 F12000 X10.275 Y-6.6
G1 F600 X-11.273 Y-6.599 E1672.29776
G0 F12000 X-11.273 Y-7.149
G1 F600 X10.275 Y-7.15 E1673.77593
G0 F12000 X10.275 Y-7.7
G1 F600 X-11.273 Y-7.699 E1675.25411
G0 F12000 X-11.273 Y-8.25
G1 F600 X10.275 Y-8.25 E1676.73228
G0 F12000 X10.275 Y-8.8
G1 F600 X-11.273 Y-8.8 E1678.21045
G0 F12000 X-11.273 Y-9.35
G1 F600 X10.275 Y-9.35 E1679.68862
G0 F12000 X10.275 Y-9.9
G1 F600 X-11.273 Y-9.9 E1681.16679
G0 F12000 X-11.273 Y-10.45
G1 F600 X10.275 Y-10.45 E1682.64496
G0 F12000 X10.275 Y-11
G1 F600 X-11.273 Y-11 E1684.12314
G0 F12000 X-11.273 Y-11.55
G1 F600 X10.275 Y-11.55 E1685.60131
G0 F12000 X10.275 Y-12.1
G1 F600 X-11.273 Y-12.1 E1687.07948
G0 F12000 X-11.273 Y-12.65
G1 F600 X10.275 Y-12.65 E1688.55765
G0 F12000 X10.275 Y-13.2
G1 F600 X-11.273 Y-13.2 E1690.03582
G0 F12000 X-11.273 Y-13.75
G1 F600 X10.275 Y-13.75 E1691.514
G0 F12000 X10.275 Y-14.3
G1 F600 X-11.273 Y-14.3 E1692.99217
G0 F12000 X-11.273 Y-14.85
G1 F600 X10.275 Y-14.85 E1694.47034
G0 F12000 X10.274 Y-15.4
G1 F600 X-11.273 Y-15.4 E1695.94844
G0 F12000 X-11.273 Y-15.95
G1 F600 X10.274 Y-15.95 E1697.42655
G0 F12000 X10.274 Y-16.5
G1 F600 X-11.273 Y-16.5 E1698.90465
G0 F12000 X-11.273 Y-17.05
G1 F600 X10.274 Y-17.05 E1700.38275
G0 F12000 X10.274 Y-17.6
G1 F600 X-11.273 Y-17.6 E1701.86086
G0 F12000 X-11.273 Y-18.15
G1 F600 X10.274 Y-18.15 E1703.33896
G0 F12000 X10.274 Y-18.7
G1 F600 X-11.273 Y-18.7 E1704.81706
G0 F12000 X-11.273 Y-19.25
G1 F600 X10.274 Y-19.25 E1706.29517
G0 F12000 X10.274 Y-19.8
G1 F600 X-11.273 Y-19.8 E1707.77327
G0 F12000 X-11.273 Y-20.35
G1 F600 X10.274 Y-20.35 E1709.25137
G0 F12000 X10.274 Y-20.9
G1 F600 X-11.273 Y-20.9 E1710.72948
G0 F12000 X-11.273 Y-21.45
G1 F600 X10.274 Y-21.45 E1712.20758
G0 F12000 X10.274 Y-22
G1 F600 X-11.273 Y-22 E1713.68568
G0 F12000 X-11.273 Y-22.55
G1 F600 X10.274 Y-22.55 E1715.16379
G0 F12000 X10.274 Y-23.1
G1 F600 X-11.273 Y-23.1 E1716.64189
G0 F12000 X-11.273 Y-23.65
G1 F600 X10.274 Y-23.65 E1718.11999
G0 F12000 X10.274 Y-24.2
G1 F600 X-11.273 Y-24.2 E1719.5981
G0 F12000 X-11.273 Y-24.75
G1 F600 X10.274 Y-24.75 E1721.0762
G0 F12000 X10.274 Y-25.3
G1 F600 X-11.273 Y-25.3 E1722.5543
G0 F12000 X-11.273 Y-25.85
G1 F600 X10.274 Y-25.85 E1724.03241
G0 F12000 X10.274 Y-26.4
G1 F600 X-11.273 Y-26.4 E1725.51051
G0 F12000 X-11.273 Y-26.95
G1 F600 X10.274 Y-26.95 E1726.98861
G0 F12000 X10.274 Y-27.5
G1 F600 X-11.273 Y-27.5 E1728.46672
G0 F12000 X-11.273 Y-28.05
G1 F600 X10.274 Y-28.05 E1729.94482
G0 F12000 X10.274 Y-28.6
G1 F600 X-11.273 Y-28.6 E1731.42292
G0 F12000 X-11.273 Y-29.15
G1 F600 X10.274 Y-29.15 E1732.90102
G0 F12000 X10.274 Y-29.7
G1 F600 X-11.273 Y-29.7 E1734.37913
G0 F12000 X-11.273 Y-30.25
G1 F600 X10.274 Y-30.25 E1735.85723
G0 F12000 X10.274 Y-30.8
G1 F600 X-11.273 Y-30.8 E1737.33533
G0 F12000 X-11.273 Y-31.35
G1 F600 X10.274 Y-31.35 E1738.81344
G0 F12000 X10.274 Y-31.9
G1 F600 X-11.273 Y-31.9 E1740.29154
G0 F12000 X-11.273 Y-32.45
G1 F600 X10.274 Y-32.45 E1741.76964
G0 F12000 X10.274 Y-33
G1 F600 X-11.273 Y-33 E1743.24775
G0 F12000 X-11.273 Y-33.55
G1 F600 X10.274 Y-33.55 E1744.72585
G0 F12000 X10.274 Y-34.1
G1 F600 X-11.273 Y-34.1 E1746.20395
G0 F12000 X-11.273 Y-34.65
G1 F600 X10.274 Y-34.65 E1747.68206
G0 F12000 X10.274 Y-35.2
G1 F600 X-11.273 Y-35.2 E1749.16016
G0 F12000 X-11.273 Y-35.75
G1 F600 X10.274 Y-35.75 E1750.63826
G0 F12000 X10.274 Y-36.3
G1 F600 X-11.273 Y-36.3 E1752.11637
G0 F12000 X-11.273 Y-36.85
G1 F600 X10.274 Y-36.85 E1753.59447
G0 F12000 X10.274 Y-37.4
G1 F600 X-11.273 Y-37.4 E1755.07257
G0 F12000 X-11.273 Y-37.95
G1 F600 X10.274 Y-37.95 E1756.55068
G0 F12000 X10.274 Y-38.5
G1 F600 X-11.273 Y-38.5 E1758.02878
G0 F12000 X-11.273 Y-39.05
G1 F600 X10.274 Y-39.05 E1759.50688
G0 F12000 X10.274 Y-39.6
G1 F600 X-11.273 Y-39.6 E1760.98499
G0 F12000 X-11.273 Y-40.15
G1 F600 X10.274 Y-40.15 E1762.46309
G0 F12000 X10.274 Y-40.7
G1 F600 X-11.273 Y-40.7 E1763.94119
G0 F12000 X-11.273 Y-41.25
G1 F600 X10.274 Y-41.25 E1765.4193
G0 F12000 X10.274 Y-41.8
G1 F600 X-11.273 Y-41.8 E1766.8974
G0 F12000 X-11.273 Y-42.35
G1 F600 X10.274 Y-42.35 E1768.3755
G0 F12000 X10.274 Y-42.9
G1 F600 X-11.273 Y-42.9 E1769.85361
G0 F12000 X-11.273 Y-43.45
G1 F600 X10.274 Y-43.45 E1771.33171
G0 F12000 X10.274 Y-44
G1 F600 X-11.273 Y-44 E1772.80981
G0 F12000 X-11.273 Y-44.55
G1 F600 X10.274 Y-44.55 E1774.28792
G0 F12000 X10.274 Y-45.1
G1 F600 X-11.273 Y-45.1 E1775.76602
G0 F12000 X-11.273 Y-45.65
G1 F600 X10.274 Y-45.65 E1777.24412
G0 F12000 X10.274 Y-46.2
G1 F600 X-11.273 Y-46.2 E1778.72223
G0 F12000 X-11.273 Y-46.75
G1 F600 X10.274 Y-46.75 E1780.20033
G0 F12000 X10.274 Y-47.3
G1 F600 X-11.273 Y-47.3 E1781.67843
G0 F12000 X-11.273 Y-47.85
G1 F600 X10.274 Y-47.85 E1783.15654
G0 F12000 X10.274 Y-48.4
G1 F600 X-11.273 Y-48.4 E1784.63464
G0 F12000 X-11.273 Y-48.95
G1 F600 X10.274 Y-48.95 E1786.11274
G0 F12000 X10.274 Y-49.5
G1 F600 X-11.273 Y-49.5 E1787.59085
G0 F12000 X-11.273 Y-50.05
G1 F600 X10.274 Y-50.05 E1789.06895
G0 F12000 X10.274 Y-50.6
G1 F600 X-11.273 Y-50.6 E1790.54705
G0 F12000 X-11.273 Y-51.15
G1 F600 X10.274 Y-51.15 E1792.02516
G0 F12000 X10.274 Y-51.7
G1 F600 X-11.273 Y-51.7 E1793.50326
G0 F12000 X-11.273 Y-52.25
G1 F600 X10.274 Y-52.25 E1794.98136
G0 F12000 X10.274 Y-52.8
G1 F600 X-11.273 Y-52.8 E1796.45947
G0 F12000 X-11.273 Y-53.35
G1 F600 X10.274 Y-53.35 E1797.93757
G0 F12000 X10.274 Y-53.9
G1 F600 X-11.273 Y-53.9 E1799.41567
G0 F12000 X-11.273 Y-54.45
G1 F600 X10.274 Y-54.45 E1800.89378
G0 F12000 X10.274 Y-55
G1 F600 X-11.273 Y-55 E1802.37188
G0 F12000 X-11.273 Y-55.55
G1 F600 X10.274 Y-55.55 E1803.84998
G0 F12000 X10.274 Y-56.1
G1 F600 X-11.273 Y-56.1 E1805.32808
G0 F12000 X-11.273 Y-56.65
G1 F600 X10.274 Y-56.65 E1806.80619
G0 F12000 X10.274 Y-57.2
G1 F600 X-11.273 Y-57.2 E1808.28429
G0 F12000 X-11.273 Y-57.75
G1 F600 X10.274 Y-57.75 E1809.76239
G0 F12000 X10.274 Y-58.3
G1 F600 X-11.273 Y-58.3 E1811.2405
G0 F12000 X-11.273 Y-58.85
G1 F600 X10.274 Y-58.85 E1812.7186
G0 F12000 X10.274 Y-59.4
G1 F600 X-11.273 Y-59.4 E1814.1967
G0 F12000 X-11.273 Y-59.95
G1 F600 X10.274 Y-59.95 E1815.67481
G0 F12000 X10.274 Y-60.5
G1 F600 X-11.273 Y-60.5 E1817.15291
G0 F12000 X-11.273 Y-61.05
G1 F600 X10.274 Y-61.05 E1818.63101
G0 F12000 X10.274 Y-61.6
G1 F600 X-11.273 Y-61.6 E1820.10912
G0 F12000 X-11.273 Y-62.15
G1 F600 X10.274 Y-62.15 E1821.58722
G0 F12000 X10.274 Y-62.7
G1 F600 X-11.273 Y-62.7 E1823.06532
G0 F12000 X-11.273 Y-63.25
G1 F600 X10.274 Y-63.25 E1824.54343
G0 F12000 X10.274 Y-63.8
G1 F600 X-11.273 Y-63.8 E1826.02153
G0 F12000 X-11.273 Y-64.35
G1 F600 X10.274 Y-64.35 E1827.49963
G0 F12000 X10.274 Y-64.9
G1 F600 X-11.273 Y-64.9 E1828.97774
G0 F12000 X-11.273 Y-65.45
G1 F600 X10.274 Y-65.45 E1830.45584
G0 F12000 X10.274 Y-66
G1 F600 X-11.273 Y-66 E1831.93394
G0 F12000 X-11.273 Y-66.55
G1 F600 X10.274 Y-66.55 E1833.41205
G0 F12000 X10.274 Y-67.1
G1 F600 X-11.273 Y-67.1 E1834.89015
G0 F12000 X-11.273 Y-67.65
G1 F600 X10.274 Y-67.65 E1836.36825
G0 F12000 X10.274 Y-68.2
G1 F600 X-11.273 Y-68.2 E1837.84636
G0 F12000 X-11.273 Y-68.75
G1 F600 X10.274 Y-68.75 E1839.32446
G0 F12000 X10.274 Y-69.3
G1 F600 X-11.273 Y-69.3 E1840.80256
G0 F12000 X-11.273 Y-69.85
G1 F600 X10.274 Y-69.85 E1842.28067
G0 F12000 X10.274 Y-70.4
G1 F600 X-11.273 Y-70.4 E1843.75877
G0 F12000 X-11.273 Y-70.95
G1 F600 X10.274 Y-70.95 E1845.23687
G0 F12000 X10.274 Y-71.5
G1 F600 X-11.273 Y-71.5 E1846.71498
G0 F12000 X-11.273 Y-72.05
G1 F600 X10.274 Y-72.05 E1848.19308
G0 F12000 X10.274 Y-72.6
G1 F600 X-11.273 Y-72.6 E1849.67118
G0 F12000 X-11.273 Y-73.15
G1 F600 X10.274 Y-73.15 E1851.14929
G0 F12000 X10.274 Y-73.7
G1 F600 X-11.273 Y-73.7 E1852.62739
G0 F12000 X-11.273 Y-74.25
G1 F600 X10.274 Y-74.25 E1854.10549
G0 F12000 X10.274 Y-74.8
G1 F600 X-11.273 Y-74.8 E1855.5836
G0 F12000 X-11.273 Y-75.35
G1 F600 X10.274 Y-75.35 E1857.0617
G0 F12000 X10.274 Y-75.9
G1 F600 X-11.273 Y-75.9 E1858.5398
G0 F12000 X-11.273 Y-76.45
G1 F600 X10.274 Y-76.45 E1860.01791
G0 F12000 X10.274 Y-77
G1 F600 X-11.273 Y-77 E1861.49601
G0 F12000 X-11.273 Y-77.55
G1 F600 X10.274 Y-77.55 E1862.97411
G0 F12000 X10.274 Y-78.1
G1 F600 X-11.273 Y-78.1 E1864.45222
G0 F12000 X-11.273 Y-78.65
G1 F600 X10.274 Y-78.65 E1865.93032
G0 F12000 X10.274 Y-79.2
G1 F600 X-11.273 Y-79.2 E1867.40842
G0 F12000 X-11.273 Y-79.75
G1 F600 X10.274 Y-79.75 E1868.88653
G0 F12000 X10.274 Y-80.3
G1 F600 X-11.273 Y-80.3 E1870.36463
G0 F12000 X-11.273 Y-80.85
G1 F600 X10.274 Y-80.85 E1871.84273
G0 F12000 X10.274 Y-81.4
G1 F600 X-11.273 Y-81.4 E1873.32084
G0 F12000 X-11.273 Y-81.95
G1 F600 X10.274 Y-81.95 E1874.79894
G0 F12000 X10.274 Y-82.5
G1 F600 X-11.273 Y-82.5 E1876.27704
G0 F12000 X-11.273 Y-83.05
G1 F600 X10.274 Y-83.05 E1877.75515
; Layer Change GCode
; LAYER:1
G1 F6600 E1873.75515
G1 Z0.65
G0 F12000 X10.274 Y-83.05 Z0.85
G0 X11.175 Y-84.174
G0 X12 Y-84.999
G0 X13.5 Y-84.999
G0 X15.5 Y-58.999
G0 X16.5 Y-58.999
G0 X17.25 Y-58.249
G0 X17.25 Y50.25
G0 X16.75 Y50.75
G0 X17.25 Y50.25
G0 X17.75 Y49.75
; TYPE:WALL-INNER
G1 Z0.55
G1 F6600 E1877.85515
G1 F3600 X17.75 Y-57.749 E1882.32443
G1 X40.25 Y-57.749 E1883.25988
G1 X40.25 Y49.75 E1887.72916
G1 X17.75 Y49.75 E1888.66461
G0 F12000 X17.25 Y50.25
G1 F3600 X17.25 Y-58.249 E1893.17547
G1 X40.75 Y-58.249 E1894.15249
G1 X40.75 Y50.25 E1898.66335
G1 X17.25 Y50.25 E1899.64037
G0 F12000 X16.75 Y50.75
; TYPE:WALL-OUTER
G1 F2700 X16.75 Y-58.749 E1904.19281
G1 X41.25 Y-58.749 E1905.2114
G1 X41.25 Y50.75 E1909.76384
G1 X16.75 Y50.75 E1910.78243
G0 F12000 X17.25 Y50.25
G0 X18.5 Y49.45
; TYPE:FILL
G1 F3600 X18.499 Y-57.449 E1915.22677
G0 F12000 X18.999 Y-57.449
G1 F3600 X19 Y49.45 E1919.67112
G0 F12000 X19.5 Y49.45
G1 F3600 X19.499 Y-57.449 E1924.11546
G0 F12000 X19.999 Y-57.449
G1 F3600 X20 Y49.45 E1928.55981
G0 F12000 X20.5 Y49.45
G1 F3600 X20.499 Y-57.449 E1933.00415
G0 F12000 X20.999 Y-57.449
G1 F3600 X21 Y49.45 E1937.44849
G0 F12000 X21.5 Y49.45
G1 F3600 X21.499 Y-57.449 E1941.89284
G0 F12000 X21.999 Y-57.449
G1 F3600 X22 Y49.45 E1946.33718
G0 F12000 X22.5 Y49.45
G1 F3600 X22.499 Y-57.449 E1950.78153
G0 F12000 X22.999 Y-57.449
G1 F3600 X23 Y49.45 E1955.22587
G0 F12000 X23.5 Y49.45
G1 F3600 X23.499 Y-57.449 E1959.67021
G0 F12000 X23.999 Y-57.449
G1 F3600 X24 Y49.45 E1964.11456
G0 F12000 X24.5 Y49.45
G1 F3600 X24.499 Y-57.449 E1968.5589
G0 F12000 X24.999 Y-57.449
G1 F3600 X25 Y49.45 E1973.00324
G0 F12000 X25.5 Y49.45
G1 F3600 X25.499 Y-57.449 E1977.44759
G0 F12000 X25.999 Y-57.449
G1 F3600 X26 Y49.45 E1981.89193
G0 F12000 X26.5 Y49.45
G1 F3600 X26.499 Y-57.449 E1986.33628
G0 F12000 X26.999 Y-57.449
G1 F3600 X27 Y49.45 E1990.78062
G0 F12000 X27.5 Y49.45
G1 F3600 X27.499 Y-57.449 E1995.22496
G0 F12000 X27.999 Y-57.449
G1 F3600 X28 Y49.45 E1999.66931
G0 F12000 X28.5 Y49.45
G1 F3600 X28.499 Y-57.449 E2004.11365
G0 F12000 X28.999 Y-57.449
G1 F3600 X29 Y49.45 E2008.558
G0 F12000 X29.5 Y49.45
G1 F3600 X29.499 Y-57.448 E2013.0023
G0 F12000 X29.999 Y-57.448
G1 F3600 X30 Y49.449 E2017.44656
G0 F12000 X30.5 Y49.449
G1 F3600 X30.499 Y-57.448 E2021.89082
G0 F12000 X30.999 Y-57.448
G1 F3600 X31 Y49.449 E2026.33508
G0 F12000 X31.5 Y49.449
G1 F3600 X31.499 Y-57.448 E2030.77934
G0 F12000 X31.999 Y-57.448
G1 F3600 X32 Y49.449 E2035.2236
G0 F12000 X32.5 Y49.449
G1 F3600 X32.499 Y-57.448 E2039.66786
G0 F12000 X32.999 Y-57.448
G1 F3600 X33 Y49.449 E2044.11212
G0 F12000 X33.5 Y49.449
G1 F3600 X33.499 Y-57.448 E2048.55639
G0 F12000 X33.999 Y-57.448
G1 F3600 X34 Y49.449 E2053.00065
G0 F12000 X34.5 Y49.449
G1 F3600 X34.499 Y-57.448 E2057.44491
G0 F12000 X34.999 Y-57.448
G1 F3600 X35 Y49.449 E2061.88917
G0 F12000 X35.5 Y49.449
G1 F3600 X35.499 Y-57.448 E2066.33343
G0 F12000 X35.999 Y-57.448
G1 F3600 X36 Y49.449 E2070.77769
G0 F12000 X36.5 Y49.449
G1 F3600 X36.499 Y-57.448 E2075.22195
G0 F12000 X36.999 Y-57.448
G1 F3600 X37 Y49.449 E2079.66621
G0 F12000 X37.5 Y49.449
G1 F3600 X37.499 Y-57.448 E2084.11047
G0 F12000 X37.999 Y-57.448
G1 F3600 X38 Y49.449 E2088.55473
G0 F12000 X38.5 Y49.449
G1 F3600 X38.499 Y-57.448 E2092.99899
G0 F12000 X38.999 Y-57.448
G1 F3600 X39 Y49.449 E2097.44325
G0 F12000 X39.5 Y49.449
G1 F3600 X39.499 Y-57.448 E2101.88752
G1 F6600 E2097.88752
G1 Z0.85
G0 F12000 X17.25 Y-58.249
G0 X16.5 Y-58.999
G0 X15.5 Y-58.999
G0 X13.5 Y-86.499
G0 X-14.499 Y-86.499
G0 X-16.499 Y-72.999
G0 X-17.249 Y-72.249
G0 X-40.749 Y53.25
G0 X-41.249 Y53.75
G0 X-40.749 Y53.25
G0 X-40.249 Y52.75
; TYPE:WALL-INNER
G1 Z0.55
G1 F6600 E2101.98752
G1 F3600 X-40.249 Y-71.749 E2107.16358
G1 X-17.749 Y-71.749 E2108.09902
G1 X-17.749 Y52.75 E2113.27509
G1 X-40.249 Y52.75 E2114.21053
G0 F12000 X-40.749 Y53.25
G1 F3600 X-40.749 Y-72.249 E2119.42817
G1 X-17.249 Y-72.249 E2120.40519
G1 X-17.249 Y53.25 E2125.62283
G1 X-40.749 Y53.25 E2126.59985
G0 F12000 X-41.249 Y53.75
; TYPE:WALL-OUTER
G1 F2700 X-41.249 Y-72.749 E2131.85907
G1 X-16.749 Y-72.749 E2132.87766
G1 X-16.749 Y53.75 E2138.13688
G1 X-41.249 Y53.75 E2139.15547
G0 F12000 X-40.749 Y53.25
G0 X-39.499 Y52.449
; TYPE:FILL
G1 F3600 X-39.5 Y-71.449 E2144.30655
G0 F12000 X-39 Y-71.449
G1 F3600 X-38.999 Y52.449 E2149.45763
G0 F12000 X-38.499 Y52.449
G1 F3600 X-38.5 Y-71.449 E2154.60871
G0 F12000 X-38 Y-71.449
G1 F3600 X-37.999 Y52.449 E2159.75979
G0 F12000 X-37.499 Y52.449
G1 F3600 X-37.5 Y-71.449 E2164.91087
G0 F12000 X-37 Y-71.449
G1 F3600 X-36.999 Y52.449 E2170.06195
G0 F12000 X-36.499 Y52.449
G1 F3600 X-36.5 Y-71.449 E2175.21303
G0 F12000 X-36 Y-71.449
G1 F3600 X-35.999 Y52.449 E2180.36411
G0 F12000 X-35.499 Y52.449
G1 F3600 X-35.5 Y-71.449 E2185.51519
G0 F12000 X-35 Y-71.449
G1 F3600 X-34.999 Y52.449 E2190.66627
G0 F12000 X-34.499 Y52.449
G1 F3600 X-34.5 Y-71.449 E2195.81735
G0 F12000 X-34 Y-71.449
G1 F3600 X-33.999 Y52.449 E2200.96843
G0 F12000 X-33.499 Y52.449
G1 F3600 X-33.5 Y-71.449 E2206.11951
G0 F12000 X-33 Y-71.449
G1 F3600 X-32.999 Y52.449 E2211.27059
G0 F12000 X-32.499 Y52.449
G1 F3600 X-32.5 Y-71.449 E2216.42167
G0 F12000 X-32 Y-71.449
G1 F3600 X-31.999 Y52.449 E2221.57275
G0 F12000 X-31.499 Y52.449
G1 F3600 X-31.5 Y-71.449 E2226.72383
G0 F12000 X-31 Y-71.449
G1 F3600 X-30.999 Y52.449 E2231.87491
G0 F12000 X-30.499 Y52.449
G1 F3600 X-30.5 Y-71.449 E2237.02599
G0 F12000 X-30 Y-71.449
G1 F3600 X-29.999 Y52.449 E2242.17707
G0 F12000 X-29.499 Y52.449
G1 F3600 X-29.5 Y-71.449 E2247.32815
G0 F12000 X-29 Y-71.449
G1 F3600 X-28.999 Y52.449 E2252.47923
G0 F12000 X-28.499 Y52.45
G1 F3600 X-28.5 Y-71.449 E2257.63035
G0 F12000 X-28 Y-71.449
G1 F3600 X-27.999 Y52.45 E2262.78148
G0 F12000 X-27.499 Y52.45
G1 F3600 X-27.5 Y-71.449 E2267.9326
G0 F12000 X-27 Y-71.449
G1 F3600 X-26.999 Y52.45 E2273.08372
G0 F12000 X-26.499 Y52.45
G1 F3600 X-26.5 Y-71.449 E2278.23484
G0 F12000 X-26 Y-71.449
G1 F3600 X-25.999 Y52.45 E2283.38596
G0 F12000 X-25.499 Y52.45
G1 F3600 X-25.5 Y-71.449 E2288.53709
G0 F12000 X-25 Y-71.449
G1 F3600 X-24.999 Y52.45 E2293.68821
G0 F12000 X-24.499 Y52.45
G1 F3600 X-24.5 Y-71.449 E2298.83933
G0 F12000 X-24 Y-71.449
G1 F3600 X-23.999 Y52.45 E2303.99045
G0 F12000 X-23.499 Y52.45
G1 F3600 X-23.5 Y-71.449 E2309.14157
G0 F12000 X-23 Y-71.449
G1 F3600 X-22.999 Y52.45 E2314.29269
G0 F12000 X-22.499 Y52.45
G1 F3600 X-22.5 Y-71.449 E2319.44382
G0 F12000 X-22 Y-71.449
G1 F3600 X-21.999 Y52.45 E2324.59494
G0 F12000 X-21.499 Y52.45
G1 F3600 X-21.5 Y-71.449 E2329.74606
G0 F12000 X-21 Y-71.449
G1 F3600 X-20.999 Y52.45 E2334.89718
G0 F12000 X-20.499 Y52.45
G1 F3600 X-20.5 Y-71.449 E2340.0483
G0 F12000 X-20 Y-71.449
G1 F3600 X-19.999 Y52.45 E2345.19943
G0 F12000 X-19.499 Y52.45
G1 F3600 X-19.5 Y-71.449 E2350.35055
G0 F12000 X-19 Y-71.449
G1 F3600 X-18.999 Y52.45 E2355.50167
G0 F12000 X-18.499 Y52.45
G1 F3600 X-18.5 Y-71.449 E2360.65279
G1 F6600 E2356.65279
G1 Z0.85
G0 F12000 X-17.249 Y-72.249
G0 X-16.499 Y-72.999
G0 X-14.499 Y-84.999
G0 X-12.999 Y-84.999
G0 X-12.249 Y-84.249
G0 X-12.249 Y84.25
G0 X-12.749 Y84.75
G0 X-12.249 Y84.25
G0 X-11.749 Y83.75
; TYPE:WALL-INNER
G1 Z0.55
G1 F6600 E2360.75279
G1 F3600 X-11.749 Y-83.749 E2367.71659
G1 X10.75 Y-83.749 E2368.65199
G1 X10.75 Y83.75 E2375.61579
G1 X-11.749 Y83.75 E2376.55119
G0 F12000 X-12.249 Y84.25
G1 F3600 X-12.249 Y-84.249 E2383.55656
G1 X11.25 Y-84.249 E2384.53354
G1 X11.25 Y84.25 E2391.53891
G1 X-12.249 Y84.25 E2392.51589
G0 F12000 X-12.749 Y84.75
; TYPE:WALL-OUTER
G1 F2700 X-12.749 Y-84.749 E2399.56284
G1 X11.75 Y-84.749 E2400.58139
G1 X11.75 Y84.75 E2407.62834
G1 X-12.749 Y84.75 E2408.64689
G0 F12000 X-12.249 Y84.25
G0 X-10.999 Y83.45
; TYPE:FILL
G1 F3600 X-11 Y-83.449 E2415.58574
G0 F12000 X-10.5 Y-83.449
G1 F3600 X-10.499 Y83.45 E2422.5246
G0 F12000 X-9.999 Y83.45
G1 F3600 X-10 Y-83.449 E2429.46345
G0 F12000 X-9.5 Y-83.449
G1 F3600 X-9.499 Y83.45 E2436.4023
G0 F12000 X-8.999 Y83.45
G1 F3600 X-9 Y-83.449 E2443.34116
G0 F12000 X-8.5 Y-83.449
G1 F3600 X-8.499 Y83.45 E2450.28001
G0 F12000 X-7.999 Y83.45
G1 F3600 X-8 Y-83.449 E2457.21887
G0 F12000 X-7.5 Y-83.449
G1 F3600 X-7.499 Y83.45 E2464.15772
G0 F12000 X-6.999 Y83.45
G1 F3600 X-7 Y-83.449 E2471.09657
G0 F12000 X-6.5 Y-83.449
G1 F3600 X-6.499 Y83.45 E2478.03543
G0 F12000 X-5.999 Y83.45
G1 F3600 X-6 Y-83.449 E2484.97428
G0 F12000 X-5.5 Y-83.449
G1 F3600 X-5.499 Y83.45 E2491.91314
G0 F12000 X-4.999 Y83.45
G1 F3600 X-5 Y-83.449 E2498.85199
G0 F12000 X-4.5 Y-83.449
G1 F3600 X-4.499 Y83.45 E2505.79084
G0 F12000 X-3.999 Y83.45
G1 F3600 X-4 Y-83.449 E2512.7297
G0 F12000 X-3.5 Y-83.449
G1 F3600 X-3.499 Y83.45 E2519.66855
G0 F12000 X-2.999 Y83.45
G1 F3600 X-3 Y-83.449 E2526.60741
G0 F12000 X-2.5 Y-83.449
G1 F3600 X-2.499 Y83.45 E2533.54626
G0 F12000 X-1.999 Y83.45
G1 F3600 X-2 Y-83.449 E2540.48511
G0 F12000 X-1.5 Y-83.449
G1 F3600 X-1.499 Y83.45 E2547.42397
G0 F12000 X-0.999 Y83.45
G1 F3600 X-1 Y-83.449 E2554.36282
G0 F12000 X-0.5 Y-83.449
G1 F3600 X-0.499 Y83.45 E2561.30168
G0 F12000 X0 Y83.45
G1 F3600 X0 Y-83.449 E2568.24053
G0 F12000 X0.499 Y-83.449
G1 F3600 X0.5 Y83.45 E2575.17939
G0 F12000 X1 Y83.45
G1 F3600 X0.999 Y-83.449 E2582.11824
G0 F12000 X1.499 Y-83.449
G1 F3600 X1.5 Y83.45 E2589.05709
G0 F12000 X2 Y83.45
G1 F3600 X1.999 Y-83.449 E2595.99595
G0 F12000 X2.499 Y-83.449
G1 F3600 X2.5 Y83.45 E2602.9348
G0 F12000 X3 Y83.45
G1 F3600 X2.999 Y-83.449 E2609.87366
G0 F12000 X3.499 Y-83.449
G1 F3600 X3.5 Y83.45 E2616.81251
G0 F12000 X4 Y83.45
G1 F3600 X3.999 Y-83.449 E2623.75136
G0 F12000 X4.499 Y-83.449
G1 F3600 X4.5 Y83.45 E2630.69022
G0 F12000 X5 Y83.45
G1 F3600 X4.999 Y-83.449 E2637.62907
G0 F12000 X5.499 Y-83.449
G1 F3600 X5.5 Y83.45 E2644.56793
G0 F12000 X6 Y83.45
G1 F3600 X5.999 Y-83.449 E2651.50678
G0 F12000 X6.499 Y-83.449
G1 F3600 X6.5 Y83.45 E2658.44563
G0 F12000 X7 Y83.45
G1 F3600 X6.999 Y-83.449 E2665.38449
G0 F12000 X7.499 Y-83.449
G1 F3600 X7.5 Y83.45 E2672.32334
G0 F12000 X8 Y83.45
G1 F3600 X7.999 Y-83.449 E2679.2622
G0 F12000 X8.499 Y-83.449
G1 F3600 X8.5 Y83.45 E2686.20105
G0 F12000 X9 Y83.45
G1 F3600 X8.999 Y-83.449 E2693.13991
G0 F12000 X9.499 Y-83.449
G1 F3600 X9.5 Y83.45 E2700.07876
G0 F12000 X10 Y83.45
G1 F3600 X9.999 Y-83.449 E2707.01761
; Layer Change GCode
; LAYER:2
M400
M106 S153
G1 F6600 E2703.01761
G1 Z0.85
G0 F12000 X9.999 Y-83.449 Z1.05
G0 X11.25 Y-84.249
G0 X12 Y-84.999
G0 X13.5 Y-84.999
G0 X15.5 Y-58.999
G0 X16.5 Y-58.999
G0 X17.25 Y-58.249
G0 X17.25 Y50.25
G0 X16.75 Y50.75
G0 X17.25 Y50.25
G0 X17.75 Y49.75
; TYPE:WALL-INNER
G1 Z0.75
G1 F6600 E2707.11761
G1 F3600 X17.75 Y-57.749 E2711.5869
G1 X40.25 Y-57.749 E2712.52234
G1 X40.25 Y49.75 E2716.99163
G1 X17.75 Y49.75 E2717.92707
G0 F12000 X17.25 Y50.25
G1 F3600 X17.25 Y-58.249 E2722.43794
G1 X40.75 Y-58.249 E2723.41495
G1 X40.75 Y50.25 E2727.92582
G1 X17.25 Y50.25 E2728.90284
G0 F12000 X16.75 Y50.75
; TYPE:WALL-OUTER
G1 F2700 X16.75 Y-58.749 E2733.45527
G1 X41.25 Y-58.749 E2734.47387
G1 X41.25 Y50.75 E2739.02631
G1 X16.75 Y50.75 E2740.0449
G0 F12000 X17.25 Y50.25
G0 X18.049 Y49
; TYPE:FILL
G1 F3600 X39.95 Y49 E2740.95544
G0 F12000 X39.95 Y48.5
G1 F3600 X18.049 Y48.5 E2741.86597
G0 F12000 X18.049 Y48
G1 F3600 X39.95 Y48 E2742.77651
G0 F12000 X39.95 Y47.5
G1 F3600 X18.049 Y47.5 E2743.68705
G0 F12000 X18.049 Y47
G1 F3600 X39.95 Y47 E2744.59759
G0 F12000 X39.95 Y46.5
G1 F3600 X18.049 Y46.5 E2745.50812
G0 F12000 X18.049 Y46
G1 F3600 X39.95 Y46 E2746.41866
G0 F12000 X39.95 Y45.5
G1 F3600 X18.049 Y45.5 E2747.3292
G0 F12000 X18.049 Y45
G1 F3600 X39.95 Y45 E2748.23974
G0 F12000 X39.95 Y44.5
G1 F3600 X18.049 Y44.5 E2749.15028
G0 F12000 X18.049 Y44
G1 F3600 X39.95 Y44 E2750.06081
G0 F12000 X39.95 Y43.5
G1 F3600 X18.049 Y43.5 E2750.97135
G0 F12000 X18.049 Y43
G1 F3600 X39.95 Y43 E2751.88189
G0 F12000 X39.95 Y42.5
G1 F3600 X18.049 Y42.5 E2752.79243
G0 F12000 X18.049 Y42
G1 F3600 X39.95 Y42 E2753.70296
G0 F12000 X39.95 Y41.5
G1 F3600 X18.049 Y41.5 E2754.6135
G0 F12000 X18.049 Y41
G1 F3600 X39.95 Y41 E2755.52404
G0 F12000 X39.95 Y40.5
G1 F3600 X18.049 Y40.5 E2756.43458
G0 F12000 X18.049 Y40
G1 F3600 X39.95 Y40 E2757.34512
G0 F12000 X39.95 Y39.5
G1 F3600 X18.049 Y39.5 E2758.25565
G0 F12000 X18.049 Y39
G1 F3600 X39.95 Y39 E2759.16619
G0 F12000 X39.95 Y38.5
G1 F3600 X18.049 Y38.5 E2760.07673
G0 F12000 X18.049 Y38
G1 F3600 X39.95 Y38 E2760.98727
G0 F12000 X39.95 Y37.5
G1 F3600 X18.049 Y37.5 E2761.8978
G0 F12000 X18.049 Y37
G1 F3600 X39.95 Y37 E2762.80834
G0 F12000 X39.95 Y36.5
G1 F3600 X18.049 Y36.5 E2763.71888
G0 F12000 X18.049 Y36
G1 F3600 X39.95 Y36 E2764.62942
G0 F12000 X39.95 Y35.5
G1 F3600 X18.049 Y35.5 E2765.53996
G0 F12000 X18.049 Y35
G1 F3600 X39.95 Y35 E2766.45049
G0 F12000 X39.95 Y34.5
G1 F3600 X18.049 Y34.5 E2767.36103
G0 F12000 X18.049 Y34
G1 F3600 X39.95 Y34 E2768.27157
G0 F12000 X39.95 Y33.5
G1 F3600 X18.049 Y33.5 E2769.18211
G0 F12000 X18.049 Y33
G1 F3600 X39.95 Y33 E2770.09264
G0 F12000 X39.95 Y32.499
G1 F3600 X18.049 Y32.5 E2771.00318
G0 F12000 X18.049 Y32
G1 F3600 X39.95 Y31.999 E2771.91372
G0 F12000 X39.95 Y31.499
G1 F3600 X18.049 Y31.5 E2772.82426
G0 F12000 X18.049 Y31
G1 F3600 X39.95 Y30.999 E2773.7348
G0 F12000 X39.95 Y30.499
G1 F3600 X18.049 Y30.5 E2774.64533
G0 F12000 X18.049 Y30
G1 F3600 X39.95 Y29.999 E2775.55587
G0 F12000 X39.95 Y29.499
G1 F3600 X18.049 Y29.5 E2776.46641
G0 F12000 X18.049 Y29
G1 F3600 X39.95 Y28.999 E2777.37695
G0 F12000 X39.95 Y28.499
G1 F3600 X18.049 Y28.5 E2778.28748
G0 F12000 X18.049 Y28
G1 F3600 X39.95 Y27.999 E2779.19802
G0 F12000 X39.95 Y27.499
G1 F3600 X18.049 Y27.5 E2780.10856
G0 F12000 X18.049 Y27
G1 F3600 X39.95 Y26.999 E2781.0191
G0 F12000 X39.95 Y26.499
G1 F3600 X18.049 Y26.5 E2781.92963
G0 F12000 X18.049 Y26
G1 F3600 X39.95 Y25.999 E2782.84017
G0 F12000 X39.95 Y25.499
G1 F3600 X18.049 Y25.5 E2783.75071
G0 F12000 X18.049 Y25
G1 F3600 X39.95 Y24.999 E2784.66125
G0 F12000 X39.95 Y24.499
G1 F3600 X18.049 Y24.5 E2785.57179
G0 F12000 X18.049 Y24
G1 F3600 X39.95 Y23.999 E2786.48232
G0 F12000 X39.95 Y23.499
G1 F3600 X18.049 Y23.5 E2787.39286
G0 F12000 X18.049 Y23
G1 F3600 X39.95 Y22.999 E2788.3034
G0 F12000 X39.95 Y22.499
G1 F3600 X18.049 Y22.5 E2789.21394
G0 F12000 X18.049 Y22
G1 F3600 X39.95 Y21.999 E2790.12447
G0 F12000 X39.95 Y21.499
G1 F3600 X18.049 Y21.5 E2791.03501
G0 F12000 X18.049 Y21
G1 F3600 X39.95 Y20.999 E2791.94555
G0 F12000 X39.95 Y20.499
G1 F3600 X18.049 Y20.5 E2792.85609
G0 F12000 X18.049 Y20
G1 F3600 X39.95 Y19.999 E2793.76663
G0 F12000 X39.95 Y19.499
G1 F3600 X18.049 Y19.5 E2794.67716
G0 F12000 X18.049 Y19
G1 F3600 X39.95 Y18.999 E2795.5877
G0 F12000 X39.95 Y18.499
G1 F3600 X18.049 Y18.5 E2796.49824
G0 F12000 X18.049 Y18
G1 F3600 X39.95 Y17.999 E2797.40878
G0 F12000 X39.95 Y17.499
G1 F3600 X18.049 Y17.5 E2798.31931
G0 F12000 X18.049 Y17
G1 F3600 X39.95 Y16.999 E2799.22985
G0 F12000 X39.95 Y16.499
G1 F3600 X18.049 Y16.5 E2800.14039
G0 F12000 X18.049 Y15.999
G1 F3600 X39.95 Y15.999 E2801.05093
G0 F12000 X39.95 Y15.499
G1 F3600 X18.049 Y15.499 E2801.96147
G0 F12000 X18.049 Y14.999
G1 F3600 X39.95 Y14.999 E2802.872
G0 F12000 X39.95 Y14.499
G1 F3600 X18.049 Y14.499 E2803.78254
G0 F12000 X18.049 Y13.999
G1 F3600 X39.95 Y13.999 E2804.69308
G0 F12000 X39.95 Y13.499
G1 F3600 X18.049 Y13.499 E2805.60362
G0 F12000 X18.049 Y12.999
G1 F3600 X39.95 Y12.999 E2806.51415
G0 F12000 X39.95 Y12.499
G1 F3600 X18.049 Y12.499 E2807.42469
G0 F12000 X18.049 Y11.999
G1 F3600 X39.95 Y11.999 E2808.33523
G0 F12000 X39.95 Y11.499
G1 F3600 X18.049 Y11.499 E2809.24577
G0 F12000 X18.049 Y10.999
G1 F3600 X39.95 Y10.999 E2810.15631
G0 F12000 X39.95 Y10.499
G1 F3600 X18.049 Y10.499 E2811.06684
G0 F12000 X18.049 Y9.999
G1 F3600 X39.95 Y9.999 E2811.97738
G0 F12000 X39.95 Y9.499
G1 F3600 X18.049 Y9.499 E2812.88792
G0 F12000 X18.049 Y8.999
G1 F3600 X39.95 Y8.999 E2813.79846
G0 F12000 X39.95 Y8.499
G1 F3600 X18.049 Y8.499 E2814.70899
G0 F12000 X18.049 Y7.999
G1 F3600 X39.95 Y7.999 E2815.61953
G0 F12000 X39.95 Y7.499
G1 F3600 X18.049 Y7.499 E2816.53007
G0 F12000 X18.049 Y6.999
G1 F3600 X39.95 Y6.999 E2817.44061
G0 F12000 X39.95 Y6.499
G1 F3600 X18.049 Y6.499 E2818.35115
G0 F12000 X18.049 Y5.999
G1 F3600 X39.95 Y5.999 E2819.26168
G0 F12000 X39.95 Y5.499
G1 F3600 X18.049 Y5.499 E2820.17222
G0 F12000 X18.049 Y4.999
G1 F3600 X39.95 Y4.999 E2821.08276
G0 F12000 X39.95 Y4.499
G1 F3600 X18.049 Y4.499 E2821.9933
G0 F12000 X18.049 Y3.999
G1 F3600 X39.95 Y3.999 E2822.90383
G0 F12000 X39.95 Y3.499
G1 F3600 X18.049 Y3.499 E2823.81437
G0 F12000 X18.049 Y2.999
G1 F3600 X39.95 Y2.999 E2824.72491
G0 F12000 X39.95 Y2.499
G1 F3600 X18.049 Y2.499 E2825.63545
G0 F12000 X18.049 Y1.999
G1 F3600 X39.95 Y1.999 E2826.54599
G0 F12000 X39.95 Y1.499
G1 F3600 X18.049 Y1.499 E2827.45652
G0 F12000 X18.049 Y0.999
G1 F3600 X39.95 Y0.999 E2828.36706
G0 F12000 X39.95 Y0.499
G1 F3600 X18.049 Y0.499 E2829.2776
G0 F12000 X18.049 Y0
G1 F3600 X39.95 Y0 E2830.18814
G0 F12000 X39.95 Y-0.5
G1 F3600 X18.049 Y-0.5 E2831.09867
G0 F12000 X18.049 Y-1
G1 F3600 X39.95 Y-1 E2832.00921
G0 F12000 X39.95 Y-1.5
G1 F3600 X18.049 Y-1.5 E2832.91975
G0 F12000 X18.049 Y-2
G1 F3600 X39.95 Y-2 E2833.83029
G0 F12000 X39.95 Y-2.5
G1 F3600 X18.049 Y-2.5 E2834.74083
G0 F12000 X18.049 Y-3
G1 F3600 X39.95 Y-3 E2835.65136
G0 F12000 X39.95 Y-3.5
G1 F3600 X18.049 Y-3.5 E2836.5619
G0 F12000 X18.05 Y-4
G1 F3600 X39.95 Y-4 E2837.4724
G0 F12000 X39.95 Y-4.5
G1 F3600 X18.05 Y-4.5 E2838.38289
G0 F12000 X18.05 Y-5
G1 F3600 X39.95 Y-5 E2839.29339
G0 F12000 X39.95 Y-5.5
G1 F3600 X18.05 Y-5.5 E2840.20389
G0 F12000 X18.05 Y-6
G1 F3600 X39.95 Y-6 E2841.11438
G0 F12000 X39.95 Y-6.5
G1 F3600 X18.05 Y-6.5 E2842.02488
G0 F12000 X18.05 Y-7
G1 F3600 X39.95 Y-7 E2842.93537
G0 F12000 X39.95 Y-7.5
G1 F3600 X18.05 Y-7.5 E2843.84587
G0 F12000 X18.05 Y-8
G1 F3600 X39.95 Y-8 E2844.75637
G0 F12000 X39.95 Y-8.5
G1 F3600 X18.05 Y-8.5 E2845.66686
G0 F12000 X18.05 Y-9
G1 F3600 X39.95 Y-9 E2846.57736
G0 F12000 X39.95 Y-9.5
G1 F3600 X18.05 Y-9.5 E2847.48786
G0 F12000 X18.05 Y-10
G1 F3600 X39.95 Y-10 E2848.39835
G0 F12000 X39.95 Y-10.5
G1 F3600 X18.05 Y-10.5 E2849.30885
G0 F12000 X18.05 Y-11
G1 F3600 X39.95 Y-11 E2850.21934
G0 F12000 X39.95 Y-11.5
G1 F3600 X18.05 Y-11.5 E2851.12984
G0 F12000 X18.05 Y-12
G1 F3600 X39.95 Y-12 E2852.04034
G0 F12000 X39.95 Y-12.5
G1 F3600 X18.05 Y-12.5 E2852.95083
G0 F12000 X18.05 Y-13
G1 F3600 X39.95 Y-13 E2853.86133
G0 F12000 X39.95 Y-13.5
G1 F3600 X18.05 Y-13.5 E2854.77183
G0 F12000 X18.05 Y-14
G1 F3600 X39.95 Y-14 E2855.68232
G0 F12000 X39.95 Y-14.5
G1 F3600 X18.05 Y-14.5 E2856.59282
G0 F12000 X18.05 Y-15
G1 F3600 X39.95 Y-15 E2857.50331
G0 F12000 X39.95 Y-15.5
G1 F3600 X18.05 Y-15.5 E2858.41381
G0 F12000 X18.05 Y-16
G1 F3600 X39.95 Y-16 E2859.32431
G0 F12000 X39.95 Y-16.5
G1 F3600 X18.05 Y-16.5 E2860.2348
G0 F12000 X18.05 Y-17
G1 F3600 X39.95 Y-17 E2861.1453
G0 F12000 X39.95 Y-17.5
G1 F3600 X18.05 Y-17.5 E2862.05579
G0 F12000 X18.05 Y-18
G1 F3600 X39.95 Y-18 E2862.96629
G0 F12000 X39.95 Y-18.5
G1 F3600 X18.05 Y-18.5 E2863.87679
G0 F12000 X18.05 Y-19
G1 F3600 X39.95 Y-19 E2864.78728
G0 F12000 X39.95 Y-19.5
G1 F3600 X18.05 Y-19.5 E2865.69778
G0 F12000 X18.05 Y-20
G1 F3600 X39.95 Y-20 E2866.60828
G0 F12000 X39.95 Y-20.5
G1 F3600 X18.05 Y-20.5 E2867.51877
G0 F12000 X18.05 Y-21
G1 F3600 X39.95 Y-21 E2868.42927
G0 F12000 X39.95 Y-21.5
G1 F3600 X18.05 Y-21.5 E2869.33976
G0 F12000 X18.05 Y-22
G1 F3600 X39.95 Y-22 E2870.25026
G0 F12000 X39.95 Y-22.5
G1 F3600 X18.05 Y-22.5 E2871.16076
G0 F12000 X18.05 Y-23
G1 F3600 X39.95 Y-23 E2872.07125
G0 F12000 X39.95 Y-23.5
G1 F3600 X18.05 Y-23.5 E2872.98175
G0 F12000 X18.05 Y-24
G1 F3600 X39.95 Y-24 E2873.89225
G0 F12000 X39.95 Y-24.5
G1 F3600 X18.05 Y-24.5 E2874.80274
G0 F12000 X18.05 Y-25
G1 F3600 X39.95 Y-25 E2875.71324
G0 F12000 X39.95 Y-25.5
G1 F3600 X18.05 Y-25.5 E2876.62373
G0 F12000 X18.05 Y-26
G1 F3600 X39.95 Y-26 E2877.53423
G0 F12000 X39.95 Y-26.5
G1 F3600 X18.05 Y-26.5 E2878.44473
G0 F12000 X18.05 Y-27
G1 F3600 X39.95 Y-27 E2879.35522
G0 F12000 X39.95 Y-27.5
G1 F3600 X18.05 Y-27.5 E2880.26572
G0 F12000 X18.05 Y-28
G1 F3600 X39.95 Y-28 E2881.17621
G0 F12000 X39.95 Y-28.5
G1 F3600 X18.05 Y-28.5 E2882.08671
G0 F12000 X18.05 Y-29
G1 F3600 X39.95 Y-29 E2882.99721
G0 F12000 X39.95 Y-29.5
G1 F3600 X18.05 Y-29.5 E2883.9077
G0 F12000 X18.049 Y-30
G1 F3600 X39.95 Y-30 E2884.81824
G0 F12000 X39.95 Y-30.5
G1 F3600 X18.049 Y-30.5 E2885.72878
G0 F12000 X18.049 Y-31
G1 F3600 X39.95 Y-31 E2886.63932
G0 F12000 X39.95 Y-31.5
G1 F3600 X18.049 Y-31.5 E2887.54985
G0 F12000 X18.049 Y-32
G1 F3600 X39.95 Y-32 E2888.46039
G0 F12000 X39.95 Y-32.5
G1 F3600 X18.049 Y-32.5 E2889.37093
G0 F12000 X18.049 Y-33
G1 F3600 X39.95 Y-33 E2890.28147
G0 F12000 X39.95 Y-33.5
G1 F3600 X18.049 Y-33.5 E2891.19201
G0 F12000 X18.049 Y-34
G1 F3600 X39.95 Y-34 E2892.10254
G0 F12000 X39.95 Y-34.5
G1 F3600 X18.049 Y-34.5 E2893.01308
G0 F12000 X18.049 Y-35
G1 F3600 X39.95 Y-35 E2893.92362
G0 F12000 X39.95 Y-35.5
G1 F3600 X18.049 Y-35.5 E2894.83416
G0 F12000 X18.049 Y-36
G1 F3600 X39.95 Y-36 E2895.74469
G0 F12000 X39.95 Y-36.5
G1 F3600 X18.049 Y-36.5 E2896.65523
G0 F12000 X18.049 Y-37
G1 F3600 X39.95 Y-37 E2897.56577
G0 F12000 X39.95 Y-37.5
G1 F3600 X18.049 Y-37.5 E2898.47631
G0 F12000 X18.049 Y-38
G1 F3600 X39.95 Y-38 E2899.38685
G0 F12000 X39.95 Y-38.5
G1 F3600 X18.049 Y-38.5 E2900.29738
G0 F12000 X18.049 Y-39
G1 F3600 X39.95 Y-39 E2901.20792
G0 F12000 X39.95 Y-39.5
G1 F3600 X18.049 Y-39.5 E2902.11846
G0 F12000 X18.049 Y-40
G1 F3600 X39.95 Y-40 E2903.029
G0 F12000 X39.95 Y-40.5
G1 F3600 X18.049 Y-40.5 E2903.93953
G0 F12000 X18.049 Y-41
G1 F3600 X39.95 Y-41 E2904.85007
G0 F12000 X39.95 Y-41.5
G1 F3600 X18.049 Y-41.5 E2905.76061
G0 F12000 X18.049 Y-42
G1 F3600 X39.95 Y-42 E2906.67115
G0 F12000 X39.95 Y-42.5
G1 F3600 X18.049 Y-42.5 E2907.58169
G0 F12000 X18.049 Y-43
G1 F3600 X39.95 Y-43 E2908.49222
G0 F12000 X39.95 Y-43.5
G1 F3600 X18.049 Y-43.5 E2909.40276
G0 F12000 X18.049 Y-44
G1 F3600 X39.95 Y-44 E2910.3133
G0 F12000 X39.95 Y-44.5
G1 F3600 X18.049 Y-44.5 E2911.22384
G0 F12000 X18.049 Y-45
G1 F3600 X39.95 Y-45 E2912.13437
G0 F12000 X39.95 Y-45.5
G1 F3600 X18.049 Y-45.5 E2913.04491
G0 F12000 X18.049 Y-46
G1 F3600 X39.95 Y-46 E2913.95545
G0 F12000 X39.95 Y-46.5
G1 F3600 X18.049 Y-46.5 E2914.86599
G0 F12000 X18.049 Y-47
G1 F3600 X39.95 Y-47 E2915.77653
G0 F12000 X39.95 Y-47.5
G1 F3600 X18.049 Y-47.5 E2916.68706
G0 F12000 X18.049 Y-48
G1 F3600 X39.95 Y-48 E2917.5976
G0 F12000 X39.95 Y-48.5
G1 F3600 X18.049 Y-48.5 E2918.50814
G0 F12000 X18.049 Y-49
G1 F3600 X39.95 Y-49 E2919.41868
G0 F12000 X39.95 Y-49.5
G1 F3600 X18.049 Y-49.5 E2920.32921
G0 F12000 X18.049 Y-50
G1 F3600 X39.95 Y-50 E2921.23975
G0 F12000 X39.95 Y-50.5
G1 F3600 X18.049 Y-50.5 E2922.15029
G0 F12000 X18.049 Y-51
G1 F3600 X39.95 Y-51 E2923.06083
G0 F12000 X39.95 Y-51.5
G1 F3600 X18.049 Y-51.5 E2923.97137
G0 F12000 X18.049 Y-52
G1 F3600 X39.95 Y-52 E2924.8819
G0 F12000 X39.95 Y-52.5
G1 F3600 X18.049 Y-52.5 E2925.79244
G0 F12000 X18.049 Y-53
G1 F3600 X39.95 Y-53 E2926.70298
G0 F12000 X39.95 Y-53.5
G1 F3600 X18.049 Y-53.5 E2927.61352
G0 F12000 X18.049 Y-54
G1 F3600 X39.95 Y-54 E2928.52405
G0 F12000 X39.95 Y-54.5
G1 F3600 X18.049 Y-54.5 E2929.43459
G0 F12000 X18.049 Y-55
G1 F3600 X39.95 Y-55 E2930.34513
G0 F12000 X39.95 Y-55.5
G1 F3600 X18.049 Y-55.5 E2931.25567
G0 F12000 X18.049 Y-56
G1 F3600 X39.95 Y-56 E2932.16621
G0 F12000 X39.95 Y-56.5
G1 F3600 X18.049 Y-56.5 E2933.07674
G0 F12000 X18.049 Y-57
G1 F3600 X39.95 Y-57 E2933.98728
G1 F6600 E2929.98728
G1 Z1.05
G0 F12000 X17.25 Y-58.249
G0 X16.5 Y-58.999
G0 X15.5 Y-58.999
G0 X13.5 Y-86.499
G0 X-14.499 Y-86.499
G0 X-16.499 Y-72.999
G0 X-17.249 Y-72.249
G0 X-40.749 Y53.25
G0 X-41.249 Y53.75
G0 X-40.749 Y53.25
G0 X-40.249 Y52.75
; TYPE:WALL-INNER
G1 Z0.75
G1 F6600 E2934.08728
G1 F3600 X-40.249 Y-71.749 E2939.26335
G1 X-17.749 Y-71.749 E2940.19879
G1 X-17.749 Y52.75 E2945.37486
G1 X-40.249 Y52.75 E2946.3103
G0 F12000 X-40.749 Y53.25
G1 F3600 X-40.749 Y-72.249 E2951.52794
G1 X-17.249 Y-72.249 E2952.50496
G1 X-17.249 Y53.25 E2957.7226
G1 X-40.749 Y53.25 E2958.69961
G0 F12000 X-41.249 Y53.75
; TYPE:WALL-OUTER
G1 F2700 X-41.249 Y-72.749 E2963.95883
G1 X-16.749 Y-72.749 E2964.97742
G1 X-16.749 Y53.75 E2970.23664
G1 X-41.249 Y53.75 E2971.25523
G0 F12000 X-40.749 Y53.25
G0 X-39.949 Y52
; TYPE:FILL
G1 F3600 X-18.048 Y52 E2972.16577
G0 F12000 X-18.048 Y51.5
G1 F3600 X-39.949 Y51.5 E2973.07631
G0 F12000 X-39.949 Y51
G1 F3600 X-18.048 Y51 E2973.98685
G0 F12000 X-18.048 Y50.5
G1 F3600 X-39.949 Y50.5 E2974.89738
G0 F12000 X-39.949 Y50
G1 F3600 X-18.048 Y50 E2975.80792
G0 F12000 X-18.048 Y49.5
G1 F3600 X-39.949 Y49.5 E2976.71846
G0 F12000 X-39.949 Y49
G1 F3600 X-18.048 Y49 E2977.629
G0 F12000 X-18.048 Y48.5
G1 F3600 X-39.949 Y48.5 E2978.53953
G0 F12000 X-39.949 Y48
G1 F3600 X-18.048 Y48 E2979.45007
G0 F12000 X-18.048 Y47.5
G1 F3600 X-39.949 Y47.5 E2980.36061
G0 F12000 X-39.949 Y47
G1 F3600 X-18.048 Y47 E2981.27115
G0 F12000 X-18.048 Y46.5
G1 F3600 X-39.949 Y46.5 E2982.18169
G0 F12000 X-39.949 Y46
G1 F3600 X-18.048 Y46 E2983.09222
G0 F12000 X-18.048 Y45.5
G1 F3600 X-39.949 Y45.5 E2984.00276
G0 F12000 X-39.949 Y45
G1 F3600 X-18.048 Y45 E2984.9133
G0 F12000 X-18.048 Y44.5
G1 F3600 X-39.949 Y44.5 E2985.82384
G0 F12000 X-39.949 Y44
G1 F3600 X-18.048 Y44 E2986.73437
G0 F12000 X-18.048 Y43.5
G1 F3600 X-39.949 Y43.5 E2987.64491
G0 F12000 X-39.949 Y43
G1 F3600 X-18.048 Y43 E2988.55545
G0 F12000 X-18.048 Y42.5
G1 F3600 X-39.949 Y42.5 E2989.46599
G0 F12000 X-39.949 Y42
G1 F3600 X-18.048 Y42 E2990.37653
G0 F12000 X-18.048 Y41.5
G1 F3600 X-39.949 Y41.5 E2991.28706
G0 F12000 X-39.949 Y41
G1 F3600 X-18.048 Y41 E2992.1976
G0 F12000 X-18.048 Y40.5
G1 F3600 X-39.949 Y40.5 E2993.10814
G0 F12000 X-39.949 Y40
G1 F3600 X-18.048 Y40 E2994.01868
G0 F12000 X-18.048 Y39.5
G1 F3600 X-39.949 Y39.5 E2994.92921
G0 F12000 X-39.949 Y39
G1 F3600 X-18.048 Y39 E2995.83975
G0 F12000 X-18.048 Y38.5
G1 F3600 X-39.949 Y38.5 E2996.75029
G0 F12000 X-39.949 Y38
G1 F3600 X-18.048 Y38 E2997.66083
G0 F12000 X-18.048 Y37.5
G1 F3600 X-39.949 Y37.5 E2998.57137
G0 F12000 X-39.949 Y37
G1 F3600 X-18.048 Y37 E2999.4819
G0 F12000 X-18.048 Y36.5
G1 F3600 X-39.949 Y36.5 E3000.39244
G0 F12000 X-39.949 Y36
G1 F3600 X-18.048 Y36 E3001.30298
G0 F12000 X-18.048 Y35.5
G1 F3600 X-39.949 Y35.5 E3002.21352
G0 F12000 X-39.949 Y35
G1 F3600 X-18.048 Y35 E3003.12405
G0 F12000 X-18.048 Y34.5
G1 F3600 X-39.949 Y34.5 E3004.03459
G0 F12000 X-39.949 Y34
G1 F3600 X-18.048 Y34 E3004.94513
G0 F12000 X-18.048 Y33.5
G1 F3600 X-39.949 Y33.5 E3005.85567
G0 F12000 X-39.949 Y33
G1 F3600 X-18.048 Y33 E3006.76621
G0 F12000 X-18.048 Y32.5
G1 F3600 X-39.949 Y32.5 E3007.67674
G0 F12000 X-39.949 Y32
G1 F3600 X-18.048 Y32 E3008.58728
G0 F12000 X-18.048 Y31.5
G1 F3600 X-39.949 Y31.5 E3009.49782
G0 F12000 X-39.949 Y31
G1 F3600 X-18.048 Y31 E3010.40836
G0 F12000 X-18.048 Y30.5
G1 F3600 X-39.949 Y30.5 E3011.31889
G0 F12000 X-39.949 Y30
G1 F3600 X-18.048 Y30 E3012.22943
G0 F12000 X-18.049 Y29.5
G1 F3600 X-39.949 Y29.5 E3013.13993
G0 F12000 X-39.949 Y29
G1 F3600 X-18.049 Y29 E3014.05042
G0 F12000 X-18.049 Y28.5
G1 F3600 X-39.949 Y28.5 E3014.96092
G0 F12000 X-39.949 Y28
G1 F3600 X-18.049 Y28 E3015.87142
G0 F12000 X-18.049 Y27.5
G1 F3600 X-39.949 Y27.5 E3016.78191
G0 F12000 X-39.949 Y27
G1 F3600 X-18.049 Y27 E3017.69241
G0 F12000 X-18.049 Y26.5
G1 F3600 X-39.949 Y26.5 E3018.60291
G0 F12000 X-39.949 Y26
G1 F3600 X-18.049 Y26 E3019.5134
G0 F12000 X-18.049 Y25.5
G1 F3600 X-39.949 Y25.5 E3020.4239
G0 F12000 X-39.949 Y25
G1 F3600 X-18.049 Y25 E3021.33439
G0 F12000 X-18.049 Y24.5
G1 F3600 X-39.949 Y24.5 E3022.24489
G0 F12000 X-39.949 Y24
G1 F3600 X-18.049 Y24 E3023.15539
G0 F12000 X-18.049 Y23.5
G1 F3600 X-39.949 Y23.5 E3024.06588
G0 F12000 X-39.949 Y23
G1 F3600 X-18.049 Y23 E3024.97638
G0 F12000 X-18.049 Y22.5
G1 F3600 X-39.949 Y22.5 E3025.88688
G0 F12000 X-39.949 Y22
G1 F3600 X-18.049 Y22 E3026.79737
G0 F12000 X-18.049 Y21.5
G1 F3600 X-39.949 Y21.5 E3027.70787
G0 F12000 X-39.949 Y21
G1 F3600 X-18.049 Y21 E3028.61836
G0 F12000 X-18.049 Y20.5
G1 F3600 X-39.949 Y20.5 E3029.52886
G0 F12000 X-39.949 Y20
G1 F3600 X-18.049 Y20 E3030.43936
G0 F12000 X-18.049 Y19.5
G1 F3600 X-39.949 Y19.5 E3031.34985
G0 F12000 X-39.949 Y19
G1 F3600 X-18.049 Y19 E3032.26035
G0 F12000 X-18.049 Y18.5
G1 F3600 X-39.949 Y18.5 E3033.17084
G0 F12000 X-39.949 Y18
G1 F3600 X-18.049 Y18 E3034.08134
G0 F12000 X-18.049 Y17.5
G1 F3600 X-39.949 Y17.5 E3034.99184
G0 F12000 X-39.949 Y17
G1 F3600 X-18.049 Y17 E3035.90233
G0 F12000 X-18.049 Y16.5
G1 F3600 X-39.949 Y16.5 E3036.81283
G0 F12000 X-39.949 Y16
G1 F3600 X-18.049 Y16 E3037.72333
G0 F12000 X-18.049 Y15.5
G1 F3600 X-39.949 Y15.5 E3038.63382
G0 F12000 X-39.949 Y15
G1 F3600 X-18.049 Y15 E3039.54432
G0 F12000 X-18.049 Y14.5
G1 F3600 X-39.949 Y14.5 E3040.45481
G0 F12000 X-39.949 Y14
G1 F3600 X-18.049 Y14 E3041.36531
G0 F12000 X-18.049 Y13.5
G1 F3600 X-39.949 Y13.5 E3042.27581
G0 F12000 X-39.949 Y13
G1 F3600 X-18.049 Y13 E3043.1863
G0 F12000 X-18.049 Y12.5
G1 F3600 X-39.949 Y12.5 E3044.0968
G0 F12000 X-39.949 Y12
G1 F3600 X-18.049 Y12 E3045.0073
G0 F12000 X-18.049 Y11.5
G1 F3600 X-39.949 Y11.5 E3045.91779
G0 F12000 X-39.949 Y11
G1 F3600 X-18.049 Y11 E3046.82829
G0 F12000 X-18.049 Y10.5
G1 F3600 X-39.949 Y10.5 E3047.73878
G0 F12000 X-39.949 Y10
G1 F3600 X-18.049 Y10 E3048.64928
G0 F12000 X-18.049 Y9.5
G1 F3600 X-39.949 Y9.5 E3049.55978
G0 F12000 X-39.949 Y9
G1 F3600 X-18.049 Y9 E3050.47027
G0 F12000 X-18.049 Y8.5
G1 F3600 X-39.949 Y8.5 E3051.38077
G0 F12000 X-39.949 Y8
G1 F3600 X-18.049 Y8 E3052.29126
G0 F12000 X-18.049 Y7.5
G1 F3600 X-39.949 Y7.5 E3053.20176
G0 F12000 X-39.949 Y7
G1 F3600 X-18.049 Y7 E3054.11226
G0 F12000 X-18.049 Y6.5
G1 F3600 X-39.949 Y6.5 E3055.02275
G0 F12000 X-39.949 Y6
G1 F3600 X-18.049 Y6 E3055.93325
G0 F12000 X-18.049 Y5.5
G1 F3600 X-39.949 Y5.5 E3056.84375
G0 F12000 X-39.949 Y5
G1 F3600 X-18.049 Y5 E3057.75424
G0 F12000 X-18.049 Y4.5
G1 F3600 X-39.949 Y4.5 E3058.66474
G0 F12000 X-39.949 Y4
G1 F3600 X-18.049 Y4 E3059.57523
G0 F12000 X-18.049 Y3.5
G1 F3600 X-39.949 Y3.5 E3060.48573
G0 F12000 X-39.949 Y3
G1 F3600 X-18.049 Y3 E3061.39623
G0 F12000 X-18.049 Y2.5
G1 F3600 X-39.949 Y2.5 E3062.30672
G0 F12000 X-39.949 Y2
G1 F3600 X-18.049 Y2 E3063.21722
G0 F12000 X-18.049 Y1.5
G1 F3600 X-39.949 Y1.5 E3064.12772
G0 F12000 X-39.949 Y1
G1 F3600 X-18.049 Y1 E3065.03821
G0 F12000 X-18.049 Y0.5
G1 F3600 X-39.949 Y0.5 E3065.94871
G0 F12000 X-39.949 Y0
G1 F3600 X-18.049 Y0 E3066.8592
G0 F12000 X-18.049 Y-0.499
G1 F3600 X-39.949 Y-0.499 E3067.7697
G0 F12000 X-39.949 Y-0.999
G1 F3600 X-18.049 Y-0.999 E3068.6802
G0 F12000 X-18.049 Y-1.499
G1 F3600 X-39.949 Y-1.499 E3069.59069
G0 F12000 X-39.949 Y-1.999
G1 F3600 X-18.049 Y-1.999 E3070.50119
G0 F12000 X-18.049 Y-2.499
G1 F3600 X-39.949 Y-2.499 E3071.41169
G0 F12000 X-39.949 Y-2.999
G1 F3600 X-18.049 Y-2.999 E3072.32218
G0 F12000 X-18.049 Y-3.499
G1 F3600 X-39.949 Y-3.499 E3073.23268
G0 F12000 X-39.949 Y-3.999
G1 F3600 X-18.049 Y-3.999 E3074.14317
G0 F12000 X-18.049 Y-4.499
G1 F3600 X-39.949 Y-4.499 E3075.05367
G0 F12000 X-39.949 Y-4.999
G1 F3600 X-18.049 Y-4.999 E3075.96417
G0 F12000 X-18.049 Y-5.499
G1 F3600 X-39.949 Y-5.499 E3076.87466
G0 F12000 X-39.949 Y-5.999
G1 F3600 X-18.049 Y-5.999 E3077.78516
G0 F12000 X-18.049 Y-6.499
G1 F3600 X-39.949 Y-6.499 E3078.69565
G0 F12000 X-39.949 Y-6.999
G1 F3600 X-18.049 Y-6.999 E3079.60615
G0 F12000 X-18.049 Y-7.499
G1 F3600 X-39.949 Y-7.499 E3080.51665
G0 F12000 X-39.949 Y-7.999
G1 F3600 X-18.049 Y-7.999 E3081.42714
G0 F12000 X-18.049 Y-8.499
G1 F3600 X-39.949 Y-8.499 E3082.33764
G0 F12000 X-39.949 Y-8.999
G1 F3600 X-18.049 Y-8.999 E3083.24814
G0 F12000 X-18.048 Y-9.499
G1 F3600 X-39.948 Y-9.499 E3084.15863
G0 F12000 X-39.948 Y-9.999
G1 F3600 X-18.048 Y-9.999 E3085.06913
G0 F12000 X-18.048 Y-10.499
G1 F3600 X-39.948 Y-10.499 E3085.97962
G0 F12000 X-39.948 Y-10.999
G1 F3600 X-18.048 Y-10.999 E3086.89012
G0 F12000 X-18.048 Y-11.499
G1 F3600 X-39.948 Y-11.499 E3087.80062
G0 F12000 X-39.948 Y-11.999
G1 F3600 X-18.048 Y-11.999 E3088.71111
G0 F12000 X-18.048 Y-12.499
G1 F3600 X-39.948 Y-12.499 E3089.62161
G0 F12000 X-39.948 Y-12.999
G1 F3600 X-18.048 Y-12.999 E3090.53211
G0 F12000 X-18.048 Y-13.499
G1 F3600 X-39.948 Y-13.499 E3091.4426
G0 F12000 X-39.948 Y-13.999
G1 F3600 X-18.048 Y-13.999 E3092.3531
G0 F12000 X-18.048 Y-14.499
G1 F3600 X-39.948 Y-14.499 E3093.26359
G0 F12000 X-39.948 Y-14.999
G1 F3600 X-18.048 Y-14.999 E3094.17409
G0 F12000 X-18.048 Y-15.499
G1 F3600 X-39.948 Y-15.499 E3095.08459
G0 F12000 X-39.948 Y-15.999
G1 F3600 X-18.048 Y-15.999 E3095.99508
G0 F12000 X-18.048 Y-16.5
G1 F3600 X-39.948 Y-16.499 E3096.90558
G0 F12000 X-39.948 Y-16.999
G1 F3600 X-18.048 Y-17 E3097.81607
G0 F12000 X-18.048 Y-17.5
G1 F3600 X-39.948 Y-17.499 E3098.72657
G0 F12000 X-39.948 Y-17.999
G1 F3600 X-18.048 Y-18 E3099.63707
G0 F12000 X-18.048 Y-18.5
G1 F3600 X-39.948 Y-18.499 E3100.54756
G0 F12000 X-39.948 Y-18.999
G1 F3600 X-18.048 Y-19 E3101.45806
G0 F12000 X-18.048 Y-19.5
G1 F3600 X-39.948 Y-19.499 E3102.36856
G0 F12000 X-39.948 Y-19.999
G1 F3600 X-18.048 Y-20 E3103.27905
G0 F12000 X-18.048 Y-20.5
G1 F3600 X-39.948 Y-20.499 E3104.18955
G0 F12000 X-39.948 Y-20.999
G1 F3600 X-18.048 Y-21 E3105.10004
G0 F12000 X-18.048 Y-21.5
G1 F3600 X-39.948 Y-21.499 E3106.01054
G0 F12000 X-39.948 Y-21.999
G1 F3600 X-18.048 Y-22 E3106.92104
G0 F12000 X-18.048 Y-22.5
G1 F3600 X-39.948 Y-22.499 E3107.83153
G0 F12000 X-39.948 Y-22.999
G1 F3600 X-18.048 Y-23 E3108.74203
G0 F12000 X-18.048 Y-23.5
G1 F3600 X-39.948 Y-23.499 E3109.65253
G0 F12000 X-39.948 Y-23.999
G1 F3600 X-18.048 Y-24 E3110.56302
G0 F12000 X-18.048 Y-24.5
G1 F3600 X-39.948 Y-24.499 E3111.47352
G0 F12000 X-39.948 Y-24.999
G1 F3600 X-18.048 Y-25 E3112.38401
G0 F12000 X-18.048 Y-25.5
G1 F3600 X-39.948 Y-25.499 E3113.29451
G0 F12000 X-39.948 Y-25.999
G1 F3600 X-18.048 Y-26 E3114.20501
G0 F12000 X-18.048 Y-26.5
G1 F3600 X-39.948 Y-26.499 E3115.1155
G0 F12000 X-39.948 Y-26.999
G1 F3600 X-18.048 Y-27 E3116.026
G0 F12000 X-18.048 Y-27.5
G1 F3600 X-39.948 Y-27.499 E3116.93649
G0 F12000 X-39.948 Y-27.999
G1 F3600 X-18.048 Y-28 E3117.84699
G0 F12000 X-18.048 Y-28.5
G1 F3600 X-39.948 Y-28.499 E3118.75749
G0 F12000 X-39.948 Y-28.999
G1 F3600 X-18.048 Y-29 E3119.66798
G0 F12000 X-18.048 Y-29.5
G1 F3600 X-39.948 Y-29.499 E3120.57848
G0 F12000 X-39.948 Y-29.999
G1 F3600 X-18.048 Y-30 E3121.48898
G0 F12000 X-18.048 Y-30.5
G1 F3600 X-39.948 Y-30.499 E3122.39947
G0 F12000 X-39.948 Y-30.999
G1 F3600 X-18.048 Y-31 E3123.30997
G0 F12000 X-18.048 Y-31.5
G1 F3600 X-39.948 Y-31.499 E3124.22046
G0 F12000 X-39.948 Y-31.999
G1 F3600 X-18.048 Y-32 E3125.13096
G0 F12000 X-18.048 Y-32.5
G1 F3600 X-39.948 Y-32.499 E3126.04146
G0 F12000 X-39.948 Y-33
G1 F3600 X-18.048 Y-33 E3126.95195
G0 F12000 X-18.048 Y-33.5
G1 F3600 X-39.948 Y-33.5 E3127.86245
G0 F12000 X-39.948 Y-34
G1 F3600 X-18.048 Y-34 E3128.77295
G0 F12000 X-18.048 Y-34.5
G1 F3600 X-39.948 Y-34.5 E3129.68344
G0 F12000 X-39.948 Y-35
G1 F3600 X-18.048 Y-35 E3130.59394
G0 F12000 X-18.048 Y-35.5
G1 F3600 X-39.948 Y-35.5 E3131.50443
G0 F12000 X-39.948 Y-36
G1 F3600 X-18.048 Y-36 E3132.41493
G0 F12000 X-18.048 Y-36.5
G1 F3600 X-39.948 Y-36.5 E3133.32543
G0 F12000 X-39.948 Y-37
G1 F3600 X-18.048 Y-37 E3134.23592
G0 F12000 X-18.048 Y-37.5
G1 F3600 X-39.948 Y-37.5 E3135.14642
G0 F12000 X-39.948 Y-38
G1 F3600 X-18.048 Y-38 E3136.05692
G0 F12000 X-18.048 Y-38.5
G1 F3600 X-39.948 Y-38.5 E3136.96741
G0 F12000 X-39.948 Y-39
G1 F3600 X-18.048 Y-39 E3137.87791
G0 F12000 X-18.048 Y-39.5
G1 F3600 X-39.948 Y-39.5 E3138.7884
G0 F12000 X-39.948 Y-40
G1 F3600 X-18.048 Y-40 E3139.6989
G0 F12000 X-18.048 Y-40.5
G1 F3600 X-39.948 Y-40.5 E3140.6094
G0 F12000 X-39.948 Y-41
G1 F3600 X-18.048 Y-41 E3141.51989
G0 F12000 X-18.048 Y-41.5
G1 F3600 X-39.948 Y-41.5 E3142.43039
G0 F12000 X-39.948 Y-42
G1 F3600 X-18.048 Y-42 E3143.34088
G0 F12000 X-18.048 Y-42.5
G1 F3600 X-39.948 Y-42.5 E3144.25138
G0 F12000 X-39.948 Y-43
G1 F3600 X-18.048 Y-43 E3145.16188
G0 F12000 X-18.048 Y-43.5
G1 F3600 X-39.948 Y-43.5 E3146.07237
G0 F12000 X-39.948 Y-44
G1 F3600 X-18.048 Y-44 E3146.98287
G0 F12000 X-18.048 Y-44.5
G1 F3600 X-39.948 Y-44.5 E3147.89337
G0 F12000 X-39.948 Y-45
G1 F3600 X-18.048 Y-45 E3148.80386
G0 F12000 X-18.048 Y-45.5
G1 F3600 X-39.948 Y-45.5 E3149.71436
G0 F12000 X-39.948 Y-46
G1 F3600 X-18.048 Y-46 E3150.62485
G0 F12000 X-18.048 Y-46.5
G1 F3600 X-39.948 Y-46.5 E3151.53535
G0 F12000 X-39.948 Y-47
G1 F3600 X-18.048 Y-47 E3152.44585
G0 F12000 X-18.048 Y-47.5
G1 F3600 X-39.948 Y-47.5 E3153.35634
G0 F12000 X-39.948 Y-48
G1 F3600 X-18.048 Y-48 E3154.26684
G0 F12000 X-18.048 Y-48.5
G1 F3600 X-39.948 Y-48.5 E3155.17734
G0 F12000 X-39.948 Y-49
G1 F3600 X-18.048 Y-49 E3156.08783
G0 F12000 X-18.048 Y-49.5
G1 F3600 X-39.948 Y-49.5 E3156.99833
G0 F12000 X-39.948 Y-50
G1 F3600 X-18.048 Y-50 E3157.90882
G0 F12000 X-18.048 Y-50.5
G1 F3600 X-39.948 Y-50.5 E3158.81932
G0 F12000 X-39.948 Y-51
G1 F3600 X-18.048 Y-51 E3159.72982
G0 F12000 X-18.048 Y-51.5
G1 F3600 X-39.948 Y-51.5 E3160.64031
G0 F12000 X-39.948 Y-52
G1 F3600 X-18.048 Y-52 E3161.55081
G0 F12000 X-18.048 Y-52.5
G1 F3600 X-39.948 Y-52.5 E3162.4613
G0 F12000 X-39.948 Y-53
G1 F3600 X-18.048 Y-53 E3163.3718
G0 F12000 X-18.048 Y-53.5
G1 F3600 X-39.948 Y-53.5 E3164.2823
G0 F12000 X-39.948 Y-54
G1 F3600 X-18.048 Y-54 E3165.19279
G0 F12000 X-18.048 Y-54.5
G1 F3600 X-39.948 Y-54.5 E3166.10329
G0 F12000 X-39.948 Y-55
G1 F3600 X-18.048 Y-55 E3167.01379
G0 F12000 X-18.048 Y-55.5
G1 F3600 X-39.948 Y-55.5 E3167.92428
G0 F12000 X-39.948 Y-56
G1 F3600 X-18.048 Y-56 E3168.83478
G0 F12000 X-18.048 Y-56.5
G1 F3600 X-39.948 Y-56.5 E3169.74527
G0 F12000 X-39.948 Y-57
G1 F3600 X-18.048 Y-57 E3170.65577
G0 F12000 X-18.048 Y-57.5
G1 F3600 X-39.948 Y-57.5 E3171.56627
G0 F12000 X-39.948 Y-58
G1 F3600 X-18.048 Y-58 E3172.47676
G0 F12000 X-18.048 Y-58.5
G1 F3600 X-39.948 Y-58.5 E3173.38726
G0 F12000 X-39.948 Y-59
G1 F3600 X-18.048 Y-59 E3174.29776
G0 F12000 X-18.048 Y-59.5
G1 F3600 X-39.948 Y-59.5 E3175.20825
G0 F12000 X-39.948 Y-60
G1 F3600 X-18.048 Y-60 E3176.11875
G0 F12000 X-18.048 Y-60.5
G1 F3600 X-39.948 Y-60.5 E3177.02924
G0 F12000 X-39.948 Y-61
G1 F3600 X-18.048 Y-61 E3177.93974
G0 F12000 X-18.048 Y-61.5
G1 F3600 X-39.948 Y-61.5 E3178.85024
G0 F12000 X-39.948 Y-62
G1 F3600 X-18.048 Y-62 E3179.76073
G0 F12000 X-18.048 Y-62.5
G1 F3600 X-39.948 Y-62.5 E3180.67123
G0 F12000 X-39.948 Y-63
G1 F3600 X-18.048 Y-63 E3181.58172
G0 F12000 X-18.048 Y-63.5
G1 F3600 X-39.948 Y-63.5 E3182.49222
G0 F12000 X-39.948 Y-64
G1 F3600 X-18.048 Y-64 E3183.40272
G0 F12000 X-18.048 Y-64.5
G1 F3600 X-39.948 Y-64.5 E3184.31321
G0 F12000 X-39.948 Y-65
G1 F3600 X-18.048 Y-65 E3185.22371
G0 F12000 X-18.048 Y-65.5
G1 F3600 X-39.948 Y-65.5 E3186.13421
G0 F12000 X-39.948 Y-66
G1 F3600 X-18.048 Y-66 E3187.0447
G0 F12000 X-18.048 Y-66.5
G1 F3600 X-39.948 Y-66.5 E3187.9552
G0 F12000 X-39.948 Y-67
G1 F3600 X-18.048 Y-67 E3188.86569
G0 F12000 X-18.048 Y-67.5
G1 F3600 X-39.948 Y-67.5 E3189.77619
G0 F12000 X-39.948 Y-68
G1 F3600 X-18.048 Y-68 E3190.68669
G0 F12000 X-18.048 Y-68.5
G1 F3600 X-39.948 Y-68.5 E3191.59718
G0 F12000 X-39.948 Y-69
G1 F3600 X-18.048 Y-69 E3192.50768
G0 F12000 X-18.048 Y-69.5
G1 F3600 X-39.948 Y-69.5 E3193.41818
G0 F12000 X-39.948 Y-70
G1 F3600 X-18.048 Y-70 E3194.32867
G0 F12000 X-18.048 Y-70.5
G1 F3600 X-39.948 Y-70.5 E3195.23917
G0 F12000 X-39.948 Y-71
G1 F3600 X-18.048 Y-71 E3196.14966
G1 F6600 E3192.14966
G1 Z1.05
G0 F12000 X-17.249 Y-72.249
G0 X-16.499 Y-72.999
G0 X-14.499 Y-84.999
G0 X-12.999 Y-84.999
G0 X-12.249 Y-84.249
G0 X-12.249 Y84.25
G0 X-12.749 Y84.75
G0 X-12.249 Y84.25
G0 X-11.749 Y83.75
; TYPE:WALL-INNER
G1 Z0.75
G1 F6600 E3196.24966
G1 F3600 X-11.749 Y-83.749 E3203.21346
G1 X10.75 Y-83.749 E3204.14886
G1 X10.75 Y83.75 E3211.11266
G1 X-11.749 Y83.75 E3212.04806
G0 F12000 X-12.249 Y84.25
G1 F3600 X-12.249 Y-84.249 E3219.05344
G1 X11.25 Y-84.249 E3220.03041
G1 X11.25 Y84.25 E3227.03579
G1 X-12.249 Y84.25 E3228.01276
G0 F12000 X-12.749 Y84.75
; TYPE:WALL-OUTER
G1 F2700 X-12.749 Y-84.749 E3235.05971
G1 X11.75 Y-84.749 E3236.07826
G1 X11.75 Y84.75 E3243.12521
G1 X-12.749 Y84.75 E3244.14376
G0 F12000 X-12.249 Y84.25
G0 X-11.448 Y83
; TYPE:FILL
G1 F3600 X10.449 Y83 E3245.05413
G0 F12000 X10.449 Y82.5
G1 F3600 X-11.448 Y82.5 E3245.9645
G0 F12000 X-11.448 Y82
G1 F3600 X10.449 Y82 E3246.87487
G0 F12000 X10.449 Y81.5
G1 F3600 X-11.448 Y81.5 E3247.78525
G0 F12000 X-11.448 Y81
G1 F3600 X10.449 Y81 E3248.69562
G0 F12000 X10.449 Y80.5
G1 F3600 X-11.448 Y80.5 E3249.60599
G0 F12000 X-11.448 Y80
G1 F3600 X10.449 Y80 E3250.51636
G0 F12000 X10.449 Y79.5
G1 F3600 X-11.448 Y79.5 E3251.42673
G0 F12000 X-11.448 Y79
G1 F3600 X10.449 Y79 E3252.3371
G0 F12000 X10.449 Y78.5
G1 F3600 X-11.448 Y78.5 E3253.24747
G0 F12000 X-11.448 Y78
G1 F3600 X10.449 Y78 E3254.15785
G0 F12000 X10.449 Y77.5
G1 F3600 X-11.448 Y77.5 E3255.06822
G0 F12000 X-11.448 Y77
G1 F3600 X10.449 Y77 E3255.97859
G0 F12000 X10.449 Y76.5
G1 F3600 X-11.448 Y76.5 E3256.88896
G0 F12000 X-11.448 Y76
G1 F3600 X10.449 Y76 E3257.79933
G0 F12000 X10.449 Y75.5
G1 F3600 X-11.448 Y75.5 E3258.7097
G0 F12000 X-11.448 Y75
G1 F3600 X10.449 Y75 E3259.62007
G0 F12000 X10.449 Y74.5
G1 F3600 X-11.448 Y74.5 E3260.53045
G0 F12000 X-11.448 Y74
G1 F3600 X10.449 Y74 E3261.44082
G0 F12000 X10.449 Y73.5
G1 F3600 X-11.448 Y73.5 E3262.35119
G0 F12000 X-11.448 Y73
G1 F3600 X10.449 Y73 E3263.26156
G0 F12000 X10.449 Y72.5
G1 F3600 X-11.448 Y72.5 E3264.17193
G0 F12000 X-11.448 Y72
G1 F3600 X10.449 Y72 E3265.0823
G0 F12000 X10.449 Y71.5
G1 F3600 X-11.448 Y71.5 E3265.99267
G0 F12000 X-11.448 Y71
G1 F3600 X10.449 Y71 E3266.90305
G0 F12000 X10.449 Y70.5
G1 F3600 X-11.448 Y70.5 E3267.81342
G0 F12000 X-11.448 Y70
G1 F3600 X10.449 Y70 E3268.72379
G0 F12000 X10.449 Y69.5
G1 F3600 X-11.448 Y69.5 E3269.63416
G0 F12000 X-11.448 Y69
G1 F3600 X10.449 Y69 E3270.54453
G0 F12000 X10.449 Y68.5
G1 F3600 X-11.448 Y68.5 E3271.4549
G0 F12000 X-11.448 Y68
G1 F3600 X10.449 Y68 E3272.36528
G0 F12000 X10.449 Y67.5
G1 F3600 X-11.448 Y67.5 E3273.27565
G0 F12000 X-11.448 Y67
G1 F3600 X10.449 Y67 E3274.18602
G0 F12000 X10.449 Y66.5
G1 F3600 X-11.448 Y66.5 E3275.09639
G0 F12000 X-11.448 Y66
G1 F3600 X10.449 Y66 E3276.00676
G0 F12000 X10.449 Y65.5
G1 F3600 X-11.448 Y65.5 E3276.91713
G0 F12000 X-11.448 Y65
G1 F3600 X10.449 Y65 E3277.8275
G0 F12000 X10.449 Y64.5
G1 F3600 X-11.448 Y64.5 E3278.73788
G0 F12000 X-11.448 Y64
G1 F3600 X10.449 Y64 E3279.64825
G0 F12000 X10.449 Y63.5
G1 F3600 X-11.448 Y63.5 E3280.55862
G0 F12000 X-11.448 Y63
G1 F3600 X10.449 Y63 E3281.46899
G0 F12000 X10.449 Y62.5
G1 F3600 X-11.448 Y62.5 E3282.37936
G0 F12000 X-11.448 Y62
G1 F3600 X10.449 Y62 E3283.28973
G0 F12000 X10.449 Y61.5
G1 F3600 X-11.448 Y61.5 E3284.2001
G0 F12000 X-11.448 Y61
G1 F3600 X10.449 Y61 E3285.11048
G0 F12000 X10.449 Y60.5
G1 F3600 X-11.448 Y60.5 E3286.02085
G0 F12000 X-11.448 Y60
G1 F3600 X10.449 Y60 E3286.93122
G0 F12000 X10.449 Y59.5
G1 F3600 X-11.448 Y59.5 E3287.84159
G0 F12000 X-11.448 Y59
G1 F3600 X10.449 Y59 E3288.75196
G0 F12000 X10.449 Y58.5
G1 F3600 X-11.448 Y58.5 E3289.66233
G0 F12000 X-11.448 Y58
G1 F3600 X10.449 Y58 E3290.5727
G0 F12000 X10.449 Y57.5
G1 F3600 X-11.448 Y57.5 E3291.48308
G0 F12000 X-11.448 Y57
G1 F3600 X10.449 Y57 E3292.39345
G0 F12000 X10.449 Y56.5
G1 F3600 X-11.448 Y56.5 E3293.30382
G0 F12000 X-11.448 Y56
G1 F3600 X10.449 Y56 E3294.21419
G0 F12000 X10.449 Y55.5
G1 F3600 X-11.448 Y55.5 E3295.12456
G0 F12000 X-11.448 Y55
G1 F3600 X10.449 Y55 E3296.03493
G0 F12000 X10.449 Y54.5
G1 F3600 X-11.448 Y54.5 E3296.9453
G0 F12000 X-11.448 Y54
G1 F3600 X10.449 Y54 E3297.85568
G0 F12000 X10.449 Y53.5
G1 F3600 X-11.448 Y53.5 E3298.76605
G0 F12000 X-11.448 Y53
G1 F3600 X10.449 Y53 E3299.67642
G0 F12000 X10.449 Y52.5
G1 F3600 X-11.448 Y52.5 E3300.58679
G0 F12000 X-11.448 Y52
G1 F3600 X10.449 Y52 E3301.49716
G0 F12000 X10.449 Y51.5
G1 F3600 X-11.448 Y51.5 E3302.40753
G0 F12000 X-11.448 Y51
G1 F3600 X10.449 Y51 E3303.31791
G0 F12000 X10.449 Y50.5
G1 F3600 X-11.448 Y50.5 E3304.22828
G0 F12000 X-11.448 Y50
G1 F3600 X10.449 Y50 E3305.13865
G0 F12000 X10.449 Y49.5
G1 F3600 X-11.448 Y49.5 E3306.04902
G0 F12000 X-11.448 Y49
G1 F3600 X10.449 Y49 E3306.95939
G0 F12000 X10.449 Y48.5
G1 F3600 X-11.448 Y48.5 E3307.86976
G0 F12000 X-11.448 Y48
G1 F3600 X10.449 Y48 E3308.78013
G0 F12000 X10.449 Y47.5
G1 F3600 X-11.448 Y47.5 E3309.69051
G0 F12000 X-11.448 Y47
G1 F3600 X10.449 Y47 E3310.60088
G0 F12000 X10.449 Y46.5
G1 F3600 X-11.448 Y46.5 E3311.51125
G0 F12000 X-11.448 Y46
G1 F3600 X10.449 Y46 E3312.42162
G0 F12000 X10.449 Y45.5
G1 F3600 X-11.448 Y45.5 E3313.33199
G0 F12000 X-11.448 Y45
G1 F3600 X10.449 Y45 E3314.24236
G0 F12000 X10.449 Y44.5
G1 F3600 X-11.448 Y44.5 E3315.15273
G0 F12000 X-11.448 Y44
G1 F3600 X10.449 Y44 E3316.06311
G0 F12000 X10.449 Y43.5
G1 F3600 X-11.448 Y43.5 E3316.97348
G0 F12000 X-11.448 Y43
G1 F3600 X10.449 Y43 E3317.88385
G0 F12000 X10.449 Y42.5
G1 F3600 X-11.448 Y42.5 E3318.79422
G0 F12000 X-11.448 Y42
G1 F3600 X10.449 Y42 E3319.70459
G0 F12000 X10.449 Y41.5
G1 F3600 X-11.448 Y41.5 E3320.61496
G0 F12000 X-11.448 Y41
G1 F3600 X10.449 Y41 E3321.52533
G0 F12000 X10.449 Y40.5
G1 F3600 X-11.448 Y40.5 E3322.43571
G0 F12000 X-11.448 Y40
G1 F3600 X10.449 Y40 E3323.34608
G0 F12000 X10.449 Y39.5
G1 F3600 X-11.448 Y39.5 E3324.25645
G0 F12000 X-11.448 Y39
G1 F3600 X10.449 Y39 E3325.16682
G0 F12000 X10.449 Y38.5
G1 F3600 X-11.448 Y38.5 E3326.07719
G0 F12000 X-11.448 Y38
G1 F3600 X10.449 Y38 E3326.98756
G0 F12000 X10.449 Y37.5
G1 F3600 X-11.448 Y37.5 E3327.89793
G0 F12000 X-11.448 Y37
G1 F3600 X10.449 Y37 E3328.80831
G0 F12000 X10.449 Y36.5
G1 F3600 X-11.448 Y36.5 E3329.71868
G0 F12000 X-11.448 Y36
G1 F3600 X10.449 Y36 E3330.62905
G0 F12000 X10.449 Y35.5
G1 F3600 X-11.448 Y35.5 E3331.53942
G0 F12000 X-11.448 Y35
G1 F3600 X10.449 Y35 E3332.44979
G0 F12000 X10.449 Y34.5
G1 F3600 X-11.448 Y34.5 E3333.36016
G0 F12000 X-11.448 Y34
G1 F3600 X10.449 Y34 E3334.27054
G0 F12000 X10.449 Y33.5
G1 F3600 X-11.448 Y33.5 E3335.18091
G0 F12000 X-11.448 Y33
G1 F3600 X10.449 Y33 E3336.09128
G0 F12000 X10.449 Y32.5
G1 F3600 X-11.448 Y32.5 E3337.00165
G0 F12000 X-11.448 Y32
G1 F3600 X10.449 Y32 E3337.91202
G0 F12000 X10.449 Y31.5
G1 F3600 X-11.448 Y31.5 E3338.82239
G0 F12000 X-11.448 Y31
G1 F3600 X10.449 Y31 E3339.73276
G0 F12000 X10.449 Y30.5
G1 F3600 X-11.448 Y30.5 E3340.64314
G0 F12000 X-11.448 Y30
G1 F3600 X10.449 Y30 E3341.55351
G0 F12000 X10.449 Y29.5
G1 F3600 X-11.448 Y29.5 E3342.46388
G0 F12000 X-11.448 Y29
G1 F3600 X10.449 Y29 E3343.37425
G0 F12000 X10.449 Y28.5
G1 F3600 X-11.448 Y28.5 E3344.28462
G0 F12000 X-11.448 Y28
G1 F3600 X10.449 Y28 E3345.19499
G0 F12000 X10.449 Y27.5
G1 F3600 X-11.448 Y27.5 E3346.10536
G0 F12000 X-11.448 Y27
G1 F3600 X10.449 Y27 E3347.01574
G0 F12000 X10.449 Y26.5
G1 F3600 X-11.448 Y26.5 E3347.92611
G0 F12000 X-11.448 Y26
G1 F3600 X10.449 Y26 E3348.83648
G0 F12000 X10.449 Y25.5
G1 F3600 X-11.448 Y25.5 E3349.74685
G0 F12000 X-11.448 Y25
G1 F3600 X10.449 Y25 E3350.65722
G0 F12000 X10.449 Y24.5
G1 F3600 X-11.448 Y24.5 E3351.56759
G0 F12000 X-11.448 Y24
G1 F3600 X10.449 Y24 E3352.47796
G0 F12000 X10.449 Y23.5
G1 F3600 X-11.448 Y23.5 E3353.38834
G0 F12000 X-11.448 Y23
G1 F3600 X10.449 Y23 E3354.29871
G0 F12000 X10.449 Y22.5
G1 F3600 X-11.448 Y22.5 E3355.20908
G0 F12000 X-11.448 Y22
G1 F3600 X10.449 Y22 E3356.11945
G0 F12000 X10.449 Y21.5
G1 F3600 X-11.448 Y21.5 E3357.02982
G0 F12000 X-11.448 Y21
G1 F3600 X10.449 Y21 E3357.94019
G0 F12000 X10.449 Y20.5
G1 F3600 X-11.448 Y20.5 E3358.85056
G0 F12000 X-11.448 Y20
G1 F3600 X10.449 Y20 E3359.76094
G0 F12000 X10.449 Y19.5
G1 F3600 X-11.448 Y19.5 E3360.67131
G0 F12000 X-11.448 Y19
G1 F3600 X10.449 Y19 E3361.58168
G0 F12000 X10.449 Y18.5
G1 F3600 X-11.448 Y18.5 E3362.49205
G0 F12000 X-11.448 Y18
G1 F3600 X10.449 Y18 E3363.40242
G0 F12000 X10.449 Y17.5
G1 F3600 X-11.448 Y17.5 E3364.31279
G0 F12000 X-11.448 Y17
G1 F3600 X10.449 Y17 E3365.22317
G0 F12000 X10.449 Y16.5
G1 F3600 X-11.448 Y16.5 E3366.13354
G0 F12000 X-11.448 Y16
G1 F3600 X10.449 Y16 E3367.04391
G0 F12000 X10.449 Y15.5
G1 F3600 X-11.448 Y15.5 E3367.95428
G0 F12000 X-11.448 Y15
G1 F3600 X10.449 Y15 E3368.86465
G0 F12000 X10.449 Y14.5
G1 F3600 X-11.449 Y14.5 E3369.77506
G0 F12000 X-11.449 Y14
G1 F3600 X10.449 Y14 E3370.68548
G0 F12000 X10.449 Y13.5
G1 F3600 X-11.449 Y13.5 E3371.59589
G0 F12000 X-11.449 Y13
