; Generated with MatterSlice 1.0
; filamentDiameter = 1.75
; extrusionWidth = 0.5
; firstLayerExtrusionWidth = 0.5
; layerThickness = 0.2
; firstLayerThickness = 0.3
; automatic settings before start_gcode
G21 ; set units to millimeters
M107 ; fan off
T0 ; set the active extruder to 0
; settings from start_gcode
M104 S215
M190 S60
M109 S215
G28
; automatic settings after start_gcode
T0 ; set the active extruder to 0
G90 ; use absolute coordinates
G92 E0 ; reset the expected extruder position
M82 ; use absolute distance for extrusion
; Layer count: 127
; Layer Change GCode
; LAYER:0
M400
M107
G0 F12000 X98.011 Y98.25 Z0.7
; TYPE:SKIRT
G1 Z0.4
G1 F6600 E0
G1 F600 X-98.011 Y98.25 E12.22447
G1 X-98.011 Y-98.249 E24.47869
G1 X98.011 Y-98.249 E36.70316
G1 X98.011 Y98.25 E48.95738
G0 F12000 X97.511 Y97.75
G1 F600 X-97.511 Y97.75 E61.11949
G1 X-97.511 Y-97.749 E73.31135
G1 X97.511 Y-97.749 E85.47345
G1 X97.511 Y97.75 E97.66531
G0 F12000 X97.011 Y97.25
G1 F600 X-97.011 Y97.25 E109.76506
G1 X-97.011 Y-97.249 E121.89455
G1 X97.011 Y-97.249 E133.9943
G1 X97.011 Y97.25 E146.12379
G0 F12000 X96.511 Y96.75
G1 F600 X-96.511 Y96.75 E158.16117
G1 X-96.511 Y-96.749 E170.2283
G1 X96.511 Y-96.749 E182.26569
G1 X96.511 Y96.75 E194.33282
G0 F12000 X96.011 Y96.25
G1 F600 X-96.011 Y96.25 E206.30784
G1 X-96.011 Y-96.249 E218.3126
G1 X96.011 Y-96.249 E230.28762
G1 X96.011 Y96.25 E242.29239
G0 F12000 X95.511 Y95.75
G1 F600 X-95.511 Y95.75 E254.20505
G1 X-95.511 Y-95.749 E266.14746
G1 X95.511 Y-95.749 E278.06011
G1 X95.511 Y95.75 E290.00252
G0 F12000 X95.011 Y95.25
G1 F600 X-95.011 Y95.25 E301.85281
G1 X-95.011 Y-95.249 E313.73286
G1 X95.011 Y-95.249 E325.58315
G1 X95.011 Y95.25 E337.46319
G0 F12000 X94.511 Y94.75
G1 F600 X-94.511 Y94.75 E349.25112
G1 X-94.511 Y-94.749 E361.0688
G1 X94.511 Y-94.749 E372.85674
G1 X94.511 Y94.75 E384.67442
G0 F12000 X94.011 Y94.25
G1 F600 X-94.011 Y94.25 E396.39999
G1 X-94.011 Y-94.249 E408.1553
G1 X94.011 Y-94.249 E419.88087
G1 X94.011 Y94.25 E431.63619
G0 F12000 X93.511 Y93.75
G1 F600 X-93.511 Y93.75 E443.29939
G1 X-93.511 Y-93.749 E454.99235
G1 X93.511 Y-93.749 E466.65556
G1 X93.511 Y93.75 E478.34851
G1 F6600 E471.54851
G1 Z0.7
G0 F12000 X93.261 Y93.5
G0 X92.511 Y92.75
G0 X92.511 Y-92.749
G0 X69.511 Y-85.975
G0 X69.511 Y-68.249
G0 X18.011 Y-68.249
G0 X18.011 Y-68.749
G0 X18.511 Y-68.749
; TYPE:WALL-OUTER
G1 Z0.4
G1 F6600 E478.44851
G1 F600 X69.011 Y-68.749 E481.59783
G1 X69.011 Y-85.993 E482.67321
G1 X69.146 Y-87.365 E482.75919
G1 X69.555 Y-88.746 E482.84901
G1 X70.218 Y-89.997 E482.9373
G1 X71.114 Y-91.1 E483.02592
G1 X72.206 Y-92.004 E483.11433
G1 X73.454 Y-92.678 E483.20278
G1 X74.809 Y-93.096 E483.29122
G1 X76.235 Y-93.245 E483.38063
G1 X93.011 Y-93.249 E484.42683
G1 X93.011 Y93.25 E496.05742
G1 X-93.011 Y93.25 E507.65826
G1 X-93.011 Y-93.249 E519.28885
G1 X8.75 Y-93.249 E525.63495
G1 X10.456 Y-93.1 E525.74175
G1 X12.091 Y-92.661 E525.84732
G1 X13.638 Y-91.94 E525.95376
G1 X15.026 Y-90.968 E526.05943
G1 X16.231 Y-89.763 E526.16571
G1 X17.203 Y-88.376 E526.27133
G1 X17.924 Y-86.828 E526.37782
G1 X18.362 Y-85.194 E526.48332
G1 X18.503 Y-83.575 E526.58467
G1 X18.511 Y-68.749 E527.50926
G0 F12000 X18.011 Y-68.749
G0 X18.011 Y-68.249
; TYPE:WALL-INNER
G1 F600 X69.511 Y-68.249 E530.72094
G1 X69.511 Y-85.975 E531.82638
G1 X69.638 Y-87.268 E531.90741
G1 X70.019 Y-88.554 E531.99105
G1 X70.638 Y-89.721 E532.07343
G1 X71.47 Y-90.745 E532.15571
G1 X72.486 Y-91.586 E532.23796
G1 X73.649 Y-92.215 E532.32042
G1 X74.911 Y-92.605 E532.40279
G1 X76.259 Y-92.745 E532.48731
G1 X92.511 Y-92.749 E533.50083
G1 X92.511 Y92.75 E545.06906
G1 X-92.511 Y92.75 E556.60754
G1 X-92.511 Y-92.749 E568.17577
G1 X8.73 Y-92.749 E574.48944
G1 X10.369 Y-92.606 E574.59204
G1 X11.921 Y-92.189 E574.69226
G1 X13.388 Y-91.505 E574.7932
G1 X14.706 Y-90.582 E574.89354
G1 X15.845 Y-89.443 E574.994
G1 X16.768 Y-88.126 E575.09429
G1 X17.452 Y-86.658 E575.19529
G1 X17.868 Y-85.106 E575.29549
G1 X18.003 Y-83.555 E575.39258
G1 X18.011 Y-68.249 E576.34711
G1 F6600 E569.54711
G1 Z0.7
G0 F12000 X10.28 Y-92.112
G1 Z0.4
G1 F6600 E576.44711
G1 F600 X11.751 Y-91.717 E576.54209
G1 X13.133 Y-91.072 E576.6372
G1 X14.382 Y-90.198 E576.73227
G1 X15.461 Y-89.119 E576.82743
G1 X16.335 Y-87.871 E576.92245
G1 X16.98 Y-86.487 E577.01767
G1 X17.373 Y-85.019 E577.11244
G1 X17.503 Y-83.534 E577.20541
G1 X17.512 Y-67.749 E578.1898
G1 X70.011 Y-67.749 E581.46379
G1 X70.011 Y-85.946 E582.5986
G1 X70.132 Y-87.176 E582.67568
G1 X70.485 Y-88.365 E582.75302
G1 X71.055 Y-89.442 E582.82902
G1 X71.826 Y-90.391 E582.90527
G1 X72.766 Y-91.169 E582.98136
G1 X73.848 Y-91.754 E583.05807
G1 X75.011 Y-92.113 E583.13398
G1 X76.281 Y-92.245 E583.2136
G1 X92.011 Y-92.249 E584.19457
G1 X92.011 Y92.25 E595.70043
G1 X-88.457 Y92.25 E606.95492
G0 F12000 X-88.457 Y92.079
G1 F600 X-89.237 Y92.13 E607.02696
G1 X-90.017 Y92.079 E607.09901
G0 F12000 X-90.017 Y92.25
G1 F600 X-92.011 Y92.25 E607.22336
G1 X-92.011 Y90.505 E607.33219
G0 F12000 X-91.927 Y90.505
G1 F600 X-92.011 Y90.102 E607.35786
G0 F12000 X-91.844 Y90.505
G1 F600 X-91.365 Y91.128 E607.40687
G1 X-90.743 Y91.607 E607.45582
G1 X-90.017 Y91.908 E607.50484
G0 F12000 X-88.457 Y91.908
G1 F600 X-87.732 Y91.607 E607.55379
G1 X-87.108 Y91.129 E607.60281
G1 X-86.629 Y90.505 E607.65187
G1 X-86.328 Y89.777 E607.701
G1 X-86.226 Y89 E607.74987
G1 X-86.328 Y88.221 E607.79886
G1 X-86.629 Y87.495 E607.84788
G1 X-87.107 Y86.87 E607.89695
G1 X-87.732 Y86.392 E607.94601
G1 X-88.458 Y86.091 E607.99503
G1 X-89.237 Y85.989 E608.04402
G1 X-90.016 Y86.091 E608.09302
G1 X-90.743 Y86.392 E608.14209
G1 X-91.366 Y86.871 E608.1911
G1 X-91.844 Y87.495 E608.24012
G0 F12000 X-91.927 Y87.495
G1 F600 X-92.011 Y87.897 E608.26573
G0 F12000 X-92.011 Y87.495
G1 F600 X-92.011 Y1.505 E613.6283
G0 F12000 X-91.927 Y1.505
G1 F600 X-92.011 Y1.103 E613.65391
G0 F12000 X-91.844 Y1.505
G1 F600 X-91.365 Y2.13 E613.70302
G1 X-90.742 Y2.607 E613.75195
G1 X-90.017 Y2.908 E613.80091
G1 X-89.237 Y3.011 E613.84997
G1 X-88.457 Y2.908 E613.89904
G1 X-87.733 Y2.607 E613.94793
G1 X-87.108 Y2.13 E613.99696
G1 X-86.629 Y1.505 E614.04607
G1 X-86.328 Y0.779 E614.09508
G1 X-86.226 Y0 E614.14408
G1 X-86.328 Y-0.777 E614.19295
G1 X-86.629 Y-1.504 E614.24202
G1 X-87.108 Y-2.128 E614.29108
G1 X-87.732 Y-2.606 E614.3401
G1 X-88.457 Y-2.907 E614.38905
G1 X-89.237 Y-3.01 E614.43812
G1 X-90.017 Y-2.907 E614.48718
G1 X-90.743 Y-2.606 E614.5362
G1 X-91.365 Y-2.127 E614.58515
G1 X-91.844 Y-1.504 E614.63416
G0 F12000 X-91.927 Y-1.504
G1 F600 X-92.011 Y-1.101 E614.65983
G0 F12000 X-92.011 Y-1.504
G1 F600 X-92.011 Y-87.494 E620.02241
G0 F12000 X-91.927 Y-87.494
G1 F600 X-92.011 Y-87.896 E620.04802
G0 F12000 X-91.844 Y-87.494
G1 F600 X-91.366 Y-86.87 E620.09704
G1 X-90.743 Y-86.391 E620.14605
G1 X-90.016 Y-86.09 E620.19512
G1 X-89.237 Y-85.988 E620.24411
G1 X-88.458 Y-86.09 E620.29311
G1 X-87.732 Y-86.391 E620.34212
G1 X-87.107 Y-86.869 E620.39119
G1 X-86.629 Y-87.494 E620.44026
G1 X-86.328 Y-88.22 E620.48927
G1 X-86.226 Y-88.999 E620.53827
G1 X-86.328 Y-89.776 E620.58714
G1 X-86.629 Y-90.504 E620.63627
G1 X-87.108 Y-91.128 E620.68532
G1 X-87.732 Y-91.606 E620.73434
G1 X-88.457 Y-91.907 E620.7833
G0 F12000 X-88.457 Y-92.078
G1 F600 X-89.237 Y-92.129 E620.85535
G1 X-90.017 Y-92.078 E620.92739
G0 F12000 X-90.017 Y-91.907
G1 F600 X-90.743 Y-91.606 E620.97641
G1 X-91.365 Y-91.127 E621.02536
G1 X-91.844 Y-90.504 E621.07437
G0 F12000 X-91.927 Y-90.504
G1 F600 X-92.011 Y-90.101 E621.10004
G0 F12000 X-92.011 Y-90.504
G1 F600 X-92.011 Y-92.249 E621.20887
G1 X-90.017 Y-92.249 E621.33322
G0 F12000 X-88.457 Y-92.249
G1 F600 X8.709 Y-92.249 E627.39276
G1 X10.28 Y-92.112 E627.4911
G1 F6600 E620.6911
G1 Z0.7
G0 F12000 X-7.002 Y-81.485
G0 X-7.606 Y-81.234
G0 X-8.255 Y-81.148
G0 X-8.32 Y-81.156
G0 X-8.255 Y-81.653
; TYPE:WALL-OUTER
G1 Z0.4
G1 F6600 E627.5911
G1 F600 X-7.737 Y-81.721 E627.62368
G1 X-7.254 Y-81.922 E627.65631
G1 X-6.839 Y-82.24 E627.68891
G1 X-6.521 Y-82.654 E627.72147
G1 X-6.32 Y-83.137 E627.75409
G1 X-6.253 Y-83.657 E627.78679
G1 X-6.33 Y-84.196 E627.82075
G1 X-6.521 Y-84.656 E627.85181
G1 X-6.839 Y-85.071 E627.88441
G1 X-7.254 Y-85.389 E627.91702
G1 X-7.737 Y-85.59 E627.94964
G1 X-8.255 Y-85.657 E627.98222
G1 X-8.773 Y-85.59 E628.01479
G1 X-9.256 Y-85.389 E628.04741
G1 X-9.67 Y-85.071 E628.07997
G1 X-9.988 Y-84.656 E628.11257
G1 X-10.189 Y-84.173 E628.1452
G1 X-10.257 Y-83.655 E628.17778
G1 X-10.189 Y-83.137 E628.21036
G1 X-9.988 Y-82.654 E628.24299
G1 X-9.67 Y-82.24 E628.27554
G1 X-9.256 Y-81.922 E628.3081
G1 X-8.773 Y-81.721 E628.34072
G1 X-8.255 Y-81.653 E628.3733
G0 F12000 X-8.32 Y-81.156
G0 X-8.255 Y-81.148
; TYPE:WALL-INNER
G1 F600 X-7.606 Y-81.234 E628.41413
G1 X-7.002 Y-81.485 E628.45492
G1 X-6.482 Y-81.883 E628.49576
G1 X-6.084 Y-82.402 E628.53655
G1 X-5.833 Y-83.007 E628.57739
G1 X-5.748 Y-83.66 E628.61846
G1 X-5.844 Y-84.329 E628.66061
G1 X-6.084 Y-84.908 E628.6997
G1 X-6.482 Y-85.428 E628.74053
G1 X-7.002 Y-85.826 E628.78137
G1 X-7.607 Y-86.077 E628.82222
G1 X-8.255 Y-86.161 E628.86297
G1 X-8.903 Y-86.077 E628.90372
G1 X-9.508 Y-85.826 E628.94456
G1 X-10.027 Y-85.428 E628.98535
G1 X-10.425 Y-84.908 E629.02619
G1 X-10.676 Y-84.304 E629.06698
G1 X-10.762 Y-83.655 E629.10781
G1 X-10.676 Y-83.006 E629.14863
G1 X-10.425 Y-82.402 E629.18942
G1 X-10.027 Y-81.883 E629.23021
G1 X-9.508 Y-81.485 E629.271
G1 X-8.904 Y-81.234 E629.31179
G1 X-8.255 Y-81.148 E629.35261
G0 F12000 X-8.255 Y-80.644
G1 F600 X-7.475 Y-80.747 E629.40168
G1 X-6.75 Y-81.048 E629.45063
G1 X-6.126 Y-81.526 E629.49965
G1 X-5.647 Y-82.149 E629.54866
G1 X-5.346 Y-82.876 E629.59773
G1 X-5.243 Y-83.663 E629.64723
G1 X-5.358 Y-84.462 E629.69757
G1 X-5.647 Y-85.16 E629.74468
G1 X-6.125 Y-85.785 E629.79375
G1 X-6.75 Y-86.263 E629.84282
G1 X-7.476 Y-86.564 E629.89184
G1 X-8.255 Y-86.666 E629.94083
G1 X-9.034 Y-86.564 E629.98983
G1 X-9.761 Y-86.263 E630.0389
G1 X-10.384 Y-85.784 E630.0879
G1 X-10.862 Y-85.16 E630.13692
G1 X-11.163 Y-84.435 E630.18588
G1 X-11.266 Y-83.655 E630.23494
G1 X-11.163 Y-82.875 E630.28401
G1 X-10.862 Y-82.149 E630.33302
G1 X-10.383 Y-81.527 E630.38198
G1 X-9.761 Y-81.048 E630.43094
G1 X-9.035 Y-80.747 E630.47995
G1 X-8.255 Y-80.644 E630.52902
G1 F6600 E623.72902
G1 Z0.7
G0 F12000 X20.558 Y-60.549
G0 X21.38 Y-60.208
G0 X22.195 Y-60.099
G0 X22.261 Y-60.596
; TYPE:WALL-OUTER
G1 Z0.4
G1 F6600 E630.62902
G1 F600 X23.012 Y-60.695 E630.67626
G1 X23.712 Y-60.986 E630.72353
G1 X24.313 Y-61.447 E630.77077
G1 X24.774 Y-62.047 E630.81796
G1 X25.065 Y-62.748 E630.86529
G1 X25.163 Y-63.499 E630.91252
G1 X25.065 Y-64.249 E630.95969
G1 X24.774 Y-64.949 E631.00697
G1 X24.313 Y-65.55 E631.0542
G1 X23.712 Y-66.011 E631.10144
G1 X23.012 Y-66.302 E631.14871
G1 X22.261 Y-66.401 E631.19595
G1 X21.511 Y-66.302 E631.24313
G1 X20.81 Y-66.011 E631.29046
G1 X20.21 Y-65.55 E631.33765
G1 X19.748 Y-64.949 E631.38493
G1 X19.458 Y-64.249 E631.43218
G1 X19.359 Y-63.499 E631.47936
G1 X19.458 Y-62.748 E631.5266
G1 X19.748 Y-62.047 E631.5739
G1 X20.21 Y-61.447 E631.62113
G1 X20.81 Y-60.986 E631.66832
G1 X21.511 Y-60.695 E631.71565
G1 X22.261 Y-60.596 E631.76283
G0 F12000 X22.195 Y-60.099
G0 X22.261 Y-60.091
; TYPE:WALL-INNER
G1 F600 X23.143 Y-60.208 E631.81831
G1 X23.964 Y-60.549 E631.87375
G1 X24.67 Y-61.09 E631.92922
G1 X25.211 Y-61.795 E631.98464
G1 X25.552 Y-62.617 E632.04014
G1 X25.667 Y-63.499 E632.09561
G1 X25.552 Y-64.38 E632.15102
G1 X25.211 Y-65.201 E632.20646
G1 X24.67 Y-65.907 E632.26193
G1 X23.964 Y-66.448 E632.31739
G1 X23.143 Y-66.789 E632.37283
G1 X22.261 Y-66.906 E632.42832
G1 X21.38 Y-66.789 E632.48374
G1 X20.558 Y-66.448 E632.53924
G1 X19.853 Y-65.907 E632.59466
G1 X19.311 Y-65.201 E632.65017
G1 X18.971 Y-64.38 E632.70558
G1 X18.854 Y-63.499 E632.76101
G1 X18.971 Y-62.617 E632.81649
G1 X19.311 Y-61.795 E632.87197
G1 X19.853 Y-61.09 E632.92743
G1 X20.558 Y-60.549 E632.98284
G1 X21.38 Y-60.208 E633.03834
G1 X22.261 Y-60.091 E633.09377
G0 F12000 X22.261 Y-59.587
G1 F600 X23.274 Y-59.721 E633.15749
G1 X24.216 Y-60.112 E633.2211
G1 X25.026 Y-60.733 E633.28475
G1 X25.648 Y-61.542 E633.34839
G1 X26.039 Y-62.487 E633.41216
G1 X26.172 Y-63.499 E633.47582
G1 X26.039 Y-64.51 E633.53941
G1 X25.648 Y-65.453 E633.60307
G1 X25.027 Y-66.264 E633.66677
G1 X24.216 Y-66.885 E633.73047
G1 X23.274 Y-67.276 E633.79408
G1 X22.261 Y-67.41 E633.8578
G1 X21.249 Y-67.276 E633.92146
G1 X20.305 Y-66.885 E633.98518
G1 X19.497 Y-66.264 E634.04874
G1 X18.874 Y-65.453 E634.11251
G1 X18.484 Y-64.51 E634.17615
G1 X18.35 Y-63.499 E634.23975
G1 X18.484 Y-62.487 E634.30341
G1 X18.874 Y-61.542 E634.36717
G1 X19.497 Y-60.733 E634.43085
G1 X20.305 Y-60.112 E634.4944
G1 X21.249 Y-59.721 E634.55812
G1 X22.261 Y-59.587 E634.62178
G1 F6600 E627.82178
G1 Z0.7
G0 F12000 X18.854 Y-13.499
G0 X18.971 Y-12.617
G0 X19.311 Y-11.796
G0 X19.853 Y-11.09
G0 X20.558 Y-10.549
G0 X21.38 Y-10.208
G0 X22.195 Y-10.099
G0 X22.261 Y-10.596
; TYPE:WALL-OUTER
G1 Z0.4
G1 F6600 E634.72178
G1 F600 X23.012 Y-10.695 E634.76902
G1 X23.712 Y-10.986 E634.8163
G1 X24.313 Y-11.447 E634.86353
G1 X24.774 Y-12.048 E634.91077
G1 X25.065 Y-12.748 E634.95804
G1 X25.163 Y-13.499 E635.00528
G1 X25.065 Y-14.249 E635.05245
G1 X24.774 Y-14.949 E635.09972
G1 X24.313 Y-15.55 E635.14696
G1 X23.712 Y-16.011 E635.19419
G1 X23.012 Y-16.302 E635.24147
G1 X22.261 Y-16.401 E635.28871
G1 X21.511 Y-16.302 E635.33589
G1 X20.81 Y-16.011 E635.38322
G1 X20.21 Y-15.55 E635.43041
G1 X19.748 Y-14.949 E635.47768
G1 X19.458 Y-14.249 E635.52493
G1 X19.359 Y-13.499 E635.57211
G1 X19.458 Y-12.748 E635.61935
G1 X19.748 Y-12.048 E635.6666
G1 X20.21 Y-11.447 E635.71388
G1 X20.81 Y-10.986 E635.76106
G1 X21.511 Y-10.695 E635.8084
G1 X22.261 Y-10.596 E635.85558
G0 F12000 X22.195 Y-10.099
G0 X22.261 Y-10.091
; TYPE:WALL-INNER
G1 F600 X23.143 Y-10.208 E635.91106
G1 X23.964 Y-10.549 E635.9665
G1 X24.67 Y-11.09 E636.02197
G1 X25.211 Y-11.796 E636.07744
G1 X25.552 Y-12.617 E636.13288
G1 X25.667 Y-13.499 E636.18835
G1 X25.552 Y-14.38 E636.24376
G1 X25.211 Y-15.201 E636.2992
G1 X24.67 Y-15.907 E636.35466
G1 X23.964 Y-16.448 E636.41013
G1 X23.143 Y-16.789 E636.46557
G1 X22.261 Y-16.906 E636.52106
G1 X21.38 Y-16.789 E636.57648
G1 X20.558 Y-16.448 E636.63198
G1 X19.853 Y-15.907 E636.6874
G1 X19.311 Y-15.201 E636.74291
G1 X18.971 Y-14.38 E636.79832
G1 X18.854 Y-13.499 E636.85375
G1 X18.971 Y-12.617 E636.90923
G1 X19.311 Y-11.796 E636.96465
G1 X19.853 Y-11.09 E637.02016
G1 X20.558 Y-10.549 E637.07558
G1 X21.38 Y-10.208 E637.13107
G1 X22.261 Y-10.091 E637.1865
G0 F12000 X22.261 Y-9.587
G1 F600 X23.274 Y-9.721 E637.25022
G1 X24.216 Y-10.112 E637.31383
G1 X25.027 Y-10.733 E637.37753
G1 X25.648 Y-11.544 E637.44123
G1 X26.039 Y-12.487 E637.50489
G1 X26.172 Y-13.499 E637.56854
G1 X26.039 Y-14.51 E637.63214
G1 X25.648 Y-15.453 E637.6958
G1 X25.027 Y-16.264 E637.7595
G1 X24.216 Y-16.885 E637.8232
G1 X23.274 Y-17.276 E637.88681
G1 X22.261 Y-17.41 E637.95053
G1 X21.249 Y-17.276 E638.01419
G1 X20.305 Y-16.885 E638.07791
G1 X19.497 Y-16.264 E638.14146
G1 X18.874 Y-15.453 E638.20524
G1 X18.484 Y-14.51 E638.26888
G1 X18.35 Y-13.499 E638.33248
G1 X18.484 Y-12.487 E638.39614
G1 X18.874 Y-11.544 E638.45978
G1 X19.497 Y-10.733 E638.52356
G1 X20.305 Y-10.112 E638.58711
G1 X21.249 Y-9.721 E638.65083
G1 X22.261 Y-9.587 E638.71449
G1 F6600 E631.91449
G1 Z0.7
G0 F12000 X37.011 Y43.75
G0 X37.511 Y43.75
; TYPE:WALL-OUTER
G1 Z0.4
G1 F6600 E638.81449
G1 F600 X73.511 Y43.75 E641.05955
G1 X73.511 Y-1.249 E643.86581
G1 X37.511 Y-1.249 E646.11087
G1 X37.511 Y43.75 E648.91713
G0 F12000 X37.011 Y43.75
G0 X37.011 Y44.25
; TYPE:WALL-INNER
G1 F600 X74.011 Y44.25 E651.22455
G1 X74.011 Y-1.749 E654.09318
G1 X37.011 Y-1.749 E656.4006
G1 X37.011 Y44.25 E659.26922
G0 F12000 X36.511 Y44.75
G1 F600 X74.511 Y44.75 E661.63901
G1 X74.511 Y-2.249 E664.57
G1 X36.511 Y-2.249 E666.93978
G1 X36.511 Y44.75 E669.87077
G1 F6600 E663.07077
G1 Z0.7
G0 F12000 X-8.487 Y71.75
G0 X-14.987 Y71.75
G0 X-14.987 Y71.25
G0 X-14.487 Y71.25
; TYPE:WALL-OUTER
G1 Z0.4
G1 F6600 E669.97077
G1 F600 X-8.987 Y71.25 E670.31376
G1 X-8.987 Y15.75 E673.7749
G1 X-14.487 Y15.75 E674.11789
G1 X-14.487 Y71.25 E677.57902
G0 F12000 X-14.987 Y71.25
G0 X-14.987 Y71.75
; TYPE:WALL-INNER
G1 F600 X-8.487 Y71.75 E677.98438
G1 X-8.487 Y15.25 E681.50788
G1 X-14.987 Y15.25 E681.91324
G1 X-14.987 Y71.75 E685.43673
G0 F12000 X-15.487 Y72.25
G1 F600 X-7.987 Y72.25 E685.90445
G1 X-7.987 Y14.75 E689.49031
G1 X-15.487 Y14.75 E689.95803
G1 X-15.487 Y72.25 E693.54389
G0 F12000 X-24.987 Y71.75
G0 X-24.987 Y71.25
G0 X-24.487 Y71.25
; TYPE:WALL-OUTER
G1 F600 X-18.987 Y71.25 E693.88688
G1 X-18.987 Y15.75 E697.34802
G1 X-24.487 Y15.75 E697.69101
G1 X-24.487 Y71.25 E701.15214
G0 F12000 X-24.987 Y71.25
G0 X-24.987 Y71.75
; TYPE:WALL-INNER
G1 F600 X-18.487 Y71.75 E701.5575
G1 X-18.487 Y15.25 E705.081
G1 X-24.987 Y15.25 E705.48636
G1 X-24.987 Y71.75 E709.00985
G0 F12000 X-25.487 Y72.25
G1 F600 X-17.987 Y72.25 E709.47757
G1 X-17.987 Y14.75 E713.06343
G1 X-25.487 Y14.75 E713.53115
G1 X-25.487 Y72.25 E717.11701
G0 F12000 X-34.987 Y71.75
G0 X-34.987 Y71.25
G0 X-34.487 Y71.25
; TYPE:WALL-OUTER
G1 F600 X-28.987 Y71.25 E717.46
G1 X-28.987 Y15.75 E720.92114
G1 X-34.487 Y15.75 E721.26413
G1 X-34.487 Y71.25 E724.72527
G0 F12000 X-34.987 Y71.25
G0 X-34.987 Y71.75
; TYPE:WALL-INNER
G1 F600 X-28.487 Y71.75 E725.13062
G1 X-28.487 Y15.25 E728.65412
G1 X-34.987 Y15.25 E729.05948
G1 X-34.987 Y71.75 E732.58297
G0 F12000 X-35.487 Y72.25
G1 F600 X-27.987 Y72.25 E733.05069
G1 X-27.987 Y14.75 E736.63655
G1 X-35.487 Y14.75 E737.10427
G1 X-35.487 Y72.25 E740.69013
G0 F12000 X-44.987 Y71.75
G0 X-44.987 Y71.25
G0 X-44.487 Y71.25
; TYPE:WALL-OUTER
G1 F600 X-38.987 Y71.25 E741.03313
G1 X-38.987 Y15.75 E744.49426
G1 X-44.487 Y15.75 E744.83725
G1 X-44.487 Y71.25 E748.29839
G0 F12000 X-44.987 Y71.25
G0 X-44.987 Y71.75
; TYPE:WALL-INNER
G1 F600 X-38.487 Y71.75 E748.70374
G1 X-38.487 Y15.25 E752.22724
G1 X-44.987 Y15.25 E752.6326
G1 X-44.987 Y71.75 E756.15609
G0 F12000 X-45.487 Y72.25
G1 F600 X-37.987 Y72.25 E756.62381
G1 X-37.987 Y14.75 E760.20967
G1 X-45.487 Y14.75 E760.67739
G1 X-45.487 Y72.25 E764.26325
G0 F12000 X-54.987 Y71.75
G0 X-54.987 Y71.25
G0 X-54.487 Y71.25
; TYPE:WALL-OUTER
G1 F600 X-48.987 Y71.25 E764.60625
G1 X-48.987 Y15.75 E768.06738
G1 X-54.487 Y15.75 E768.41037
G1 X-54.487 Y71.25 E771.87151
G0 F12000 X-54.987 Y71.25
G0 X-54.987 Y71.75
; TYPE:WALL-INNER
G1 F600 X-48.487 Y71.75 E772.27686
G1 X-48.487 Y15.25 E775.80036
G1 X-54.987 Y15.25 E776.20572
G1 X-54.987 Y71.75 E779.72921
G0 F12000 X-55.487 Y72.25
G1 F600 X-47.987 Y72.25 E780.19693
G1 X-47.987 Y14.75 E783.78279
G1 X-55.487 Y14.75 E784.25051
G1 X-55.487 Y72.25 E787.83637
G0 F12000 X-64.987 Y71.75
G0 X-64.987 Y71.25
G0 X-64.487 Y71.25
; TYPE:WALL-OUTER
G1 F600 X-58.987 Y71.25 E788.17937
G1 X-58.987 Y15.75 E791.6405
G1 X-64.487 Y15.75 E791.98349
G1 X-64.487 Y71.25 E795.44463
G0 F12000 X-64.987 Y71.25
G0 X-64.987 Y71.75
; TYPE:WALL-INNER
G1 F600 X-58.487 Y71.75 E795.84999
G1 X-58.487 Y15.25 E799.37348
G1 X-64.987 Y15.25 E799.77884
G1 X-64.987 Y71.75 E803.30233
G0 F12000 X-65.487 Y72.25
G1 F600 X-57.987 Y72.25 E803.77005
G1 X-57.987 Y14.75 E807.35591
G1 X-65.487 Y14.75 E807.82363
G1 X-65.487 Y72.25 E811.40949
G1 F6600 E804.60949
G1 Z0.7
G0 F12000 X-87.464 Y90.772
G0 X-87.984 Y91.17
G0 X-88.588 Y91.421
G0 X-89.237 Y91.507
G0 X-89.302 Y91.499
G0 X-89.237 Y91.002
; TYPE:WALL-OUTER
G1 Z0.4
G1 F6600 E811.50949
G1 F600 X-88.719 Y90.934 E811.54207
G1 X-88.236 Y90.733 E811.5747
G1 X-87.821 Y90.415 E811.6073
G1 X-87.503 Y90.001 E811.63986
G1 X-87.302 Y89.517 E811.67254
G1 X-87.235 Y89 E811.70505
G1 X-87.302 Y88.482 E811.73763
G1 X-87.503 Y87.999 E811.77025
G1 X-87.821 Y87.584 E811.80286
G1 X-88.236 Y87.266 E811.83546
G1 X-88.719 Y87.065 E811.86809
G1 X-89.237 Y86.998 E811.90066
G1 X-89.755 Y87.065 E811.93323
G1 X-90.238 Y87.266 E811.96586
G1 X-90.652 Y87.584 E811.99841
G1 X-90.97 Y87.999 E812.03102
G1 X-91.171 Y88.482 E812.06364
G1 X-91.239 Y89 E812.09622
G1 X-91.171 Y89.517 E812.12874
G1 X-90.97 Y90.001 E812.16143
G1 X-90.652 Y90.415 E812.19398
G1 X-90.238 Y90.733 E812.22654
G1 X-89.755 Y90.934 E812.25916
G1 X-89.237 Y91.002 E812.29174
G0 F12000 X-89.302 Y91.499
G0 X-89.237 Y91.507
; TYPE:WALL-INNER
G1 F600 X-88.588 Y91.421 E812.33257
G1 X-87.984 Y91.17 E812.37336
G1 X-87.464 Y90.772 E812.4142
G1 X-87.066 Y90.253 E812.45499
G1 X-86.815 Y89.647 E812.49589
G1 X-86.731 Y89 E812.53658
G1 X-86.815 Y88.352 E812.57733
G1 X-87.066 Y87.747 E812.61818
G1 X-87.464 Y87.227 E812.65901
G1 X-87.984 Y86.829 E812.69985
G1 X-88.589 Y86.578 E812.7407
G1 X-89.237 Y86.494 E812.78145
G1 X-89.885 Y86.578 E812.8222
G1 X-90.49 Y86.829 E812.86304
G1 X-91.009 Y87.227 E812.90383
G1 X-91.407 Y87.747 E812.94467
G1 X-91.658 Y88.351 E812.98546
G1 X-91.744 Y89 E813.02629
G1 X-91.658 Y89.648 E813.06705
G1 X-91.407 Y90.253 E813.1079
G1 X-91.009 Y90.772 E813.14869
G1 X-90.49 Y91.17 E813.18947
G1 X-89.886 Y91.421 E813.23026
G1 X-89.237 Y91.507 E813.27109
G1 F6600 E806.47109
G1 Z0.7
G0 F12000 X-0.302 Y91.499
G0 X-0.237 Y91.002
; TYPE:WALL-OUTER
G1 Z0.4
G1 F6600 E813.37109
G1 F600 X0.28 Y90.934 E813.40361
G1 X0.763 Y90.733 E813.43624
G1 X1.177 Y90.415 E813.46879
G1 X1.495 Y90.001 E813.50135
G1 X1.696 Y89.517 E813.53403
G1 X1.763 Y89 E813.56654
G1 X1.696 Y88.482 E813.59911
G1 X1.495 Y87.999 E813.63174
G1 X1.177 Y87.584 E813.66434
G1 X0.763 Y87.266 E813.6969
G1 X0.28 Y87.065 E813.72952
G1 X-0.237 Y86.998 E813.76204
G1 X-0.755 Y87.065 E813.79461
G1 X-1.238 Y87.266 E813.82723
G1 X-1.652 Y87.584 E813.85979
G1 X-1.97 Y87.999 E813.89239
G1 X-2.171 Y88.482 E813.92502
G1 X-2.239 Y89 E813.9576
G1 X-2.171 Y89.517 E813.99012
G1 X-1.97 Y90.001 E814.0228
G1 X-1.652 Y90.415 E814.05536
G1 X-1.238 Y90.733 E814.08791
G1 X-0.755 Y90.934 E814.12054
G1 X-0.237 Y91.002 E814.15312
G0 F12000 X-0.302 Y91.499
G0 X-0.237 Y91.507
; TYPE:WALL-INNER
G1 F600 X0.411 Y91.421 E814.19389
G1 X1.015 Y91.17 E814.23468
G1 X1.534 Y90.772 E814.27546
G1 X1.932 Y90.253 E814.31625
G1 X2.183 Y89.647 E814.35716
G1 X2.267 Y89 E814.39784
G1 X2.183 Y88.352 E814.43859
G1 X1.932 Y87.747 E814.47944
G1 X1.534 Y87.227 E814.52028
G1 X1.015 Y86.829 E814.56107
G1 X0.411 Y86.578 E814.60186
G1 X-0.237 Y86.494 E814.6426
G1 X-0.885 Y86.578 E814.68335
G1 X-1.49 Y86.829 E814.7242
G1 X-2.009 Y87.227 E814.76499
G1 X-2.407 Y87.747 E814.80583
G1 X-2.658 Y88.351 E814.84662
G1 X-2.744 Y89 E814.88744
G1 X-2.658 Y89.648 E814.92821
G1 X-2.407 Y90.253 E814.96906
G1 X-2.009 Y90.772 E815.00984
G1 X-1.49 Y91.17 E815.05063
G1 X-0.886 Y91.421 E815.09142
G1 X-0.237 Y91.507 E815.13225
G0 F12000 X-0.237 Y92.011
G1 F600 X0.542 Y91.908 E815.18125
G1 X1.268 Y91.607 E815.23026
G1 X1.89 Y91.128 E815.27922
G1 X2.369 Y90.505 E815.32823
G1 X2.67 Y89.777 E815.37736
G1 X2.772 Y89 E815.42623
G1 X2.67 Y88.221 E815.47523
G1 X2.369 Y87.495 E815.52424
G1 X1.891 Y86.871 E815.57326
G1 X1.268 Y86.392 E815.62227
G1 X0.541 Y86.091 E815.67134
G1 X-0.237 Y85.989 E815.72027
G1 X-1.016 Y86.091 E815.76926
G1 X-1.743 Y86.392 E815.81833
G1 X-2.366 Y86.871 E815.86734
G1 X-2.844 Y87.495 E815.91636
G1 X-3.145 Y88.22 E815.96532
G1 X-3.248 Y89 E816.01438
G1 X-3.145 Y89.779 E816.06339
G1 X-2.844 Y90.505 E816.1124
G1 X-2.365 Y91.128 E816.16141
G1 X-1.743 Y91.607 E816.21037
G1 X-1.017 Y91.908 E816.25938
G1 X-0.237 Y92.011 E816.30844
G1 F6600 E809.50844
G1 Z0.7
G0 F12000 X88.696 Y91.499
G0 X88.761 Y91.002
; TYPE:WALL-OUTER
G1 Z0.4
G1 F6600 E816.40844
G1 F600 X89.279 Y90.934 E816.44102
G1 X89.762 Y90.733 E816.47365
G1 X90.177 Y90.415 E816.50625
G1 X90.495 Y90.001 E816.53881
G1 X90.696 Y89.517 E816.57149
G1 X90.763 Y89 E816.604
G1 X90.696 Y88.482 E816.63658
G1 X90.495 Y87.999 E816.6692
G1 X90.177 Y87.584 E816.70181
G1 X89.762 Y87.266 E816.73441
G1 X89.279 Y87.065 E816.76704
G1 X88.761 Y86.998 E816.79961
G1 X88.243 Y87.065 E816.83218
G1 X87.76 Y87.266 E816.86481
G1 X87.346 Y87.584 E816.89736
G1 X87.028 Y87.999 E816.92997
G1 X86.827 Y88.482 E816.96259
G1 X86.759 Y89 E816.99518
G1 X86.827 Y89.517 E817.0277
G1 X87.028 Y90.001 E817.06038
G1 X87.346 Y90.415 E817.09293
G1 X87.76 Y90.733 E817.12549
G1 X88.243 Y90.934 E817.15811
G1 X88.761 Y91.002 E817.1907
G0 F12000 X88.696 Y91.499
G0 X88.761 Y91.507
; TYPE:WALL-INNER
G1 F600 X89.41 Y91.421 E817.23152
G1 X90.014 Y91.17 E817.27231
G1 X90.534 Y90.772 E817.31315
G1 X90.932 Y90.253 E817.35394
G1 X91.183 Y89.647 E817.39484
G1 X91.267 Y89 E817.43553
G1 X91.183 Y88.352 E817.47628
G1 X90.932 Y87.747 E817.51713
G1 X90.534 Y87.227 E817.55796
G1 X90.014 Y86.829 E817.5988
G1 X89.409 Y86.578 E817.63965
G1 X88.761 Y86.494 E817.6804
G1 X88.113 Y86.578 E817.72115
G1 X87.508 Y86.829 E817.76199
G1 X86.989 Y87.227 E817.80278
G1 X86.591 Y87.747 E817.84362
G1 X86.34 Y88.351 E817.88441
G1 X86.254 Y89 E817.92524
G1 X86.34 Y89.648 E817.966
G1 X86.591 Y90.253 E818.00685
G1 X86.989 Y90.772 E818.04764
G1 X87.508 Y91.17 E818.08842
G1 X88.112 Y91.421 E818.12921
G1 X88.761 Y91.507 E818.17004
G0 F12000 X88.761 Y92.011
G1 F600 X89.541 Y91.908 E818.21911
G1 X90.266 Y91.607 E818.26806
G1 X90.89 Y91.129 E818.31708
G1 X91.369 Y90.505 E818.36614
G1 X91.67 Y89.777 E818.41527
G1 X91.772 Y89 E818.46414
G1 X91.67 Y88.221 E818.51313
G1 X91.369 Y87.495 E818.56215
G1 X90.891 Y86.87 E818.61122
G1 X90.266 Y86.392 E818.66028
G1 X89.54 Y86.091 E818.7093
G1 X88.761 Y85.989 E818.75829
G1 X87.982 Y86.091 E818.80729
G1 X87.255 Y86.392 E818.85636
G1 X86.632 Y86.871 E818.90537
G1 X86.154 Y87.495 E818.95439
G1 X85.853 Y88.22 E819.00334
G1 X85.75 Y89 E819.05241
G1 X85.853 Y89.779 E819.10141
G1 X86.154 Y90.505 E819.15042
G1 X86.633 Y91.128 E819.19943
G1 X87.255 Y91.607 E819.24839
G1 X87.981 Y91.908 E819.2974
G1 X88.761 Y92.011 E819.34647
G1 F6600 E812.54647
G1 Z0.7
G0 F12000 X87.508 Y91.17
G0 X86.989 Y90.772
G0 X86.591 Y90.253
G0 X86.34 Y89.648
G0 X86.254 Y89
G0 X88.696 Y2.499
G0 X88.761 Y2.002
; TYPE:WALL-OUTER
G1 Z0.4
G1 F6600 E819.44647
G1 F600 X89.279 Y1.934 E819.47905
G1 X89.762 Y1.733 E819.51167
G1 X90.177 Y1.416 E819.54424
G1 X90.495 Y1.001 E819.57684
G1 X90.696 Y0.518 E819.60947
G1 X90.763 Y0 E819.64204
G1 X90.696 Y-0.516 E819.67449
G1 X90.495 Y-1 E819.70717
G1 X90.177 Y-1.414 E819.73973
G1 X89.762 Y-1.732 E819.77234
G1 X89.279 Y-1.933 E819.80496
G1 X88.761 Y-2.001 E819.83754
G1 X88.243 Y-1.933 E819.87012
G1 X87.76 Y-1.732 E819.90275
G1 X87.346 Y-1.414 E819.9353
G1 X87.028 Y-1 E819.96786
G1 X86.827 Y-0.516 E820.00054
G1 X86.759 Y0 E820.033
G1 X86.827 Y0.518 E820.06558
G1 X87.028 Y1.001 E820.09821
G1 X87.346 Y1.416 E820.13081
G1 X87.76 Y1.733 E820.16333
G1 X88.243 Y1.934 E820.19595
G1 X88.761 Y2.002 E820.22853
G0 F12000 X88.696 Y2.499
G0 X88.761 Y2.507
; TYPE:WALL-INNER
G1 F600 X89.41 Y2.421 E820.26936
G1 X90.013 Y2.17 E820.31009
G1 X90.534 Y1.773 E820.35094
G1 X90.932 Y1.253 E820.39178
G1 X91.183 Y0.648 E820.43263
G1 X91.267 Y0 E820.47338
G1 X91.183 Y-0.646 E820.514
G1 X90.932 Y-1.252 E820.55491
G1 X90.534 Y-1.771 E820.5957
G1 X90.014 Y-2.169 E820.63653
G1 X89.41 Y-2.42 E820.67732
G1 X88.761 Y-2.506 E820.71815
G1 X88.112 Y-2.42 E820.75898
G1 X87.508 Y-2.169 E820.79977
G1 X86.989 Y-1.771 E820.84055
G1 X86.591 Y-1.252 E820.88134
G1 X86.34 Y-0.647 E820.92219
G1 X86.254 Y0 E820.96289
G1 X86.34 Y0.649 E821.00372
G1 X86.591 Y1.253 E821.04451
G1 X86.989 Y1.773 E821.08535
G1 X87.508 Y2.17 E821.1261
G1 X88.112 Y2.421 E821.16689
G1 X88.761 Y2.507 E821.20771
G0 F12000 X88.761 Y3.011
G1 F600 X89.541 Y2.908 E821.25678
G1 X90.265 Y2.607 E821.30568
G1 X90.89 Y2.13 E821.35471
G1 X91.369 Y1.505 E821.40382
G1 X91.67 Y0.779 E821.45283
G1 X91.772 Y0 E821.50182
G1 X91.67 Y-0.777 E821.55069
G1 X91.369 Y-1.504 E821.59976
G1 X90.89 Y-2.128 E821.64882
G1 X90.266 Y-2.606 E821.69784
G1 X89.541 Y-2.907 E821.7468
G1 X88.761 Y-3.01 E821.79586
G1 X87.981 Y-2.907 E821.84493
G1 X87.255 Y-2.606 E821.89394
G1 X86.633 Y-2.127 E821.9429
G1 X86.154 Y-1.504 E821.99191
G1 X85.853 Y-0.778 E822.04092
G1 X85.75 Y0 E822.08986
G1 X85.853 Y0.78 E822.13893
G1 X86.154 Y1.505 E822.18788
G1 X86.633 Y2.13 E822.23699
G1 X87.256 Y2.607 E822.28592
G1 X87.981 Y2.908 E822.33487
G1 X88.761 Y3.011 E822.38394
G0 F12000 X87.508 Y2.17
G0 X86.989 Y1.773
G0 X86.591 Y1.253
G0 X78.195 Y-10.099
G0 X78.261 Y-10.596
; TYPE:WALL-OUTER
G1 F600 X79.012 Y-10.695 E822.43118
G1 X79.712 Y-10.986 E822.47846
G1 X80.313 Y-11.447 E822.52569
G1 X80.774 Y-12.048 E822.57293
G1 X81.065 Y-12.748 E822.6202
G1 X81.163 Y-13.499 E822.66744
G1 X81.065 Y-14.249 E822.7146
G1 X80.774 Y-14.949 E822.76188
G1 X80.313 Y-15.55 E822.80912
G1 X79.712 Y-16.011 E822.85635
G1 X79.012 Y-16.302 E822.90363
G1 X78.261 Y-16.401 E822.95087
G1 X77.511 Y-16.302 E822.99805
G1 X76.81 Y-16.011 E823.04538
G1 X76.21 Y-15.55 E823.09257
G1 X75.748 Y-14.949 E823.13984
G1 X75.458 Y-14.249 E823.18709
G1 X75.359 Y-13.499 E823.23427
G1 X75.458 Y-12.748 E823.28151
G1 X75.748 Y-12.048 E823.32876
G1 X76.21 Y-11.447 E823.37604
G1 X76.81 Y-10.986 E823.42322
G1 X77.511 Y-10.695 E823.47056
G1 X78.261 Y-10.596 E823.51773
G0 F12000 X78.195 Y-10.099
G0 X78.261 Y-10.091
; TYPE:WALL-INNER
G1 F600 X79.143 Y-10.208 E823.57322
G1 X79.964 Y-10.549 E823.62866
G1 X80.67 Y-11.09 E823.68413
G1 X81.211 Y-11.796 E823.7396
G1 X81.552 Y-12.617 E823.79504
G1 X81.667 Y-13.499 E823.85051
G1 X81.552 Y-14.38 E823.90592
G1 X81.211 Y-15.201 E823.96136
G1 X80.67 Y-15.907 E824.01682
G1 X79.964 Y-16.448 E824.07229
G1 X79.143 Y-16.789 E824.12773
G1 X78.261 Y-16.906 E824.18322
G1 X77.38 Y-16.789 E824.23864
G1 X76.558 Y-16.448 E824.29414
G1 X75.853 Y-15.907 E824.34956
G1 X75.311 Y-15.201 E824.40507
G1 X74.971 Y-14.38 E824.46048
G1 X74.854 Y-13.499 E824.51591
G1 X74.971 Y-12.617 E824.57139
G1 X75.311 Y-11.796 E824.62681
G1 X75.853 Y-11.09 E824.68232
G1 X76.558 Y-10.549 E824.73773
G1 X77.38 Y-10.208 E824.79323
G1 X78.261 Y-10.091 E824.84866
G0 F12000 X78.261 Y-9.587
G1 F600 X79.274 Y-9.721 E824.91238
G1 X80.216 Y-10.112 E824.97599
G1 X81.027 Y-10.733 E825.03969
G1 X81.648 Y-11.544 E825.10339
G1 X82.039 Y-12.487 E825.16705
G1 X82.172 Y-13.499 E825.2307
G1 X82.039 Y-14.51 E825.2943
G1 X81.648 Y-15.453 E825.35796
G1 X81.027 Y-16.264 E825.42166
G1 X80.216 Y-16.885 E825.48536
G1 X79.274 Y-17.276 E825.54896
G1 X78.261 Y-17.41 E825.61269
G1 X77.249 Y-17.276 E825.67635
G1 X76.305 Y-16.885 E825.74007
G1 X75.497 Y-16.264 E825.80362
G1 X74.874 Y-15.453 E825.8674
G1 X74.484 Y-14.51 E825.93104
G1 X74.35 Y-13.499 E825.99464
G1 X74.484 Y-12.487 E826.0583
G1 X74.874 Y-11.544 E826.12194
G1 X75.497 Y-10.733 E826.18572
G1 X76.305 Y-10.112 E826.24927
G1 X77.249 Y-9.721 E826.31299
G1 X78.261 Y-9.587 E826.37665
G1 F6600 E819.57665
G1 Z0.7
G0 F12000 X76.558 Y-10.549
G0 X75.853 Y-11.09
G0 X75.311 Y-11.796
G0 X74.971 Y-12.617
G0 X74.854 Y-13.499
G0 X78.195 Y-60.099
G0 X78.261 Y-60.596
; TYPE:WALL-OUTER
G1 Z0.4
G1 F6600 E826.47665
G1 F600 X79.012 Y-60.695 E826.52389
G1 X79.712 Y-60.986 E826.57117
G1 X80.313 Y-61.447 E826.6184
G1 X80.774 Y-62.047 E826.66559
G1 X81.065 Y-62.748 E826.71292
G1 X81.163 Y-63.499 E826.76015
G1 X81.065 Y-64.249 E826.80732
G1 X80.774 Y-64.949 E826.8546
G1 X80.313 Y-65.55 E826.90184
G1 X79.712 Y-66.011 E826.94907
G1 X79.012 Y-66.302 E826.99635
G1 X78.261 Y-66.401 E827.04359
G1 X77.511 Y-66.302 E827.09076
G1 X76.81 Y-66.011 E827.1381
G1 X76.21 Y-65.55 E827.18528
G1 X75.748 Y-64.949 E827.23256
G1 X75.458 Y-64.249 E827.27981
G1 X75.359 Y-63.499 E827.32699
G1 X75.458 Y-62.748 E827.37423
G1 X75.748 Y-62.047 E827.42154
G1 X76.21 Y-61.447 E827.46876
G1 X76.81 Y-60.986 E827.51595
G1 X77.511 Y-60.695 E827.56328
G1 X78.261 Y-60.596 E827.61046
G0 F12000 X78.195 Y-60.099
G0 X78.261 Y-60.091
; TYPE:WALL-INNER
G1 F600 X79.143 Y-60.208 E827.66595
G1 X79.964 Y-60.549 E827.72139
G1 X80.67 Y-61.09 E827.77686
G1 X81.211 Y-61.795 E827.83227
G1 X81.552 Y-62.617 E827.88777
G1 X81.667 Y-63.499 E827.94324
G1 X81.552 Y-64.38 E827.99865
G1 X81.211 Y-65.201 E828.05409
G1 X80.67 Y-65.907 E828.10956
G1 X79.964 Y-66.448 E828.16503
G1 X79.143 Y-66.789 E828.22047
G1 X78.261 Y-66.906 E828.27595
G1 X77.38 Y-66.789 E828.33138
G1 X76.558 Y-66.448 E828.38688
G1 X75.853 Y-65.907 E828.44229
G1 X75.311 Y-65.201 E828.4978
G1 X74.971 Y-64.38 E828.55322
G1 X74.854 Y-63.499 E828.60864
G1 X74.971 Y-62.617 E828.66413
G1 X75.311 Y-61.795 E828.7196
G1 X75.853 Y-61.09 E828.77506
G1 X76.558 Y-60.549 E828.83048
G1 X77.38 Y-60.208 E828.88598
G1 X78.261 Y-60.091 E828.9414
G0 F12000 X78.261 Y-59.587
G1 F600 X79.274 Y-59.721 E829.00512
G1 X80.216 Y-60.112 E829.06873
G1 X81.026 Y-60.733 E829.13238
G1 X81.648 Y-61.542 E829.19602
G1 X82.039 Y-62.487 E829.2598
G1 X82.172 Y-63.499 E829.32345
G1 X82.039 Y-64.51 E829.38704
G1 X81.648 Y-65.453 E829.45071
G1 X81.027 Y-66.264 E829.51441
G1 X80.216 Y-66.885 E829.57811
G1 X79.274 Y-67.276 E829.64171
G1 X78.261 Y-67.41 E829.70544
G1 X77.249 Y-67.276 E829.7691
G1 X76.305 Y-66.885 E829.83282
G1 X75.497 Y-66.264 E829.89637
G1 X74.874 Y-65.453 E829.96015
G1 X74.484 Y-64.51 E830.02379
G1 X74.35 Y-63.499 E830.08739
G1 X74.484 Y-62.487 E830.15105
G1 X74.874 Y-61.542 E830.2148
G1 X75.497 Y-60.733 E830.27848
G1 X76.305 Y-60.112 E830.34203
G1 X77.249 Y-59.721 E830.40575
G1 X78.261 Y-59.587 E830.46941
G1 F6600 E823.66941
G1 Z0.7
G0 F12000 X79.964 Y-60.549
G0 X80.67 Y-61.09
G0 X81.211 Y-61.795
G0 X81.552 Y-62.617
G0 X88.697 Y-86.501
G0 X88.761 Y-86.997
; TYPE:WALL-OUTER
G1 Z0.4
G1 F6600 E830.56941
G1 F600 X89.279 Y-87.064 E830.60199
G1 X89.762 Y-87.265 E830.63461
G1 X90.177 Y-87.583 E830.66722
G1 X90.495 Y-87.998 E830.69982
G1 X90.696 Y-88.481 E830.73245
G1 X90.763 Y-88.999 E830.76502
G1 X90.696 Y-89.516 E830.79753
G1 X90.495 Y-90 E830.83021
G1 X90.177 Y-90.414 E830.86277
G1 X89.762 Y-90.732 E830.89538
G1 X89.279 Y-90.933 E830.928
G1 X88.761 Y-91.001 E830.96058
G1 X88.243 Y-90.933 E830.99316
G1 X87.76 Y-90.732 E831.02579
G1 X87.346 Y-90.414 E831.05834
G1 X87.028 Y-90 E831.0909
G1 X86.827 Y-89.516 E831.12358
G1 X86.759 Y-88.999 E831.1561
G1 X86.827 Y-88.481 E831.18868
G1 X87.028 Y-87.998 E831.22131
G1 X87.346 Y-87.583 E831.25391
G1 X87.76 Y-87.265 E831.28647
G1 X88.243 Y-87.064 E831.31909
G1 X88.761 Y-86.997 E831.35167
G0 F12000 X88.697 Y-86.501
G0 X88.761 Y-86.493
; TYPE:WALL-INNER
G1 F600 X89.409 Y-86.577 E831.39242
G1 X90.014 Y-86.828 E831.43326
G1 X90.534 Y-87.226 E831.4741
G1 X90.932 Y-87.746 E831.51494
G1 X91.183 Y-88.351 E831.55578
G1 X91.267 Y-88.999 E831.59653
G1 X91.183 Y-89.646 E831.63722
G1 X90.932 Y-90.252 E831.67813
G1 X90.534 Y-90.771 E831.71891
G1 X90.014 Y-91.169 E831.75975
G1 X89.41 Y-91.42 E831.80054
G1 X88.761 Y-91.506 E831.84137
G1 X88.112 Y-91.42 E831.8822
G1 X87.508 Y-91.169 E831.92299
G1 X86.989 Y-90.771 E831.96377
G1 X86.591 Y-90.252 E832.00456
G1 X86.34 Y-89.647 E832.04541
G1 X86.254 Y-88.999 E832.08617
G1 X86.34 Y-88.35 E832.127
G1 X86.591 Y-87.746 E832.16779
G1 X86.989 Y-87.226 E832.20863
G1 X87.508 Y-86.828 E832.24942
G1 X88.113 Y-86.577 E832.29026
G1 X88.761 Y-86.493 E832.33101
G0 F12000 X88.761 Y-85.988
G1 F600 X89.54 Y-86.09 E832.38001
G1 X90.266 Y-86.391 E832.42902
G1 X90.891 Y-86.869 E832.47809
G1 X91.369 Y-87.494 E832.52716
G1 X91.67 Y-88.22 E832.57617
G1 X91.772 Y-88.999 E832.62517
G1 X91.67 Y-89.776 E832.67404
G1 X91.369 Y-90.504 E832.72317
G1 X90.89 Y-91.128 E832.77222
G1 X90.266 Y-91.606 E832.82124
G1 X89.541 Y-91.907 E832.8702
G1 X88.761 Y-92.01 E832.91926
G1 X87.981 Y-91.907 E832.96833
G1 X87.255 Y-91.606 E833.01734
G1 X86.633 Y-91.127 E833.0663
G1 X86.154 Y-90.504 E833.11531
G1 X85.853 Y-89.778 E833.16432
G1 X85.75 Y-88.999 E833.21332
G1 X85.853 Y-88.219 E833.26239
G1 X86.154 Y-87.494 E833.31134
G1 X86.632 Y-86.87 E833.36036
G1 X87.255 Y-86.391 E833.40937
G1 X87.982 Y-86.09 E833.45844
G1 X88.761 Y-85.988 E833.50744
G1 F6600 E826.70744
G1 Z0.7
G0 F12000 X69.511 Y-68.249
G0 X-6.482 Y-5.383
G0 X-7.002 Y-4.985
G0 X-7.606 Y-4.734
G0 X-8.255 Y-4.648
G0 X-8.32 Y-4.656
G0 X-8.255 Y-5.153
; TYPE:WALL-OUTER
G1 Z0.4
G1 F6600 E833.60744
G1 F600 X-7.737 Y-5.221 E833.64002
G1 X-7.254 Y-5.422 E833.67264
G1 X-6.839 Y-5.74 E833.70525
G1 X-6.521 Y-6.154 E833.7378
G1 X-6.32 Y-6.637 E833.77043
G1 X-6.253 Y-7.157 E833.80313
G1 X-6.33 Y-7.696 E833.83708
G1 X-6.521 Y-8.156 E833.86814
G1 X-6.839 Y-8.571 E833.90075
G1 X-7.254 Y-8.889 E833.93335
G1 X-7.737 Y-9.09 E833.96598
G1 X-8.255 Y-9.157 E833.99855
G1 X-8.773 Y-9.09 E834.03112
G1 X-9.256 Y-8.889 E834.06375
G1 X-9.67 Y-8.571 E834.0963
G1 X-9.988 Y-8.156 E834.12891
G1 X-10.189 Y-7.673 E834.16153
G1 X-10.257 Y-7.155 E834.19412
G1 X-10.189 Y-6.637 E834.2267
G1 X-9.988 Y-6.154 E834.25932
G1 X-9.67 Y-5.74 E834.29188
G1 X-9.256 Y-5.422 E834.32443
G1 X-8.773 Y-5.221 E834.35706
G1 X-8.255 Y-5.153 E834.38964
G0 F12000 X-8.32 Y-4.656
G0 X-8.255 Y-4.648
; TYPE:WALL-INNER
G1 F600 X-7.606 Y-4.734 E834.43047
G1 X-7.002 Y-4.985 E834.47126
G1 X-6.482 Y-5.383 E834.51209
G1 X-6.084 Y-5.902 E834.55288
G1 X-5.833 Y-6.507 E834.59373
G1 X-5.748 Y-7.16 E834.63479
G1 X-5.844 Y-7.829 E834.67694
G1 X-6.084 Y-8.408 E834.71603
G1 X-6.482 Y-8.928 E834.75687
G1 X-7.002 Y-9.326 E834.7977
G1 X-7.607 Y-9.577 E834.83855
G1 X-8.255 Y-9.661 E834.8793
G1 X-8.903 Y-9.577 E834.92005
G1 X-9.508 Y-9.326 E834.9609
G1 X-10.027 Y-8.928 E835.00169
G1 X-10.425 Y-8.408 E835.04252
G1 X-10.676 Y-7.804 E835.08331
G1 X-10.762 Y-7.155 E835.12414
G1 X-10.676 Y-6.506 E835.16497
G1 X-10.425 Y-5.902 E835.20576
G1 X-10.027 Y-5.383 E835.24654
G1 X-9.508 Y-4.985 E835.28733
G1 X-8.904 Y-4.734 E835.32812
G1 X-8.255 Y-4.648 E835.36895
G0 F12000 X-8.255 Y-4.144
G1 F600 X-7.475 Y-4.247 E835.41801
G1 X-6.75 Y-4.548 E835.46697
G1 X-6.126 Y-5.026 E835.51599
G1 X-5.647 Y-5.649 E835.565
G1 X-5.346 Y-6.376 E835.61407
G1 X-5.243 Y-7.163 E835.66357
G1 X-5.358 Y-7.962 E835.71391
G1 X-5.647 Y-8.66 E835.76102
G1 X-6.125 Y-9.285 E835.81009
G1 X-6.75 Y-9.763 E835.85916
G1 X-7.476 Y-10.064 E835.90817
G1 X-8.255 Y-10.166 E835.95717
G1 X-9.034 Y-10.064 E836.00616
G1 X-9.761 Y-9.763 E836.05523
G1 X-10.384 Y-9.284 E836.10424
G1 X-10.862 Y-8.66 E836.15326
G1 X-11.163 Y-7.935 E836.20221
G1 X-11.266 Y-7.155 E836.25128
G1 X-11.163 Y-6.375 E836.30034
G1 X-10.862 Y-5.649 E836.34936
G1 X-10.383 Y-5.027 E836.39832
G1 X-9.761 Y-4.548 E836.44727
G1 X-9.035 Y-4.247 E836.49629
G1 X-8.255 Y-4.144 E836.54535
G1 F6600 E829.74535
G1 Z0.7
G0 F12000 X-69.755 Y-4.648
G0 X-69.82 Y-4.656
G0 X-69.755 Y-5.153
; TYPE:WALL-OUTER
G1 Z0.4
G1 F6600 E836.64535
G1 F600 X-69.237 Y-5.221 E836.67793
G1 X-68.754 Y-5.422 E836.71056
G1 X-68.339 Y-5.74 E836.74316
G1 X-68.021 Y-6.154 E836.77572
G1 X-67.82 Y-6.637 E836.80834
G1 X-67.753 Y-7.157 E836.84104
G1 X-67.83 Y-7.696 E836.875
G1 X-68.021 Y-8.156 E836.90606
G1 X-68.339 Y-8.571 E836.93866
G1 X-68.754 Y-8.889 E836.97127
G1 X-69.237 Y-9.09 E837.00389
G1 X-69.755 Y-9.157 E837.03646
G1 X-70.273 Y-9.09 E837.06904
G1 X-70.756 Y-8.889 E837.10166
G1 X-71.17 Y-8.571 E837.13422
G1 X-71.488 Y-8.156 E837.16682
G1 X-71.689 Y-7.673 E837.19945
G1 X-71.757 Y-7.155 E837.23203
G1 X-71.689 Y-6.637 E837.26461
G1 X-71.488 Y-6.154 E837.29724
G1 X-71.17 Y-5.74 E837.32979
G1 X-70.756 Y-5.422 E837.36235
G1 X-70.273 Y-5.221 E837.39497
G1 X-69.755 Y-5.153 E837.42755
G0 F12000 X-69.82 Y-4.656
G0 X-69.755 Y-4.648
; TYPE:WALL-INNER
G1 F600 X-69.106 Y-4.734 E837.46838
G1 X-68.502 Y-4.985 E837.50917
G1 X-67.982 Y-5.383 E837.55001
G1 X-67.584 Y-5.902 E837.5908
G1 X-67.333 Y-6.507 E837.63164
G1 X-67.248 Y-7.16 E837.67271
G1 X-67.344 Y-7.829 E837.71486
G1 X-67.584 Y-8.408 E837.75394
G1 X-67.982 Y-8.928 E837.79478
G1 X-68.502 Y-9.326 E837.83562
G1 X-69.107 Y-9.577 E837.87647
G1 X-69.755 Y-9.661 E837.91722
G1 X-70.403 Y-9.577 E837.95797
G1 X-71.008 Y-9.326 E837.99881
G1 X-71.527 Y-8.928 E838.0396
G1 X-71.925 Y-8.408 E838.08044
G1 X-72.176 Y-7.804 E838.12123
G1 X-72.262 Y-7.155 E838.16205
G1 X-72.176 Y-6.506 E838.20288
G1 X-71.925 Y-5.902 E838.24367
G1 X-71.527 Y-5.383 E838.28446
G1 X-71.008 Y-4.985 E838.32525
G1 X-70.404 Y-4.734 E838.36604
G1 X-69.755 Y-4.648 E838.40686
G0 F12000 X-69.755 Y-4.144
G1 F600 X-68.975 Y-4.247 E838.45593
G1 X-68.25 Y-4.548 E838.50488
G1 X-67.626 Y-5.026 E838.5539
G1 X-67.147 Y-5.649 E838.60291
G1 X-66.846 Y-6.376 E838.65198
G1 X-66.743 Y-7.163 E838.70148
G1 X-66.858 Y-7.962 E838.75182
G1 X-67.147 Y-8.66 E838.79893
G1 X-67.625 Y-9.285 E838.848
G1 X-68.25 Y-9.763 E838.89707
G1 X-68.976 Y-10.064 E838.94609
G1 X-69.755 Y-10.166 E838.99508
G1 X-70.534 Y-10.064 E839.04408
G1 X-71.261 Y-9.763 E839.09315
G1 X-71.884 Y-9.284 E839.14215
G1 X-72.362 Y-8.66 E839.19117
G1 X-72.663 Y-7.935 E839.24013
G1 X-72.766 Y-7.155 E839.28919
G1 X-72.663 Y-6.375 E839.33826
G1 X-72.362 Y-5.649 E839.38727
G1 X-71.883 Y-5.027 E839.43623
G1 X-71.261 Y-4.548 E839.48519
G1 X-70.535 Y-4.247 E839.5342
G1 X-69.755 Y-4.144 E839.58327
G1 F6600 E832.78327
G1 Z0.7
G0 F12000 X-88.588 Y2.421
G0 X-89.237 Y2.507
G0 X-89.302 Y2.499
G0 X-89.237 Y2.002
; TYPE:WALL-OUTER
G1 Z0.4
G1 F6600 E839.68327
G1 F600 X-88.719 Y1.934 E839.71585
G1 X-88.236 Y1.733 E839.74847
G1 X-87.821 Y1.416 E839.78104
G1 X-87.503 Y1.001 E839.81364
G1 X-87.302 Y0.518 E839.84627
G1 X-87.235 Y0 E839.87884
G1 X-87.302 Y-0.516 E839.91129
G1 X-87.503 Y-1 E839.94398
G1 X-87.821 Y-1.414 E839.97653
G1 X-88.236 Y-1.732 E840.00914
G1 X-88.719 Y-1.933 E840.04176
G1 X-89.237 Y-2.001 E840.07434
G1 X-89.755 Y-1.933 E840.10692
G1 X-90.238 Y-1.732 E840.13955
G1 X-90.652 Y-1.414 E840.1721
G1 X-90.97 Y-1 E840.20466
G1 X-91.171 Y-0.516 E840.23734
G1 X-91.239 Y0 E840.2698
G1 X-91.171 Y0.518 E840.30238
G1 X-90.97 Y1.001 E840.33501
G1 X-90.652 Y1.416 E840.36761
G1 X-90.238 Y1.733 E840.40013
G1 X-89.755 Y1.934 E840.43275
G1 X-89.237 Y2.002 E840.46534
G0 F12000 X-89.302 Y2.499
G0 X-89.237 Y2.507
; TYPE:WALL-INNER
G1 F600 X-88.588 Y2.421 E840.50616
G1 X-87.985 Y2.17 E840.54689
G1 X-87.464 Y1.773 E840.58774
G1 X-87.066 Y1.253 E840.62858
G1 X-86.815 Y0.648 E840.66943
G1 X-86.731 Y0 E840.71018
G1 X-86.815 Y-0.646 E840.7508
G1 X-87.066 Y-1.252 E840.79171
G1 X-87.464 Y-1.771 E840.8325
G1 X-87.984 Y-2.169 E840.87333
G1 X-88.588 Y-2.42 E840.91412
G1 X-89.237 Y-2.506 E840.95495
G1 X-89.886 Y-2.42 E840.99578
G1 X-90.49 Y-2.169 E841.03657
G1 X-91.009 Y-1.771 E841.07736
G1 X-91.407 Y-1.252 E841.11814
G1 X-91.658 Y-0.647 E841.15899
G1 X-91.744 Y0 E841.19969
G1 X-91.658 Y0.649 E841.24052
G1 X-91.407 Y1.253 E841.28131
G1 X-91.009 Y1.773 E841.32215
G1 X-90.49 Y2.17 E841.3629
G1 X-89.886 Y2.421 E841.40369
G1 X-89.237 Y2.507 E841.44452
G1 F6600 E834.64452
G1 Z0.7
G0 F12000 X-88.588 Y2.421
G0 X-87.985 Y2.17
G0 X-87.464 Y1.773
G0 X-87.066 Y1.253
G0 X-86.815 Y0.648
G0 X-69.82 Y-81.156
G0 X-69.755 Y-81.653
; TYPE:WALL-OUTER
G1 Z0.4
G1 F6600 E841.54452
G1 F600 X-69.237 Y-81.721 E841.5771
G1 X-68.754 Y-81.922 E841.60972
G1 X-68.339 Y-82.24 E841.64233
G1 X-68.021 Y-82.654 E841.67488
G1 X-67.82 Y-83.137 E841.70751
G1 X-67.753 Y-83.657 E841.7402
G1 X-67.83 Y-84.196 E841.77416
G1 X-68.021 Y-84.656 E841.80522
G1 X-68.339 Y-85.071 E841.83783
G1 X-68.754 Y-85.389 E841.87043
G1 X-69.237 Y-85.59 E841.90306
G1 X-69.755 Y-85.657 E841.93563
G1 X-70.273 Y-85.59 E841.9682
G1 X-70.756 Y-85.389 E842.00083
G1 X-71.17 Y-85.071 E842.03338
G1 X-71.488 Y-84.656 E842.06599
G1 X-71.689 Y-84.173 E842.09861
G1 X-71.757 Y-83.655 E842.13119
G1 X-71.689 Y-83.137 E842.16377
G1 X-71.488 Y-82.654 E842.1964
G1 X-71.17 Y-82.24 E842.22896
G1 X-70.756 Y-81.922 E842.26151
G1 X-70.273 Y-81.721 E842.29414
G1 X-69.755 Y-81.653 E842.32672
G0 F12000 X-69.82 Y-81.156
G0 X-69.755 Y-81.148
; TYPE:WALL-INNER
G1 F600 X-69.106 Y-81.234 E842.36754
G1 X-68.502 Y-81.485 E842.40833
G1 X-67.982 Y-81.883 E842.44917
G1 X-67.584 Y-82.402 E842.48996
G1 X-67.333 Y-83.007 E842.53081
G1 X-67.248 Y-83.66 E842.57187
G1 X-67.344 Y-84.329 E842.61402
G1 X-67.584 Y-84.908 E842.65311
G1 X-67.982 Y-85.428 E842.69395
G1 X-68.502 Y-85.826 E842.73478
G1 X-69.107 Y-86.077 E842.77563
G1 X-69.755 Y-86.161 E842.81638
G1 X-70.403 Y-86.077 E842.85713
G1 X-71.008 Y-85.826 E842.89798
G1 X-71.527 Y-85.428 E842.93876
G1 X-71.925 Y-84.908 E842.9796
G1 X-72.176 Y-84.304 E843.02039
G1 X-72.262 Y-83.655 E843.06122
G1 X-72.176 Y-83.006 E843.10205
G1 X-71.925 Y-82.402 E843.14284
G1 X-71.527 Y-81.883 E843.18362
G1 X-71.008 Y-81.485 E843.22441
G1 X-70.404 Y-81.234 E843.2652
G1 X-69.755 Y-81.148 E843.30603
G0 F12000 X-69.755 Y-80.644
G1 F600 X-68.975 Y-80.747 E843.35509
G1 X-68.25 Y-81.048 E843.40405
G1 X-67.626 Y-81.526 E843.45307
G1 X-67.147 Y-82.149 E843.50208
G1 X-66.846 Y-82.876 E843.55115
G1 X-66.743 Y-83.663 E843.60064
G1 X-66.858 Y-84.462 E843.65099
G1 X-67.147 Y-85.16 E843.6981
G1 X-67.625 Y-85.785 E843.74717
G1 X-68.25 Y-86.263 E843.79624
G1 X-68.976 Y-86.564 E843.84525
G1 X-69.755 Y-86.666 E843.89424
G1 X-70.534 Y-86.564 E843.94324
G1 X-71.261 Y-86.263 E843.99231
G1 X-71.884 Y-85.784 E844.04132
G1 X-72.362 Y-85.16 E844.09034
G1 X-72.663 Y-84.435 E844.13929
G1 X-72.766 Y-83.655 E844.18836
G1 X-72.663 Y-82.875 E844.23742
G1 X-72.362 Y-82.149 E844.28644
G1 X-71.883 Y-81.527 E844.33539
G1 X-71.261 Y-81.048 E844.38435
G1 X-70.535 Y-80.747 E844.43336
G1 X-69.755 Y-80.644 E844.48243
G1 F6600 E837.68243
G1 Z0.7
G0 F12000 X-89.301 Y-86.501
G0 X-89.237 Y-86.997
; TYPE:WALL-OUTER
G1 Z0.4
G1 F6600 E844.58243
G1 F600 X-88.719 Y-87.064 E844.615
G1 X-88.236 Y-87.265 E844.64763
G1 X-87.821 Y-87.583 E844.68023
G1 X-87.503 Y-87.998 E844.71284
G1 X-87.302 Y-88.481 E844.74546
G1 X-87.235 Y-88.999 E844.77804
G1 X-87.302 Y-89.516 E844.81055
G1 X-87.503 Y-90 E844.84323
G1 X-87.821 Y-90.414 E844.87579
G1 X-88.236 Y-90.732 E844.90839
G1 X-88.719 Y-90.933 E844.94102
G1 X-89.237 Y-91.001 E844.9736
G1 X-89.755 Y-90.933 E845.00618
G1 X-90.238 Y-90.732 E845.0388
G1 X-90.652 Y-90.414 E845.07136
G1 X-90.97 Y-90 E845.10392
G1 X-91.171 Y-89.516 E845.1366
G1 X-91.239 Y-88.999 E845.16912
G1 X-91.171 Y-88.481 E845.2017
G1 X-90.97 Y-87.998 E845.23432
G1 X-90.652 Y-87.583 E845.26693
G1 X-90.238 Y-87.265 E845.29948
G1 X-89.755 Y-87.064 E845.33211
G1 X-89.237 Y-86.997 E845.36468
G0 F12000 X-89.301 Y-86.501
G0 X-89.237 Y-86.493
; TYPE:WALL-INNER
G1 F600 X-88.589 Y-86.577 E845.40543
G1 X-87.984 Y-86.828 E845.44628
G1 X-87.464 Y-87.226 E845.48712
G1 X-87.066 Y-87.746 E845.52795
G1 X-86.815 Y-88.351 E845.5688
G1 X-86.731 Y-88.999 E845.60955
G1 X-86.815 Y-89.646 E845.65024
G1 X-87.066 Y-90.252 E845.69114
G1 X-87.464 Y-90.771 E845.73193
G1 X-87.984 Y-91.169 E845.77277
G1 X-88.588 Y-91.42 E845.81356
G1 X-89.237 Y-91.506 E845.85438
G1 X-89.886 Y-91.42 E845.89521
G1 X-90.49 Y-91.169 E845.936
G1 X-91.009 Y-90.771 E845.97679
G1 X-91.407 Y-90.252 E846.01758
G1 X-91.658 Y-89.647 E846.05842
G1 X-91.744 Y-88.999 E846.09919
G1 X-91.658 Y-88.35 E846.14002
G1 X-91.407 Y-87.746 E846.18081
G1 X-91.009 Y-87.226 E846.22164
G1 X-90.49 Y-86.828 E846.26243
G1 X-89.885 Y-86.577 E846.30328
G1 X-89.237 Y-86.493 E846.34403
G0 F12000 X-89.885 Y-86.577
G0 X-90.49 Y-86.828
G0 X-91.009 Y-87.226
G0 X-92.081 Y-88.284
; TYPE:FILL
G1 F600 X-92.128 Y-88.999 E846.36771
G1 X-92.081 Y-89.712 E846.39133
G0 F12000 X-92.081 Y-0.712
G1 F600 X-92.128 Y0 E846.41491
G1 X-92.081 Y0.715 E846.4386
G0 F12000 X-92.081 Y88.285
G1 F600 X-92.128 Y89 E846.46228
G1 X-92.081 Y89.713 E846.4859
G0 F12000 X-91.664 Y91.5
; TYPE:BOTTOM-FILL
G1 F600 X-91.375 Y91.5 E846.50392
G0 F12000 X-89.237 Y91.507
G0 X-87.099 Y91.5
G1 F600 X-2.373 Y91.5 E851.78767
G0 F12000 X-2.841 Y91
G1 F600 X-86.631 Y91 E857.01304
G0 F12000 X-86.302 Y90.5
G1 F600 X-3.17 Y90.5 E862.19738
G0 F12000 X-3.377 Y90
G1 F600 X-86.095 Y90 E867.35591
G0 F12000 X-85.989 Y89.5
G1 F600 X-3.484 Y89.5 E872.50114
G0 F12000 X-3.55 Y89
G1 F600 X-85.923 Y89 E877.63815
G0 F12000 X-85.988 Y88.5
G1 F600 X-3.484 Y88.5 E882.78333
G0 F12000 X-3.377 Y88
G1 F600 X-86.095 Y88 E887.94185
G0 F12000 X-86.302 Y87.5
G1 F600 X-3.17 Y87.5 E893.12619
G0 F12000 X-2.841 Y87
G1 F600 X-86.63 Y87 E898.3515
G0 F12000 X-87.097 Y86.5
G1 F600 X-2.374 Y86.5 E903.63506
G0 F12000 X-1.58 Y86
G1 F600 X-87.894 Y86 E909.01784
G0 F12000 X-90.581 Y86
G1 F600 X-91.711 Y86 E909.08831
G0 F12000 X-91.711 Y85.5
G1 F600 X91.711 Y85.5 E920.52701
G0 F12000 X91.711 Y86
G1 F600 X90.104 Y86 E920.62723
G0 F12000 X90.901 Y86.5
G1 F600 X91.711 Y86.75 E920.67777
G1 X91.369 Y87 E920.70419
G0 F12000 X91.711 Y85
G1 F600 X-91.711 Y85 E932.14289
G0 F12000 X-91.711 Y84.5
G1 F600 X91.711 Y84.5 E943.58159
G0 F12000 X91.711 Y84
G1 F600 X-91.711 Y84 E955.02029
G0 F12000 X-91.711 Y83.5
G1 F600 X91.711 Y83.5 E966.45899
G0 F12000 X91.711 Y83
G1 F600 X-91.711 Y83 E977.89769
G0 F12000 X-91.711 Y82.5
G1 F600 X91.711 Y82.5 E989.33639
G0 F12000 X91.711 Y82
G1 F600 X-91.711 Y82 E1000.77509
G0 F12000 X-91.711 Y81.5
G1 F600 X91.711 Y81.5 E1012.21379
G0 F12000 X91.711 Y81
G1 F600 X-91.711 Y81 E1023.6525
G0 F12000 X-91.711 Y80.5
G1 F600 X91.711 Y80.5 E1035.0912
G0 F12000 X91.711 Y80
G1 F600 X-91.711 Y80 E1046.5299
G0 F12000 X-91.711 Y79.5
G1 F600 X91.711 Y79.5 E1057.9686
G0 F12000 X91.711 Y79
G1 F600 X-91.711 Y79 E1069.4073
G0 F12000 X-91.711 Y78.5
G1 F600 X91.711 Y78.5 E1080.846
G0 F12000 X91.711 Y78
G1 F600 X-91.711 Y78 E1092.2847
G0 F12000 X-91.711 Y77.5
G1 F600 X91.711 Y77.5 E1103.7234
G0 F12000 X91.711 Y77
G1 F600 X-91.711 Y77 E1115.1621
G0 F12000 X-91.711 Y76.5
G1 F600 X91.711 Y76.5 E1126.6008
G0 F12000 X91.711 Y76
G1 F600 X-91.711 Y76 E1138.0395
G0 F12000 X-91.711 Y75.5
G1 F600 X91.711 Y75.5 E1149.47821
G0 F12000 X91.711 Y75
G1 F600 X-91.711 Y75 E1160.91691
G0 F12000 X-91.711 Y74.5
G1 F600 X91.711 Y74.5 E1172.35561
G0 F12000 X91.711 Y74
G1 F600 X-91.711 Y74 E1183.79431
G0 F12000 X-91.711 Y73.5
G1 F600 X91.711 Y73.5 E1195.23301
G0 F12000 X91.711 Y73
G1 F600 X-91.711 Y73 E1206.67171
G0 F12000 X-91.711 Y72.5
G1 F600 X-65.787 Y72.5 E1208.2884
G0 F12000 X-65.787 Y72
G1 F600 X-91.711 Y72 E1209.90509
G0 F12000 X-91.711 Y71.5
G1 F600 X-65.787 Y71.5 E1211.52179
G0 F12000 X-65.787 Y71
G1 F600 X-91.711 Y71 E1213.13848
G0 F12000 X-91.711 Y70.5
G1 F600 X-65.787 Y70.5 E1214.75517
G0 F12000 X-65.787 Y70
G1 F600 X-91.711 Y70 E1216.37186
G0 F12000 X-91.711 Y69.5
G1 F600 X-65.787 Y69.5 E1217.98855
G0 F12000 X-65.787 Y69
G1 F600 X-91.711 Y69 E1219.60525
G0 F12000 X-91.711 Y68.5
G1 F600 X-65.787 Y68.5 E1221.22194
G0 F12000 X-65.787 Y68
G1 F600 X-91.711 Y68 E1222.83863
G0 F12000 X-91.711 Y67.5
G1 F600 X-65.787 Y67.5 E1224.45532
G0 F12000 X-65.787 Y67
G1 F600 X-91.711 Y67 E1226.07201
G0 F12000 X-91.711 Y66.5
G1 F600 X-65.787 Y66.5 E1227.68871
G0 F12000 X-65.787 Y66
G1 F600 X-91.711 Y66 E1229.3054
G0 F12000 X-91.711 Y65.5
G1 F600 X-65.787 Y65.5 E1230.92209
G0 F12000 X-65.787 Y65
G1 F600 X-91.711 Y65 E1232.53878
G0 F12000 X-91.711 Y64.5
G1 F600 X-65.787 Y64.5 E1234.15547
G0 F12000 X-65.787 Y64
G1 F600 X-91.711 Y64 E1235.77217
G0 F12000 X-91.711 Y63.5
G1 F600 X-65.787 Y63.5 E1237.38886
G0 F12000 X-65.787 Y63
G1 F600 X-91.711 Y63 E1239.00555
G0 F12000 X-91.711 Y62.5
G1 F600 X-65.787 Y62.5 E1240.62224
G0 F12000 X-65.787 Y62
G1 F600 X-91.711 Y62 E1242.23893
G0 F12000 X-91.711 Y61.5
G1 F600 X-65.787 Y61.5 E1243.85563
G0 F12000 X-65.787 Y61
G1 F600 X-91.711 Y61 E1245.47232
G0 F12000 X-91.711 Y60.5
G1 F600 X-65.787 Y60.5 E1247.08901
G0 F12000 X-65.787 Y60
G1 F600 X-91.711 Y60 E1248.7057
G0 F12000 X-91.711 Y59.5
G1 F600 X-65.787 Y59.5 E1250.32239
G0 F12000 X-65.787 Y59
G1 F600 X-91.711 Y59 E1251.93909
G0 F12000 X-91.711 Y58.5
G1 F600 X-65.787 Y58.5 E1253.55578
G0 F12000 X-65.787 Y58
G1 F600 X-91.711 Y58 E1255.17247
G0 F12000 X-91.711 Y57.5
G1 F600 X-65.787 Y57.5 E1256.78916
G0 F12000 X-65.787 Y57
G1 F600 X-91.711 Y57 E1258.40585
G0 F12000 X-91.711 Y56.5
G1 F600 X-65.787 Y56.5 E1260.02255
G0 F12000 X-65.787 Y56
G1 F600 X-91.711 Y56 E1261.63924
G0 F12000 X-91.711 Y55.5
G1 F600 X-65.787 Y55.5 E1263.25593
G0 F12000 X-65.787 Y55
G1 F600 X-91.711 Y55 E1264.87262
G0 F12000 X-91.711 Y54.5
G1 F600 X-65.787 Y54.5 E1266.48931
G0 F12000 X-65.787 Y54
G1 F600 X-91.711 Y54 E1268.10601
G0 F12000 X-91.711 Y53.5
G1 F600 X-65.787 Y53.5 E1269.7227
G0 F12000 X-65.787 Y53
G1 F600 X-91.711 Y53 E1271.33939
G0 F12000 X-91.711 Y52.5
G1 F600 X-65.787 Y52.5 E1272.95608
G0 F12000 X-65.787 Y52
G1 F600 X-91.711 Y52 E1274.57277
G0 F12000 X-91.711 Y51.5
G1 F600 X-65.787 Y51.5 E1276.18947
G0 F12000 X-65.787 Y51
G1 F600 X-91.711 Y51 E1277.80616
G0 F12000 X-91.711 Y50.5
G1 F600 X-65.787 Y50.5 E1279.42285
G0 F12000 X-65.787 Y50
G1 F600 X-91.711 Y50 E1281.03954
G0 F12000 X-91.711 Y49.5
G1 F600 X-65.787 Y49.5 E1282.65624
G0 F12000 X-65.787 Y49
G1 F600 X-91.711 Y49 E1284.27293
G0 F12000 X-91.711 Y48.5
G1 F600 X-65.787 Y48.5 E1285.88962
G0 F12000 X-65.787 Y48
G1 F600 X-91.711 Y48 E1287.50631
G0 F12000 X-91.711 Y47.5
G1 F600 X-65.787 Y47.5 E1289.123
G0 F12000 X-65.787 Y47
G1 F600 X-91.711 Y47 E1290.7397
G0 F12000 X-91.711 Y46.5
G1 F600 X-65.787 Y46.5 E1292.35639
G0 F12000 X-65.787 Y46
G1 F600 X-91.711 Y46 E1293.97308
G0 F12000 X-91.711 Y45.5
G1 F600 X-65.787 Y45.5 E1295.58977
G0 F12000 X-65.787 Y45
G1 F600 X-91.711 Y45 E1297.20646
G0 F12000 X-91.711 Y44.5
G1 F600 X-65.787 Y44.5 E1298.82316
G0 F12000 X-65.787 Y44
G1 F600 X-91.711 Y44 E1300.43985
G0 F12000 X-91.711 Y43.5
G1 F600 X-65.787 Y43.5 E1302.05654
G0 F12000 X-65.787 Y43
G1 F600 X-91.711 Y43 E1303.67323
G0 F12000 X-91.711 Y42.5
G1 F600 X-65.787 Y42.5 E1305.28992
G0 F12000 X-65.787 Y42
G1 F600 X-91.711 Y42 E1306.90662
G0 F12000 X-91.711 Y41.5
G1 F600 X-65.787 Y41.5 E1308.52331
G0 F12000 X-65.787 Y41
G1 F600 X-91.711 Y41 E1310.14
G0 F12000 X-91.711 Y40.5
G1 F600 X-65.787 Y40.5 E1311.75669
G0 F12000 X-65.787 Y40
G1 F600 X-91.711 Y40 E1313.37338
G0 F12000 X-91.711 Y39.5
G1 F600 X-65.787 Y39.5 E1314.99008
G0 F12000 X-65.787 Y39
G1 F600 X-91.711 Y39 E1316.60677
G0 F12000 X-91.711 Y38.5
G1 F600 X-65.787 Y38.5 E1318.22346
G0 F12000 X-65.787 Y38
G1 F600 X-91.711 Y38 E1319.84015
G0 F12000 X-91.711 Y37.5
G1 F600 X-65.787 Y37.5 E1321.45684
G0 F12000 X-65.787 Y37
G1 F600 X-91.711 Y37 E1323.07354
G0 F12000 X-91.711 Y36.5
G1 F600 X-65.787 Y36.5 E1324.69023
G0 F12000 X-65.787 Y36
G1 F600 X-91.711 Y36 E1326.30692
G0 F12000 X-91.711 Y35.5
G1 F600 X-65.787 Y35.5 E1327.92361
G0 F12000 X-65.787 Y35
G1 F600 X-91.711 Y35 E1329.5403
G0 F12000 X-91.711 Y34.5
G1 F600 X-65.787 Y34.5 E1331.157
G0 F12000 X-65.787 Y34
G1 F600 X-91.711 Y34 E1332.77369
G0 F12000 X-91.711 Y33.5
G1 F600 X-65.787 Y33.5 E1334.39038
G0 F12000 X-65.787 Y33
G1 F600 X-91.711 Y33 E1336.00707
G0 F12000 X-91.711 Y32.5
G1 F600 X-65.787 Y32.5 E1337.62376
G0 F12000 X-65.787 Y32
G1 F600 X-91.711 Y32 E1339.24046
G0 F12000 X-91.711 Y31.5
G1 F600 X-65.787 Y31.5 E1340.85715
G0 F12000 X-65.787 Y31
G1 F600 X-91.711 Y31 E1342.47384
G0 F12000 X-91.711 Y30.5
G1 F600 X-65.787 Y30.5 E1344.09053
G0 F12000 X-65.787 Y30
G1 F600 X-91.711 Y30 E1345.70722
G0 F12000 X-91.711 Y29.5
G1 F600 X-65.787 Y29.5 E1347.32392
G0 F12000 X-65.787 Y29
G1 F600 X-91.711 Y29 E1348.94061
G0 F12000 X-91.711 Y28.5
G1 F600 X-65.787 Y28.5 E1350.5573
G0 F12000 X-65.787 Y28
G1 F600 X-91.711 Y28 E1352.17399
G0 F12000 X-91.711 Y27.5
G1 F600 X-65.787 Y27.5 E1353.79068
G0 F12000 X-65.787 Y27
G1 F600 X-91.711 Y27 E1355.40738
G0 F12000 X-91.711 Y26.5
G1 F600 X-65.787 Y26.5 E1357.02407
G0 F12000 X-65.787 Y26
G1 F600 X-91.711 Y26 E1358.64076
G0 F12000 X-91.711 Y25.5
G1 F600 X-65.787 Y25.5 E1360.25745
G0 F12000 X-65.787 Y25
G1 F600 X-91.711 Y25 E1361.87414
G0 F12000 X-91.711 Y24.5
G1 F600 X-65.787 Y24.5 E1363.49084
G0 F12000 X-65.787 Y24
G1 F600 X-91.711 Y24 E1365.10753
G0 F12000 X-91.711 Y23.5
G1 F600 X-65.787 Y23.5 E1366.72422
G0 F12000 X-65.787 Y23
G1 F600 X-91.711 Y23 E1368.34091
G0 F12000 X-91.711 Y22.5
G1 F600 X-65.787 Y22.5 E1369.9576
G0 F12000 X-65.787 Y22
G1 F600 X-91.711 Y22 E1371.5743
G0 F12000 X-91.711 Y21.5
G1 F600 X-65.787 Y21.5 E1373.19099
G0 F12000 X-65.787 Y21
G1 F600 X-91.711 Y21 E1374.80768
G0 F12000 X-91.711 Y20.5
G1 F600 X-65.787 Y20.5 E1376.42437
G0 F12000 X-65.787 Y20
G1 F600 X-91.711 Y20 E1378.04106
G0 F12000 X-91.711 Y19.5
G1 F600 X-65.787 Y19.5 E1379.65776
G0 F12000 X-65.787 Y19
G1 F600 X-91.711 Y19 E1381.27445
G0 F12000 X-91.711 Y18.5
G1 F600 X-65.787 Y18.5 E1382.89114
G0 F12000 X-65.787 Y18
G1 F600 X-91.711 Y18 E1384.50783
G0 F12000 X-91.711 Y17.5
G1 F600 X-65.787 Y17.5 E1386.12452
G0 F12000 X-65.787 Y17
G1 F600 X-91.711 Y17 E1387.74122
G0 F12000 X-91.711 Y16.5
G1 F600 X-65.787 Y16.5 E1389.35791
G0 F12000 X-65.787 Y16
G1 F600 X-91.711 Y16 E1390.9746
G0 F12000 X-91.711 Y15.5
G1 F600 X-65.787 Y15.5 E1392.59129
G0 F12000 X-65.787 Y15
G1 F600 X-91.711 Y15 E1394.20798
G0 F12000 X-91.711 Y14.5
G1 F600 X-65.787 Y14.5 E1395.82468
G0 F12000 X-57.687 Y14.5
G1 F600 X-55.787 Y14.5 E1395.94317
G0 F12000 X-55.787 Y15
G1 F600 X-57.687 Y15 E1396.06165
G0 F12000 X-57.687 Y15.5
G1 F600 X-55.787 Y15.5 E1396.18014
G0 F12000 X-55.787 Y16
G1 F600 X-57.687 Y16 E1396.29863
G0 F12000 X-57.687 Y16.5
G1 F600 X-55.787 Y16.5 E1396.41712
G0 F12000 X-55.787 Y17
G1 F600 X-57.687 Y17 E1396.53561
G0 F12000 X-57.687 Y17.5
G1 F600 X-55.787 Y17.5 E1396.6541
G0 F12000 X-55.787 Y18
G1 F600 X-57.687 Y18 E1396.77259
G0 F12000 X-57.687 Y18.5
G1 F600 X-55.787 Y18.5 E1396.89108
G0 F12000 X-55.787 Y19
G1 F600 X-57.687 Y19 E1397.00957
G0 F12000 X-57.687 Y19.5
G1 F600 X-55.787 Y19.5 E1397.12806
G0 F12000 X-55.787 Y20
G1 F600 X-57.687 Y20 E1397.24655
G0 F12000 X-57.687 Y20.5
G1 F600 X-55.787 Y20.5 E1397.36504
G0 F12000 X-55.787 Y21
G1 F600 X-57.687 Y21 E1397.48353
G0 F12000 X-57.687 Y21.5
G1 F600 X-55.787 Y21.5 E1397.60201
G0 F12000 X-55.787 Y22
G1 F600 X-57.687 Y22 E1397.7205
G0 F12000 X-57.687 Y22.5
G1 F600 X-55.787 Y22.5 E1397.83899
G0 F12000 X-55.787 Y23
G1 F600 X-57.687 Y23 E1397.95748
G0 F12000 X-57.687 Y23.5
G1 F600 X-55.787 Y23.5 E1398.07597
G0 F12000 X-55.787 Y24
G1 F600 X-57.687 Y24 E1398.19446
G0 F12000 X-57.687 Y24.5
G1 F600 X-55.787 Y24.5 E1398.31295
G0 F12000 X-55.787 Y25
G1 F600 X-57.687 Y25 E1398.43144
G0 F12000 X-57.687 Y25.5
G1 F600 X-55.787 Y25.5 E1398.54993
G0 F12000 X-55.787 Y26
G1 F600 X-57.687 Y26 E1398.66842
G0 F12000 X-57.687 Y26.5
G1 F600 X-55.787 Y26.5 E1398.78691
G0 F12000 X-55.787 Y27
G1 F600 X-57.687 Y27 E1398.9054
G0 F12000 X-57.687 Y27.5
G1 F600 X-55.787 Y27.5 E1399.02389
G0 F12000 X-55.787 Y28
G1 F600 X-57.687 Y28 E1399.14237
G0 F12000 X-57.687 Y28.5
G1 F600 X-55.787 Y28.5 E1399.26086
G0 F12000 X-55.787 Y29
G1 F600 X-57.687 Y29 E1399.37935
G0 F12000 X-57.687 Y29.5
G1 F600 X-55.787 Y29.5 E1399.49784
G0 F12000 X-55.787 Y30
G1 F600 X-57.687 Y30 E1399.61633
G0 F12000 X-57.687 Y30.5
G1 F600 X-55.787 Y30.5 E1399.73482
G0 F12000 X-55.787 Y31
G1 F600 X-57.687 Y31 E1399.85331
G0 F12000 X-57.687 Y31.5
G1 F600 X-55.787 Y31.5 E1399.9718
G0 F12000 X-55.787 Y32
G1 F600 X-57.687 Y32 E1400.09029
G0 F12000 X-57.687 Y32.5
G1 F600 X-55.787 Y32.5 E1400.20878
G0 F12000 X-55.787 Y33
G1 F600 X-57.687 Y33 E1400.32727
G0 F12000 X-57.687 Y33.5
G1 F600 X-55.787 Y33.5 E1400.44576
G0 F12000 X-55.787 Y34
G1 F600 X-57.687 Y34 E1400.56425
G0 F12000 X-57.687 Y34.5
G1 F600 X-55.787 Y34.5 E1400.68273
G0 F12000 X-55.787 Y35
G1 F600 X-57.687 Y35 E1400.80122
G0 F12000 X-57.687 Y35.5
G1 F600 X-55.787 Y35.5 E1400.91971
G0 F12000 X-55.787 Y36
G1 F600 X-57.687 Y36 E1401.0382
G0 F12000 X-57.687 Y36.5
G1 F600 X-55.787 Y36.5 E1401.15669
G0 F12000 X-55.787 Y37
G1 F600 X-57.687 Y37 E1401.27518
G0 F12000 X-57.687 Y37.5
G1 F600 X-55.787 Y37.5 E1401.39367
G0 F12000 X-55.787 Y38
G1 F600 X-57.687 Y38 E1401.51216
G0 F12000 X-57.687 Y38.5
G1 F600 X-55.787 Y38.5 E1401.63065
G0 F12000 X-55.787 Y39
G1 F600 X-57.687 Y39 E1401.74914
G0 F12000 X-57.687 Y39.5
G1 F600 X-55.787 Y39.5 E1401.86763
G0 F12000 X-55.787 Y40
G1 F600 X-57.687 Y40 E1401.98612
G0 F12000 X-57.687 Y40.5
G1 F600 X-55.787 Y40.5 E1402.10461
G0 F12000 X-55.787 Y41
G1 F600 X-57.687 Y41 E1402.22309
G0 F12000 X-57.687 Y41.5
G1 F600 X-55.787 Y41.5 E1402.34158
G0 F12000 X-55.787 Y42
G1 F600 X-57.687 Y42 E1402.46007
G0 F12000 X-57.687 Y42.5
G1 F600 X-55.787 Y42.5 E1402.57856
G0 F12000 X-55.787 Y43
G1 F600 X-57.687 Y43 E1402.69705
G0 F12000 X-57.687 Y43.5
G1 F600 X-55.787 Y43.5 E1402.81554
G0 F12000 X-55.787 Y44
G1 F600 X-57.687 Y44 E1402.93403
G0 F12000 X-57.687 Y44.5
G1 F600 X-55.787 Y44.5 E1403.05252
G0 F12000 X-55.787 Y45
G1 F600 X-57.687 Y45 E1403.17101
G0 F12000 X-57.687 Y45.5
G1 F600 X-55.787 Y45.5 E1403.2895
G0 F12000 X-55.787 Y46
G1 F600 X-57.687 Y46 E1403.40799
G0 F12000 X-57.687 Y46.5
G1 F600 X-55.787 Y46.5 E1403.52648
G0 F12000 X-55.787 Y47
G1 F600 X-57.687 Y47 E1403.64497
G0 F12000 X-57.687 Y47.5
G1 F600 X-55.787 Y47.5 E1403.76345
G0 F12000 X-55.787 Y48
G1 F600 X-57.687 Y48 E1403.88194
G0 F12000 X-57.687 Y48.5
G1 F600 X-55.787 Y48.5 E1404.00043
G0 F12000 X-55.787 Y49
G1 F600 X-57.687 Y49 E1404.11892
G0 F12000 X-57.687 Y49.5
G1 F600 X-55.787 Y49.5 E1404.23741
G0 F12000 X-55.787 Y50
G1 F600 X-57.687 Y50 E1404.3559
G0 F12000 X-57.687 Y50.5
G1 F600 X-55.787 Y50.5 E1404.47439
G0 F12000 X-55.787 Y51
G1 F600 X-57.687 Y51 E1404.59288
G0 F12000 X-57.687 Y51.5
G1 F600 X-55.787 Y51.5 E1404.71137
G0 F12000 X-55.787 Y52
G1 F600 X-57.687 Y52 E1404.82986
G0 F12000 X-57.687 Y52.5
G1 F600 X-55.787 Y52.5 E1404.94835
G0 F12000 X-55.787 Y53
G1 F600 X-57.687 Y53 E1405.06684
G0 F12000 X-57.687 Y53.5
G1 F600 X-55.787 Y53.5 E1405.18533
G0 F12000 X-55.787 Y54
G1 F600 X-57.687 Y54 E1405.30381
G0 F12000 X-57.687 Y54.5
G1 F600 X-55.787 Y54.5 E1405.4223
G0 F12000 X-55.787 Y55
G1 F600 X-57.687 Y55 E1405.54079
G0 F12000 X-57.687 Y55.5
G1 F600 X-55.787 Y55.5 E1405.65928
G0 F12000 X-55.787 Y56
G1 F600 X-57.687 Y56 E1405.77777
G0 F12000 X-57.687 Y56.5
G1 F600 X-55.787 Y56.5 E1405.89626
G0 F12000 X-55.787 Y57
G1 F600 X-57.687 Y57 E1406.01475
G0 F12000 X-57.687 Y57.5
G1 F600 X-55.787 Y57.5 E1406.13324
G0 F12000 X-55.787 Y58
G1 F600 X-57.687 Y58 E1406.25173
G0 F12000 X-57.687 Y58.5
G1 F600 X-55.787 Y58.5 E1406.37022
G0 F12000 X-55.787 Y59
G1 F600 X-57.687 Y59 E1406.48871
G0 F12000 X-57.686 Y59.5
G1 F600 X-55.786 Y59.5 E1406.6072
G0 F12000 X-55.786 Y60
G1 F600 X-57.686 Y60 E1406.72569
G0 F12000 X-57.686 Y60.5
G1 F600 X-55.786 Y60.5 E1406.84417
G0 F12000 X-55.786 Y61
G1 F600 X-57.686 Y61 E1406.96266
G0 F12000 X-57.686 Y61.5
G1 F600 X-55.786 Y61.5 E1407.08115
G0 F12000 X-55.786 Y62
G1 F600 X-57.686 Y62 E1407.19964
G0 F12000 X-57.686 Y62.5
G1 F600 X-55.786 Y62.5 E1407.31813
G0 F12000 X-55.786 Y63
G1 F600 X-57.686 Y63 E1407.43662
G0 F12000 X-57.686 Y63.5
G1 F600 X-55.786 Y63.5 E1407.55511
G0 F12000 X-55.786 Y64
G1 F600 X-57.686 Y64 E1407.6736
G0 F12000 X-57.686 Y64.5
G1 F600 X-55.786 Y64.5 E1407.79209
G0 F12000 X-55.786 Y65
G1 F600 X-57.686 Y65 E1407.91058
G0 F12000 X-57.686 Y65.5
G1 F600 X-55.786 Y65.5 E1408.02907
G0 F12000 X-55.786 Y66
G1 F600 X-57.686 Y66 E1408.14756
G0 F12000 X-57.686 Y66.5
G1 F600 X-55.786 Y66.5 E1408.26605
G0 F12000 X-55.786 Y67
G1 F600 X-57.686 Y67 E1408.38453
G0 F12000 X-57.686 Y67.5
G1 F600 X-55.786 Y67.5 E1408.50302
G0 F12000 X-55.786 Y68
G1 F600 X-57.686 Y68 E1408.62151
G0 F12000 X-57.686 Y68.5
G1 F600 X-55.786 Y68.5 E1408.74
G0 F12000 X-55.786 Y69
G1 F600 X-57.686 Y69 E1408.85849
G0 F12000 X-57.686 Y69.5
G1 F600 X-55.786 Y69.5 E1408.97698
G0 F12000 X-55.786 Y70
G1 F600 X-57.686 Y70 E1409.09547
G0 F12000 X-57.686 Y70.5
G1 F600 X-55.786 Y70.5 E1409.21396
G0 F12000 X-55.786 Y71
G1 F600 X-57.686 Y71 E1409.33245
G0 F12000 X-57.686 Y71.5
G1 F600 X-55.786 Y71.5 E1409.45094
G0 F12000 X-55.786 Y72
G1 F600 X-57.686 Y72 E1409.56943
G0 F12000 X-57.686 Y72.5
G1 F600 X-55.786 Y72.5 E1409.68792
G0 F12000 X-47.686 Y72.5
G1 F600 X-45.786 Y72.5 E1409.80641
G0 F12000 X-45.786 Y72
G1 F600 X-47.686 Y72 E1409.92489
G0 F12000 X-47.686 Y71.5
G1 F600 X-45.786 Y71.5 E1410.04338
G0 F12000 X-45.786 Y71
G1 F600 X-47.686 Y71 E1410.16187
G0 F12000 X-47.686 Y70.5
G1 F600 X-45.786 Y70.5 E1410.28036
G0 F12000 X-45.786 Y70
G1 F600 X-47.686 Y70 E1410.39885
G0 F12000 X-47.686 Y69.5
G1 F600 X-45.786 Y69.5 E1410.51734
G0 F12000 X-45.786 Y69
G1 F600 X-47.686 Y69 E1410.63583
G0 F12000 X-47.686 Y68.5
G1 F600 X-45.786 Y68.5 E1410.75432
G0 F12000 X-45.786 Y68
G1 F600 X-47.686 Y68 E1410.87281
G0 F12000 X-47.686 Y67.5
G1 F600 X-45.786 Y67.5 E1410.9913
G0 F12000 X-45.786 Y67
G1 F600 X-47.686 Y67 E1411.10979
G0 F12000 X-47.686 Y66.5
G1 F600 X-45.786 Y66.5 E1411.22828
G0 F12000 X-45.786 Y66
G1 F600 X-47.686 Y66 E1411.34677
G0 F12000 X-47.686 Y65.5
G1 F600 X-45.786 Y65.5 E1411.46525
G0 F12000 X-45.786 Y65
G1 F600 X-47.686 Y65 E1411.58374
G0 F12000 X-47.686 Y64.5
G1 F600 X-45.786 Y64.5 E1411.70223
G0 F12000 X-45.786 Y64
G1 F600 X-47.686 Y64 E1411.82072
G0 F12000 X-47.686 Y63.5
G1 F600 X-45.786 Y63.5 E1411.93921
G0 F12000 X-45.786 Y63
G1 F600 X-47.686 Y63 E1412.0577
G0 F12000 X-47.686 Y62.5
G1 F600 X-45.786 Y62.5 E1412.17619
G0 F12000 X-45.786 Y62
G1 F600 X-47.686 Y62 E1412.29468
G0 F12000 X-47.686 Y61.5
G1 F600 X-45.786 Y61.5 E1412.41317
G0 F12000 X-45.786 Y61
G1 F600 X-47.686 Y61 E1412.53166
G0 F12000 X-47.686 Y60.5
G1 F600 X-45.786 Y60.5 E1412.65015
G0 F12000 X-45.786 Y60
G1 F600 X-47.686 Y60 E1412.76864
G0 F12000 X-47.686 Y59.5
G1 F600 X-45.786 Y59.5 E1412.88713
G0 F12000 X-45.787 Y59
G1 F600 X-47.687 Y59 E1413.00561
G0 F12000 X-47.687 Y58.5
G1 F600 X-45.787 Y58.5 E1413.1241
G0 F12000 X-45.787 Y58
G1 F600 X-47.687 Y58 E1413.24259
G0 F12000 X-47.687 Y57.5
G1 F600 X-45.787 Y57.5 E1413.36108
G0 F12000 X-45.787 Y57
G1 F600 X-47.687 Y57 E1413.47957
G0 F12000 X-47.687 Y56.5
G1 F600 X-45.787 Y56.5 E1413.59806
G0 F12000 X-45.787 Y56
G1 F600 X-47.687 Y56 E1413.71655
G0 F12000 X-47.687 Y55.5
G1 F600 X-45.787 Y55.5 E1413.83504
G0 F12000 X-45.787 Y55
G1 F600 X-47.687 Y55 E1413.95353
G0 F12000 X-47.687 Y54.5
G1 F600 X-45.787 Y54.5 E1414.07202
G0 F12000 X-45.787 Y54
G1 F600 X-47.687 Y54 E1414.19051
G0 F12000 X-47.687 Y53.5
G1 F600 X-45.787 Y53.5 E1414.309
G0 F12000 X-45.787 Y53
G1 F600 X-47.687 Y53 E1414.42749
G0 F12000 X-47.687 Y52.5
G1 F600 X-45.787 Y52.5 E1414.54597
G0 F12000 X-45.787 Y52
G1 F600 X-47.687 Y52 E1414.66446
G0 F12000 X-47.687 Y51.5
G1 F600 X-45.787 Y51.5 E1414.78295
G0 F12000 X-45.787 Y51
G1 F600 X-47.687 Y51 E1414.90144
G0 F12000 X-47.687 Y50.5
G1 F600 X-45.787 Y50.5 E1415.01993
G0 F12000 X-45.787 Y50
G1 F600 X-47.687 Y50 E1415.13842
G0 F12000 X-47.687 Y49.5
G1 F600 X-45.787 Y49.5 E1415.25691
G0 F12000 X-45.787 Y49
G1 F600 X-47.687 Y49 E1415.3754
G0 F12000 X-47.687 Y48.5
G1 F600 X-45.787 Y48.5 E1415.49389
G0 F12000 X-45.787 Y48
G1 F600 X-47.687 Y48 E1415.61238
G0 F12000 X-47.687 Y47.5
G1 F600 X-45.787 Y47.5 E1415.73087
G0 F12000 X-45.787 Y47
G1 F600 X-47.687 Y47 E1415.84936
G0 F12000 X-47.687 Y46.5
G1 F600 X-45.787 Y46.5 E1415.96785
G0 F12000 X-45.787 Y46
G1 F600 X-47.687 Y46 E1416.08633
G0 F12000 X-47.687 Y45.5
G1 F600 X-45.787 Y45.5 E1416.20482
G0 F12000 X-45.787 Y45
G1 F600 X-47.687 Y45 E1416.32331
G0 F12000 X-47.687 Y44.5
G1 F600 X-45.787 Y44.5 E1416.4418
G0 F12000 X-45.787 Y44
G1 F600 X-47.687 Y44 E1416.56029
G0 F12000 X-47.687 Y43.5
G1 F600 X-45.787 Y43.5 E1416.67878
G0 F12000 X-45.787 Y43
G1 F600 X-47.687 Y43 E1416.79727
G0 F12000 X-47.687 Y42.5
G1 F600 X-45.787 Y42.5 E1416.91576
G0 F12000 X-45.787 Y42
G1 F600 X-47.687 Y42 E1417.03425
G0 F12000 X-47.687 Y41.5
G1 F600 X-45.787 Y41.5 E1417.15274
G0 F12000 X-45.787 Y41
G1 F600 X-47.687 Y41 E1417.27123
G0 F12000 X-47.687 Y40.5
G1 F600 X-45.787 Y40.5 E1417.38972
G0 F12000 X-45.787 Y40
G1 F600 X-47.687 Y40 E1417.50821
G0 F12000 X-47.687 Y39.5
G1 F600 X-45.787 Y39.5 E1417.62669
G0 F12000 X-45.787 Y39
G1 F600 X-47.687 Y39 E1417.74518
G0 F12000 X-47.687 Y38.5
G1 F600 X-45.787 Y38.5 E1417.86367
G0 F12000 X-45.787 Y38
G1 F600 X-47.687 Y38 E1417.98216
G0 F12000 X-47.687 Y37.5
G1 F600 X-45.787 Y37.5 E1418.10065
G0 F12000 X-45.787 Y37
G1 F600 X-47.687 Y37 E1418.21914
G0 F12000 X-47.687 Y36.5
G1 F600 X-45.787 Y36.5 E1418.33763
G0 F12000 X-45.787 Y36
G1 F600 X-47.687 Y36 E1418.45612
G0 F12000 X-47.687 Y35.5
G1 F600 X-45.787 Y35.5 E1418.57461
G0 F12000 X-45.787 Y35
G1 F600 X-47.687 Y35 E1418.6931
G0 F12000 X-47.687 Y34.5
G1 F600 X-45.787 Y34.5 E1418.81159
G0 F12000 X-45.787 Y34
G1 F600 X-47.687 Y34 E1418.93008
G0 F12000 X-47.687 Y33.5
G1 F600 X-45.787 Y33.5 E1419.04857
G0 F12000 X-45.787 Y33
G1 F600 X-47.687 Y33 E1419.16705
G0 F12000 X-47.687 Y32.5
G1 F600 X-45.787 Y32.5 E1419.28554
G0 F12000 X-45.787 Y32
G1 F600 X-47.687 Y32 E1419.40403
G0 F12000 X-47.687 Y31.5
G1 F600 X-45.787 Y31.5 E1419.52252
G0 F12000 X-45.787 Y31
G1 F600 X-47.687 Y31 E1419.64101
G0 F12000 X-47.687 Y30.5
G1 F600 X-45.787 Y30.5 E1419.7595
G0 F12000 X-45.787 Y30
G1 F600 X-47.687 Y30 E1419.87799
G0 F12000 X-47.687 Y29.5
G1 F600 X-45.787 Y29.5 E1419.99648
G0 F12000 X-45.787 Y29
G1 F600 X-47.687 Y29 E1420.11497
G0 F12000 X-47.687 Y28.5
G1 F600 X-45.787 Y28.5 E1420.23346
G0 F12000 X-45.787 Y28
G1 F600 X-47.687 Y28 E1420.35195
G0 F12000 X-47.687 Y27.5
G1 F600 X-45.787 Y27.5 E1420.47044
G0 F12000 X-45.787 Y27
G1 F600 X-47.687 Y27 E1420.58893
G0 F12000 X-47.687 Y26.5
G1 F600 X-45.787 Y26.5 E1420.70741
G0 F12000 X-45.787 Y26
G1 F600 X-47.687 Y26 E1420.8259
G0 F12000 X-47.687 Y25.5
G1 F600 X-45.787 Y25.5 E1420.94439
G0 F12000 X-45.787 Y25
G1 F600 X-47.687 Y25 E1421.06288
G0 F12000 X-47.687 Y24.5
G1 F600 X-45.787 Y24.5 E1421.18137
G0 F12000 X-45.787 Y24
G1 F600 X-47.687 Y24 E1421.29986
G0 F12000 X-47.687 Y23.5
G1 F600 X-45.787 Y23.5 E1421.41835
G0 F12000 X-45.787 Y23
G1 F600 X-47.687 Y23 E1421.53684
G0 F12000 X-47.687 Y22.5
G1 F600 X-45.787 Y22.5 E1421.65533
G0 F12000 X-45.787 Y22
G1 F600 X-47.687 Y22 E1421.77382
G0 F12000 X-47.687 Y21.5
G1 F600 X-45.787 Y21.5 E1421.89231
G0 F12000 X-45.787 Y21
G1 F600 X-47.687 Y21 E1422.0108
G0 F12000 X-47.687 Y20.5
G1 F600 X-45.787 Y20.5 E1422.12929
G0 F12000 X-45.787 Y20
G1 F600 X-47.687 Y20 E1422.24777
G0 F12000 X-47.687 Y19.5
G1 F600 X-45.787 Y19.5 E1422.36626
G0 F12000 X-45.787 Y19
G1 F600 X-47.687 Y19 E1422.48475
G0 F12000 X-47.687 Y18.5
G1 F600 X-45.787 Y18.5 E1422.60324
G0 F12000 X-45.787 Y18
G1 F600 X-47.687 Y18 E1422.72173
G0 F12000 X-47.687 Y17.5
G1 F600 X-45.787 Y17.5 E1422.84022
G0 F12000 X-45.787 Y17
G1 F600 X-47.687 Y17 E1422.95871
G0 F12000 X-47.687 Y16.5
G1 F600 X-45.787 Y16.5 E1423.0772
G0 F12000 X-45.787 Y16
G1 F600 X-47.687 Y16 E1423.19569
G0 F12000 X-47.687 Y15.5
G1 F600 X-45.787 Y15.5 E1423.31418
G0 F12000 X-45.787 Y15
G1 F600 X-47.687 Y15 E1423.43267
G0 F12000 X-47.687 Y14.5
G1 F600 X-45.787 Y14.5 E1423.55116
G0 F12000 X-37.687 Y14.5
G1 F600 X-35.787 Y14.5 E1423.66965
G0 F12000 X-35.787 Y15
G1 F600 X-37.687 Y15 E1423.78813
G0 F12000 X-37.687 Y15.5
G1 F600 X-35.787 Y15.5 E1423.90662
G0 F12000 X-35.787 Y16
G1 F600 X-37.687 Y16 E1424.02511
G0 F12000 X-37.687 Y16.5
G1 F600 X-35.787 Y16.5 E1424.1436
G0 F12000 X-35.787 Y17
G1 F600 X-37.687 Y17 E1424.26209
G0 F12000 X-37.687 Y17.5
G1 F600 X-35.787 Y17.5 E1424.38058
G0 F12000 X-35.787 Y18
G1 F600 X-37.687 Y18 E1424.49907
G0 F12000 X-37.687 Y18.5
G1 F600 X-35.787 Y18.5 E1424.61756
G0 F12000 X-35.787 Y19
G1 F600 X-37.687 Y19 E1424.73605
G0 F12000 X-37.687 Y19.5
G1 F600 X-35.787 Y19.5 E1424.85454
G0 F12000 X-35.787 Y20
G1 F600 X-37.687 Y20 E1424.97303
G0 F12000 X-37.687 Y20.5
G1 F600 X-35.787 Y20.5 E1425.09152
G0 F12000 X-35.787 Y21
G1 F600 X-37.687 Y21 E1425.21001
G0 F12000 X-37.687 Y21.5
G1 F600 X-35.787 Y21.5 E1425.32849
G0 F12000 X-35.787 Y22
G1 F600 X-37.687 Y22 E1425.44698
G0 F12000 X-37.687 Y22.5
G1 F600 X-35.787 Y22.5 E1425.56547
G0 F12000 X-35.787 Y23
G1 F600 X-37.687 Y23 E1425.68396
G0 F12000 X-37.687 Y23.5
G1 F600 X-35.787 Y23.5 E1425.80245
G0 F12000 X-35.787 Y24
G1 F600 X-37.687 Y24 E1425.92094
G0 F12000 X-37.687 Y24.5
G1 F600 X-35.787 Y24.5 E1426.03943
G0 F12000 X-35.787 Y25
G1 F600 X-37.687 Y25 E1426.15792
G0 F12000 X-37.687 Y25.5
G1 F600 X-35.787 Y25.5 E1426.27641
G0 F12000 X-35.787 Y26
G1 F600 X-37.687 Y26 E1426.3949
G0 F12000 X-37.687 Y26.5
G1 F600 X-35.787 Y26.5 E1426.51339
G0 F12000 X-35.787 Y27
G1 F600 X-37.687 Y27 E1426.63188
G0 F12000 X-37.687 Y27.5
G1 F600 X-35.787 Y27.5 E1426.75037
G0 F12000 X-35.787 Y28
G1 F600 X-37.687 Y28 E1426.86885
G0 F12000 X-37.687 Y28.5
G1 F600 X-35.787 Y28.5 E1426.98734
G0 F12000 X-35.787 Y29
G1 F600 X-37.687 Y29 E1427.10583
G0 F12000 X-37.687 Y29.5
G1 F600 X-35.787 Y29.5 E1427.22432
G0 F12000 X-35.787 Y30
G1 F600 X-37.687 Y30 E1427.34281
G0 F12000 X-37.687 Y30.5
G1 F600 X-35.787 Y30.5 E1427.4613
G0 F12000 X-35.787 Y31
G1 F600 X-37.687 Y31 E1427.57979
G0 F12000 X-37.687 Y31.5
G1 F600 X-35.787 Y31.5 E1427.69828
G0 F12000 X-35.787 Y32
G1 F600 X-37.687 Y32 E1427.81677
G0 F12000 X-37.687 Y32.5
G1 F600 X-35.787 Y32.5 E1427.93526
G0 F12000 X-35.787 Y33
G1 F600 X-37.687 Y33 E1428.05375
G0 F12000 X-37.687 Y33.5
G1 F600 X-35.787 Y33.5 E1428.17224
G0 F12000 X-35.787 Y34
G1 F600 X-37.687 Y34 E1428.29073
G0 F12000 X-37.687 Y34.5
G1 F600 X-35.787 Y34.5 E1428.40921
G0 F12000 X-35.787 Y35
G1 F600 X-37.687 Y35 E1428.5277
G0 F12000 X-37.687 Y35.5
G1 F600 X-35.787 Y35.5 E1428.64619
G0 F12000 X-35.787 Y36
G1 F600 X-37.687 Y36 E1428.76468
G0 F12000 X-37.687 Y36.5
G1 F600 X-35.787 Y36.5 E1428.88317
G0 F12000 X-35.787 Y37
G1 F600 X-37.687 Y37 E1429.00166
G0 F12000 X-37.687 Y37.5
G1 F600 X-35.787 Y37.5 E1429.12015
G0 F12000 X-35.787 Y38
G1 F600 X-37.687 Y38 E1429.23864
G0 F12000 X-37.687 Y38.5
G1 F600 X-35.787 Y38.5 E1429.35713
G0 F12000 X-35.787 Y39
G1 F600 X-37.687 Y39 E1429.47562
G0 F12000 X-37.687 Y39.5
G1 F600 X-35.787 Y39.5 E1429.59411
G0 F12000 X-35.787 Y40
G1 F600 X-37.687 Y40 E1429.7126
G0 F12000 X-37.687 Y40.5
G1 F600 X-35.787 Y40.5 E1429.83109
G0 F12000 X-35.787 Y41
G1 F600 X-37.687 Y41 E1429.94957
G0 F12000 X-37.687 Y41.5
G1 F600 X-35.787 Y41.5 E1430.06806
G0 F12000 X-35.787 Y42
G1 F600 X-37.687 Y42 E1430.18655
G0 F12000 X-37.687 Y42.5
G1 F600 X-35.787 Y42.5 E1430.30504
G0 F12000 X-35.787 Y43
G1 F600 X-37.687 Y43 E1430.42353
G0 F12000 X-37.687 Y43.5
G1 F600 X-35.787 Y43.5 E1430.54202
G0 F12000 X-35.787 Y44
G1 F600 X-37.687 Y44 E1430.66051
G0 F12000 X-37.687 Y44.5
G1 F600 X-35.787 Y44.5 E1430.779
G0 F12000 X-35.787 Y45
G1 F600 X-37.687 Y45 E1430.89749
G0 F12000 X-37.687 Y45.5
G1 F600 X-35.787 Y45.5 E1431.01598
G0 F12000 X-35.787 Y46
G1 F600 X-37.687 Y46 E1431.13447
G0 F12000 X-37.687 Y46.5
G1 F600 X-35.787 Y46.5 E1431.25296
G0 F12000 X-35.787 Y47
G1 F600 X-37.687 Y47 E1431.37145
G0 F12000 X-37.687 Y47.5
G1 F600 X-35.787 Y47.5 E1431.48993
G0 F12000 X-35.787 Y48
G1 F600 X-37.687 Y48 E1431.60842
G0 F12000 X-37.687 Y48.5
G1 F600 X-35.787 Y48.5 E1431.72691
G0 F12000 X-35.787 Y49
G1 F600 X-37.687 Y49 E1431.8454
G0 F12000 X-37.687 Y49.5
G1 F600 X-35.787 Y49.5 E1431.96389
G0 F12000 X-35.787 Y50
G1 F600 X-37.687 Y50 E1432.08238
G0 F12000 X-37.687 Y50.5
G1 F600 X-35.787 Y50.5 E1432.20087
G0 F12000 X-35.787 Y51
G1 F600 X-37.687 Y51 E1432.31936
G0 F12000 X-37.687 Y51.5
G1 F600 X-35.787 Y51.5 E1432.43785
G0 F12000 X-35.787 Y52
G1 F600 X-37.687 Y52 E1432.55634
G0 F12000 X-37.687 Y52.5
G1 F600 X-35.787 Y52.5 E1432.67483
G0 F12000 X-35.787 Y53
G1 F600 X-37.687 Y53 E1432.79332
G0 F12000 X-37.687 Y53.5
G1 F600 X-35.787 Y53.5 E1432.91181
G0 F12000 X-35.787 Y54
G1 F600 X-37.687 Y54 E1433.03029
G0 F12000 X-37.687 Y54.5
G1 F600 X-35.787 Y54.5 E1433.14878
G0 F12000 X-35.787 Y55
G1 F600 X-37.687 Y55 E1433.26727
G0 F12000 X-37.687 Y55.5
G1 F600 X-35.787 Y55.5 E1433.38576
G0 F12000 X-35.787 Y56
G1 F600 X-37.687 Y56 E1433.50425
G0 F12000 X-37.687 Y56.5
G1 F600 X-35.787 Y56.5 E1433.62274
G0 F12000 X-35.787 Y57
G1 F600 X-37.687 Y57 E1433.74123
G0 F12000 X-37.687 Y57.5
G1 F600 X-35.787 Y57.5 E1433.85972
G0 F12000 X-35.787 Y58
G1 F600 X-37.687 Y58 E1433.97821
G0 F12000 X-37.687 Y58.5
G1 F600 X-35.787 Y58.5 E1434.0967
G0 F12000 X-35.787 Y59
G1 F600 X-37.687 Y59 E1434.21519
G0 F12000 X-37.686 Y59.5
G1 F600 X-35.786 Y59.5 E1434.33368
G0 F12000 X-35.786 Y60
G1 F600 X-37.686 Y60 E1434.45217
G0 F12000 X-37.686 Y60.5
G1 F600 X-35.786 Y60.5 E1434.57065
G0 F12000 X-35.786 Y61
G1 F600 X-37.686 Y61 E1434.68914
G0 F12000 X-37.686 Y61.5
G1 F600 X-35.786 Y61.5 E1434.80763
G0 F12000 X-35.786 Y62
G1 F600 X-37.686 Y62 E1434.92612
G0 F12000 X-37.686 Y62.5
G1 F600 X-35.786 Y62.5 E1435.04461
G0 F12000 X-35.786 Y63
G1 F600 X-37.686 Y63 E1435.1631
G0 F12000 X-37.686 Y63.5
G1 F600 X-35.786 Y63.5 E1435.28159
G0 F12000 X-35.786 Y64
G1 F600 X-37.686 Y64 E1435.40008
G0 F12000 X-37.686 Y64.5
G1 F600 X-35.786 Y64.5 E1435.51857
G0 F12000 X-35.786 Y65
G1 F600 X-37.686 Y65 E1435.63706
G0 F12000 X-37.686 Y65.5
G1 F600 X-35.786 Y65.5 E1435.75555
G0 F12000 X-35.786 Y66
G1 F600 X-37.686 Y66 E1435.87404
G0 F12000 X-37.686 Y66.5
G1 F600 X-35.786 Y66.5 E1435.99253
G0 F12000 X-35.786 Y67
G1 F600 X-37.686 Y67 E1436.11101
G0 F12000 X-37.686 Y67.5
G1 F600 X-35.786 Y67.5 E1436.2295
G0 F12000 X-35.786 Y68
G1 F600 X-37.686 Y68 E1436.34799
G0 F12000 X-37.686 Y68.5
G1 F600 X-35.786 Y68.5 E1436.46648
G0 F12000 X-35.786 Y69
G1 F600 X-37.686 Y69 E1436.58497
G0 F12000 X-37.686 Y69.5
G1 F600 X-35.786 Y69.5 E1436.70346
G0 F12000 X-35.786 Y70
G1 F600 X-37.686 Y70 E1436.82195
G0 F12000 X-37.686 Y70.5
G1 F600 X-35.786 Y70.5 E1436.94044
G0 F12000 X-35.786 Y71
G1 F600 X-37.686 Y71 E1437.05893
G0 F12000 X-37.686 Y71.5
G1 F600 X-35.786 Y71.5 E1437.17742
G0 F12000 X-35.786 Y72
G1 F600 X-37.686 Y72 E1437.29591
G0 F12000 X-37.686 Y72.5
G1 F600 X-35.786 Y72.5 E1437.4144
G0 F12000 X-27.686 Y72.5
G1 F600 X-25.786 Y72.5 E1437.53289
G0 F12000 X-25.786 Y72
G1 F600 X-27.686 Y72 E1437.65137
G0 F12000 X-27.686 Y71.5
G1 F600 X-25.786 Y71.5 E1437.76986
G0 F12000 X-25.786 Y71
G1 F600 X-27.686 Y71 E1437.88835
G0 F12000 X-27.686 Y70.5
G1 F600 X-25.786 Y70.5 E1438.00684
G0 F12000 X-25.786 Y70
G1 F600 X-27.686 Y70 E1438.12533
G0 F12000 X-27.686 Y69.5
G1 F600 X-25.786 Y69.5 E1438.24382
G0 F12000 X-25.786 Y69
G1 F600 X-27.686 Y69 E1438.36231
G0 F12000 X-27.686 Y68.5
G1 F600 X-25.786 Y68.5 E1438.4808
G0 F12000 X-25.786 Y68
G1 F600 X-27.686 Y68 E1438.59929
G0 F12000 X-27.686 Y67.5
G1 F600 X-25.786 Y67.5 E1438.71778
G0 F12000 X-25.786 Y67
G1 F600 X-27.686 Y67 E1438.83627
G0 F12000 X-27.686 Y66.5
G1 F600 X-25.786 Y66.5 E1438.95476
G0 F12000 X-25.786 Y66
G1 F600 X-27.686 Y66 E1439.07325
G0 F12000 X-27.686 Y65.5
G1 F600 X-25.786 Y65.5 E1439.19173
G0 F12000 X-25.786 Y65
G1 F600 X-27.686 Y65 E1439.31022
G0 F12000 X-27.686 Y64.5
G1 F600 X-25.786 Y64.5 E1439.42871
G0 F12000 X-25.786 Y64
G1 F600 X-27.686 Y64 E1439.5472
G0 F12000 X-27.686 Y63.5
G1 F600 X-25.786 Y63.5 E1439.66569
G0 F12000 X-25.786 Y63
G1 F600 X-27.686 Y63 E1439.78418
G0 F12000 X-27.686 Y62.5
G1 F600 X-25.786 Y62.5 E1439.90267
G0 F12000 X-25.786 Y62
G1 F600 X-27.686 Y62 E1440.02116
G0 F12000 X-27.686 Y61.5
G1 F600 X-25.786 Y61.5 E1440.13965
G0 F12000 X-25.786 Y61
G1 F600 X-27.686 Y61 E1440.25814
G0 F12000 X-27.686 Y60.5
G1 F600 X-25.786 Y60.5 E1440.37663
G0 F12000 X-25.786 Y60
G1 F600 X-27.686 Y60 E1440.49512
G0 F12000 X-27.686 Y59.5
G1 F600 X-25.786 Y59.5 E1440.61361
G0 F12000 X-25.786 Y59
G1 F600 X-27.686 Y59 E1440.73209
G0 F12000 X-27.686 Y58.5
G1 F600 X-25.786 Y58.5 E1440.85058
G0 F12000 X-25.786 Y58
G1 F600 X-27.686 Y58 E1440.96907
G0 F12000 X-27.686 Y57.5
G1 F600 X-25.786 Y57.5 E1441.08756
G0 F12000 X-25.786 Y57
G1 F600 X-27.686 Y57 E1441.20605
G0 F12000 X-27.686 Y56.5
G1 F600 X-25.786 Y56.5 E1441.32454
G0 F12000 X-25.786 Y56
G1 F600 X-27.686 Y56 E1441.44303
G0 F12000 X-27.686 Y55.5
G1 F600 X-25.786 Y55.5 E1441.56152
G0 F12000 X-25.786 Y55
G1 F600 X-27.686 Y55 E1441.68001
G0 F12000 X-27.686 Y54.5
G1 F600 X-25.786 Y54.5 E1441.7985
G0 F12000 X-25.786 Y54
G1 F600 X-27.686 Y54 E1441.91699
G0 F12000 X-27.686 Y53.5
G1 F600 X-25.786 Y53.5 E1442.03548
G0 F12000 X-25.786 Y53
G1 F600 X-27.686 Y53 E1442.15397
G0 F12000 X-27.686 Y52.5
G1 F600 X-25.786 Y52.5 E1442.27245
G0 F12000 X-25.786 Y52
G1 F600 X-27.686 Y52 E1442.39094
G0 F12000 X-27.686 Y51.5
G1 F600 X-25.786 Y51.5 E1442.50943
G0 F12000 X-25.786 Y51
G1 F600 X-27.686 Y51 E1442.62792
G0 F12000 X-27.686 Y50.5
G1 F600 X-25.786 Y50.5 E1442.74641
G0 F12000 X-25.786 Y50
G1 F600 X-27.686 Y50 E1442.8649
G0 F12000 X-27.686 Y49.5
G1 F600 X-25.786 Y49.5 E1442.98339
G0 F12000 X-25.786 Y49
G1 F600 X-27.686 Y49 E1443.10188
G0 F12000 X-27.686 Y48.5
G1 F600 X-25.786 Y48.5 E1443.22037
G0 F12000 X-25.786 Y48
G1 F600 X-27.686 Y48 E1443.33886
G0 F12000 X-27.686 Y47.5
G1 F600 X-25.786 Y47.5 E1443.45735
G0 F12000 X-25.786 Y47
G1 F600 X-27.686 Y47 E1443.57584
G0 F12000 X-27.686 Y46.5
G1 F600 X-25.786 Y46.5 E1443.69433
G0 F12000 X-25.786 Y46
G1 F600 X-27.686 Y46 E1443.81281
G0 F12000 X-27.686 Y45.5
G1 F600 X-25.786 Y45.5 E1443.9313
G0 F12000 X-25.786 Y45
G1 F600 X-27.686 Y45 E1444.04979
G0 F12000 X-27.686 Y44.5
G1 F600 X-25.786 Y44.5 E1444.16828
G0 F12000 X-25.786 Y44
G1 F600 X-27.686 Y44 E1444.28677
G0 F12000 X-27.686 Y43.5
G1 F600 X-25.786 Y43.5 E1444.40526
G0 F12000 X-25.786 Y43
G1 F600 X-27.686 Y43 E1444.52375
G0 F12000 X-27.686 Y42.5
G1 F600 X-25.786 Y42.5 E1444.64224
G0 F12000 X-25.786 Y42
G1 F600 X-27.686 Y42 E1444.76073
G0 F12000 X-27.686 Y41.5
G1 F600 X-25.786 Y41.5 E1444.87922
G0 F12000 X-25.786 Y41
G1 F600 X-27.686 Y41 E1444.99771
G0 F12000 X-27.686 Y40.5
G1 F600 X-25.786 Y40.5 E1445.1162
G0 F12000 X-25.786 Y40
G1 F600 X-27.686 Y40 E1445.23469
G0 F12000 X-27.686 Y39.5
G1 F600 X-25.786 Y39.5 E1445.35317
G0 F12000 X-25.786 Y39
G1 F600 X-27.686 Y39 E1445.47166
G0 F12000 X-27.686 Y38.5
G1 F600 X-25.786 Y38.5 E1445.59015
G0 F12000 X-25.786 Y38
G1 F600 X-27.686 Y38 E1445.70864
G0 F12000 X-27.686 Y37.5
G1 F600 X-25.786 Y37.5 E1445.82713
G0 F12000 X-25.786 Y37
G1 F600 X-27.686 Y37 E1445.94562
G0 F12000 X-27.686 Y36.5
G1 F600 X-25.786 Y36.5 E1446.06411
G0 F12000 X-25.786 Y36
G1 F600 X-27.686 Y36 E1446.1826
G0 F12000 X-27.686 Y35.5
G1 F600 X-25.786 Y35.5 E1446.30109
G0 F12000 X-25.786 Y35
G1 F600 X-27.686 Y35 E1446.41958
G0 F12000 X-27.686 Y34.5
G1 F600 X-25.786 Y34.5 E1446.53807
G0 F12000 X-25.786 Y34
G1 F600 X-27.686 Y34 E1446.65656
G0 F12000 X-27.686 Y33.5
G1 F600 X-25.786 Y33.5 E1446.77505
G0 F12000 X-25.786 Y33
G1 F600 X-27.686 Y33 E1446.89353
G0 F12000 X-27.686 Y32.5
G1 F600 X-25.786 Y32.5 E1447.01202
G0 F12000 X-25.786 Y32
G1 F600 X-27.686 Y32 E1447.13051
G0 F12000 X-27.686 Y31.5
G1 F600 X-25.786 Y31.5 E1447.249
G0 F12000 X-25.786 Y31
G1 F600 X-27.686 Y31 E1447.36749
G0 F12000 X-27.686 Y30.5
G1 F600 X-25.786 Y30.5 E1447.48598
G0 F12000 X-25.786 Y30
G1 F600 X-27.686 Y30 E1447.60447
G0 F12000 X-27.687 Y29.5
G1 F600 X-25.787 Y29.5 E1447.72296
G0 F12000 X-25.787 Y29
G1 F600 X-27.687 Y29 E1447.84145
G0 F12000 X-27.687 Y28.5
G1 F600 X-25.787 Y28.5 E1447.95994
G0 F12000 X-25.787 Y28
G1 F600 X-27.687 Y28 E1448.07843
G0 F12000 X-27.687 Y27.5
G1 F600 X-25.787 Y27.5 E1448.19692
G0 F12000 X-25.787 Y27
G1 F600 X-27.687 Y27 E1448.31541
G0 F12000 X-27.687 Y26.5
G1 F600 X-25.787 Y26.5 E1448.43389
G0 F12000 X-25.787 Y26
G1 F600 X-27.687 Y26 E1448.55238
G0 F12000 X-27.687 Y25.5
G1 F600 X-25.787 Y25.5 E1448.67087
G0 F12000 X-25.787 Y25
G1 F600 X-27.687 Y25 E1448.78936
G0 F12000 X-27.687 Y24.5
G1 F600 X-25.787 Y24.5 E1448.90785
G0 F12000 X-25.787 Y24
G1 F600 X-27.687 Y24 E1449.02634
G0 F12000 X-27.687 Y23.5
G1 F600 X-25.787 Y23.5 E1449.14483
G0 F12000 X-25.787 Y23
G1 F600 X-27.687 Y23 E1449.26332
G0 F12000 X-27.687 Y22.5
G1 F600 X-25.787 Y22.5 E1449.38181
G0 F12000 X-25.787 Y22
G1 F600 X-27.687 Y22 E1449.5003
G0 F12000 X-27.687 Y21.5
G1 F600 X-25.787 Y21.5 E1449.61879
G0 F12000 X-25.787 Y21
G1 F600 X-27.687 Y21 E1449.73728
G0 F12000 X-27.687 Y20.5
G1 F600 X-25.787 Y20.5 E1449.85577
G0 F12000 X-25.787 Y20
G1 F600 X-27.687 Y20 E1449.97425
G0 F12000 X-27.687 Y19.5
G1 F600 X-25.787 Y19.5 E1450.09274
G0 F12000 X-25.787 Y19
G1 F600 X-27.687 Y19 E1450.21123
G0 F12000 X-27.687 Y18.5
G1 F600 X-25.787 Y18.5 E1450.32972
G0 F12000 X-25.787 Y18
G1 F600 X-27.687 Y18 E1450.44821
G0 F12000 X-27.687 Y17.5
G1 F600 X-25.787 Y17.5 E1450.5667
G0 F12000 X-25.787 Y17
G1 F600 X-27.687 Y17 E1450.68519
G0 F12000 X-27.687 Y16.5
G1 F600 X-25.787 Y16.5 E1450.80368
G0 F12000 X-25.787 Y16
G1 F600 X-27.687 Y16 E1450.92217
G0 F12000 X-27.687 Y15.5
G1 F600 X-25.787 Y15.5 E1451.04066
G0 F12000 X-25.787 Y15
G1 F600 X-27.687 Y15 E1451.15915
G0 F12000 X-27.687 Y14.5
G1 F600 X-25.787 Y14.5 E1451.27764
G0 F12000 X-17.687 Y14.5
G1 F600 X-15.787 Y14.5 E1451.39613
G0 F12000 X-15.786 Y15
G1 F600 X-17.687 Y15 E1451.51468
G0 F12000 X-17.687 Y15.5
G1 F600 X-15.786 Y15.5 E1451.63323
G0 F12000 X-15.786 Y16
G1 F600 X-17.687 Y16 E1451.75178
G0 F12000 X-17.687 Y16.5
G1 F600 X-15.786 Y16.5 E1451.87033
G0 F12000 X-15.786 Y17
G1 F600 X-17.687 Y17 E1451.98888
G0 F12000 X-17.687 Y17.5
G1 F600 X-15.786 Y17.5 E1452.10743
G0 F12000 X-15.786 Y18
G1 F600 X-17.687 Y18 E1452.22599
G0 F12000 X-17.687 Y18.5
G1 F600 X-15.786 Y18.5 E1452.34454
G0 F12000 X-15.786 Y19
G1 F600 X-17.687 Y19 E1452.46309
G0 F12000 X-17.687 Y19.5
G1 F600 X-15.786 Y19.5 E1452.58164
G0 F12000 X-15.786 Y20
G1 F600 X-17.687 Y20 E1452.70019
G0 F12000 X-17.687 Y20.5
G1 F600 X-15.786 Y20.5 E1452.81874
G0 F12000 X-15.786 Y21
G1 F600 X-17.687 Y21 E1452.9373
G0 F12000 X-17.687 Y21.5
G1 F600 X-15.786 Y21.5 E1453.05585
G0 F12000 X-15.786 Y22
G1 F600 X-17.687 Y22 E1453.1744
G0 F12000 X-17.687 Y22.5
G1 F600 X-15.786 Y22.5 E1453.29295
G0 F12000 X-15.786 Y23
G1 F600 X-17.687 Y23 E1453.4115
G0 F12000 X-17.687 Y23.5
G1 F600 X-15.786 Y23.5 E1453.53005
G0 F12000 X-15.786 Y24
G1 F600 X-17.687 Y24 E1453.64861
G0 F12000 X-17.687 Y24.5
G1 F600 X-15.786 Y24.5 E1453.76716
G0 F12000 X-15.786 Y25
G1 F600 X-17.687 Y25 E1453.88571
G0 F12000 X-17.687 Y25.5
G1 F600 X-15.786 Y25.5 E1454.00426
G0 F12000 X-15.786 Y26
G1 F600 X-17.687 Y26 E1454.12281
G0 F12000 X-17.687 Y26.5
G1 F600 X-15.786 Y26.5 E1454.24136
G0 F12000 X-15.786 Y27
G1 F600 X-17.687 Y27 E1454.35992
G0 F12000 X-17.687 Y27.5
G1 F600 X-15.786 Y27.5 E1454.47847
G0 F12000 X-15.786 Y28
G1 F600 X-17.687 Y28 E1454.59702
G0 F12000 X-17.687 Y28.5
G1 F600 X-15.786 Y28.5 E1454.71557
G0 F12000 X-15.786 Y29
G1 F600 X-17.687 Y29 E1454.83412
G0 F12000 X-17.687 Y29.5
G1 F600 X-15.786 Y29.5 E1454.95267
G0 F12000 X-15.786 Y30
G1 F600 X-17.686 Y30 E1455.07116
G0 F12000 X-17.686 Y30.5
G1 F600 X-15.786 Y30.5 E1455.18965
G0 F12000 X-15.786 Y31
G1 F600 X-17.686 Y31 E1455.30814
G0 F12000 X-17.686 Y31.5
G1 F600 X-15.786 Y31.5 E1455.42663
G0 F12000 X-15.786 Y32
G1 F600 X-17.686 Y32 E1455.54512
G0 F12000 X-17.686 Y32.5
G1 F600 X-15.786 Y32.5 E1455.66361
G0 F12000 X-15.786 Y33
G1 F600 X-17.686 Y33 E1455.7821
G0 F12000 X-17.686 Y33.5
G1 F600 X-15.786 Y33.5 E1455.90059
G0 F12000 X-15.786 Y34
G1 F600 X-17.686 Y34 E1456.01908
G0 F12000 X-17.686 Y34.5
G1 F600 X-15.786 Y34.5 E1456.13757
G0 F12000 X-15.786 Y35
G1 F600 X-17.686 Y35 E1456.25605
G0 F12000 X-17.686 Y35.5
G1 F600 X-15.786 Y35.5 E1456.37454
G0 F12000 X-15.786 Y36
G1 F600 X-17.686 Y36 E1456.49303
G0 F12000 X-17.686 Y36.5
G1 F600 X-15.786 Y36.5 E1456.61152
G0 F12000 X-15.786 Y37
G1 F600 X-17.686 Y37 E1456.73001
G0 F12000 X-17.686 Y37.5
G1 F600 X-15.786 Y37.5 E1456.8485
G0 F12000 X-15.786 Y38
G1 F600 X-17.686 Y38 E1456.96699
G0 F12000 X-17.686 Y38.5
G1 F600 X-15.786 Y38.5 E1457.08548
G0 F12000 X-15.786 Y39
G1 F600 X-17.686 Y39 E1457.20397
G0 F12000 X-17.686 Y39.5
G1 F600 X-15.786 Y39.5 E1457.32246
G0 F12000 X-15.786 Y40
G1 F600 X-17.686 Y40 E1457.44095
G0 F12000 X-17.686 Y40.5
G1 F600 X-15.786 Y40.5 E1457.55944
G0 F12000 X-15.786 Y41
G1 F600 X-17.686 Y41 E1457.67793
G0 F12000 X-17.686 Y41.5
G1 F600 X-15.786 Y41.5 E1457.79641
G0 F12000 X-15.786 Y42
G1 F600 X-17.686 Y42 E1457.9149
G0 F12000 X-17.686 Y42.5
G1 F600 X-15.786 Y42.5 E1458.03339
G0 F12000 X-15.786 Y43
G1 F600 X-17.686 Y43 E1458.15188
G0 F12000 X-17.686 Y43.5
G1 F600 X-15.786 Y43.5 E1458.27037
G0 F12000 X-15.786 Y44
G1 F600 X-17.686 Y44 E1458.38886
G0 F12000 X-17.686 Y44.5
G1 F600 X-15.786 Y44.5 E1458.50735
G0 F12000 X-15.786 Y45
G1 F600 X-17.686 Y45 E1458.62584
G0 F12000 X-17.686 Y45.5
G1 F600 X-15.786 Y45.5 E1458.74433
G0 F12000 X-15.786 Y46
G1 F600 X-17.686 Y46 E1458.86282
G0 F12000 X-17.686 Y46.5
G1 F600 X-15.786 Y46.5 E1458.98131
G0 F12000 X-15.786 Y47
G1 F600 X-17.686 Y47 E1459.0998
G0 F12000 X-17.686 Y47.5
G1 F600 X-15.786 Y47.5 E1459.21829
G0 F12000 X-15.786 Y48
G1 F600 X-17.686 Y48 E1459.33677
G0 F12000 X-17.686 Y48.5
G1 F600 X-15.786 Y48.5 E1459.45526
G0 F12000 X-15.786 Y49
G1 F600 X-17.686 Y49 E1459.57375
G0 F12000 X-17.686 Y49.5
G1 F600 X-15.786 Y49.5 E1459.69224
G0 F12000 X-15.786 Y50
G1 F600 X-17.686 Y50 E1459.81073
G0 F12000 X-17.686 Y50.5
G1 F600 X-15.786 Y50.5 E1459.92922
G0 F12000 X-15.786 Y51
G1 F600 X-17.686 Y51 E1460.04771
G0 F12000 X-17.686 Y51.5
G1 F600 X-15.786 Y51.5 E1460.1662
G0 F12000 X-15.786 Y52
G1 F600 X-17.686 Y52 E1460.28469
G0 F12000 X-17.686 Y52.5
G1 F600 X-15.786 Y52.5 E1460.40318
G0 F12000 X-15.786 Y53
G1 F600 X-17.686 Y53 E1460.52167
G0 F12000 X-17.686 Y53.5
G1 F600 X-15.786 Y53.5 E1460.64016
G0 F12000 X-15.786 Y54
G1 F600 X-17.686 Y54 E1460.75865
G0 F12000 X-17.686 Y54.5
G1 F600 X-15.786 Y54.5 E1460.87713
G0 F12000 X-15.786 Y55
G1 F600 X-17.686 Y55 E1460.99562
G0 F12000 X-17.686 Y55.5
G1 F600 X-15.786 Y55.5 E1461.11411
G0 F12000 X-15.786 Y56
G1 F600 X-17.686 Y56 E1461.2326
G0 F12000 X-17.686 Y56.5
G1 F600 X-15.786 Y56.5 E1461.35109
G0 F12000 X-15.786 Y57
G1 F600 X-17.686 Y57 E1461.46958
G0 F12000 X-17.686 Y57.5
G1 F600 X-15.786 Y57.5 E1461.58807
G0 F12000 X-15.786 Y58
G1 F600 X-17.686 Y58 E1461.70656
G0 F12000 X-17.686 Y58.5
G1 F600 X-15.786 Y58.5 E1461.82505
G0 F12000 X-15.786 Y59
G1 F600 X-17.686 Y59 E1461.94354
G0 F12000 X-17.686 Y59.5
G1 F600 X-15.786 Y59.5 E1462.06203
G0 F12000 X-15.786 Y60
G1 F600 X-17.686 Y60 E1462.18052
G0 F12000 X-17.686 Y60.5
G1 F600 X-15.786 Y60.5 E1462.29901
G0 F12000 X-15.786 Y61
G1 F600 X-17.686 Y61 E1462.41749
G0 F12000 X-17.686 Y61.5
G1 F600 X-15.786 Y61.5 E1462.53598
G0 F12000 X-15.786 Y62
G1 F600 X-17.686 Y62 E1462.65447
G0 F12000 X-17.686 Y62.5
G1 F600 X-15.786 Y62.5 E1462.77296
G0 F12000 X-15.786 Y63
G1 F600 X-17.686 Y63 E1462.89145
G0 F12000 X-17.686 Y63.5
G1 F600 X-15.786 Y63.5 E1463.00994
G0 F12000 X-15.786 Y64
G1 F600 X-17.686 Y64 E1463.12843
G0 F12000 X-17.686 Y64.5
G1 F600 X-15.786 Y64.5 E1463.24692
G0 F12000 X-15.786 Y65
G1 F600 X-17.686 Y65 E1463.36541
G0 F12000 X-17.686 Y65.5
G1 F600 X-15.786 Y65.5 E1463.4839
G0 F12000 X-15.786 Y66
G1 F600 X-17.686 Y66 E1463.60239
G0 F12000 X-17.686 Y66.5
G1 F600 X-15.786 Y66.5 E1463.72088
G0 F12000 X-15.786 Y67
G1 F600 X-17.686 Y67 E1463.83937
G0 F12000 X-17.686 Y67.5
G1 F600 X-15.786 Y67.5 E1463.95785
G0 F12000 X-15.786 Y68
G1 F600 X-17.686 Y68 E1464.07634
G0 F12000 X-17.686 Y68.5
G1 F600 X-15.786 Y68.5 E1464.19483
G0 F12000 X-15.786 Y69
G1 F600 X-17.686 Y69 E1464.31332
G0 F12000 X-17.686 Y69.5
G1 F600 X-15.786 Y69.5 E1464.43181
G0 F12000 X-15.786 Y70
G1 F600 X-17.686 Y70 E1464.5503
G0 F12000 X-17.686 Y70.5
G1 F600 X-15.786 Y70.5 E1464.66879
G0 F12000 X-15.786 Y71
G1 F600 X-17.686 Y71 E1464.78728
G0 F12000 X-17.686 Y71.5
G1 F600 X-15.786 Y71.5 E1464.90577
G0 F12000 X-15.786 Y72
G1 F600 X-17.686 Y72 E1465.02426
G0 F12000 X-17.686 Y72.5
G1 F600 X-15.786 Y72.5 E1465.14275
G0 F12000 X-7.686 Y72.5
G1 F600 X91.711 Y72.5 E1471.34142
G0 F12000 X91.711 Y72
G1 F600 X-7.686 Y72 E1477.54009
G0 F12000 X-7.686 Y71.5
G1 F600 X91.711 Y71.5 E1483.73876
G0 F12000 X91.711 Y71
G1 F600 X-7.686 Y71 E1489.93743
G0 F12000 X-7.686 Y70.5
G1 F600 X91.711 Y70.5 E1496.1361
G0 F12000 X91.711 Y70
G1 F600 X-7.686 Y70 E1502.33477
G0 F12000 X-7.686 Y69.5
G1 F600 X91.711 Y69.5 E1508.53344
G0 F12000 X91.711 Y69
G1 F600 X-7.686 Y69 E1514.73211
G0 F12000 X-7.686 Y68.5
G1 F600 X91.711 Y68.5 E1520.93078
G0 F12000 X91.711 Y68
G1 F600 X-7.686 Y68 E1527.12945
G0 F12000 X-7.686 Y67.5
G1 F600 X91.711 Y67.5 E1533.32812
G0 F12000 X91.711 Y67
G1 F600 X-7.686 Y67 E1539.52679
G0 F12000 X-7.686 Y66.5
G1 F600 X91.711 Y66.5 E1545.72546
G0 F12000 X91.711 Y66
G1 F600 X-7.686 Y66 E1551.92414
G0 F12000 X-7.686 Y65.5
G1 F600 X91.711 Y65.499 E1558.12281
G0 F12000 X91.711 Y64.999
G1 F600 X-7.686 Y65 E1564.32148
G0 F12000 X-7.686 Y64.5
G1 F600 X91.711 Y64.499 E1570.52015
G0 F12000 X91.711 Y63.999
G1 F600 X-7.686 Y64 E1576.71882
G0 F12000 X-7.686 Y63.5
G1 F600 X91.711 Y63.499 E1582.91749
G0 F12000 X91.711 Y62.999
G1 F600 X-7.686 Y63 E1589.11616
G0 F12000 X-7.686 Y62.5
G1 F600 X91.711 Y62.499 E1595.31483
G0 F12000 X91.711 Y61.999
G1 F600 X-7.686 Y62 E1601.5135
G0 F12000 X-7.686 Y61.5
G1 F600 X91.711 Y61.499 E1607.71217
G0 F12000 X91.711 Y60.999
G1 F600 X-7.686 Y61 E1613.91084
G0 F12000 X-7.686 Y60.5
G1 F600 X91.711 Y60.499 E1620.10951
G0 F12000 X91.711 Y59.999
G1 F600 X-7.686 Y60 E1626.30818
G0 F12000 X-7.686 Y59.5
G1 F600 X91.711 Y59.499 E1632.50685
G0 F12000 X91.711 Y58.999
G1 F600 X-7.686 Y59 E1638.70552
G0 F12000 X-7.686 Y58.5
G1 F600 X91.711 Y58.499 E1644.90419
G0 F12000 X91.711 Y57.999
G1 F600 X-7.686 Y58 E1651.10286
G0 F12000 X-7.686 Y57.5
G1 F600 X91.711 Y57.499 E1657.30154
G0 F12000 X91.711 Y56.999
G1 F600 X-7.686 Y57 E1663.50021
G0 F12000 X-7.686 Y56.5
G1 F600 X91.711 Y56.499 E1669.69888
G0 F12000 X91.711 Y55.999
G1 F600 X-7.686 Y56 E1675.89755
G0 F12000 X-7.686 Y55.5
G1 F600 X91.711 Y55.499 E1682.09622
G0 F12000 X91.711 Y54.999
G1 F600 X-7.686 Y55 E1688.29489
G0 F12000 X-7.686 Y54.5
G1 F600 X91.711 Y54.499 E1694.49356
G0 F12000 X91.711 Y53.999
G1 F600 X-7.686 Y54 E1700.69223
G0 F12000 X-7.686 Y53.5
G1 F600 X91.711 Y53.499 E1706.8909
G0 F12000 X91.711 Y52.999
G1 F600 X-7.686 Y53 E1713.08957
G0 F12000 X-7.686 Y52.5
G1 F600 X91.711 Y52.499 E1719.28824
G0 F12000 X91.711 Y51.999
G1 F600 X-7.686 Y52 E1725.48691
G0 F12000 X-7.686 Y51.5
G1 F600 X91.711 Y51.499 E1731.68558
G0 F12000 X91.711 Y50.999
G1 F600 X-7.686 Y51 E1737.88425
G0 F12000 X-7.686 Y50.5
G1 F600 X91.711 Y50.499 E1744.08292
G0 F12000 X91.711 Y49.999
G1 F600 X-7.686 Y50 E1750.28159
G0 F12000 X-7.686 Y49.5
G1 F600 X91.711 Y49.499 E1756.48026
G0 F12000 X91.711 Y48.999
G1 F600 X-7.686 Y49 E1762.67893
G0 F12000 X-7.686 Y48.5
G1 F600 X91.711 Y48.499 E1768.87761
G0 F12000 X91.711 Y47.999
G1 F600 X-7.686 Y48 E1775.07628
G0 F12000 X-7.686 Y47.5
G1 F600 X91.711 Y47.499 E1781.27495
G0 F12000 X91.711 Y46.999
G1 F600 X-7.686 Y47 E1787.47362
G0 F12000 X-7.686 Y46.5
G1 F600 X91.711 Y46.499 E1793.67229
G0 F12000 X91.711 Y45.999
G1 F600 X-7.686 Y46 E1799.87096
G0 F12000 X-7.686 Y45.5
G1 F600 X91.711 Y45.499 E1806.06963
G0 F12000 X91.711 Y44.999
G1 F600 X74.811 Y44.999 E1807.12356
G0 F12000 X74.811 Y44.499
G1 F600 X91.711 Y44.499 E1808.17749
G0 F12000 X91.711 Y43.999
G1 F600 X74.811 Y43.999 E1809.23142
G0 F12000 X74.811 Y43.499
G1 F600 X91.711 Y43.499 E1810.28535
G0 F12000 X91.711 Y42.999
G1 F600 X74.811 Y42.999 E1811.33928
G0 F12000 X74.811 Y42.499
G1 F600 X91.711 Y42.499 E1812.39321
G0 F12000 X91.711 Y41.999
G1 F600 X74.811 Y41.999 E1813.44714
G0 F12000 X74.811 Y41.499
G1 F600 X91.711 Y41.499 E1814.50107
G0 F12000 X91.711 Y40.999
G1 F600 X74.811 Y40.999 E1815.555
G0 F12000 X74.811 Y40.499
G1 F600 X91.711 Y40.499 E1816.60893
G0 F12000 X91.711 Y39.999
G1 F600 X74.811 Y39.999 E1817.66286
G0 F12000 X74.811 Y39.499
G1 F600 X91.711 Y39.499 E1818.7168
G0 F12000 X91.711 Y38.999
G1 F600 X74.811 Y38.999 E1819.77073
G0 F12000 X74.811 Y38.499
G1 F600 X91.711 Y38.499 E1820.82466
G0 F12000 X91.711 Y37.999
G1 F600 X74.811 Y37.999 E1821.87859
G0 F12000 X74.811 Y37.499
G1 F600 X91.711 Y37.499 E1822.93252
G0 F12000 X91.711 Y36.999
G1 F600 X74.811 Y36.999 E1823.98645
G0 F12000 X74.811 Y36.499
G1 F600 X91.711 Y36.499 E1825.04038
G0 F12000 X91.711 Y35.999
G1 F600 X74.811 Y35.999 E1826.09431
G0 F12000 X74.811 Y35.499
G1 F600 X91.711 Y35.499 E1827.14824
G0 F12000 X91.711 Y34.999
G1 F600 X74.811 Y34.999 E1828.20217
G0 F12000 X74.811 Y34.499
G1 F600 X91.711 Y34.499 E1829.2561
G0 F12000 X91.711 Y33.999
G1 F600 X74.811 Y33.999 E1830.31003
G0 F12000 X74.811 Y33.499
G1 F600 X91.711 Y33.499 E1831.36396
G0 F12000 X91.711 Y32.999
G1 F600 X74.811 Y32.999 E1832.41789
G0 F12000 X74.811 Y32.499
G1 F600 X91.711 Y32.499 E1833.47182
G0 F12000 X91.711 Y31.999
G1 F600 X74.811 Y31.999 E1834.52575
G0 F12000 X74.811 Y31.499
G1 F600 X91.711 Y31.499 E1835.57968
G0 F12000 X91.711 Y30.999
G1 F600 X74.811 Y30.999 E1836.63361
G0 F12000 X74.811 Y30.499
G1 F600 X91.711 Y30.499 E1837.68754
G0 F12000 X91.711 Y29.999
G1 F600 X74.811 Y29.999 E1838.74148
G0 F12000 X74.811 Y29.499
G1 F600 X91.711 Y29.499 E1839.79541
G0 F12000 X91.711 Y28.999
G1 F600 X74.811 Y28.999 E1840.84934
G0 F12000 X74.811 Y28.499
G1 F600 X91.711 Y28.499 E1841.90327
G0 F12000 X91.711 Y27.999
G1 F600 X74.811 Y27.999 E1842.9572
G0 F12000 X74.811 Y27.499
G1 F600 X91.711 Y27.499 E1844.01113
G0 F12000 X91.711 Y26.999
G1 F600 X74.811 Y26.999 E1845.06506
G0 F12000 X74.811 Y26.499
G1 F600 X91.711 Y26.499 E1846.11899
G0 F12000 X91.711 Y25.999
G1 F600 X74.811 Y25.999 E1847.17292
G0 F12000 X74.811 Y25.499
G1 F600 X91.711 Y25.499 E1848.22685
G0 F12000 X91.711 Y24.999
G1 F600 X74.811 Y24.999 E1849.28078
G0 F12000 X74.811 Y24.499
G1 F600 X91.711 Y24.499 E1850.33471
G0 F12000 X91.711 Y23.999
G1 F600 X74.811 Y23.999 E1851.38864
G0 F12000 X74.811 Y23.499
G1 F600 X91.711 Y23.499 E1852.44257
G0 F12000 X91.711 Y22.999
G1 F600 X74.811 Y22.999 E1853.4965
G0 F12000 X74.811 Y22.499
G1 F600 X91.711 Y22.499 E1854.55043
G0 F12000 X91.711 Y21.999
G1 F600 X74.811 Y21.999 E1855.60436
G0 F12000 X74.811 Y21.499
G1 F600 X91.711 Y21.499 E1856.65829
G0 F12000 X91.711 Y20.999
G1 F600 X74.811 Y20.999 E1857.71223
G0 F12000 X74.811 Y20.499
G1 F600 X91.711 Y20.499 E1858.76616
G0 F12000 X91.711 Y19.999
G1 F600 X74.811 Y19.999 E1859.82009
G0 F12000 X74.811 Y19.499
G1 F600 X91.711 Y19.499 E1860.87402
G0 F12000 X91.711 Y18.999
G1 F600 X74.811 Y18.999 E1861.92795
G0 F12000 X74.811 Y18.499
G1 F600 X91.711 Y18.499 E1862.98188
G0 F12000 X91.711 Y17.999
G1 F600 X74.811 Y17.999 E1864.03581
G0 F12000 X74.811 Y17.499
G1 F600 X91.711 Y17.499 E1865.08974
G0 F12000 X91.711 Y16.999
G1 F600 X74.811 Y16.999 E1866.14367
G0 F12000 X74.811 Y16.499
G1 F600 X91.711 Y16.499 E1867.1976
G0 F12000 X91.711 Y15.999
G1 F600 X74.811 Y15.999 E1868.25153
G0 F12000 X74.811 Y15.499
G1 F600 X91.711 Y15.499 E1869.30546
G0 F12000 X91.711 Y14.999
G1 F600 X74.811 Y14.999 E1870.35939
G0 F12000 X74.811 Y14.499
G1 F600 X91.711 Y14.499 E1871.41332
G0 F12000 X91.711 Y13.999
G1 F600 X74.811 Y13.999 E1872.46725
G0 F12000 X74.811 Y13.499
G1 F600 X91.711 Y13.499 E1873.52118
G0 F12000 X91.711 Y12.999
G1 F600 X74.811 Y12.999 E1874.57511
G0 F12000 X74.811 Y12.499
G1 F600 X91.711 Y12.499 E1875.62904
G0 F12000 X91.711 Y11.999
G1 F600 X74.811 Y11.999 E1876.68297
G0 F12000 X74.811 Y11.499
G1 F600 X91.711 Y11.499 E1877.73691
G0 F12000 X91.711 Y10.999
G1 F600 X74.811 Y10.999 E1878.79084
G0 F12000 X74.811 Y10.499
G1 F600 X91.711 Y10.499 E1879.84477
G0 F12000 X91.711 Y9.999
G1 F600 X74.811 Y9.999 E1880.8987
G0 F12000 X74.811 Y9.499
G1 F600 X91.711 Y9.499 E1881.95263
G0 F12000 X91.711 Y8.999
G1 F600 X74.811 Y8.999 E1883.00656
G0 F12000 X74.811 Y8.499
G1 F600 X91.711 Y8.499 E1884.06049
G0 F12000 X91.711 Y7.999
G1 F600 X74.811 Y7.999 E1885.11442
G0 F12000 X74.811 Y7.499
G1 F600 X91.711 Y7.499 E1886.16835
G0 F12000 X91.711 Y6.999
G1 F600 X74.811 Y6.999 E1887.22228
G0 F12000 X74.811 Y6.499
G1 F600 X91.711 Y6.499 E1888.27621
G0 F12000 X91.711 Y5.999
G1 F600 X74.811 Y5.999 E1889.33014
G0 F12000 X74.811 Y5.499
G1 F600 X91.711 Y5.499 E1890.38407
G0 F12000 X91.711 Y4.999
G1 F600 X74.811 Y4.999 E1891.438
G0 F12000 X74.811 Y4.499
G1 F600 X91.711 Y4.499 E1892.49193
G0 F12000 X91.711 Y3.999
G1 F600 X74.811 Y3.999 E1893.54586
G0 F12000 X74.811 Y3.499
G1 F600 X91.711 Y3.499 E1894.59979
G0 F12000 X91.711 Y2.999
G1 F600 X90.1 Y2.999 E1894.70026
G0 F12000 X90.9 Y2.499
G1 F600 X91.711 Y2.249 E1894.75086
G1 X91.368 Y1.999 E1894.77733
G0 F12000 X91.366 Y-2
G1 F600 X91.711 Y-2.25 E1894.79879
G1 X90.896 Y-2.5 E1894.85196
G0 F12000 X90.097 Y-3
G1 F600 X91.711 Y-3 E1894.95261
G0 F12000 X91.711 Y-3.5
G1 F600 X-91.711 Y-3.499 E1906.39131
G0 F12000 X-91.711 Y-3.999
G1 F600 X-70.724 Y-3.999 E1907.70012
G0 F12000 X-71.692 Y-4.499
G1 F600 X-91.711 Y-4.499 E1908.94856
G0 F12000 X-91.711 Y-4.999
G1 F600 X-72.243 Y-4.999 E1910.16264
G0 F12000 X-72.626 Y-5.499
G1 F600 X-91.711 Y-5.499 E1911.35283
G0 F12000 X-91.711 Y-5.999
G1 F600 X-72.833 Y-5.999 E1912.53011
G0 F12000 X-72.983 Y-6.499
G1 F600 X-91.711 Y-6.499 E1913.69804
G0 F12000 X-91.711 Y-6.999
G1 F600 X-73.049 Y-6.999 E1914.86186
G0 F12000 X-73.023 Y-7.499
G1 F600 X-91.711 Y-7.499 E1916.02729
G0 F12000 X-91.711 Y-7.999
G1 F600 X-72.957 Y-7.999 E1917.19684
G0 F12000 X-72.753 Y-8.499
G1 F600 X-91.711 Y-8.499 E1918.37912
G0 F12000 X-91.711 Y-8.999
G1 F600 X-72.479 Y-8.999 E1919.57848
G0 F12000 X-72.094 Y-9.499
G1 F600 X-91.711 Y-9.499 E1920.80185
G0 F12000 X-91.711 Y-9.999
G1 F600 X-71.445 Y-9.999 E1922.06569
G0 F12000 X-68.065 Y-9.999
G1 F600 X-9.945 Y-10 E1925.69021
G0 F12000 X-10.594 Y-9.5
G1 F600 X-67.412 Y-9.499 E1929.23354
G0 F12000 X-67.029 Y-8.999
G1 F600 X-10.979 Y-9 E1932.72897
G0 F12000 X-11.253 Y-8.5
G1 F600 X-66.756 Y-8.499 E1936.19029
G0 F12000 X-66.561 Y-7.999
G1 F600 X-11.457 Y-7.999 E1939.62673
G0 F12000 X-11.523 Y-7.499
G1 F600 X-66.489 Y-7.499 E1943.05456
G0 F12000 X-66.461 Y-6.999
G1 F600 X-11.549 Y-6.999 E1946.47902
G0 F12000 X-11.483 Y-6.499
G1 F600 X-66.527 Y-6.499 E1949.91172
G0 F12000 X-66.677 Y-5.999
G1 F600 X-11.333 Y-5.999 E1953.36312
G0 F12000 X-11.126 Y-5.499
G1 F600 X-66.884 Y-5.499 E1956.84035
G0 F12000 X-67.268 Y-4.999
G1 F600 X-10.743 Y-4.999 E1960.3654
G0 F12000 X-10.192 Y-4.499
G1 F600 X-67.82 Y-4.499 E1963.95924
G0 F12000 X-68.788 Y-3.999
G1 F600 X-9.224 Y-3.999 E1967.67382
G0 F12000 X-7.288 Y-3.999
