; Generated with MatterSlice 1.0
; filamentDiameter = 1.75
; extrusionWidth = 0.5
; firstLayerExtrusionWidth = 0.55
; layerThickness = 0.2
; firstLayerThickness = 0.3
; automatic settings before start_gcode
G21 ; set units to millimeters
M107 ; fan off
T0 ; set the active extruder to 0
; settings from start_gcode
M104 S215
M190 S60
M109 S215
G28
; automatic settings after start_gcode
T0 ; set the active extruder to 0
G90 ; use absolute coordinates
G92 E0 ; reset the expected extruder position
M82 ; use absolute distance for extrusion
; Layer count: 127
; Layer Change GCode
; LAYER:0
M400
M107
G0 F12000 X95.736 Y95.975 Z0.7
; TYPE:SKIRT
G1 Z0.4
G1 F6600 E0
G1 F600 X-95.736 Y95.975 E13.13479
G1 X-95.736 Y-95.974 E26.30231
G1 X95.736 Y-95.974 E39.4371
G1 X95.736 Y95.975 E52.60462
G0 F12000 X95.186 Y95.425
G1 F600 X-95.186 Y95.425 E65.66395
G1 X-95.186 Y-95.424 E78.75601
G1 X95.186 Y-95.424 E91.81534
G1 X95.186 Y95.425 E104.9074
G0 F12000 X94.636 Y94.875
G1 F600 X-94.636 Y94.875 E117.89127
G1 X-94.636 Y-94.874 E130.90787
G1 X94.636 Y-94.874 E143.89174
G1 X94.636 Y94.875 E156.90834
G0 F12000 X94.086 Y94.325
G1 F600 X-94.086 Y94.325 E169.81676
G1 X-94.086 Y-94.324 E182.7579
G1 X94.086 Y-94.324 E195.66631
G1 X94.086 Y94.325 E208.60745
G0 F12000 X93.536 Y93.775
G1 F600 X-93.536 Y93.775 E221.44041
G1 X-93.536 Y-93.774 E234.30609
G1 X93.536 Y-93.774 E247.13904
G1 X93.536 Y93.775 E260.00472
G1 F6600 E256.00472
G1 Z0.7
G0 F12000 X93.261 Y93.5
G0 X92.436 Y92.675
G0 X69.586 Y92.675
G0 X69.586 Y68.175
G0 X18.486 Y68.175
G0 X18.486 Y68.725
; TYPE:WALL-OUTER
G1 Z0.4
G1 F6600 E260.10472
G1 F600 X18.486 Y93.225 E261.7854
G1 X-92.986 Y93.225 E269.43227
G1 X-92.986 Y-93.224 E282.22249
G1 X92.986 Y-93.224 E294.97999
G1 X92.986 Y93.225 E307.77021
G1 X69.036 Y93.225 E309.41316
G1 X69.036 Y68.725 E311.09383
G1 X18.486 Y68.725 E314.56151
G0 F12000 X18.486 Y68.175
G0 X17.936 Y68.175
; TYPE:WALL-INNER
G1 F600 X17.936 Y92.675 E316.24219
G1 X-92.436 Y92.675 E323.8136
G1 X-92.436 Y-92.674 E336.52836
G1 X92.436 Y-92.674 E349.2104
G1 X92.436 Y92.675 E361.92516
G1 X69.586 Y92.675 E363.49265
G1 X69.586 Y68.175 E365.17333
G1 X17.936 Y68.175 E368.71647
G1 F6600 E364.71647
G1 Z0.7
G0 F12000 X69.586 Y68.175
G0 X87.192 Y91.716
G1 Z0.4
G1 F6600 E368.81647
G1 F600 X86.543 Y91.218 E368.87259
G1 X86.045 Y90.568 E368.92876
G1 X85.732 Y89.811 E368.98495
G1 X85.624 Y89 E369.04108
G1 X85.732 Y88.187 E369.09734
G1 X86.045 Y87.432 E369.1534
G1 X86.543 Y86.782 E369.20958
G1 X87.192 Y86.283 E369.26573
G1 X87.95 Y85.969 E369.32202
G1 X88.761 Y85.863 E369.37812
G1 X89.572 Y85.969 E369.43423
G1 X90.329 Y86.283 E369.49045
G1 X90.98 Y86.781 E369.54668
G1 X91.478 Y87.432 E369.6029
G0 F12000 X91.682 Y87.432
G1 F600 X91.839 Y88.189 E369.65594
G1 X91.886 Y88.908 E369.70537
G0 F12000 X91.886 Y87.432
G1 F600 X91.886 Y1.569 E375.59548
G0 F12000 X91.682 Y1.569
G1 F600 X91.839 Y0.811 E375.64859
G1 X91.886 Y0.092 E375.69801
G0 F12000 X91.886 Y-0.092
G1 F600 X91.839 Y-0.809 E375.74731
G1 X91.682 Y-1.567 E375.80948
G0 F12000 X91.478 Y-1.567
G1 F600 X90.979 Y-2.217 E375.8657
G1 X90.329 Y-2.715 E375.92187
G1 X89.574 Y-3.028 E375.97793
G1 X88.761 Y-3.136 E376.0342
G1 X87.948 Y-3.028 E376.09046
G1 X87.192 Y-2.715 E376.14659
G1 X86.543 Y-2.217 E376.2027
G1 X86.045 Y-1.567 E376.25888
G1 X85.732 Y-0.811 E376.31501
G1 X85.624 Y0 E376.37113
G1 X85.732 Y0.813 E376.42739
G1 X86.045 Y1.569 E376.48352
G1 X86.543 Y2.218 E376.53964
G1 X87.192 Y2.716 E376.59576
G1 X87.948 Y3.029 E376.65189
G1 X88.761 Y3.137 E376.70815
G1 X89.574 Y3.029 E376.76441
G1 X90.329 Y2.716 E376.82047
G1 X90.979 Y2.218 E376.87665
G1 X91.478 Y1.569 E376.93281
G0 F12000 X91.886 Y-1.567
G1 F600 X91.886 Y-87.431 E382.82299
G0 F12000 X91.682 Y-87.431
G1 F600 X91.839 Y-88.188 E382.87603
G1 X91.886 Y-88.907 E382.92546
G0 F12000 X91.478 Y-87.431
G1 F600 X90.98 Y-86.78 E382.98168
G1 X90.329 Y-86.282 E383.03791
G1 X89.572 Y-85.968 E383.09413
G1 X88.761 Y-85.862 E383.15023
G1 X87.95 Y-85.968 E383.20634
G1 X87.192 Y-86.282 E383.26262
G1 X86.543 Y-86.781 E383.31878
G1 X86.045 Y-87.431 E383.37496
G1 X85.732 Y-88.186 E383.43102
G1 X85.624 Y-88.999 E383.48728
G1 X85.732 Y-89.81 E383.54341
G1 X86.045 Y-90.567 E383.5996
G1 X86.543 Y-91.217 E383.65577
G1 X87.192 Y-91.715 E383.71189
G0 F12000 X87.192 Y-91.919
G1 F600 X87.948 Y-92.076 E383.7741
G1 X88.671 Y-92.124 E383.82381
G0 F12000 X87.192 Y-92.124
G1 F600 X1.331 Y-92.124 E389.71379
G0 F12000 X1.331 Y-91.919
G1 F600 X0.575 Y-92.076 E389.76676
G1 X-0.147 Y-92.124 E389.8164
G0 F12000 X-0.327 Y-92.124
G1 F600 X-1.05 Y-92.076 E389.8661
G1 X-1.806 Y-91.919 E389.92831
G0 F12000 X-1.806 Y-91.715
G1 F600 X-2.455 Y-91.217 E389.98443
G1 X-2.953 Y-90.567 E390.0406
G1 X-3.266 Y-89.81 E390.0968
G1 X-3.374 Y-88.999 E390.15292
G1 X-3.266 Y-88.186 E390.20918
G1 X-2.953 Y-87.431 E390.26525
G1 X-2.455 Y-86.781 E390.32142
G1 X-1.806 Y-86.282 E390.37758
G1 X-1.048 Y-85.968 E390.43386
G1 X-0.237 Y-85.862 E390.48997
G1 X0.574 Y-85.968 E390.54608
G1 X1.331 Y-86.282 E390.6023
G1 X1.98 Y-86.781 E390.65846
G1 X2.478 Y-87.431 E390.71463
G1 X2.792 Y-88.188 E390.77085
G1 X2.898 Y-88.999 E390.82696
G1 X2.792 Y-89.809 E390.88299
G1 X2.478 Y-90.567 E390.93928
G1 X1.98 Y-91.217 E390.99545
G1 X1.331 Y-91.715 E391.05157
G0 F12000 X-1.806 Y-92.124
G1 F600 X-87.669 Y-92.124 E396.94168
G0 F12000 X-87.669 Y-91.919
G1 F600 X-88.424 Y-92.076 E396.99459
G1 X-89.147 Y-92.124 E397.04429
G0 F12000 X-87.669 Y-91.715
G1 F600 X-87.019 Y-91.217 E397.10046
G1 X-86.52 Y-90.567 E397.15668
G1 X-86.206 Y-89.809 E397.21296
G1 X-86.1 Y-88.999 E397.269
G1 X-86.206 Y-88.188 E397.32511
G1 X-86.52 Y-87.431 E397.38133
G1 X-87.018 Y-86.78 E397.43755
G1 X-87.669 Y-86.282 E397.49378
G1 X-88.426 Y-85.968 E397.55
G1 X-89.237 Y-85.862 E397.6061
G1 X-90.048 Y-85.968 E397.66221
G1 X-90.806 Y-86.282 E397.71849
G1 X-91.455 Y-86.781 E397.77465
G0 F12000 X-91.67 Y-86.781
G1 F600 X-91.886 Y-87.344 E397.81602
G0 F12000 X-91.886 Y-86.781
G1 F600 X-91.886 Y-2.217 E403.61703
G0 F12000 X-91.67 Y-2.217
G1 F600 X-91.886 Y-1.654 E403.65839
G0 F12000 X-91.455 Y-2.217
G1 F600 X-90.806 Y-2.715 E403.71451
G1 X-90.05 Y-3.028 E403.77064
G1 X-89.237 Y-3.136 E403.8269
G1 X-88.424 Y-3.028 E403.88316
G1 X-87.669 Y-2.715 E403.93923
G1 X-87.019 Y-2.217 E403.9954
G1 X-86.52 Y-1.567 E404.05162
G1 X-86.206 Y-0.809 E404.1079
G1 X-86.1 Y0 E404.16387
G1 X-86.206 Y0.811 E404.21998
G1 X-86.52 Y1.569 E404.27626
G1 X-87.019 Y2.218 E404.33242
G1 X-87.669 Y2.716 E404.38859
G1 X-88.424 Y3.029 E404.44466
G1 X-89.237 Y3.137 E404.50092
G1 X-90.05 Y3.029 E404.55718
G1 X-90.806 Y2.716 E404.61331
G1 X-91.455 Y2.218 E404.66943
G0 F12000 X-91.67 Y2.218
G1 F600 X-91.886 Y1.656 E404.71073
G0 F12000 X-91.886 Y2.218
G1 F600 X-91.886 Y86.782 E410.51174
G0 F12000 X-91.67 Y86.782
G1 F600 X-91.886 Y87.345 E410.5531
G0 F12000 X-91.455 Y86.782
G1 F600 X-90.806 Y86.283 E410.60926
G1 X-90.048 Y85.969 E410.66555
G1 X-89.237 Y85.863 E410.72165
G1 X-88.426 Y85.969 E410.77776
G1 X-87.669 Y86.283 E410.83398
G1 X-87.018 Y86.781 E410.8902
G1 X-86.52 Y87.432 E410.94643
G1 X-86.206 Y88.189 E411.00265
G1 X-86.1 Y89 E411.05876
G1 X-86.206 Y89.81 E411.1148
G1 X-86.52 Y90.568 E411.17108
G1 X-87.019 Y91.218 E411.22729
G1 X-87.669 Y91.716 E411.28347
G0 F12000 X-87.669 Y91.92
G1 F600 X-88.424 Y92.077 E411.33637
G1 X-89.147 Y92.125 E411.38607
G0 F12000 X-87.669 Y92.125
G1 F600 X17.386 Y92.125 E418.59274
G1 X17.386 Y67.625 E420.27342
G1 X70.136 Y67.625 E423.89202
G1 X70.136 Y92.125 E425.57269
G1 X87.192 Y92.125 E426.74272
G0 F12000 X87.192 Y91.92
G1 F600 X87.948 Y92.077 E426.79569
G1 X88.671 Y92.125 E426.84539
G0 F12000 X88.69 Y91.572
G0 X88.761 Y91.027
; TYPE:WALL-OUTER
G1 F600 X89.286 Y90.958 E426.88172
G1 X89.775 Y90.755 E426.91804
G1 X90.195 Y90.433 E426.95434
G1 X90.517 Y90.014 E426.99059
G1 X90.72 Y89.524 E427.02698
G1 X90.788 Y89 E427.06322
G1 X90.72 Y88.475 E427.09954
G1 X90.517 Y87.986 E427.13586
G1 X90.195 Y87.566 E427.17216
G1 X89.775 Y87.244 E427.20847
G1 X89.286 Y87.041 E427.24479
G1 X88.761 Y86.973 E427.2811
G1 X88.236 Y87.041 E427.31742
G1 X87.747 Y87.244 E427.35374
G1 X87.328 Y87.566 E427.38999
G1 X87.006 Y87.986 E427.4263
G1 X86.803 Y88.475 E427.46262
G1 X86.734 Y89 E427.49894
G1 X86.803 Y89.524 E427.5352
G1 X87.006 Y90.014 E427.57158
G1 X87.328 Y90.433 E427.60783
G1 X87.747 Y90.755 E427.64408
G1 X88.236 Y90.958 E427.6804
G1 X88.761 Y91.027 E427.71673
G0 F12000 X88.69 Y91.572
G0 X88.761 Y91.582
; TYPE:WALL-INNER
G1 F600 X89.43 Y91.494 E427.76301
G1 X90.052 Y91.236 E427.80921
G1 X90.587 Y90.826 E427.85545
G1 X90.998 Y90.291 E427.90173
G1 X91.256 Y89.667 E427.94805
G1 X91.343 Y89 E427.99419
G1 X91.256 Y88.332 E428.0404
G1 X90.998 Y87.709 E428.08666
G1 X90.587 Y87.174 E428.13294
G1 X90.052 Y86.763 E428.17922
G1 X89.429 Y86.505 E428.22547
G1 X88.761 Y86.418 E428.27169
G1 X88.093 Y86.505 E428.3179
G1 X87.47 Y86.764 E428.36418
G1 X86.935 Y87.174 E428.41042
G1 X86.525 Y87.709 E428.45666
G1 X86.267 Y88.331 E428.50285
G1 X86.179 Y89 E428.54914
G1 X86.267 Y89.668 E428.59536
G1 X86.525 Y90.291 E428.64161
G1 X86.936 Y90.825 E428.68784
G1 X87.47 Y91.235 E428.73402
G1 X88.092 Y91.494 E428.78024
G1 X88.761 Y91.582 E428.82653
G0 F12000 X88.851 Y92.125
G1 F600 X89.574 Y92.077 E428.87624
G1 X90.329 Y91.92 E428.93837
G0 F12000 X90.329 Y91.716
G1 F600 X90.979 Y91.218 E428.99454
G1 X91.478 Y90.568 E429.05076
G0 F12000 X91.682 Y90.568
G1 F600 X91.839 Y89.81 E429.10386
G1 X91.886 Y89.092 E429.15322
G0 F12000 X91.886 Y90.568
G1 F600 X91.886 Y92.125 E429.26003
G1 X90.329 Y92.125 E429.36684
G1 F6600 E425.36684
G1 Z0.7
G0 F12000 X91.256 Y89.667
G0 X91.343 Y89
G0 X91.256 Y88.332
G0 X90.998 Y87.709
G0 X79.786 Y66.765
G0 X79.856 Y66.22
; TYPE:WALL-OUTER
G1 Z0.4
G1 F6600 E429.46684
G1 F600 X80.39 Y66.148 E429.5038
G1 X80.878 Y65.942 E429.54014
G1 X81.296 Y65.618 E429.57642
G1 X81.616 Y65.197 E429.61269
G1 X81.813 Y64.718 E429.64822
G1 X81.883 Y64.192 E429.68462
G1 X81.808 Y63.658 E429.72161
G1 X81.605 Y63.17 E429.75787
G1 X81.28 Y62.753 E429.79414
G1 X80.859 Y62.433 E429.83041
G1 X80.38 Y62.235 E429.86597
G1 X79.854 Y62.165 E429.90237
G1 X79.32 Y62.24 E429.93936
G1 X78.832 Y62.445 E429.97567
G1 X78.415 Y62.769 E430.0119
G1 X78.096 Y63.189 E430.04808
G1 X77.897 Y63.668 E430.08366
G1 X77.827 Y64.194 E430.12006
G1 X77.902 Y64.728 E430.15705
G1 X78.107 Y65.216 E430.19336
G1 X78.431 Y65.634 E430.22964
G1 X78.851 Y65.953 E430.26582
G1 X79.33 Y66.152 E430.3014
G1 X79.856 Y66.22 E430.33779
G0 F12000 X79.786 Y66.765
G0 X79.858 Y66.775
; TYPE:WALL-INNER
G1 F600 X80.536 Y66.683 E430.38472
G1 X81.158 Y66.421 E430.43102
G1 X81.691 Y66.008 E430.47728
G1 X82.097 Y65.472 E430.52341
G1 X82.349 Y64.861 E430.56874
G1 X82.438 Y64.191 E430.61511
G1 X82.343 Y63.512 E430.66214
G1 X82.084 Y62.89 E430.70836
G1 X81.67 Y62.358 E430.7546
G1 X81.135 Y61.952 E430.80068
G1 X80.524 Y61.699 E430.84604
G1 X79.853 Y61.61 E430.89247
G1 X79.173 Y61.705 E430.93958
G1 X78.552 Y61.966 E430.98578
G1 X78.02 Y62.379 E431.03199
G1 X77.615 Y62.913 E431.07796
G1 X77.361 Y63.524 E431.12335
G1 X77.272 Y64.195 E431.16979
G1 X77.367 Y64.875 E431.21689
G1 X77.628 Y65.496 E431.2631
G1 X78.04 Y66.028 E431.30925
G1 X78.575 Y66.434 E431.35533
G1 X79.187 Y66.688 E431.40078
G1 X79.858 Y66.775 E431.4472
G0 F12000 X79.859 Y67.33
G1 F600 X80.683 Y67.218 E431.50424
G1 X81.438 Y66.9 E431.56044
G1 X82.085 Y66.398 E431.61662
G1 X82.579 Y65.747 E431.67268
G1 X82.885 Y65.004 E431.7278
G1 X82.993 Y64.189 E431.7842
G1 X82.878 Y63.365 E431.84127
G1 X82.563 Y62.611 E431.89733
G1 X82.06 Y61.963 E431.9536
G1 X81.411 Y61.471 E432.00947
G1 X80.667 Y61.164 E432.06468
G1 X79.851 Y61.055 E432.12115
G1 X79.026 Y61.17 E432.17829
G1 X78.271 Y61.487 E432.23447
G1 X77.626 Y61.989 E432.29053
G1 X77.134 Y62.637 E432.34635
G1 X76.826 Y63.381 E432.40159
G1 X76.717 Y64.197 E432.45806
G1 X76.832 Y65.022 E432.5152
G1 X77.149 Y65.776 E432.57131
G1 X77.65 Y66.422 E432.62739
G1 X78.299 Y66.915 E432.6833
G1 X79.044 Y67.224 E432.73863
G1 X79.859 Y67.33 E432.79501
G1 F6600 E428.79501
G1 Z0.7
G0 F12000 X27.858 Y66.775
G0 X27.786 Y66.765
G0 X27.856 Y66.22
; TYPE:WALL-OUTER
G1 Z0.4
G1 F6600 E432.89501
G1 F600 X28.39 Y66.148 E432.93197
G1 X28.878 Y65.942 E432.96831
G1 X29.296 Y65.618 E433.00459
G1 X29.616 Y65.197 E433.04086
G1 X29.813 Y64.718 E433.07639
G1 X29.883 Y64.192 E433.11279
G1 X29.808 Y63.658 E433.14978
G1 X29.605 Y63.17 E433.18604
G1 X29.28 Y62.753 E433.22231
G1 X28.859 Y62.433 E433.25859
G1 X28.38 Y62.235 E433.29414
G1 X27.854 Y62.165 E433.33054
G1 X27.32 Y62.24 E433.36753
G1 X26.832 Y62.445 E433.40384
G1 X26.415 Y62.769 E433.44007
G1 X26.096 Y63.189 E433.47625
G1 X25.897 Y63.668 E433.51183
G1 X25.827 Y64.194 E433.54823
G1 X25.902 Y64.728 E433.58522
G1 X26.107 Y65.216 E433.62153
G1 X26.431 Y65.634 E433.65781
G1 X26.851 Y65.953 E433.69399
G1 X27.33 Y66.152 E433.72957
G1 X27.856 Y66.22 E433.76596
G0 F12000 X27.786 Y66.765
G0 X27.858 Y66.775
; TYPE:WALL-INNER
G1 F600 X28.536 Y66.683 E433.81289
G1 X29.158 Y66.421 E433.85919
G1 X29.691 Y66.008 E433.90545
G1 X30.097 Y65.472 E433.95158
G1 X30.349 Y64.861 E433.99691
G1 X30.438 Y64.191 E434.04328
G1 X30.343 Y63.512 E434.09031
G1 X30.084 Y62.89 E434.13653
G1 X29.67 Y62.358 E434.18277
G1 X29.135 Y61.952 E434.22885
G1 X28.524 Y61.699 E434.27421
G1 X27.853 Y61.61 E434.32065
G1 X27.173 Y61.705 E434.36775
G1 X26.552 Y61.966 E434.41395
G1 X26.02 Y62.379 E434.46016
G1 X25.615 Y62.913 E434.50613
G1 X25.361 Y63.524 E434.55152
G1 X25.272 Y64.195 E434.59796
G1 X25.367 Y64.875 E434.64506
G1 X25.628 Y65.496 E434.69127
G1 X26.04 Y66.028 E434.73743
G1 X26.575 Y66.434 E434.7835
G1 X27.187 Y66.688 E434.82895
G1 X27.858 Y66.775 E434.87537
G0 F12000 X27.859 Y67.33
G1 F600 X28.683 Y67.218 E434.93241
G1 X29.438 Y66.9 E434.98861
G1 X30.085 Y66.398 E435.04479
G1 X30.579 Y65.747 E435.10085
G1 X30.885 Y65.004 E435.15597
G1 X30.993 Y64.189 E435.21237
G1 X30.878 Y63.365 E435.26944
G1 X30.563 Y62.611 E435.3255
G1 X30.06 Y61.963 E435.38177
G1 X29.411 Y61.471 E435.43764
G1 X28.667 Y61.164 E435.49285
G1 X27.851 Y61.055 E435.54932
G1 X27.026 Y61.17 E435.60646
G1 X26.271 Y61.487 E435.66264
G1 X25.626 Y61.989 E435.7187
G1 X25.134 Y62.637 E435.77452
G1 X24.826 Y63.381 E435.82976
G1 X24.717 Y64.197 E435.88623
G1 X24.832 Y65.022 E435.94337
G1 X25.149 Y65.776 E435.99948
G1 X25.65 Y66.422 E436.05556
G1 X26.299 Y66.915 E436.11147
G1 X27.044 Y67.224 E436.1668
G1 X27.859 Y67.33 E436.22318
G1 F6600 E432.22318
G1 Z0.7
G0 F12000 X17.936 Y68.175
G0 X-6.964 Y85.893
G0 X-7.587 Y86.151
G0 X-8.255 Y86.238
G0 X-8.326 Y86.228
G0 X-8.255 Y85.683
; TYPE:WALL-OUTER
G1 Z0.4
G1 F6600 E436.32318
G1 F600 X-7.73 Y85.615 E436.35949
G1 X-7.241 Y85.412 E436.39581
G1 X-6.821 Y85.09 E436.43212
G1 X-6.499 Y84.67 E436.46842
G1 X-6.296 Y84.181 E436.50474
G1 X-6.228 Y83.656 E436.54106
G1 X-6.296 Y83.131 E436.57737
G1 X-6.499 Y82.642 E436.61369
G1 X-6.821 Y82.223 E436.64994
G1 X-7.241 Y81.901 E436.68625
G1 X-7.73 Y81.698 E436.72257
G1 X-8.255 Y81.629 E436.75889
G1 X-8.78 Y81.698 E436.79522
G1 X-9.269 Y81.901 E436.83154
G1 X-9.688 Y82.223 E436.86779
G1 X-10.01 Y82.642 E436.90404
G1 X-10.213 Y83.131 E436.94036
G1 X-10.282 Y83.656 E436.97668
G1 X-10.213 Y84.181 E437.01301
G1 X-10.01 Y84.67 E437.04933
G1 X-9.688 Y85.09 E437.08563
G1 X-9.269 Y85.412 E437.12188
G1 X-8.78 Y85.615 E437.1582
G1 X-8.255 Y85.683 E437.19452
G0 F12000 X-8.326 Y86.228
G0 X-8.255 Y86.238
; TYPE:WALL-INNER
G1 F600 X-7.587 Y86.151 E437.24073
G1 X-6.964 Y85.893 E437.28699
G1 X-6.429 Y85.482 E437.33327
G1 X-6.018 Y84.947 E437.37955
G1 X-5.76 Y84.324 E437.4258
G1 X-5.673 Y83.656 E437.47202
G1 X-5.76 Y82.988 E437.51823
G1 X-6.019 Y82.365 E437.56451
G1 X-6.429 Y81.83 E437.61075
G1 X-6.964 Y81.42 E437.65699
G1 X-7.586 Y81.162 E437.70318
G1 X-8.255 Y81.074 E437.74947
G1 X-8.924 Y81.162 E437.79576
G1 X-9.546 Y81.421 E437.84198
G1 X-10.08 Y81.831 E437.88816
G1 X-10.49 Y82.365 E437.93434
G1 X-10.749 Y82.987 E437.98056
G1 X-10.837 Y83.656 E438.02685
G1 X-10.749 Y84.325 E438.07314
G1 X-10.491 Y84.947 E438.11933
G1 X-10.081 Y85.482 E438.16557
G1 X-9.546 Y85.892 E438.21181
G1 X-8.923 Y86.151 E438.25809
G1 X-8.255 Y86.238 E438.3043
G0 F12000 X-8.255 Y86.793
G1 F600 X-7.444 Y86.687 E438.36041
G1 X-6.687 Y86.373 E438.41663
G1 X-6.036 Y85.875 E438.47286
G1 X-5.538 Y85.224 E438.52908
G1 X-5.224 Y84.467 E438.5853
G1 X-5.118 Y83.656 E438.64141
G1 X-5.224 Y82.845 E438.69752
G1 X-5.538 Y82.087 E438.7538
G1 X-6.037 Y81.438 E438.80996
G1 X-6.687 Y80.94 E438.86613
G1 X-7.442 Y80.627 E438.9222
G1 X-8.255 Y80.519 E438.97846
G1 X-9.068 Y80.627 E439.03472
G1 X-9.824 Y80.94 E439.09085
G1 X-10.473 Y81.438 E439.14697
G1 X-10.971 Y82.087 E439.20308
G1 X-11.284 Y82.843 E439.25921
G1 X-11.392 Y83.656 E439.31547
G1 X-11.284 Y84.469 E439.37174
G1 X-10.971 Y85.224 E439.4278
G1 X-10.473 Y85.874 E439.48397
G1 X-9.824 Y86.373 E439.54013
G1 X-9.066 Y86.687 E439.59642
G1 X-8.255 Y86.793 E439.65252
G1 F6600 E435.65252
G1 Z0.7
G0 F12000 X-69.755 Y86.238
G0 X-69.826 Y86.228
G0 X-69.755 Y85.683
; TYPE:WALL-OUTER
G1 Z0.4
G1 F6600 E439.75252
G1 F600 X-69.23 Y85.615 E439.78884
G1 X-68.741 Y85.412 E439.82516
G1 X-68.321 Y85.09 E439.86146
G1 X-67.999 Y84.67 E439.89777
G1 X-67.796 Y84.181 E439.93409
G1 X-67.728 Y83.656 E439.9704
G1 X-67.796 Y83.131 E440.00672
G1 X-67.999 Y82.642 E440.04304
G1 X-68.321 Y82.223 E440.07929
G1 X-68.741 Y81.901 E440.1156
G1 X-69.23 Y81.698 E440.15192
G1 X-69.755 Y81.629 E440.18824
G1 X-70.28 Y81.698 E440.22456
G1 X-70.769 Y81.901 E440.26088
G1 X-71.188 Y82.223 E440.29714
G1 X-71.51 Y82.642 E440.33339
G1 X-71.713 Y83.131 E440.36971
G1 X-71.782 Y83.656 E440.40603
G1 X-71.713 Y84.181 E440.44235
G1 X-71.51 Y84.67 E440.47867
G1 X-71.188 Y85.09 E440.51498
G1 X-70.769 Y85.412 E440.55123
G1 X-70.28 Y85.615 E440.58755
G1 X-69.755 Y85.683 E440.62387
G0 F12000 X-69.826 Y86.228
G0 X-69.755 Y86.238
; TYPE:WALL-INNER
G1 F600 X-69.087 Y86.151 E440.67008
G1 X-68.464 Y85.893 E440.71633
G1 X-67.929 Y85.482 E440.76261
G1 X-67.518 Y84.947 E440.80889
G1 X-67.26 Y84.324 E440.85515
G1 X-67.173 Y83.656 E440.90136
G1 X-67.26 Y82.988 E440.94757
G1 X-67.519 Y82.365 E440.99386
G1 X-67.929 Y81.83 E441.04009
G1 X-68.464 Y81.42 E441.08633
G1 X-69.086 Y81.162 E441.13253
G1 X-69.755 Y81.074 E441.17881
G1 X-70.424 Y81.162 E441.2251
G1 X-71.046 Y81.421 E441.27132
G1 X-71.58 Y81.831 E441.31751
G1 X-71.99 Y82.365 E441.36369
G1 X-72.249 Y82.987 E441.40991
G1 X-72.337 Y83.656 E441.4562
G1 X-72.249 Y84.325 E441.50249
G1 X-71.991 Y84.947 E441.54868
G1 X-71.581 Y85.482 E441.59492
G1 X-71.046 Y85.892 E441.64116
G1 X-70.423 Y86.151 E441.68744
G1 X-69.755 Y86.238 E441.73365
G0 F12000 X-69.755 Y86.793
G1 F600 X-68.944 Y86.687 E441.78976
G1 X-68.187 Y86.373 E441.84598
G1 X-67.536 Y85.875 E441.9022
G1 X-67.038 Y85.224 E441.95843
G1 X-66.724 Y84.467 E442.01465
G1 X-66.618 Y83.656 E442.07076
G1 X-66.724 Y82.845 E442.12686
G1 X-67.038 Y82.087 E442.18315
G1 X-67.537 Y81.438 E442.23931
G1 X-68.187 Y80.94 E442.29548
G1 X-68.942 Y80.627 E442.35154
G1 X-69.755 Y80.519 E442.40781
G1 X-70.568 Y80.627 E442.46407
G1 X-71.324 Y80.94 E442.5202
G1 X-71.973 Y81.438 E442.57631
G1 X-72.471 Y82.087 E442.63243
G1 X-72.784 Y82.843 E442.68856
G1 X-72.892 Y83.656 E442.74482
G1 X-72.784 Y84.469 E442.80108
G1 X-72.471 Y85.224 E442.85715
G1 X-71.973 Y85.874 E442.91332
G1 X-71.324 Y86.373 E442.96948
G1 X-70.566 Y86.687 E443.02576
G1 X-69.755 Y86.793 E443.08187
G1 F6600 E439.08187
G1 Z0.7
G0 F12000 X-88.568 Y91.494
G0 X-89.237 Y91.582
G0 X-89.308 Y91.572
G0 X-89.237 Y91.027
; TYPE:WALL-OUTER
G1 Z0.4
G1 F6600 E443.18187
G1 F600 X-88.712 Y90.958 E443.21819
G1 X-88.223 Y90.755 E443.25452
G1 X-87.803 Y90.433 E443.29082
G1 X-87.481 Y90.014 E443.32707
G1 X-87.278 Y89.524 E443.36345
G1 X-87.21 Y89 E443.3997
G1 X-87.278 Y88.475 E443.43602
G1 X-87.481 Y87.986 E443.47234
G1 X-87.803 Y87.566 E443.50864
G1 X-88.223 Y87.244 E443.54495
G1 X-88.712 Y87.041 E443.58127
G1 X-89.237 Y86.973 E443.61758
G1 X-89.762 Y87.041 E443.6539
G1 X-90.251 Y87.244 E443.69022
G1 X-90.67 Y87.566 E443.72647
G1 X-90.992 Y87.986 E443.76277
G1 X-91.195 Y88.475 E443.79909
G1 X-91.264 Y89 E443.83542
G1 X-91.195 Y89.524 E443.87167
G1 X-90.992 Y90.014 E443.90806
G1 X-90.67 Y90.433 E443.94431
G1 X-90.251 Y90.755 E443.98056
G1 X-89.762 Y90.958 E444.01688
G1 X-89.237 Y91.027 E444.0532
G0 F12000 X-89.308 Y91.572
G0 X-89.237 Y91.582
; TYPE:WALL-INNER
G1 F600 X-88.568 Y91.494 E444.09949
G1 X-87.946 Y91.236 E444.14568
G1 X-87.411 Y90.826 E444.19192
G1 X-87 Y90.291 E444.2382
G1 X-86.742 Y89.667 E444.28452
G1 X-86.655 Y89 E444.33067
G1 X-86.742 Y88.332 E444.37688
G1 X-87 Y87.709 E444.42313
G1 X-87.411 Y87.174 E444.46941
G1 X-87.946 Y86.763 E444.51569
G1 X-88.569 Y86.505 E444.56195
G1 X-89.237 Y86.418 E444.60816
G1 X-89.905 Y86.505 E444.65437
G1 X-90.528 Y86.764 E444.70066
G1 X-91.063 Y87.174 E444.7469
G1 X-91.473 Y87.709 E444.79313
G1 X-91.731 Y88.331 E444.83933
G1 X-91.819 Y89 E444.88562
G1 X-91.731 Y89.668 E444.93184
G1 X-91.473 Y90.291 E444.97809
G1 X-91.062 Y90.825 E445.02432
G1 X-90.528 Y91.235 E445.0705
G1 X-89.906 Y91.494 E445.11672
G1 X-89.237 Y91.582 E445.16301
G0 F12000 X-89.327 Y92.125
G1 F600 X-90.05 Y92.077 E445.21272
G1 X-90.806 Y91.92 E445.27493
G0 F12000 X-90.806 Y91.716
G1 F600 X-91.562 Y91.218 E445.33105
G1 X-91.886 Y90.655 E445.37561
G0 F12000 X-91.886 Y91.218
G1 F600 X-91.886 Y92.125 E445.43783
G1 X-90.806 Y92.125 E445.51191
G1 F6600 E441.51191
G1 Z0.7
G0 F12000 X-91.731 Y89.668
G0 X-91.819 Y89
G0 X-91.731 Y88.331
G0 X-69.826 Y9.728
G0 X-69.755 Y9.183
; TYPE:WALL-OUTER
G1 Z0.4
G1 F6600 E445.61191
G1 F600 X-69.23 Y9.115 E445.64823
G1 X-68.741 Y8.912 E445.68455
G1 X-68.321 Y8.59 E445.72085
G1 X-67.999 Y8.17 E445.75716
G1 X-67.796 Y7.681 E445.79348
G1 X-67.728 Y7.156 E445.82979
G1 X-67.796 Y6.631 E445.86611
G1 X-67.999 Y6.142 E445.90243
G1 X-68.321 Y5.723 E445.93868
G1 X-68.741 Y5.401 E445.97498
G1 X-69.23 Y5.198 E446.0113
G1 X-69.755 Y5.129 E446.04763
G1 X-70.28 Y5.198 E446.08395
G1 X-70.769 Y5.401 E446.12027
G1 X-71.188 Y5.723 E446.15652
G1 X-71.51 Y6.142 E446.19277
G1 X-71.713 Y6.631 E446.22909
G1 X-71.782 Y7.156 E446.26542
G1 X-71.713 Y7.681 E446.30174
G1 X-71.51 Y8.17 E446.33806
G1 X-71.188 Y8.59 E446.37437
G1 X-70.769 Y8.912 E446.41062
G1 X-70.28 Y9.115 E446.44694
G1 X-69.755 Y9.183 E446.48325
G0 F12000 X-69.826 Y9.728
G0 X-69.755 Y9.738
; TYPE:WALL-INNER
G1 F600 X-69.087 Y9.651 E446.52947
G1 X-68.464 Y9.393 E446.57572
G1 X-67.929 Y8.982 E446.622
G1 X-67.518 Y8.447 E446.66828
G1 X-67.26 Y7.824 E446.71454
G1 X-67.173 Y7.156 E446.76075
G1 X-67.26 Y6.488 E446.80696
G1 X-67.519 Y5.865 E446.85325
G1 X-67.929 Y5.33 E446.89948
G1 X-68.464 Y4.92 E446.94572
G1 X-69.086 Y4.662 E446.99192
G1 X-69.755 Y4.574 E447.0382
G1 X-70.424 Y4.662 E447.08449
G1 X-71.046 Y4.921 E447.13071
G1 X-71.58 Y5.331 E447.1769
G1 X-71.99 Y5.865 E447.22308
G1 X-72.249 Y6.487 E447.2693
G1 X-72.337 Y7.156 E447.31559
G1 X-72.249 Y7.825 E447.36188
G1 X-71.991 Y8.447 E447.40807
G1 X-71.581 Y8.982 E447.45431
G1 X-71.046 Y9.392 E447.50055
G1 X-70.423 Y9.651 E447.54683
G1 X-69.755 Y9.738 E447.59304
G0 F12000 X-69.755 Y10.293
G1 F600 X-68.944 Y10.187 E447.64915
G1 X-68.187 Y9.873 E447.70537
G1 X-67.536 Y9.375 E447.76159
G1 X-67.038 Y8.724 E447.81782
G1 X-66.724 Y7.967 E447.87404
G1 X-66.618 Y7.156 E447.93015
G1 X-66.724 Y6.345 E447.98625
G1 X-67.038 Y5.587 E448.04254
G1 X-67.537 Y4.938 E448.09869
G1 X-68.187 Y4.44 E448.15487
G1 X-68.942 Y4.127 E448.21093
G1 X-69.755 Y4.019 E448.26719
G1 X-70.568 Y4.127 E448.32345
G1 X-71.324 Y4.44 E448.37958
G1 X-71.973 Y4.938 E448.4357
G1 X-72.471 Y5.587 E448.49182
G1 X-72.784 Y6.343 E448.54795
G1 X-72.892 Y7.156 E448.60421
G1 X-72.784 Y7.969 E448.66047
G1 X-72.471 Y8.724 E448.71654
G1 X-71.973 Y9.374 E448.77271
G1 X-71.324 Y9.873 E448.82887
G1 X-70.566 Y10.187 E448.88515
G1 X-69.755 Y10.293 E448.94126
G1 F6600 E444.94126
G1 Z0.7
G0 F12000 X-89.308 Y2.572
G0 X-89.237 Y2.027
; TYPE:WALL-OUTER
G1 Z0.4
G1 F6600 E449.04126
G1 F600 X-88.712 Y1.958 E449.07758
G1 X-88.223 Y1.755 E449.1139
G1 X-87.803 Y1.433 E449.15021
G1 X-87.481 Y1.014 E449.18646
G1 X-87.278 Y0.525 E449.22278
G1 X-87.21 Y0 E449.25909
G1 X-87.278 Y-0.523 E449.29527
G1 X-87.481 Y-1.013 E449.33166
G1 X-87.803 Y-1.432 E449.36791
G1 X-88.223 Y-1.754 E449.40421
G1 X-88.712 Y-1.957 E449.44053
G1 X-89.237 Y-2.026 E449.47686
G1 X-89.762 Y-1.957 E449.51318
G1 X-90.251 Y-1.754 E449.5495
G1 X-90.67 Y-1.432 E449.58575
G1 X-90.992 Y-1.013 E449.622
G1 X-91.195 Y-0.523 E449.65839
G1 X-91.264 Y0 E449.69457
G1 X-91.195 Y0.525 E449.7309
G1 X-90.992 Y1.014 E449.76722
G1 X-90.67 Y1.433 E449.80347
G1 X-90.251 Y1.755 E449.83972
G1 X-89.762 Y1.958 E449.87604
G1 X-89.237 Y2.027 E449.91237
G0 F12000 X-89.308 Y2.572
G0 X-89.237 Y2.582
; TYPE:WALL-INNER
G1 F600 X-88.568 Y2.494 E449.95865
G1 X-87.946 Y2.236 E450.00485
G1 X-87.411 Y1.826 E450.05108
G1 X-87.001 Y1.291 E450.09732
G1 X-86.742 Y0.668 E450.14361
G1 X-86.655 Y0 E450.18982
G1 X-86.742 Y-0.666 E450.23589
G1 X-87 Y-1.29 E450.28221
G1 X-87.411 Y-1.825 E450.32849
G1 X-87.946 Y-2.235 E450.37473
G1 X-88.568 Y-2.493 E450.42092
G1 X-89.237 Y-2.581 E450.46721
G1 X-89.906 Y-2.493 E450.5135
G1 X-90.528 Y-2.234 E450.55972
G1 X-91.062 Y-1.824 E450.6059
G1 X-91.473 Y-1.29 E450.65213
G1 X-91.731 Y-0.667 E450.69839
G1 X-91.819 Y0 E450.74454
G1 X-91.731 Y0.669 E450.79083
G1 X-91.472 Y1.291 E450.83705
G1 X-91.062 Y1.825 E450.88323
G1 X-90.528 Y2.235 E450.92941
G1 X-89.906 Y2.494 E450.97563
G1 X-89.237 Y2.582 E451.02192
G1 F6600 E447.02192
G1 Z0.7
G0 F12000 X-88.568 Y2.494
G0 X-87.946 Y2.236
G0 X-87.411 Y1.826
G0 X-65.062 Y-15.724
G0 X-64.512 Y-15.724
; TYPE:WALL-OUTER
G1 Z0.4
G1 F6600 E451.12192
G1 F600 X-58.962 Y-15.724 E451.50265
G1 X-58.962 Y-71.274 E455.31332
G1 X-64.512 Y-71.274 E455.69405
G1 X-64.512 Y-15.724 E459.50472
G0 F12000 X-65.062 Y-15.724
G0 X-65.062 Y-15.174
; TYPE:WALL-INNER
G1 F600 X-58.412 Y-15.174 E459.96091
G1 X-58.412 Y-71.824 E463.84704
G1 X-65.062 Y-71.824 E464.30323
G1 X-65.062 Y-15.174 E468.18936
G0 F12000 X-65.612 Y-14.624
G1 F600 X-57.862 Y-14.624 E468.721
G1 X-57.862 Y-72.374 E472.6826
G1 X-65.612 Y-72.374 E473.21424
G1 X-65.612 Y-14.624 E477.17583
G0 F12000 X-58.412 Y-15.174
G0 X-55.062 Y-15.724
G0 X-54.512 Y-15.724
; TYPE:WALL-OUTER
G1 F600 X-48.962 Y-15.724 E477.55656
G1 X-48.962 Y-71.274 E481.36723
G1 X-54.512 Y-71.274 E481.74796
G1 X-54.512 Y-15.724 E485.55864
G0 F12000 X-55.062 Y-15.724
G0 X-55.062 Y-15.174
; TYPE:WALL-INNER
G1 F600 X-48.412 Y-15.174 E486.01482
G1 X-48.412 Y-71.824 E489.90095
G1 X-55.062 Y-71.824 E490.35714
G1 X-55.062 Y-15.174 E494.24327
G0 F12000 X-55.612 Y-14.624
G1 F600 X-47.862 Y-14.624 E494.77491
G1 X-47.862 Y-72.374 E498.73651
G1 X-55.612 Y-72.374 E499.26815
G1 X-55.612 Y-14.624 E503.22975
G0 F12000 X-48.412 Y-15.174
G0 X-45.062 Y-15.724
G0 X-44.512 Y-15.724
; TYPE:WALL-OUTER
G1 F600 X-38.962 Y-15.724 E503.61047
G1 X-38.962 Y-71.274 E507.42115
G1 X-44.512 Y-71.274 E507.80187
G1 X-44.512 Y-15.724 E511.61255
G0 F12000 X-45.062 Y-15.724
G0 X-45.062 Y-15.174
; TYPE:WALL-INNER
G1 F600 X-38.412 Y-15.174 E512.06873
G1 X-38.412 Y-71.824 E515.95486
G1 X-45.062 Y-71.824 E516.41105
G1 X-45.062 Y-15.174 E520.29718
G0 F12000 X-45.612 Y-14.624
G1 F600 X-37.862 Y-14.624 E520.82883
G1 X-37.862 Y-72.374 E524.79042
G1 X-45.612 Y-72.374 E525.32206
G1 X-45.612 Y-14.624 E529.28366
G0 F12000 X-38.412 Y-15.174
G0 X-35.062 Y-15.724
G0 X-34.512 Y-15.724
; TYPE:WALL-OUTER
G1 F600 X-28.962 Y-15.724 E529.66438
G1 X-28.962 Y-71.274 E533.47506
G1 X-34.512 Y-71.274 E533.85578
G1 X-34.512 Y-15.724 E537.66646
G0 F12000 X-35.062 Y-15.724
G0 X-35.062 Y-15.174
; TYPE:WALL-INNER
G1 F600 X-28.412 Y-15.174 E538.12264
G1 X-28.412 Y-71.824 E542.00878
G1 X-35.062 Y-71.824 E542.46496
G1 X-35.062 Y-15.174 E546.35109
G0 F12000 X-35.612 Y-14.624
G1 F600 X-27.862 Y-14.624 E546.88274
G1 X-27.862 Y-72.374 E550.84433
G1 X-35.612 Y-72.374 E551.37597
G1 X-35.612 Y-14.624 E555.33757
G0 F12000 X-28.412 Y-15.174
G0 X-25.062 Y-15.724
G0 X-24.512 Y-15.724
; TYPE:WALL-OUTER
G1 F600 X-18.962 Y-15.724 E555.71829
G1 X-18.962 Y-71.274 E559.52897
G1 X-24.512 Y-71.274 E559.90969
G1 X-24.512 Y-15.724 E563.72037
G0 F12000 X-25.062 Y-15.724
G0 X-25.062 Y-15.174
; TYPE:WALL-INNER
G1 F600 X-18.412 Y-15.174 E564.17655
G1 X-18.412 Y-71.824 E568.06269
G1 X-25.062 Y-71.824 E568.51887
G1 X-25.062 Y-15.174 E572.40501
G0 F12000 X-25.612 Y-14.624
G1 F600 X-17.862 Y-14.624 E572.93665
G1 X-17.862 Y-72.374 E576.89824
G1 X-25.612 Y-72.374 E577.42988
G1 X-25.612 Y-14.624 E581.39148
G0 F12000 X-18.412 Y-15.174
G0 X-15.062 Y-15.724
G0 X-14.512 Y-15.724
; TYPE:WALL-OUTER
G1 F600 X-8.962 Y-15.724 E581.7722
G1 X-8.962 Y-71.274 E585.58288
G1 X-14.512 Y-71.274 E585.9636
G1 X-14.512 Y-15.724 E589.77428
G0 F12000 X-15.062 Y-15.724
G0 X-15.062 Y-15.174
; TYPE:WALL-INNER
G1 F600 X-8.412 Y-15.174 E590.23046
G1 X-8.412 Y-71.824 E594.1166
G1 X-15.062 Y-71.824 E594.57278
G1 X-15.062 Y-15.174 E598.45892
G0 F12000 X-15.612 Y-14.624
G1 F600 X-7.862 Y-14.624 E598.99056
G1 X-7.862 Y-72.374 E602.95215
G1 X-15.612 Y-72.374 E603.4838
G1 X-15.612 Y-14.624 E607.44539
G1 F6600 E603.44539
G1 Z0.7
G0 F12000 X-10.749 Y7.825
G0 X-10.491 Y8.447
G0 X-10.081 Y8.982
G0 X-9.546 Y9.392
G0 X-8.923 Y9.651
G0 X-8.326 Y9.728
G0 X-8.255 Y9.183
; TYPE:WALL-OUTER
G1 Z0.4
G1 F6600 E607.54539
G1 F600 X-7.73 Y9.115 E607.5817
G1 X-7.241 Y8.912 E607.61803
G1 X-6.821 Y8.59 E607.65433
G1 X-6.499 Y8.17 E607.69063
G1 X-6.296 Y7.681 E607.72695
G1 X-6.228 Y7.156 E607.76327
G1 X-6.296 Y6.631 E607.79959
G1 X-6.499 Y6.142 E607.83591
G1 X-6.821 Y5.723 E607.87216
G1 X-7.241 Y5.401 E607.90846
G1 X-7.73 Y5.198 E607.94478
G1 X-8.255 Y5.129 E607.98111
G1 X-8.78 Y5.198 E608.01743
G1 X-9.269 Y5.401 E608.05375
G1 X-9.688 Y5.723 E608.09
G1 X-10.01 Y6.142 E608.12625
G1 X-10.213 Y6.631 E608.16257
G1 X-10.282 Y7.156 E608.1989
G1 X-10.213 Y7.681 E608.23522
G1 X-10.01 Y8.17 E608.27154
G1 X-9.688 Y8.59 E608.30785
G1 X-9.269 Y8.912 E608.3441
G1 X-8.78 Y9.115 E608.38042
G1 X-8.255 Y9.183 E608.41673
G0 F12000 X-8.326 Y9.728
G0 X-8.255 Y9.738
; TYPE:WALL-INNER
G1 F600 X-7.587 Y9.651 E608.46294
G1 X-6.964 Y9.393 E608.5092
G1 X-6.429 Y8.982 E608.55548
G1 X-6.018 Y8.447 E608.60176
G1 X-5.76 Y7.824 E608.64802
G1 X-5.673 Y7.156 E608.69423
G1 X-5.76 Y6.488 E608.74044
G1 X-6.019 Y5.865 E608.78672
G1 X-6.429 Y5.33 E608.83296
G1 X-6.964 Y4.92 E608.8792
G1 X-7.586 Y4.662 E608.92539
G1 X-8.255 Y4.574 E608.97168
G1 X-8.924 Y4.662 E609.01797
G1 X-9.546 Y4.921 E609.06419
G1 X-10.08 Y5.331 E609.11037
G1 X-10.49 Y5.865 E609.15656
G1 X-10.749 Y6.487 E609.20278
G1 X-10.837 Y7.156 E609.24906
G1 X-10.749 Y7.825 E609.29535
G1 X-10.491 Y8.447 E609.34155
G1 X-10.081 Y8.982 E609.38778
G1 X-9.546 Y9.392 E609.43402
G1 X-8.923 Y9.651 E609.48031
G1 X-8.255 Y9.738 E609.52652
G0 F12000 X-8.255 Y10.293
G1 F600 X-7.444 Y10.187 E609.58262
G1 X-6.687 Y9.873 E609.63884
G1 X-6.036 Y9.375 E609.69507
G1 X-5.538 Y8.724 E609.7513
G1 X-5.224 Y7.967 E609.80752
G1 X-5.118 Y7.156 E609.86362
G1 X-5.224 Y6.345 E609.91973
G1 X-5.538 Y5.587 E609.97601
G1 X-6.037 Y4.938 E610.03217
G1 X-6.687 Y4.44 E610.08834
G1 X-7.442 Y4.127 E610.14441
G1 X-8.255 Y4.019 E610.20067
G1 X-9.068 Y4.127 E610.25693
G1 X-9.824 Y4.44 E610.31306
G1 X-10.473 Y4.938 E610.36918
G1 X-10.971 Y5.587 E610.4253
G1 X-11.284 Y6.343 E610.48143
G1 X-11.392 Y7.156 E610.53769
G1 X-11.284 Y7.969 E610.59395
G1 X-10.971 Y8.724 E610.65002
G1 X-10.473 Y9.374 E610.70619
G1 X-9.824 Y9.873 E610.76235
G1 X-9.066 Y10.187 E610.81863
G1 X-8.255 Y10.293 E610.87474
G1 F6600 E606.87474
G1 Z0.7
G0 F12000 X27.786 Y14.765
G0 X27.856 Y14.22
; TYPE:WALL-OUTER
G1 Z0.4
G1 F6600 E610.97474
G1 F600 X28.39 Y14.148 E611.0117
G1 X28.878 Y13.942 E611.04804
G1 X29.296 Y13.618 E611.08432
G1 X29.616 Y13.197 E611.12059
G1 X29.813 Y12.718 E611.15612
G1 X29.883 Y12.192 E611.19252
G1 X29.808 Y11.658 E611.22951
G1 X29.605 Y11.17 E611.26577
G1 X29.28 Y10.753 E611.30204
G1 X28.859 Y10.433 E611.33831
G1 X28.38 Y10.235 E611.37387
G1 X27.854 Y10.165 E611.41027
G1 X27.32 Y10.24 E611.44726
G1 X26.832 Y10.445 E611.48357
G1 X26.415 Y10.769 E611.5198
G1 X26.096 Y11.189 E611.55598
G1 X25.897 Y11.668 E611.59156
G1 X25.827 Y12.194 E611.62796
G1 X25.902 Y12.728 E611.66495
G1 X26.107 Y13.216 E611.70126
G1 X26.431 Y13.634 E611.73754
G1 X26.851 Y13.953 E611.77372
G1 X27.33 Y14.152 E611.8093
G1 X27.856 Y14.22 E611.84569
G0 F12000 X27.786 Y14.765
G0 X27.858 Y14.775
; TYPE:WALL-INNER
G1 F600 X28.536 Y14.683 E611.89262
G1 X29.158 Y14.421 E611.93892
G1 X29.691 Y14.008 E611.98518
G1 X30.097 Y13.472 E612.03131
G1 X30.349 Y12.861 E612.07664
G1 X30.438 Y12.191 E612.12301
G1 X30.343 Y11.512 E612.17004
G1 X30.084 Y10.89 E612.21626
G1 X29.67 Y10.358 E612.2625
G1 X29.135 Y9.952 E612.30858
G1 X28.524 Y9.699 E612.35394
G1 X27.853 Y9.61 E612.40037
G1 X27.173 Y9.705 E612.44748
G1 X26.552 Y9.966 E612.49368
G1 X26.02 Y10.379 E612.53989
G1 X25.615 Y10.913 E612.58586
G1 X25.361 Y11.524 E612.63125
G1 X25.272 Y12.195 E612.67769
G1 X25.367 Y12.875 E612.72479
G1 X25.628 Y13.496 E612.771
G1 X26.04 Y14.028 E612.81715
G1 X26.575 Y14.434 E612.86323
G1 X27.187 Y14.688 E612.90868
G1 X27.858 Y14.775 E612.9551
G0 F12000 X27.859 Y15.33
G1 F600 X28.683 Y15.218 E613.01214
G1 X29.438 Y14.9 E613.06834
G1 X30.085 Y14.398 E613.12452
G1 X30.579 Y13.747 E613.18058
G1 X30.885 Y13.004 E613.2357
G1 X30.993 Y12.189 E613.2921
G1 X30.878 Y11.365 E613.34917
G1 X30.563 Y10.611 E613.40523
G1 X30.06 Y9.963 E613.4615
G1 X29.411 Y9.471 E613.51737
G1 X28.667 Y9.164 E613.57258
G1 X27.851 Y9.055 E613.62905
G1 X27.026 Y9.17 E613.68619
G1 X26.271 Y9.487 E613.74237
G1 X25.626 Y9.989 E613.79843
G1 X25.134 Y10.637 E613.85425
G1 X24.826 Y11.381 E613.90949
G1 X24.717 Y12.197 E613.96596
G1 X24.832 Y13.022 E614.0231
G1 X25.149 Y13.776 E614.07921
G1 X25.65 Y14.422 E614.13529
G1 X26.299 Y14.915 E614.1912
G1 X27.044 Y15.224 E614.24653
G1 X27.859 Y15.33 E614.30291
G0 F12000 X29.158 Y14.421
G0 X29.691 Y14.008
G0 X39.936 Y1.275
G0 X40.486 Y1.275
; TYPE:WALL-OUTER
G1 F600 X76.536 Y1.275 E616.7759
G1 X76.536 Y-43.774 E619.86622
G1 X40.486 Y-43.774 E622.33921
G1 X40.486 Y1.275 E625.42953
G0 F12000 X39.936 Y1.275
G0 X39.936 Y1.825
; TYPE:WALL-INNER
G1 F600 X77.086 Y1.825 E627.97799
G1 X77.086 Y-44.324 E631.14376
G1 X39.936 Y-44.324 E633.69222
G1 X39.936 Y1.825 E636.85799
G0 F12000 X39.386 Y2.375
G1 F600 X77.636 Y2.375 E639.48191
G1 X77.636 Y-44.874 E642.72314
G1 X39.386 Y-44.874 E645.34705
G1 X39.386 Y2.375 E648.58829
G1 F6600 E644.58829
G1 Z0.7
G0 F12000 X79.187 Y14.688
G0 X79.786 Y14.765
G0 X79.856 Y14.22
; TYPE:WALL-OUTER
G1 Z0.4
G1 F6600 E648.68829
G1 F600 X80.39 Y14.148 E648.72525
G1 X80.878 Y13.942 E648.76159
G1 X81.296 Y13.618 E648.79787
G1 X81.616 Y13.197 E648.83414
G1 X81.813 Y12.718 E648.86967
G1 X81.883 Y12.192 E648.90608
G1 X81.808 Y11.658 E648.94307
G1 X81.605 Y11.17 E648.97932
G1 X81.28 Y10.753 E649.01559
G1 X80.859 Y10.433 E649.05187
G1 X80.38 Y10.235 E649.08742
G1 X79.854 Y10.165 E649.12382
G1 X79.32 Y10.24 E649.16082
G1 X78.832 Y10.445 E649.19713
G1 X78.415 Y10.769 E649.23335
G1 X78.096 Y11.189 E649.26953
G1 X77.897 Y11.668 E649.30511
G1 X77.827 Y12.194 E649.34151
G1 X77.902 Y12.728 E649.37851
G1 X78.107 Y13.216 E649.41482
G1 X78.431 Y13.634 E649.4511
G1 X78.851 Y13.953 E649.48728
G1 X79.33 Y14.152 E649.52286
G1 X79.856 Y14.22 E649.55924
G0 F12000 X79.786 Y14.765
G0 X79.858 Y14.775
; TYPE:WALL-INNER
G1 F600 X80.536 Y14.683 E649.60618
G1 X81.158 Y14.421 E649.65248
G1 X81.691 Y14.008 E649.69873
G1 X82.097 Y13.472 E649.74486
G1 X82.349 Y12.861 E649.7902
G1 X82.438 Y12.191 E649.83656
G1 X82.343 Y11.512 E649.88359
G1 X82.084 Y10.89 E649.92981
G1 X81.67 Y10.358 E649.97606
G1 X81.135 Y9.952 E650.02213
G1 X80.524 Y9.699 E650.06749
G1 X79.853 Y9.61 E650.11393
G1 X79.173 Y9.705 E650.16103
G1 X78.552 Y9.966 E650.20724
G1 X78.02 Y10.379 E650.25344
G1 X77.615 Y10.913 E650.29941
G1 X77.361 Y11.524 E650.34481
G1 X77.272 Y12.195 E650.39124
G1 X77.367 Y12.875 E650.43834
G1 X77.628 Y13.496 E650.48455
G1 X78.04 Y14.028 E650.53071
G1 X78.575 Y14.434 E650.57678
G1 X79.187 Y14.688 E650.62223
G1 X79.858 Y14.775 E650.66865
G0 F12000 X79.859 Y15.33
G1 F600 X80.683 Y15.218 E650.7257
G1 X81.438 Y14.9 E650.78189
G1 X82.085 Y14.398 E650.83807
G1 X82.579 Y13.747 E650.89413
G1 X82.885 Y13.004 E650.94925
G1 X82.993 Y12.189 E651.00565
G1 X82.878 Y11.365 E651.06272
G1 X82.563 Y10.611 E651.11878
G1 X82.06 Y9.963 E651.17505
G1 X81.411 Y9.471 E651.23092
G1 X80.667 Y9.164 E651.28613
G1 X79.851 Y9.055 E651.34261
G1 X79.026 Y9.17 E651.39975
G1 X78.271 Y9.487 E651.45592
G1 X77.626 Y9.989 E651.51199
G1 X77.134 Y10.637 E651.5678
G1 X76.826 Y11.381 E651.62304
G1 X76.717 Y12.197 E651.67951
G1 X76.832 Y13.022 E651.73665
G1 X77.149 Y13.776 E651.79276
G1 X77.65 Y14.422 E651.84884
G1 X78.299 Y14.915 E651.90475
G1 X79.044 Y15.224 E651.96008
G1 X79.859 Y15.33 E652.01646
G0 F12000 X81.158 Y14.421
G0 X81.691 Y14.008
G0 X82.097 Y13.472
G0 X88.69 Y2.572
G0 X88.761 Y2.027
; TYPE:WALL-OUTER
G1 F600 X89.286 Y1.958 E652.05278
G1 X89.775 Y1.755 E652.0891
G1 X90.195 Y1.433 E652.12541
G1 X90.517 Y1.014 E652.16166
G1 X90.72 Y0.525 E652.19798
G1 X90.788 Y0 E652.2343
G1 X90.72 Y-0.523 E652.27047
G1 X90.517 Y-1.013 E652.30686
G1 X90.195 Y-1.432 E652.34311
G1 X89.775 Y-1.754 E652.37941
G1 X89.286 Y-1.957 E652.41573
G1 X88.761 Y-2.026 E652.45206
G1 X88.236 Y-1.957 E652.48838
G1 X87.747 Y-1.754 E652.5247
G1 X87.328 Y-1.432 E652.56095
G1 X87.006 Y-1.013 E652.5972
G1 X86.803 Y-0.523 E652.63359
G1 X86.734 Y0 E652.66978
G1 X86.803 Y0.525 E652.7061
G1 X87.006 Y1.014 E652.74242
G1 X87.328 Y1.433 E652.77867
G1 X87.747 Y1.755 E652.81492
G1 X88.236 Y1.958 E652.85124
G1 X88.761 Y2.027 E652.88757
G0 F12000 X88.69 Y2.572
G0 X88.761 Y2.582
; TYPE:WALL-INNER
G1 F600 X89.43 Y2.494 E652.93385
G1 X90.052 Y2.236 E652.98005
G1 X90.587 Y1.826 E653.02629
G1 X90.997 Y1.291 E653.07252
G1 X91.256 Y0.668 E653.11881
G1 X91.343 Y0 E653.16502
G1 X91.256 Y-0.666 E653.21109
G1 X90.998 Y-1.29 E653.25741
G1 X90.587 Y-1.825 E653.30369
G1 X90.052 Y-2.235 E653.34993
G1 X89.43 Y-2.493 E653.39613
G1 X88.761 Y-2.581 E653.44241
G1 X88.092 Y-2.493 E653.4887
G1 X87.47 Y-2.234 E653.53492
G1 X86.936 Y-1.824 E653.5811
G1 X86.525 Y-1.29 E653.62733
G1 X86.267 Y-0.667 E653.67359
G1 X86.179 Y0 E653.71974
G1 X86.267 Y0.669 E653.76603
G1 X86.526 Y1.291 E653.81225
G1 X86.936 Y1.825 E653.85843
G1 X87.47 Y2.235 E653.90462
G1 X88.092 Y2.494 E653.95084
G1 X88.761 Y2.582 E653.99712
G1 F6600 E649.99712
G1 Z0.7
G0 F12000 X88.092 Y2.494
G0 X87.47 Y2.235
G0 X86.936 Y1.825
G0 X86.526 Y1.291
G0 X86.267 Y0.669
G0 X86.179 Y0
G0 X88.69 Y-86.427
G0 X88.761 Y-86.972
; TYPE:WALL-OUTER
G1 Z0.4
G1 F6600 E654.09712
G1 F600 X89.286 Y-87.04 E654.13344
G1 X89.775 Y-87.243 E654.16976
G1 X90.195 Y-87.565 E654.20606
G1 X90.517 Y-87.985 E654.24237
G1 X90.72 Y-88.474 E654.27869
G1 X90.788 Y-88.999 E654.315
G1 X90.72 Y-89.523 E654.35125
G1 X90.517 Y-90.013 E654.38764
G1 X90.195 Y-90.432 E654.42389
G1 X89.775 Y-90.754 E654.46019
G1 X89.286 Y-90.957 E654.49651
G1 X88.761 Y-91.026 E654.53284
G1 X88.236 Y-90.957 E654.56916
G1 X87.747 Y-90.754 E654.60548
G1 X87.328 Y-90.432 E654.64173
G1 X87.006 Y-90.013 E654.67798
G1 X86.803 Y-89.523 E654.71436
G1 X86.734 Y-88.999 E654.75062
G1 X86.803 Y-88.474 E654.78694
G1 X87.006 Y-87.985 E654.82327
G1 X87.328 Y-87.565 E654.85957
G1 X87.747 Y-87.243 E654.89582
G1 X88.236 Y-87.04 E654.93214
G1 X88.761 Y-86.972 E654.96846
G0 F12000 X88.69 Y-86.427
G0 X88.761 Y-86.417
; TYPE:WALL-INNER
G1 F600 X89.429 Y-86.504 E655.01467
G1 X90.052 Y-86.762 E655.06092
G1 X90.587 Y-87.173 E655.1072
G1 X90.998 Y-87.708 E655.15348
G1 X91.256 Y-88.331 E655.19974
G1 X91.343 Y-88.999 E655.24595
G1 X91.256 Y-89.666 E655.2921
G1 X90.998 Y-90.29 E655.33842
G1 X90.587 Y-90.825 E655.3847
G1 X90.052 Y-91.235 E655.43093
G1 X89.43 Y-91.493 E655.47713
G1 X88.761 Y-91.581 E655.52342
G1 X88.092 Y-91.493 E655.5697
G1 X87.47 Y-91.234 E655.61592
G1 X86.936 Y-90.824 E655.66211
G1 X86.525 Y-90.29 E655.70833
G1 X86.267 Y-89.667 E655.75459
G1 X86.179 Y-88.999 E655.80081
G1 X86.267 Y-88.33 E655.8471
G1 X86.525 Y-87.708 E655.89329
G1 X86.935 Y-87.173 E655.93953
G1 X87.47 Y-86.763 E655.98577
G1 X88.093 Y-86.504 E656.03205
G1 X88.761 Y-86.417 E656.07826
G1 F6600 E652.07826
G1 Z0.7
G0 F12000 X-0.237 Y-86.417
G0 X-0.308 Y-86.427
G0 X-0.237 Y-86.972
; TYPE:WALL-OUTER
G1 Z0.4
G1 F6600 E656.17826
G1 F600 X0.287 Y-87.04 E656.21451
G1 X0.776 Y-87.243 E656.25083
G1 X1.195 Y-87.565 E656.28708
G1 X1.517 Y-87.985 E656.32339
G1 X1.72 Y-88.474 E656.35971
G1 X1.788 Y-88.999 E656.39602
G1 X1.72 Y-89.523 E656.43227
G1 X1.517 Y-90.013 E656.46865
G1 X1.195 Y-90.432 E656.5049
G1 X0.776 Y-90.754 E656.54115
G1 X0.287 Y-90.957 E656.57747
G1 X-0.237 Y-91.026 E656.61373
G1 X-0.762 Y-90.957 E656.65005
G1 X-1.251 Y-90.754 E656.68637
G1 X-1.67 Y-90.432 E656.72262
G1 X-1.992 Y-90.013 E656.75888
G1 X-2.195 Y-89.523 E656.79526
G1 X-2.264 Y-88.999 E656.83152
G1 X-2.195 Y-88.474 E656.86784
G1 X-1.992 Y-87.985 E656.90416
G1 X-1.67 Y-87.565 E656.94046
G1 X-1.251 Y-87.243 E656.97671
G1 X-0.762 Y-87.04 E657.01304
G1 X-0.237 Y-86.972 E657.04935
G0 F12000 X-0.308 Y-86.427
G0 X-0.237 Y-86.417
; TYPE:WALL-INNER
G1 F600 X0.43 Y-86.504 E657.09549
G1 X1.053 Y-86.763 E657.14178
G1 X1.588 Y-87.173 E657.18802
G1 X1.998 Y-87.708 E657.23425
G1 X2.256 Y-88.331 E657.28051
G1 X2.343 Y-88.999 E657.32672
G1 X2.256 Y-89.666 E657.37286
G1 X1.998 Y-90.29 E657.41919
G1 X1.587 Y-90.824 E657.46541
G1 X1.053 Y-91.234 E657.51159
G1 X0.431 Y-91.493 E657.55781
G1 X-0.237 Y-91.581 E657.60403
G1 X-0.906 Y-91.493 E657.65032
G1 X-1.528 Y-91.234 E657.69654
G1 X-2.062 Y-90.824 E657.74273
G1 X-2.473 Y-90.29 E657.78895
G1 X-2.731 Y-89.667 E657.83521
G1 X-2.819 Y-88.999 E657.88143
G1 X-2.731 Y-88.33 E657.92772
G1 X-2.473 Y-87.708 E657.97391
G1 X-2.063 Y-87.173 E658.02015
G1 X-1.528 Y-86.763 E658.06639
G1 X-0.905 Y-86.504 E658.11267
G1 X-0.237 Y-86.417 E658.15888
G1 F6600 E654.15888
G1 Z0.7
G0 F12000 X-89.237 Y-86.417
G0 X-89.308 Y-86.427
G0 X-89.237 Y-86.972
; TYPE:WALL-OUTER
G1 Z0.4
G1 F6600 E658.25888
G1 F600 X-88.712 Y-87.04 E658.2952
G1 X-88.223 Y-87.243 E658.33152
G1 X-87.803 Y-87.565 E658.36782
G1 X-87.481 Y-87.985 E658.40413
G1 X-87.278 Y-88.474 E658.44045
G1 X-87.21 Y-88.999 E658.47676
G1 X-87.278 Y-89.523 E658.51301
G1 X-87.481 Y-90.013 E658.54939
G1 X-87.803 Y-90.432 E658.58564
G1 X-88.223 Y-90.754 E658.62195
G1 X-88.712 Y-90.957 E658.65827
G1 X-89.237 Y-91.026 E658.69459
G1 X-89.762 Y-90.957 E658.73092
G1 X-90.251 Y-90.754 E658.76724
G1 X-90.67 Y-90.432 E658.80349
G1 X-90.992 Y-90.013 E658.83974
G1 X-91.195 Y-89.523 E658.87612
G1 X-91.264 Y-88.999 E658.91238
G1 X-91.195 Y-88.474 E658.9487
G1 X-90.992 Y-87.985 E658.98502
G1 X-90.67 Y-87.565 E659.02133
G1 X-90.251 Y-87.243 E659.05758
G1 X-89.762 Y-87.04 E659.0939
G1 X-89.237 Y-86.972 E659.13021
G0 F12000 X-89.308 Y-86.427
G0 X-89.237 Y-86.417
; TYPE:WALL-INNER
G1 F600 X-88.569 Y-86.504 E659.17643
G1 X-87.946 Y-86.762 E659.22268
G1 X-87.411 Y-87.173 E659.26896
G1 X-87 Y-87.708 E659.31524
G1 X-86.742 Y-88.331 E659.3615
G1 X-86.655 Y-88.999 E659.40771
G1 X-86.742 Y-89.666 E659.45385
G1 X-87 Y-90.29 E659.50017
G1 X-87.411 Y-90.825 E659.54645
G1 X-87.946 Y-91.235 E659.59269
G1 X-88.568 Y-91.493 E659.63889
G1 X-89.237 Y-91.581 E659.68517
G1 X-89.906 Y-91.493 E659.73146
G1 X-90.528 Y-91.234 E659.77768
G1 X-91.062 Y-90.824 E659.82387
G1 X-91.473 Y-90.29 E659.87009
G1 X-91.731 Y-89.667 E659.91635
G1 X-91.819 Y-88.999 E659.96257
G1 X-91.731 Y-88.33 E660.00886
G1 X-91.473 Y-87.708 E660.05505
G1 X-91.063 Y-87.173 E660.10129
G1 X-90.528 Y-86.763 E660.14753
G1 X-89.905 Y-86.504 E660.19381
G1 X-89.237 Y-86.417 E660.24002
G0 F12000 X-89.905 Y-86.504
G0 X-90.528 Y-86.763
G0 X-91.063 Y-87.173
G0 X-91.473 Y-87.708
G0 X-91.731 Y-88.33
G0 X-91.819 Y-88.999
G0 X-91.886 Y-90.654
G1 F600 X-91.562 Y-91.217 E660.28142
G1 X-90.806 Y-91.715 E660.34352
G0 F12000 X-90.806 Y-91.919
G1 F600 X-90.05 Y-92.076 E660.40574
G1 X-89.327 Y-92.124 E660.45544
G0 F12000 X-90.806 Y-92.124
G1 F600 X-91.886 Y-92.124 E660.52953
G1 X-91.886 Y-91.217 E660.59175
G1 F6600 E656.59175
G1 Z0.7
G0 F12000 X-89.906 Y-91.493
G0 X-89.237 Y-91.581
G0 X88.851 Y-92.124
G1 Z0.4
G1 F6600 E660.69175
G1 F600 X89.574 Y-92.076 E660.74145
G1 X90.329 Y-91.919 E660.80359
G0 F12000 X90.329 Y-91.715
G1 F600 X90.979 Y-91.217 E660.85976
G1 X91.478 Y-90.567 E660.91597
G0 F12000 X91.682 Y-90.567
G1 F600 X91.839 Y-89.809 E660.97815
G1 X91.886 Y-89.091 E661.02751
G0 F12000 X91.886 Y-90.567
G1 F600 X91.886 Y-92.124 E661.13432
G1 X90.329 Y-92.124 E661.24113
G0 F12000 X-91.249 Y-91.721
; TYPE:FILL
G1 F600 X-91.562 Y-91.582 E661.26646
G1 X-91.347 Y-91.849 E661.27698
G0 F12000 X-91.937 Y-90.429
G1 F600 X-92.079 Y-89.738 E661.29132
G0 F12000 X-92.079 Y-88.258
G1 F600 X-91.937 Y-87.57 E661.3056
G0 F12000 X-91.937 Y-1.429
G1 F600 X-92.079 Y-0.739 E661.31992
G0 F12000 X-92.079 Y0.741
G1 F600 X-91.937 Y1.43 E661.33422
G0 F12000 X-91.937 Y87.571
G1 F600 X-92.079 Y88.259 E661.34851
G0 F12000 X-92.079 Y89.739
G1 F600 X-91.937 Y90.43 E661.36285
G0 F12000 X-91.513 Y91.519
G1 F600 X-91.298 Y91.786 E661.38829
G1 X-91.611 Y91.647 E661.40559
G0 F12000 X-89.237 Y91.582
G0 X-86.641 Y91.3
; TYPE:BOTTOM-FILL
G1 F600 X17.035 Y91.3 E668.51766
G0 F12000 X17.035 Y90.75
G1 F600 X-86.22 Y90.75 E675.60085
G0 F12000 X-85.989 Y90.2
G1 F600 X17.035 Y90.2 E682.6682
G0 F12000 X17.035 Y89.65
G1 F600 X-85.831 Y89.65 E689.72471
G0 F12000 X-85.759 Y89.1
G1 F600 X17.035 Y89.1 E696.77628
G0 F12000 X17.035 Y88.55
G1 F600 X-85.805 Y88.55 E703.831
G0 F12000 X-85.906 Y88
G1 F600 X17.035 Y88 E710.89265
G0 F12000 X17.035 Y87.45
G1 F600 X-86.134 Y87.45 E717.96995
G0 F12000 X-86.487 Y86.9
G1 F600 X-70.965 Y86.9 E719.03474
G0 F12000 X-71.928 Y86.35
G1 F600 X-87.007 Y86.35 E720.06914
G0 F12000 X-87.922 Y85.8
G1 F600 X-72.471 Y85.8 E721.12907
G0 F12000 X-72.838 Y85.25
G1 F600 X-91.536 Y85.25 E722.41173
G0 F12000 X-91.536 Y84.7
G1 F600 X-73.067 Y84.7 E723.67869
G0 F12000 X-73.18 Y84.15
G1 F600 X-91.536 Y84.15 E724.93789
G0 F12000 X-91.536 Y83.6
G1 F600 X-73.239 Y83.6 E726.19305
G0 F12000 X-73.165 Y83.05
G1 F600 X-91.536 Y83.05 E727.45328
G0 F12000 X-91.536 Y82.5
G1 F600 X-73.021 Y82.5 E728.72339
G0 F12000 X-72.792 Y81.95
G1 F600 X-91.536 Y81.95 E730.00921
G0 F12000 X-91.536 Y81.4
G1 F600 X-72.384 Y81.4 E731.32302
G0 F12000 X-71.78 Y80.85
G1 F600 X-91.536 Y80.85 E732.67826
G0 F12000 X-91.536 Y80.3
G1 F600 X-70.693 Y80.3 E734.10807
G0 F12000 X-68.817 Y80.3
G1 F600 X-9.192 Y80.3 E738.19829
G0 F12000 X-10.279 Y80.85
G1 F600 X-67.729 Y80.85 E742.1393
G0 F12000 X-67.125 Y81.4
G1 F600 X-10.883 Y81.4 E745.99745
G0 F12000 X-11.291 Y81.95
G1 F600 X-66.716 Y81.95 E749.79955
G0 F12000 X-66.489 Y82.5
G1 F600 X-11.52 Y82.5 E753.57037
G0 F12000 X-11.664 Y83.05
G1 F600 X-66.344 Y83.05 E757.32137
G0 F12000 X-66.271 Y83.6
G1 F600 X-11.738 Y83.6 E761.06228
G0 F12000 X-11.679 Y84.15
G1 F600 X-66.329 Y84.15 E764.81121
G0 F12000 X-66.442 Y84.7
G1 F600 X-11.566 Y84.7 E768.57565
G0 F12000 X-11.337 Y85.25
G1 F600 X-66.671 Y85.25 E772.37151
G0 F12000 X-67.039 Y85.8
G1 F600 X-10.97 Y85.8 E776.21779
G0 F12000 X-10.427 Y86.35
G1 F600 X-67.582 Y86.35 E780.13857
G0 F12000 X-68.545 Y86.9
G1 F600 X-9.464 Y86.9 E784.19147
G0 F12000 X-7.044 Y86.9
G1 F600 X17.035 Y86.9 E785.84326
G0 F12000 X17.035 Y86.35
G1 F600 X-6.081 Y86.35 E787.429
G0 F12000 X-5.538 Y85.8
G1 F600 X17.035 Y85.8 E788.97749
G0 F12000 X17.035 Y85.25
G1 F600 X-5.17 Y85.25 E790.50073
G0 F12000 X-4.941 Y84.7
G1 F600 X17.035 Y84.7 E792.00826
G0 F12000 X17.035 Y84.15
G1 F600 X-4.828 Y84.15 E793.50804
G0 F12000 X-4.77 Y83.6
G1 F600 X17.035 Y83.6 E795.00384
G0 F12000 X17.035 Y83.05
G1 F600 X-4.843 Y83.05 E796.50465
G0 F12000 X-4.988 Y82.5
G1 F600 X17.035 Y82.5 E798.01541
G0 F12000 X17.035 Y81.95
G1 F600 X-5.215 Y81.95 E799.54174
G0 F12000 X-5.624 Y81.4
G1 F600 X17.035 Y81.4 E801.09612
G0 F12000 X17.035 Y80.85
G1 F600 X-6.228 Y80.85 E802.69194
G0 F12000 X-7.316 Y80.3
G1 F600 X17.035 Y80.3 E804.3624
G0 F12000 X17.035 Y79.75
G1 F600 X-91.536 Y79.75 E811.81026
G0 F12000 X-91.536 Y79.2
G1 F600 X17.035 Y79.2 E819.25813
G0 F12000 X17.035 Y78.65
G1 F600 X-91.536 Y78.65 E826.70599
G0 F12000 X-91.536 Y78.1
G1 F600 X17.035 Y78.1 E834.15386
G0 F12000 X17.035 Y77.55
G1 F600 X-91.536 Y77.55 E841.60172
G0 F12000 X-91.536 Y77
G1 F600 X17.035 Y77 E849.04959
G0 F12000 X17.035 Y76.45
G1 F600 X-91.536 Y76.45 E856.49745
G0 F12000 X-91.536 Y75.9
G1 F600 X17.035 Y75.9 E863.94532
G0 F12000 X17.035 Y75.35
G1 F600 X-91.536 Y75.35 E871.39318
G0 F12000 X-91.536 Y74.8
G1 F600 X17.035 Y74.8 E878.84105
G0 F12000 X17.035 Y74.25
G1 F600 X-91.536 Y74.25 E886.28891
G0 F12000 X-91.536 Y73.7
G1 F600 X17.035 Y73.7 E893.73678
G0 F12000 X17.035 Y73.15
G1 F600 X-91.536 Y73.15 E901.18464
G0 F12000 X-91.536 Y72.6
G1 F600 X17.035 Y72.6 E908.63251
G0 F12000 X17.035 Y72.05
G1 F600 X-91.536 Y72.05 E916.08037
G0 F12000 X-91.536 Y71.5
G1 F600 X17.035 Y71.5 E923.52824
G0 F12000 X17.035 Y70.95
G1 F600 X-91.536 Y70.95 E930.9761
G0 F12000 X-91.536 Y70.4
G1 F600 X17.035 Y70.4 E938.42397
G0 F12000 X17.035 Y69.85
G1 F600 X-91.536 Y69.85 E945.87183
G0 F12000 X-91.536 Y69.3
G1 F600 X17.035 Y69.3 E953.3197
G0 F12000 X17.035 Y68.75
G1 F600 X-91.536 Y68.75 E960.76756
G0 F12000 X-91.536 Y68.2
G1 F600 X17.035 Y68.2 E968.21543
G0 F12000 X17.035 Y67.65
G1 F600 X-91.536 Y67.65 E975.66329
G0 F12000 X-91.536 Y67.1
G1 F600 X25.803 Y67.1 E983.71264
G0 F12000 X25.306 Y66.55
G1 F600 X-91.536 Y66.55 E991.72788
G0 F12000 X-91.536 Y66
G1 F600 X24.879 Y66 E999.71384
G0 F12000 X24.631 Y65.45
G1 F600 X-91.536 Y65.45 E1007.68278
G0 F12000 X-91.536 Y64.9
G1 F600 X24.461 Y64.9 E1015.64006
G0 F12000 X24.384 Y64.35
G1 F600 X-91.536 Y64.35 E1023.59206
G0 F12000 X-91.536 Y63.8
G1 F600 X24.416 Y63.8 E1031.54626
G0 F12000 X24.5 Y63.25
G1 F600 X-91.536 Y63.25 E1039.50621
G0 F12000 X-91.536 Y62.7
G1 F600 X24.728 Y62.7 E1047.48181
G0 F12000 X25.062 Y62.15
G1 F600 X-91.536 Y62.15 E1055.48032
G0 F12000 X-91.536 Y61.6
G1 F600 X25.555 Y61.6 E1063.51265
G0 F12000 X26.406 Y61.05
G1 F600 X-91.536 Y61.05 E1071.60336
G0 F12000 X-91.536 Y60.5
G1 F600 X91.536 Y60.499 E1084.16192
G0 F12000 X91.536 Y61.049
G1 F600 X81.31 Y61.049 E1084.86341
G0 F12000 X82.162 Y61.599
G1 F600 X91.536 Y61.599 E1085.50646
G0 F12000 X91.536 Y62.149
G1 F600 X82.648 Y62.149 E1086.11617
G0 F12000 X82.979 Y62.699
G1 F600 X91.536 Y62.699 E1086.70317
G0 F12000 X91.536 Y63.249
G1 F600 X83.209 Y63.249 E1087.27439
G0 F12000 X83.292 Y63.799
G1 F600 X91.536 Y63.799 E1087.83992
G0 F12000 X91.536 Y64.349
G1 F600 X83.325 Y64.349 E1088.40319
G0 F12000 X83.253 Y64.899
G1 F600 X91.536 Y64.899 E1088.9714
G0 F12000 X91.536 Y65.449
G1 F600 X83.08 Y65.449 E1089.55147
G0 F12000 X82.827 Y66
G1 F600 X91.536 Y66 E1090.1489
G0 F12000 X91.536 Y66.55
G1 F600 X82.409 Y66.55 E1090.775
G0 F12000 X81.751 Y67.1
G1 F600 X91.536 Y67.1 E1091.44624
G0 F12000 X91.536 Y67.65
G1 F600 X80.104 Y67.65 E1092.23047
G0 F12000 X79.605 Y67.65
G1 F600 X70.486 Y67.65 E1092.85602
G0 F12000 X70.486 Y68.2
G1 F600 X91.536 Y68.2 E1094.30003
G0 F12000 X91.536 Y68.75
G1 F600 X70.486 Y68.75 E1095.74404
G0 F12000 X70.486 Y69.3
G1 F600 X91.536 Y69.3 E1097.18805
G0 F12000 X91.536 Y69.85
G1 F600 X70.486 Y69.85 E1098.63206
G0 F12000 X70.486 Y70.4
G1 F600 X91.536 Y70.4 E1100.07607
G0 F12000 X91.536 Y70.95
G1 F600 X70.486 Y70.95 E1101.52008
G0 F12000 X70.486 Y71.5
G1 F600 X91.536 Y71.5 E1102.96409
G0 F12000 X91.536 Y72.05
G1 F600 X70.486 Y72.05 E1104.4081
G0 F12000 X70.486 Y72.6
G1 F600 X91.536 Y72.6 E1105.85211
G0 F12000 X91.536 Y73.15
G1 F600 X70.486 Y73.15 E1107.29612
G0 F12000 X70.486 Y73.7
G1 F600 X91.536 Y73.7 E1108.74013
G0 F12000 X91.536 Y74.25
G1 F600 X70.486 Y74.25 E1110.18414
G0 F12000 X70.486 Y74.8
G1 F600 X91.536 Y74.8 E1111.62815
G0 F12000 X91.536 Y75.35
G1 F600 X70.486 Y75.35 E1113.07216
G0 F12000 X70.486 Y75.9
G1 F600 X91.536 Y75.9 E1114.51617
G0 F12000 X91.536 Y76.45
G1 F600 X70.486 Y76.45 E1115.96017
G0 F12000 X70.486 Y77
G1 F600 X91.536 Y77 E1117.40418
G0 F12000 X91.536 Y77.55
G1 F600 X70.486 Y77.55 E1118.84819
G0 F12000 X70.486 Y78.1
G1 F600 X91.536 Y78.1 E1120.2922
G0 F12000 X91.536 Y78.65
G1 F600 X70.486 Y78.65 E1121.73621
G0 F12000 X70.486 Y79.2
G1 F600 X91.536 Y79.2 E1123.18022
G0 F12000 X91.536 Y79.75
G1 F600 X70.486 Y79.75 E1124.62423
G0 F12000 X70.486 Y80.3
G1 F600 X91.536 Y80.3 E1126.06824
G0 F12000 X91.536 Y80.85
G1 F600 X70.486 Y80.85 E1127.51225
G0 F12000 X70.486 Y81.4
G1 F600 X91.536 Y81.4 E1128.95626
G0 F12000 X91.536 Y81.95
G1 F600 X70.486 Y81.95 E1130.40027
G0 F12000 X70.486 Y82.5
G1 F600 X91.536 Y82.5 E1131.84428
G0 F12000 X91.536 Y83.05
G1 F600 X70.486 Y83.05 E1133.28829
G0 F12000 X70.486 Y83.6
G1 F600 X91.536 Y83.6 E1134.7323
G0 F12000 X91.536 Y84.15
G1 F600 X70.486 Y84.15 E1136.17631
G0 F12000 X70.486 Y84.7
G1 F600 X91.536 Y84.7 E1137.62032
G0 F12000 X91.536 Y85.25
G1 F600 X70.486 Y85.25 E1139.06433
G0 F12000 X70.486 Y85.8
G1 F600 X87.445 Y85.8 E1140.2277
G0 F12000 X86.531 Y86.35
G1 F600 X70.486 Y86.35 E1141.32837
G0 F12000 X70.486 Y86.9
G1 F600 X86.011 Y86.9 E1142.39337
G0 F12000 X85.659 Y87.45
G1 F600 X70.486 Y87.45 E1143.43422
G0 F12000 X70.486 Y88
G1 F600 X85.431 Y88 E1144.45944
G0 F12000 X85.33 Y88.55
G1 F600 X70.486 Y88.55 E1145.47772
G0 F12000 X70.486 Y89.1
G1 F600 X85.283 Y89.1 E1146.49278
G0 F12000 X85.356 Y89.65
G1 F600 X70.486 Y89.65 E1147.51285
G0 F12000 X70.486 Y90.2
G1 F600 X85.513 Y90.2 E1148.54368
G0 F12000 X85.743 Y90.75
G1 F600 X70.486 Y90.75 E1149.5903
G0 F12000 X70.486 Y91.3
G1 F600 X86.165 Y91.3 E1150.66586
G0 F12000 X86.179 Y89
G0 X86.267 Y88.331
G0 X86.525 Y87.709
G0 X86.935 Y87.174
G0 X87.47 Y86.764
G0 X88.093 Y86.505
G0 X90.076 Y85.8
G1 F600 X91.536 Y85.8 E1150.76602
G0 F12000 X91.536 Y86.35
G1 F600 X90.992 Y86.35 E1150.80334
G0 F12000 X77.964 Y67.1
G1 F600 X29.905 Y67.1 E1154.10014
G0 F12000 X30.408 Y66.55
G1 F600 X77.307 Y66.55 E1157.31736
G0 F12000 X76.88 Y66
G1 F600 X30.826 Y66 E1160.47662
G0 F12000 X31.079 Y65.45
G1 F600 X76.632 Y65.449 E1163.60151
G0 F12000 X76.462 Y64.899
G1 F600 X31.252 Y64.9 E1166.70288
G0 F12000 X31.324 Y64.35
G1 F600 X76.385 Y64.349 E1169.79402
G0 F12000 X76.417 Y63.799
G1 F600 X31.291 Y63.8 E1172.88962
G0 F12000 X31.208 Y63.25
G1 F600 X76.501 Y63.249 E1175.99667
G0 F12000 X76.729 Y62.699
G1 F600 X30.978 Y62.7 E1179.13515
G0 F12000 X30.647 Y62.15
G1 F600 X77.063 Y62.149 E1182.31924
G0 F12000 X77.556 Y61.599
G1 F600 X30.161 Y61.6 E1185.57049
G0 F12000 X29.309 Y61.05
G1 F600 X78.407 Y61.049 E1188.93857
G0 F12000 X91.536 Y59.949
G1 F600 X-91.536 Y59.95 E1201.49713
G0 F12000 X-91.536 Y59.4
G1 F600 X91.536 Y59.399 E1214.05569
G0 F12000 X91.536 Y58.849
G1 F600 X-91.536 Y58.85 E1226.61425
G0 F12000 X-91.536 Y58.3
G1 F600 X91.536 Y58.299 E1239.17281
G0 F12000 X91.536 Y57.749
G1 F600 X-91.536 Y57.75 E1251.73137
G0 F12000 X-91.536 Y57.2
G1 F600 X91.536 Y57.199 E1264.28993
G0 F12000 X91.536 Y56.649
G1 F600 X-91.536 Y56.65 E1276.84849
G0 F12000 X-91.536 Y56.1
G1 F600 X91.536 Y56.099 E1289.40706
G0 F12000 X91.536 Y55.549
G1 F600 X-91.536 Y55.55 E1301.96562
G0 F12000 X-91.536 Y55
G1 F600 X91.536 Y54.999 E1314.52418
G0 F12000 X91.536 Y54.449
G1 F600 X-91.536 Y54.45 E1327.08274
G0 F12000 X-91.536 Y53.9
G1 F600 X91.536 Y53.899 E1339.6413
G0 F12000 X91.536 Y53.349
G1 F600 X-91.536 Y53.35 E1352.19986
G0 F12000 X-91.536 Y52.8
G1 F600 X91.536 Y52.799 E1364.75842
G0 F12000 X91.536 Y52.249
G1 F600 X-91.536 Y52.25 E1377.31699
G0 F12000 X-91.536 Y51.7
G1 F600 X91.536 Y51.699 E1389.87555
G0 F12000 X91.536 Y51.149
G1 F600 X-91.536 Y51.15 E1402.43411
G0 F12000 X-91.536 Y50.6
G1 F600 X91.536 Y50.599 E1414.99267
G0 F12000 X91.536 Y50.049
G1 F600 X-91.536 Y50.05 E1427.55123
G0 F12000 X-91.536 Y49.5
G1 F600 X91.536 Y49.499 E1440.10979
G0 F12000 X91.536 Y48.949
G1 F600 X-91.536 Y48.95 E1452.66835
G0 F12000 X-91.536 Y48.4
G1 F600 X91.536 Y48.399 E1465.22691
G0 F12000 X91.536 Y47.849
G1 F600 X-91.536 Y47.85 E1477.78548
G0 F12000 X-91.536 Y47.3
G1 F600 X91.536 Y47.299 E1490.34404
G0 F12000 X91.536 Y46.749
G1 F600 X-91.536 Y46.75 E1502.9026
G0 F12000 X-91.536 Y46.2
G1 F600 X91.536 Y46.199 E1515.46116
G0 F12000 X91.536 Y45.649
G1 F600 X-91.536 Y45.65 E1528.01972
G0 F12000 X-91.536 Y45.1
G1 F600 X91.536 Y45.099 E1540.57828
G0 F12000 X91.536 Y44.549
G1 F600 X-91.536 Y44.55 E1553.13684
G0 F12000 X-91.536 Y44
G1 F600 X91.536 Y43.999 E1565.69541
G0 F12000 X91.536 Y43.449
G1 F600 X-91.536 Y43.45 E1578.25397
G0 F12000 X-91.536 Y42.9
G1 F600 X91.536 Y42.899 E1590.81253
G0 F12000 X91.536 Y42.349
G1 F600 X-91.536 Y42.35 E1603.37109
G0 F12000 X-91.536 Y41.8
G1 F600 X91.536 Y41.799 E1615.92965
G0 F12000 X91.536 Y41.249
G1 F600 X-91.536 Y41.25 E1628.48821
G0 F12000 X-91.536 Y40.7
G1 F600 X91.536 Y40.699 E1641.04677
G0 F12000 X91.536 Y40.149
G1 F600 X-91.536 Y40.15 E1653.60534
G0 F12000 X-91.536 Y39.6
G1 F600 X91.536 Y39.599 E1666.1639
G0 F12000 X91.536 Y39.049
G1 F600 X-91.536 Y39.05 E1678.72246
G0 F12000 X-91.536 Y38.5
G1 F600 X91.536 Y38.499 E1691.28102
G0 F12000 X91.536 Y37.949
G1 F600 X-91.536 Y37.95 E1703.83958
G0 F12000 X-91.536 Y37.4
G1 F600 X91.536 Y37.399 E1716.39814
G0 F12000 X91.536 Y36.849
G1 F600 X-91.536 Y36.85 E1728.9567
G0 F12000 X-91.536 Y36.3
G1 F600 X91.536 Y36.299 E1741.51526
G0 F12000 X91.536 Y35.749
G1 F600 X-91.536 Y35.75 E1754.07383
G0 F12000 X-91.536 Y35.2
G1 F600 X91.536 Y35.199 E1766.63239
G0 F12000 X91.536 Y34.649
G1 F600 X-91.536 Y34.65 E1779.19095
G0 F12000 X-91.536 Y34.1
G1 F600 X91.536 Y34.099 E1791.74951
G0 F12000 X91.536 Y33.549
G1 F600 X-91.536 Y33.55 E1804.30807
G0 F12000 X-91.536 Y33
G1 F600 X91.536 Y32.999 E1816.86663
G0 F12000 X91.536 Y32.449
G1 F600 X-91.536 Y32.45 E1829.42519
G0 F12000 X-91.536 Y31.9
G1 F600 X91.536 Y31.899 E1841.98376
G0 F12000 X91.536 Y31.349
G1 F600 X-91.536 Y31.35 E1854.54232
G0 F12000 X-91.536 Y30.8
G1 F600 X91.536 Y30.799 E1867.10088
G0 F12000 X91.536 Y30.249
G1 F600 X-91.536 Y30.25 E1879.65944
G0 F12000 X-91.536 Y29.7
G1 F600 X91.536 Y29.699 E1892.218
G0 F12000 X91.536 Y29.149
G1 F600 X-91.536 Y29.15 E1904.77656
G0 F12000 X-91.536 Y28.6
G1 F600 X91.536 Y28.599 E1917.33512
G0 F12000 X91.536 Y28.049
G1 F600 X-91.536 Y28.05 E1929.89368
G0 F12000 X-91.536 Y27.5
G1 F600 X91.536 Y27.499 E1942.45225
G0 F12000 X91.536 Y26.949
G1 F600 X-91.536 Y26.95 E1955.01081
G0 F12000 X-91.536 Y26.4
G1 F600 X91.536 Y26.399 E1967.56937
G0 F12000 X91.536 Y25.849
G1 F600 X-91.536 Y25.85 E1980.12793
G0 F12000 X-91.536 Y25.3
G1 F600 X91.536 Y25.299 E1992.68649
G0 F12000 X91.536 Y24.749
G1 F600 X-91.536 Y24.75 E2005.24505
G0 F12000 X-91.536 Y24.2
G1 F600 X91.536 Y24.199 E2017.80361
G0 F12000 X91.536 Y23.649
G1 F600 X-91.536 Y23.65 E2030.36218
G0 F12000 X-91.536 Y23.1
G1 F600 X91.536 Y23.099 E2042.92074
G0 F12000 X91.536 Y22.549
G1 F600 X-91.536 Y22.55 E2055.4793
G0 F12000 X-91.536 Y22
G1 F600 X91.536 Y21.999 E2068.03786
G0 F12000 X91.536 Y21.449
G1 F600 X-91.536 Y21.45 E2080.59642
G0 F12000 X-91.536 Y20.9
G1 F600 X91.536 Y20.899 E2093.15498
G0 F12000 X91.536 Y20.349
G1 F600 X-91.536 Y20.35 E2105.71354
G0 F12000 X-91.536 Y19.8
G1 F600 X91.536 Y19.799 E2118.27211
G0 F12000 X91.536 Y19.249
G1 F600 X-91.536 Y19.25 E2130.83067
G0 F12000 X-91.536 Y18.7
G1 F600 X91.536 Y18.699 E2143.38923
G0 F12000 X91.536 Y18.149
G1 F600 X-91.536 Y18.15 E2155.94779
G0 F12000 X-91.536 Y17.6
G1 F600 X91.536 Y17.599 E2168.50635
G0 F12000 X91.536 Y17.049
G1 F600 X-91.536 Y17.05 E2181.06491
G0 F12000 X-91.536 Y16.5
G1 F600 X91.536 Y16.499 E2193.62347
G0 F12000 X91.536 Y15.949
G1 F600 X-91.536 Y15.95 E2206.18203
G0 F12000 X-91.536 Y15.4
G1 F600 X26.556 Y15.399 E2214.28303
G0 F12000 X25.635 Y14.849
G1 F600 X-91.536 Y14.85 E2222.32085
G0 F12000 X-91.536 Y14.3
G1 F600 X25.113 Y14.299 E2230.32286
G0 F12000 X24.758 Y13.749
G1 F600 X-91.536 Y13.75 E2238.30051
G0 F12000 X-91.536 Y13.2
G1 F600 X24.527 Y13.199 E2246.26232
G0 F12000 X24.427 Y12.649
G1 F600 X-91.536 Y12.65 E2254.21727
G0 F12000 X-91.536 Y12.1
G1 F600 X24.377 Y12.099 E2262.16879
G0 F12000 X24.45 Y11.549
G1 F600 X-91.536 Y11.55 E2270.12532
G0 F12000 X-91.536 Y11
G1 F600 X24.605 Y10.999 E2278.09248
G0 F12000 X24.836 Y10.449
G1 F600 X-7.165 Y10.45 E2280.28771
G0 F12000 X-6.147 Y9.9
G1 F600 X25.253 Y9.899 E2282.44172
G0 F12000 X25.877 Y9.349
G1 F600 X-5.576 Y9.35 E2284.59937
G0 F12000 X-5.19 Y8.8
G1 F600 X27.146 Y8.799 E2286.81759
G0 F12000 X28.592 Y8.799
G1 F600 X79.146 Y8.799 E2290.28554
G0 F12000 X77.877 Y9.349
G1 F600 X29.832 Y9.349 E2293.58138
G0 F12000 X30.454 Y9.899
G1 F600 X77.253 Y9.899 E2296.79175
G0 F12000 X76.836 Y10.449
G1 F600 X30.874 Y10.449 E2299.9447
G0 F12000 X31.104 Y10.999
G1 F600 X76.605 Y10.999 E2303.06602
G0 F12000 X76.45 Y11.549
G1 F600 X31.257 Y11.549 E2306.16622
G0 F12000 X31.334 Y12.099
G1 F600 X76.377 Y12.099 E2309.25612
G0 F12000 X76.427 Y12.649
G1 F600 X31.285 Y12.649 E2312.35282
G0 F12000 X31.183 Y13.199
G1 F600 X76.527 Y13.199 E2315.46337
G0 F12000 X76.758 Y13.749
G1 F600 X30.956 Y13.749 E2318.60535
G0 F12000 X30.599 Y14.299
G1 F600 X77.113 Y14.299 E2321.79616
G0 F12000 X77.635 Y14.849
G1 F600 X30.073 Y14.849 E2325.05887
G0 F12000 X29.154 Y15.399
G1 F600 X78.556 Y15.399 E2328.4478
G0 F12000 X81.154 Y15.399
G1 F600 X91.536 Y15.399 E2329.15999
G0 F12000 X91.536 Y14.849
G1 F600 X82.073 Y14.849 E2329.80915
G0 F12000 X82.599 Y14.299
G1 F600 X91.536 Y14.299 E2330.42222
G0 F12000 X91.536 Y13.749
G1 F600 X82.956 Y13.749 E2331.0108
G0 F12000 X83.183 Y13.199
G1 F600 X91.536 Y13.199 E2331.5838
G0 F12000 X91.536 Y12.649
G1 F600 X83.285 Y12.649 E2332.14981
G0 F12000 X83.334 Y12.099
G1 F600 X91.536 Y12.099 E2332.71246
G0 F12000 X91.536 Y11.549
G1 F600 X83.257 Y11.549 E2333.28039
G0 F12000 X83.104 Y10.999
G1 F600 X91.536 Y10.999 E2333.85882
G0 F12000 X91.536 Y10.449
G1 F600 X82.874 Y10.449 E2334.45303
G0 F12000 X82.454 Y9.899
G1 F600 X91.536 Y9.899 E2335.07604
G0 F12000 X91.536 Y9.349
G1 F600 X81.832 Y9.349 E2335.74173
G0 F12000 X80.592 Y8.799
G1 F600 X91.536 Y8.799 E2336.49247
G0 F12000 X91.536 Y8.249
G1 F600 X-4.962 Y8.25 E2343.11214
G0 F12000 X-4.834 Y7.7
G1 F600 X91.536 Y7.699 E2349.72303
G0 F12000 X91.536 Y7.149
G1 F600 X-4.765 Y7.15 E2356.32919
G0 F12000 X-4.837 Y6.6
G1 F600 X91.536 Y6.599 E2362.94028
G0 F12000 X91.536 Y6.049
G1 F600 X-4.968 Y6.05 E2369.56036
G0 F12000 X-5.196 Y5.5
G1 F600 X91.536 Y5.499 E2376.19608
G0 F12000 X91.536 Y4.949
G1 F600 X-5.586 Y4.95 E2382.85856
G0 F12000 X-6.163 Y4.4
G1 F600 X91.536 Y4.399 E2389.56061
G0 F12000 X91.536 Y3.849
G1 F600 X-7.195 Y3.85 E2396.33347
G0 F12000 X-9.316 Y3.85
G1 F600 X-68.694 Y3.85 E2400.40674
G0 F12000 X-67.662 Y4.4
G1 F600 X-10.347 Y4.4 E2404.33849
G0 F12000 X-10.923 Y4.95
G1 F600 X-67.085 Y4.95 E2408.19115
G0 F12000 X-66.695 Y5.5
G1 F600 X-11.313 Y5.5 E2411.9903
G0 F12000 X-11.542 Y6.05
G1 F600 X-66.467 Y6.05 E2415.7581
G0 F12000 X-66.337 Y6.6
G1 F600 X-11.672 Y6.6 E2419.50807
G0 F12000 X-11.745 Y7.15
G1 F600 X-66.265 Y7.15 E2423.24809
G0 F12000 X-66.336 Y7.7
G1 F600 X-11.673 Y7.7 E2426.99792
G0 F12000 X-11.546 Y8.25
G1 F600 X-66.463 Y8.25 E2430.76517
G0 F12000 X-66.692 Y8.8
G1 F600 X-11.317 Y8.8 E2434.56384
G0 F12000 X-10.933 Y9.35
G1 F600 X-67.078 Y9.35 E2438.41533
G0 F12000 X-67.649 Y9.9
G1 F600 X-10.363 Y9.9 E2442.3451
G0 F12000 X-9.345 Y10.45
G1 F600 X-68.668 Y10.45 E2446.4146
G0 F12000 X-70.842 Y10.45
G1 F600 X-91.536 Y10.45 E2447.83419
G0 F12000 X-91.536 Y9.9
G1 F600 X-71.862 Y9.9 E2449.1838
G0 F12000 X-72.432 Y9.35
G1 F600 X-91.536 Y9.35 E2450.49432
G0 F12000 X-91.536 Y8.8
G1 F600 X-72.817 Y8.8 E2451.77842
G0 F12000 X-73.046 Y8.25
G1 F600 X-91.536 Y8.25 E2453.04682
G0 F12000 X-91.536 Y7.7
G1 F600 X-73.173 Y7.7 E2454.3065
G0 F12000 X-73.245 Y7.15
G1 F600 X-91.536 Y7.15 E2455.56125
G0 F12000 X-91.536 Y6.6
G1 F600 X-73.172 Y6.6 E2456.821
G0 F12000 X-73.042 Y6.05
G1 F600 X-91.536 Y6.05 E2458.08967
G0 F12000 X-91.536 Y5.5
G1 F600 X-72.813 Y5.5 E2459.37405
G0 F12000 X-72.423 Y4.95
G1 F600 X-91.536 Y4.95 E2460.68519
G0 F12000 X-91.536 Y4.4
G1 F600 X-71.847 Y4.4 E2462.03583
G0 F12000 X-70.816 Y3.85
G1 F600 X-91.536 Y3.85 E2463.4572
G0 F12000 X-91.536 Y3.3
G1 F600 X-90.308 Y3.3 E2463.54144
G0 F12000 X-88.167 Y3.3
G1 F600 X87.688 Y3.299 E2475.60493
G0 F12000 X86.663 Y2.749
G1 F600 X-87.139 Y2.75 E2487.52757
G0 F12000 X-86.564 Y2.2
G1 F600 X39.036 Y2.199 E2496.14361
G0 F12000 X39.036 Y1.649
G1 F600 X-86.176 Y1.65 E2504.73303
G0 F12000 X-85.948 Y1.1
G1 F600 X39.036 Y1.099 E2513.30681
G0 F12000 X39.036 Y0.549
G1 F600 X-85.818 Y0.55 E2521.87168
G0 F12000 X-85.746 Y0
G1 F600 X39.036 Y0 E2530.4316
G0 F12000 X39.036 Y-0.55
G1 F600 X-85.818 Y-0.549 E2538.99646
G0 F12000 X-85.948 Y-1.099
G1 F600 X39.036 Y-1.1 E2547.57025
G0 F12000 X39.036 Y-1.65
G1 F600 X-86.176 Y-1.649 E2556.15967
G0 F12000 X-86.566 Y-2.199
G1 F600 X39.036 Y-2.2 E2564.77584
G0 F12000 X39.036 Y-2.75
G1 F600 X-87.141 Y-2.749 E2573.43146
G0 F12000 X-88.167 Y-3.299
G1 F600 X39.036 Y-3.3 E2582.15746
G0 F12000 X39.036 Y-3.85
G1 F600 X-91.536 Y-3.849 E2591.11458
G0 F12000 X-91.536 Y-4.399
G1 F600 X39.036 Y-4.4 E2600.07169
G0 F12000 X39.036 Y-4.95
G1 F600 X-91.536 Y-4.949 E2609.0288
G0 F12000 X-91.536 Y-5.499
G1 F600 X39.036 Y-5.5 E2617.98591
G0 F12000 X39.036 Y-6.05
G1 F600 X-91.536 Y-6.049 E2626.94303
G0 F12000 X-91.536 Y-6.599
G1 F600 X39.036 Y-6.6 E2635.90014
G0 F12000 X39.036 Y-7.15
G1 F600 X-91.536 Y-7.149 E2644.85725
G0 F12000 X-91.536 Y-7.699
G1 F600 X39.036 Y-7.7 E2653.81436
G0 F12000 X39.036 Y-8.25
G1 F600 X-91.536 Y-8.249 E2662.77147
G0 F12000 X-91.536 Y-8.799
G1 F600 X39.036 Y-8.8 E2671.72859
G0 F12000 X39.036 Y-9.35
G1 F600 X-91.536 Y-9.349 E2680.6857
G0 F12000 X-91.536 Y-9.899
G1 F600 X39.036 Y-9.9 E2689.64281
G0 F12000 X39.036 Y-10.45
G1 F600 X-91.536 Y-10.449 E2698.59992
G0 F12000 X-91.536 Y-10.999
G1 F600 X39.036 Y-11 E2707.55704
G0 F12000 X39.036 Y-11.55
G1 F600 X-91.536 Y-11.549 E2716.51415
G0 F12000 X-91.536 Y-12.099
G1 F600 X39.036 Y-12.1 E2725.47126
G0 F12000 X39.036 Y-12.65
G1 F600 X-91.536 Y-12.649 E2734.42837
G0 F12000 X-91.536 Y-13.199
G1 F600 X39.036 Y-13.2 E2743.38549
G0 F12000 X39.036 Y-13.75
G1 F600 X-91.536 Y-13.749 E2752.3426
G0 F12000 X-91.536 Y-14.299
G1 F600 X-65.962 Y-14.299 E2754.09695
G0 F12000 X-65.962 Y-14.849
G1 F600 X-91.536 Y-14.849 E2755.8513
G0 F12000 X-91.536 Y-15.399
G1 F600 X-65.962 Y-15.399 E2757.60565
G0 F12000 X-65.962 Y-15.949
G1 F600 X-91.536 Y-15.949 E2759.36
G0 F12000 X-91.536 Y-16.499
G1 F600 X-65.962 Y-16.499 E2761.11436
G0 F12000 X-65.962 Y-17.049
G1 F600 X-91.536 Y-17.049 E2762.86871
G0 F12000 X-91.536 Y-17.599
G1 F600 X-65.962 Y-17.599 E2764.62306
G0 F12000 X-65.962 Y-18.149
G1 F600 X-91.536 Y-18.149 E2766.37741
G0 F12000 X-91.536 Y-18.699
G1 F600 X-65.962 Y-18.699 E2768.13176
G0 F12000 X-65.962 Y-19.249
G1 F600 X-91.536 Y-19.249 E2769.88611
G0 F12000 X-91.536 Y-19.799
G1 F600 X-65.962 Y-19.799 E2771.64047
G0 F12000 X-65.962 Y-20.349
G1 F600 X-91.536 Y-20.349 E2773.39482
G0 F12000 X-91.536 Y-20.899
G1 F600 X-65.962 Y-20.899 E2775.14917
G0 F12000 X-65.962 Y-21.449
G1 F600 X-91.536 Y-21.449 E2776.90352
G0 F12000 X-91.536 Y-21.999
G1 F600 X-65.962 Y-21.999 E2778.65787
G0 F12000 X-65.962 Y-22.549
G1 F600 X-91.536 Y-22.549 E2780.41222
G0 F12000 X-91.536 Y-23.099
G1 F600 X-65.962 Y-23.099 E2782.16657
G0 F12000 X-65.962 Y-23.649
G1 F600 X-91.536 Y-23.649 E2783.92093
G0 F12000 X-91.536 Y-24.199
G1 F600 X-65.962 Y-24.199 E2785.67528
G0 F12000 X-65.962 Y-24.749
G1 F600 X-91.536 Y-24.749 E2787.42963
G0 F12000 X-91.536 Y-25.299
G1 F600 X-65.962 Y-25.299 E2789.18398
G0 F12000 X-65.962 Y-25.849
G1 F600 X-91.536 Y-25.849 E2790.93833
G0 F12000 X-91.536 Y-26.399
G1 F600 X-65.962 Y-26.399 E2792.69268
G0 F12000 X-65.962 Y-26.949
G1 F600 X-91.536 Y-26.949 E2794.44704
G0 F12000 X-91.536 Y-27.499
G1 F600 X-65.962 Y-27.499 E2796.20139
G0 F12000 X-65.962 Y-28.049
G1 F600 X-91.536 Y-28.049 E2797.95574
G0 F12000 X-91.536 Y-28.599
G1 F600 X-65.962 Y-28.599 E2799.71009
G0 F12000 X-65.962 Y-29.149
G1 F600 X-91.536 Y-29.149 E2801.46444
G0 F12000 X-91.536 Y-29.699
G1 F600 X-65.962 Y-29.699 E2803.21879
G0 F12000 X-65.962 Y-30.249
G1 F600 X-91.536 Y-30.249 E2804.97315
G0 F12000 X-91.536 Y-30.799
G1 F600 X-65.962 Y-30.799 E2806.7275
G0 F12000 X-65.962 Y-31.349
G1 F600 X-91.536 Y-31.349 E2808.48185
G0 F12000 X-91.536 Y-31.899
G1 F600 X-65.962 Y-31.899 E2810.2362
G0 F12000 X-65.962 Y-32.449
G1 F600 X-91.536 Y-32.449 E2811.99055
G0 F12000 X-91.536 Y-32.999
G1 F600 X-65.962 Y-32.999 E2813.7449
G0 F12000 X-65.962 Y-33.549
G1 F600 X-91.536 Y-33.549 E2815.49925
G0 F12000 X-91.536 Y-34.099
G1 F600 X-65.962 Y-34.099 E2817.25361
G0 F12000 X-65.962 Y-34.649
G1 F600 X-91.536 Y-34.649 E2819.00796
G0 F12000 X-91.536 Y-35.199
G1 F600 X-65.962 Y-35.199 E2820.76231
G0 F12000 X-65.962 Y-35.749
G1 F600 X-91.536 Y-35.749 E2822.51666
G0 F12000 X-91.536 Y-36.299
G1 F600 X-65.962 Y-36.299 E2824.27101
G0 F12000 X-65.962 Y-36.849
G1 F600 X-91.536 Y-36.849 E2826.02536
G0 F12000 X-91.536 Y-37.399
G1 F600 X-65.962 Y-37.399 E2827.77972
G0 F12000 X-65.962 Y-37.949
G1 F600 X-91.536 Y-37.949 E2829.53407
G0 F12000 X-91.536 Y-38.499
G1 F600 X-65.962 Y-38.499 E2831.28842
G0 F12000 X-65.962 Y-39.049
G1 F600 X-91.536 Y-39.049 E2833.04277
G0 F12000 X-91.536 Y-39.599
G1 F600 X-65.962 Y-39.599 E2834.79712
G0 F12000 X-65.962 Y-40.149
G1 F600 X-91.536 Y-40.149 E2836.55147
G0 F12000 X-91.536 Y-40.699
G1 F600 X-65.962 Y-40.699 E2838.30582
G0 F12000 X-65.962 Y-41.249
G1 F600 X-91.536 Y-41.249 E2840.06018
G0 F12000 X-91.536 Y-41.799
G1 F600 X-65.962 Y-41.799 E2841.81453
G0 F12000 X-65.962 Y-42.349
G1 F600 X-91.536 Y-42.349 E2843.56888
G0 F12000 X-91.536 Y-42.899
G1 F600 X-65.962 Y-42.899 E2845.32323
G0 F12000 X-65.962 Y-43.449
G1 F600 X-91.536 Y-43.449 E2847.07758
G0 F12000 X-91.536 Y-43.999
G1 F600 X-65.962 Y-43.999 E2848.83193
G0 F12000 X-65.962 Y-44.549
G1 F600 X-91.536 Y-44.549 E2850.58629
G0 F12000 X-91.536 Y-45.099
G1 F600 X-65.962 Y-45.099 E2852.34064
G0 F12000 X-65.962 Y-45.649
G1 F600 X-91.536 Y-45.649 E2854.09499
G0 F12000 X-91.536 Y-46.199
G1 F600 X-65.962 Y-46.199 E2855.84934
G0 F12000 X-65.962 Y-46.749
G1 F600 X-91.536 Y-46.749 E2857.60369
G0 F12000 X-91.536 Y-47.299
G1 F600 X-65.962 Y-47.299 E2859.35804
G0 F12000 X-65.962 Y-47.849
G1 F600 X-91.536 Y-47.849 E2861.11239
G0 F12000 X-91.536 Y-48.399
G1 F600 X-65.962 Y-48.399 E2862.86675
G0 F12000 X-65.962 Y-48.949
G1 F600 X-91.536 Y-48.949 E2864.6211
G0 F12000 X-91.536 Y-49.499
G1 F600 X-65.962 Y-49.499 E2866.37545
G0 F12000 X-65.962 Y-50.049
G1 F600 X-91.536 Y-50.049 E2868.1298
G0 F12000 X-91.536 Y-50.599
G1 F600 X-65.962 Y-50.599 E2869.88415
G0 F12000 X-65.962 Y-51.149
G1 F600 X-91.536 Y-51.149 E2871.6385
G0 F12000 X-91.536 Y-51.699
G1 F600 X-65.962 Y-51.699 E2873.39286
G0 F12000 X-65.962 Y-52.249
G1 F600 X-91.536 Y-52.249 E2875.14721
G0 F12000 X-91.536 Y-52.799
G1 F600 X-65.962 Y-52.799 E2876.90156
G0 F12000 X-65.962 Y-53.349
G1 F600 X-91.536 Y-53.349 E2878.65591
G0 F12000 X-91.536 Y-53.899
G1 F600 X-65.962 Y-53.899 E2880.41026
G0 F12000 X-65.962 Y-54.449
G1 F600 X-91.536 Y-54.449 E2882.16461
G0 F12000 X-91.536 Y-54.999
G1 F600 X-65.962 Y-54.999 E2883.91897
G0 F12000 X-65.962 Y-55.549
G1 F600 X-91.536 Y-55.549 E2885.67332
G0 F12000 X-91.536 Y-56.099
G1 F600 X-65.962 Y-56.099 E2887.42767
G0 F12000 X-65.962 Y-56.649
G1 F600 X-91.536 Y-56.649 E2889.18202
G0 F12000 X-91.536 Y-57.199
G1 F600 X-65.962 Y-57.199 E2890.93637
G0 F12000 X-65.962 Y-57.749
G1 F600 X-91.536 Y-57.749 E2892.69072
G0 F12000 X-91.536 Y-58.299
G1 F600 X-65.962 Y-58.299 E2894.44507
G0 F12000 X-65.962 Y-58.849
G1 F600 X-91.536 Y-58.849 E2896.19943
G0 F12000 X-91.536 Y-59.399
G1 F600 X-65.962 Y-59.399 E2897.95378
G0 F12000 X-65.962 Y-59.949
G1 F600 X-91.536 Y-59.949 E2899.70813
G0 F12000 X-91.536 Y-60.499
G1 F600 X-65.962 Y-60.499 E2901.46248
G0 F12000 X-65.962 Y-61.049
G1 F600 X-91.536 Y-61.049 E2903.21683
G0 F12000 X-91.536 Y-61.599
G1 F600 X-65.962 Y-61.599 E2904.97118
G0 F12000 X-65.962 Y-62.149
G1 F600 X-91.536 Y-62.149 E2906.72554
G0 F12000 X-91.536 Y-62.699
G1 F600 X-65.962 Y-62.699 E2908.47989
G0 F12000 X-65.962 Y-63.249
G1 F600 X-91.536 Y-63.249 E2910.23424
G0 F12000 X-91.536 Y-63.799
G1 F600 X-65.962 Y-63.799 E2911.98859
G0 F12000 X-65.962 Y-64.349
G1 F600 X-91.536 Y-64.349 E2913.74294
G0 F12000 X-91.536 Y-64.899
G1 F600 X-65.962 Y-64.899 E2915.49729
G0 F12000 X-65.962 Y-65.449
G1 F600 X-91.536 Y-65.449 E2917.25164
G0 F12000 X-91.536 Y-66
G1 F600 X-65.962 Y-66 E2919.006
G0 F12000 X-65.962 Y-66.55
G1 F600 X-91.536 Y-66.55 E2920.76035
G0 F12000 X-91.536 Y-67.1
G1 F600 X-65.962 Y-67.1 E2922.5147
G0 F12000 X-65.962 Y-67.65
G1 F600 X-91.536 Y-67.65 E2924.26905
G0 F12000 X-91.536 Y-68.2
G1 F600 X-65.962 Y-68.2 E2926.0234
G0 F12000 X-65.962 Y-68.75
G1 F600 X-91.536 Y-68.75 E2927.77775
G0 F12000 X-91.536 Y-69.3
G1 F600 X-65.962 Y-69.3 E2929.53211
G0 F12000 X-65.962 Y-69.85
G1 F600 X-91.536 Y-69.85 E2931.28646
G0 F12000 X-91.536 Y-70.4
G1 F600 X-65.962 Y-70.4 E2933.04081
G0 F12000 X-65.962 Y-70.95
G1 F600 X-91.536 Y-70.95 E2934.79516
G0 F12000 X-91.536 Y-71.5
G1 F600 X-65.962 Y-71.5 E2936.54951
G0 F12000 X-65.962 Y-72.05
G1 F600 X-91.536 Y-72.05 E2938.30386
G0 F12000 X-91.536 Y-72.6
G1 F600 X-65.962 Y-72.6 E2940.05821
G0 F12000 X-57.511 Y-72.6
G1 F600 X-55.961 Y-72.6 E2940.16454
G0 F12000 X-55.961 Y-72.05
G1 F600 X-57.511 Y-72.05 E2940.27087
G0 F12000 X-57.511 Y-71.5
G1 F600 X-55.961 Y-71.5 E2940.3772
G0 F12000 X-55.961 Y-70.95
G1 F600 X-57.511 Y-70.95 E2940.48353
G0 F12000 X-57.511 Y-70.4
G1 F600 X-55.961 Y-70.4 E2940.58986
G0 F12000 X-55.961 Y-69.85
G1 F600 X-57.511 Y-69.85 E2940.69619
G0 F12000 X-57.511 Y-69.3
G1 F600 X-55.961 Y-69.3 E2940.80251
G0 F12000 X-55.961 Y-68.75
G1 F600 X-57.511 Y-68.75 E2940.90884
G0 F12000 X-57.511 Y-68.2
G1 F600 X-55.961 Y-68.2 E2941.01517
G0 F12000 X-55.961 Y-67.65
G1 F600 X-57.511 Y-67.65 E2941.1215
G0 F12000 X-57.511 Y-67.1
G1 F600 X-55.961 Y-67.1 E2941.22783
G0 F12000 X-55.961 Y-66.55
G1 F600 X-57.511 Y-66.55 E2941.33416
G0 F12000 X-57.511 Y-66
G1 F600 X-55.961 Y-66 E2941.44049
G0 F12000 X-55.961 Y-65.45
G1 F600 X-57.511 Y-65.45 E2941.54681
G0 F12000 X-57.511 Y-64.9
G1 F600 X-55.961 Y-64.9 E2941.65314
G0 F12000 X-55.961 Y-64.35
G1 F600 X-57.511 Y-64.35 E2941.75947
G0 F12000 X-57.511 Y-63.8
G1 F600 X-55.961 Y-63.8 E2941.8658
G0 F12000 X-55.961 Y-63.25
G1 F600 X-57.511 Y-63.25 E2941.97213
G0 F12000 X-57.511 Y-62.7
G1 F600 X-55.961 Y-62.7 E2942.07846
G0 F12000 X-55.961 Y-62.15
G1 F600 X-57.511 Y-62.15 E2942.18478
G0 F12000 X-57.511 Y-61.6
G1 F600 X-55.961 Y-61.6 E2942.29111
G0 F12000 X-55.961 Y-61.05
G1 F600 X-57.511 Y-61.05 E2942.39744
G0 F12000 X-57.511 Y-60.5
G1 F600 X-55.961 Y-60.5 E2942.50377
G0 F12000 X-55.961 Y-59.95
G1 F600 X-57.511 Y-59.95 E2942.6101
G0 F12000 X-57.511 Y-59.4
G1 F600 X-55.961 Y-59.4 E2942.71643
G0 F12000 X-55.961 Y-58.85
G1 F600 X-57.511 Y-58.85 E2942.82276
G0 F12000 X-57.511 Y-58.3
G1 F600 X-55.961 Y-58.3 E2942.92908
G0 F12000 X-55.961 Y-57.75
G1 F600 X-57.511 Y-57.75 E2943.03541
G0 F12000 X-57.511 Y-57.2
G1 F600 X-55.961 Y-57.2 E2943.14174
G0 F12000 X-55.961 Y-56.65
G1 F600 X-57.511 Y-56.65 E2943.24807
G0 F12000 X-57.511 Y-56.1
G1 F600 X-55.961 Y-56.1 E2943.3544
G0 F12000 X-55.961 Y-55.55
G1 F600 X-57.511 Y-55.55 E2943.46073
G0 F12000 X-57.511 Y-55
G1 F600 X-55.961 Y-55 E2943.56706
G0 F12000 X-55.961 Y-54.45
G1 F600 X-57.511 Y-54.45 E2943.67338
G0 F12000 X-57.511 Y-53.9
G1 F600 X-55.961 Y-53.9 E2943.77971
G0 F12000 X-55.961 Y-53.35
G1 F600 X-57.511 Y-53.35 E2943.88604
G0 F12000 X-57.511 Y-52.8
G1 F600 X-55.961 Y-52.8 E2943.99237
G0 F12000 X-55.961 Y-52.25
G1 F600 X-57.511 Y-52.25 E2944.0987
G0 F12000 X-57.511 Y-51.7
G1 F600 X-55.961 Y-51.7 E2944.20503
G0 F12000 X-55.961 Y-51.15
G1 F600 X-57.511 Y-51.15 E2944.31135
G0 F12000 X-57.511 Y-50.6
G1 F600 X-55.961 Y-50.6 E2944.41768
G0 F12000 X-55.961 Y-50.05
G1 F600 X-57.511 Y-50.05 E2944.52401
G0 F12000 X-57.511 Y-49.5
G1 F600 X-55.961 Y-49.5 E2944.63034
G0 F12000 X-55.961 Y-48.95
G1 F600 X-57.511 Y-48.95 E2944.73667
G0 F12000 X-57.511 Y-48.4
G1 F600 X-55.961 Y-48.4 E2944.843
G0 F12000 X-55.961 Y-47.85
G1 F600 X-57.511 Y-47.85 E2944.94933
G0 F12000 X-57.511 Y-47.3
G1 F600 X-55.961 Y-47.3 E2945.05565
G0 F12000 X-55.961 Y-46.75
G1 F600 X-57.511 Y-46.75 E2945.16198
G0 F12000 X-57.511 Y-46.2
G1 F600 X-55.961 Y-46.2 E2945.26831
G0 F12000 X-55.961 Y-45.65
G1 F600 X-57.511 Y-45.65 E2945.37464
G0 F12000 X-57.511 Y-45.1
G1 F600 X-55.961 Y-45.1 E2945.48097
G0 F12000 X-55.961 Y-44.55
G1 F600 X-57.511 Y-44.55 E2945.5873
G0 F12000 X-57.511 Y-44
G1 F600 X-55.961 Y-44 E2945.69363
G0 F12000 X-55.962 Y-43.45
G1 F600 X-57.512 Y-43.45 E2945.79995
G0 F12000 X-57.512 Y-42.9
G1 F600 X-55.962 Y-42.9 E2945.90628
G0 F12000 X-55.962 Y-42.35
G1 F600 X-57.512 Y-42.35 E2946.01261
G0 F12000 X-57.512 Y-41.8
G1 F600 X-55.962 Y-41.8 E2946.11894
G0 F12000 X-55.962 Y-41.25
G1 F600 X-57.512 Y-41.25 E2946.22527
G0 F12000 X-57.512 Y-40.7
G1 F600 X-55.962 Y-40.7 E2946.3316
G0 F12000 X-55.962 Y-40.15
G1 F600 X-57.512 Y-40.15 E2946.43792
G0 F12000 X-57.512 Y-39.6
G1 F600 X-55.962 Y-39.6 E2946.54425
G0 F12000 X-55.962 Y-39.05
G1 F600 X-57.512 Y-39.05 E2946.65058
G0 F12000 X-57.512 Y-38.5
G1 F600 X-55.962 Y-38.5 E2946.75691
G0 F12000 X-55.962 Y-37.95
G1 F600 X-57.512 Y-37.95 E2946.86324
G0 F12000 X-57.512 Y-37.4
G1 F600 X-55.962 Y-37.4 E2946.96957
G0 F12000 X-55.962 Y-36.85
G1 F600 X-57.512 Y-36.85 E2947.0759
G0 F12000 X-57.512 Y-36.3
G1 F600 X-55.962 Y-36.3 E2947.18222
G0 F12000 X-55.962 Y-35.75
G1 F600 X-57.512 Y-35.75 E2947.28855
G0 F12000 X-57.512 Y-35.2
G1 F600 X-55.962 Y-35.2 E2947.39488
G0 F12000 X-55.962 Y-34.65
G1 F600 X-57.512 Y-34.65 E2947.50121
G0 F12000 X-57.512 Y-34.1
G1 F600 X-55.962 Y-34.1 E2947.60754
G0 F12000 X-55.962 Y-33.55
G1 F600 X-57.512 Y-33.55 E2947.71387
G0 F12000 X-57.512 Y-33
G1 F600 X-55.962 Y-33 E2947.8202
G0 F12000 X-55.962 Y-32.449
G1 F600 X-57.512 Y-32.449 E2947.92652
G0 F12000 X-57.512 Y-31.899
G1 F600 X-55.962 Y-31.899 E2948.03285
G0 F12000 X-55.962 Y-31.349
G1 F600 X-57.512 Y-31.349 E2948.13918
G0 F12000 X-57.512 Y-30.799
G1 F600 X-55.962 Y-30.799 E2948.24551
G0 F12000 X-55.962 Y-30.249
G1 F600 X-57.512 Y-30.249 E2948.35184
G0 F12000 X-57.512 Y-29.699
G1 F600 X-55.962 Y-29.699 E2948.45817
G0 F12000 X-55.962 Y-29.149
G1 F600 X-57.512 Y-29.149 E2948.56449
G0 F12000 X-57.512 Y-28.599
G1 F600 X-55.962 Y-28.599 E2948.67082
G0 F12000 X-55.962 Y-28.049
G1 F600 X-57.512 Y-28.049 E2948.77715
G0 F12000 X-57.512 Y-27.499
G1 F600 X-55.962 Y-27.499 E2948.88348
G0 F12000 X-55.962 Y-26.949
G1 F600 X-57.512 Y-26.949 E2948.98981
G0 F12000 X-57.512 Y-26.399
G1 F600 X-55.962 Y-26.399 E2949.09614
G0 F12000 X-55.962 Y-25.849
G1 F600 X-57.512 Y-25.849 E2949.20247
G0 F12000 X-57.512 Y-25.299
G1 F600 X-55.962 Y-25.299 E2949.30879
G0 F12000 X-55.962 Y-24.749
G1 F600 X-57.512 Y-24.749 E2949.41512
G0 F12000 X-57.512 Y-24.199
G1 F600 X-55.962 Y-24.199 E2949.52145
G0 F12000 X-55.962 Y-23.649
G1 F600 X-57.512 Y-23.649 E2949.62778
G0 F12000 X-57.512 Y-23.099
G1 F600 X-55.962 Y-23.099 E2949.73411
G0 F12000 X-55.962 Y-22.549
G1 F600 X-57.512 Y-22.549 E2949.84044
G0 F12000 X-57.512 Y-21.999
G1 F600 X-55.962 Y-21.999 E2949.94676
G0 F12000 X-55.962 Y-21.449
G1 F600 X-57.512 Y-21.449 E2950.05309
G0 F12000 X-57.512 Y-20.899
G1 F600 X-55.962 Y-20.899 E2950.15942
G0 F12000 X-55.962 Y-20.349
G1 F600 X-57.512 Y-20.349 E2950.26575
G0 F12000 X-57.512 Y-19.799
G1 F600 X-55.962 Y-19.799 E2950.37208
G0 F12000 X-55.962 Y-19.249
G1 F600 X-57.512 Y-19.249 E2950.47841
G0 F12000 X-57.512 Y-18.699
G1 F600 X-55.962 Y-18.699 E2950.58474
G0 F12000 X-55.962 Y-18.149
G1 F600 X-57.512 Y-18.149 E2950.69106
G0 F12000 X-57.512 Y-17.599
G1 F600 X-55.962 Y-17.599 E2950.79739
G0 F12000 X-55.962 Y-17.049
G1 F600 X-57.512 Y-17.049 E2950.90372
G0 F12000 X-57.512 Y-16.499
G1 F600 X-55.962 Y-16.499 E2951.01005
G0 F12000 X-55.962 Y-15.949
G1 F600 X-57.512 Y-15.949 E2951.11638
G0 F12000 X-57.512 Y-15.399
G1 F600 X-55.962 Y-15.399 E2951.22271
G0 F12000 X-55.962 Y-14.849
G1 F600 X-57.512 Y-14.849 E2951.32904
G0 F12000 X-57.512 Y-14.299
G1 F600 X-55.962 Y-14.299 E2951.43536
G0 F12000 X-47.512 Y-14.299
G1 F600 X-45.962 Y-14.299 E2951.54169
G0 F12000 X-45.962 Y-14.849
G1 F600 X-47.512 Y-14.849 E2951.64802
G0 F12000 X-47.512 Y-15.399
G1 F600 X-45.962 Y-15.399 E2951.75435
G0 F12000 X-45.962 Y-15.949
G1 F600 X-47.512 Y-15.949 E2951.86068
G0 F12000 X-47.512 Y-16.499
G1 F600 X-45.962 Y-16.499 E2951.96701
G0 F12000 X-45.962 Y-17.049
G1 F600 X-47.512 Y-17.049 E2952.07333
G0 F12000 X-47.512 Y-17.599
G1 F600 X-45.962 Y-17.599 E2952.17966
G0 F12000 X-45.962 Y-18.149
G1 F600 X-47.512 Y-18.149 E2952.28599
G0 F12000 X-47.512 Y-18.699
G1 F600 X-45.962 Y-18.699 E2952.39232
G0 F12000 X-45.962 Y-19.249
G1 F600 X-47.512 Y-19.249 E2952.49865
G0 F12000 X-47.512 Y-19.799
G1 F600 X-45.962 Y-19.799 E2952.60498
G0 F12000 X-45.962 Y-20.349
G1 F600 X-47.512 Y-20.349 E2952.71131
G0 F12000 X-47.512 Y-20.899
G1 F600 X-45.962 Y-20.899 E2952.81763
G0 F12000 X-45.962 Y-21.449
G1 F600 X-47.512 Y-21.449 E2952.92396
G0 F12000 X-47.512 Y-21.999
G1 F600 X-45.962 Y-21.999 E2953.03029
G0 F12000 X-45.962 Y-22.549
G1 F600 X-47.512 Y-22.549 E2953.13662
G0 F12000 X-47.512 Y-23.099
G1 F600 X-45.962 Y-23.099 E2953.24295
G0 F12000 X-45.962 Y-23.649
G1 F600 X-47.512 Y-23.649 E2953.34928
G0 F12000 X-47.512 Y-24.199
G1 F600 X-45.962 Y-24.199 E2953.45561
G0 F12000 X-45.962 Y-24.749
G1 F600 X-47.512 Y-24.749 E2953.56193
G0 F12000 X-47.512 Y-25.299
G1 F600 X-45.962 Y-25.299 E2953.66826
G0 F12000 X-45.962 Y-25.849
G1 F600 X-47.512 Y-25.849 E2953.77459
G0 F12000 X-47.512 Y-26.399
G1 F600 X-45.962 Y-26.399 E2953.88092
G0 F12000 X-45.962 Y-26.949
G1 F600 X-47.512 Y-26.949 E2953.98725
G0 F12000 X-47.512 Y-27.499
G1 F600 X-45.962 Y-27.499 E2954.09358
G0 F12000 X-45.962 Y-28.049
G1 F600 X-47.512 Y-28.049 E2954.1999
G0 F12000 X-47.512 Y-28.599
G1 F600 X-45.962 Y-28.599 E2954.30623
G0 F12000 X-45.962 Y-29.149
G1 F600 X-47.512 Y-29.149 E2954.41256
G0 F12000 X-47.512 Y-29.699
G1 F600 X-45.962 Y-29.699 E2954.51889
G0 F12000 X-45.962 Y-30.249
G1 F600 X-47.512 Y-30.249 E2954.62522
G0 F12000 X-47.512 Y-30.799
G1 F600 X-45.962 Y-30.799 E2954.73155
G0 F12000 X-45.962 Y-31.349
G1 F600 X-47.512 Y-31.349 E2954.83788
G0 F12000 X-47.512 Y-31.899
G1 F600 X-45.962 Y-31.899 E2954.9442
G0 F12000 X-45.962 Y-32.449
G1 F600 X-47.512 Y-32.449 E2955.05053
G0 F12000 X-47.512 Y-33
G1 F600 X-45.962 Y-33 E2955.15686
G0 F12000 X-45.962 Y-33.55
G1 F600 X-47.512 Y-33.55 E2955.26319
G0 F12000 X-47.512 Y-34.1
G1 F600 X-45.962 Y-34.1 E2955.36952
G0 F12000 X-45.962 Y-34.65
G1 F600 X-47.512 Y-34.65 E2955.47585
G0 F12000 X-47.512 Y-35.2
G1 F600 X-45.962 Y-35.2 E2955.58218
G0 F12000 X-45.962 Y-35.75
G1 F600 X-47.512 Y-35.75 E2955.6885
G0 F12000 X-47.512 Y-36.3
G1 F600 X-45.962 Y-36.3 E2955.79483
G0 F12000 X-45.962 Y-36.85
G1 F600 X-47.512 Y-36.85 E2955.90116
G0 F12000 X-47.512 Y-37.4
G1 F600 X-45.962 Y-37.4 E2956.00749
G0 F12000 X-45.962 Y-37.95
G1 F600 X-47.512 Y-37.95 E2956.11382
G0 F12000 X-47.512 Y-38.5
G1 F600 X-45.962 Y-38.5 E2956.22015
G0 F12000 X-45.962 Y-39.05
G1 F600 X-47.512 Y-39.05 E2956.32647
G0 F12000 X-47.512 Y-39.6
G1 F600 X-45.962 Y-39.6 E2956.4328
G0 F12000 X-45.962 Y-40.15
G1 F600 X-47.512 Y-40.15 E2956.53913
G0 F12000 X-47.512 Y-40.7
G1 F600 X-45.962 Y-40.7 E2956.64546
G0 F12000 X-45.962 Y-41.25
G1 F600 X-47.512 Y-41.25 E2956.75179
G0 F12000 X-47.512 Y-41.8
G1 F600 X-45.962 Y-41.8 E2956.85812
G0 F12000 X-45.962 Y-42.35
G1 F600 X-47.512 Y-42.35 E2956.96445
G0 F12000 X-47.512 Y-42.9
G1 F600 X-45.962 Y-42.9 E2957.07077
G0 F12000 X-45.962 Y-43.45
G1 F600 X-47.512 Y-43.45 E2957.1771
G0 F12000 X-47.511 Y-44
G1 F600 X-45.961 Y-44 E2957.28343
G0 F12000 X-45.961 Y-44.55
G1 F600 X-47.511 Y-44.55 E2957.38976
G0 F12000 X-47.511 Y-45.1
G1 F600 X-45.961 Y-45.1 E2957.49609
G0 F12000 X-45.961 Y-45.65
G1 F600 X-47.511 Y-45.65 E2957.60242
G0 F12000 X-47.511 Y-46.2
G1 F600 X-45.961 Y-46.2 E2957.70874
G0 F12000 X-45.961 Y-46.75
G1 F600 X-47.511 Y-46.75 E2957.81507
G0 F12000 X-47.511 Y-47.3
G1 F600 X-45.961 Y-47.3 E2957.9214
G0 F12000 X-45.961 Y-47.85
G1 F600 X-47.511 Y-47.85 E2958.02773
G0 F12000 X-47.511 Y-48.4
G1 F600 X-45.961 Y-48.4 E2958.13406
G0 F12000 X-45.961 Y-48.95
G1 F600 X-47.511 Y-48.95 E2958.24039
G0 F12000 X-47.511 Y-49.5
G1 F600 X-45.961 Y-49.5 E2958.34672
G0 F12000 X-45.961 Y-50.05
G1 F600 X-47.511 Y-50.05 E2958.45304
G0 F12000 X-47.511 Y-50.6
G1 F600 X-45.961 Y-50.6 E2958.55937
G0 F12000 X-45.961 Y-51.15
G1 F600 X-47.511 Y-51.15 E2958.6657
G0 F12000 X-47.511 Y-51.7
G1 F600 X-45.961 Y-51.7 E2958.77203
G0 F12000 X-45.961 Y-52.25
G1 F600 X-47.511 Y-52.25 E2958.87836
G0 F12000 X-47.511 Y-52.8
G1 F600 X-45.961 Y-52.8 E2958.98469
G0 F12000 X-45.961 Y-53.35
G1 F600 X-47.511 Y-53.35 E2959.09102
G0 F12000 X-47.511 Y-53.9
G1 F600 X-45.961 Y-53.9 E2959.19734
G0 F12000 X-45.961 Y-54.45
G1 F600 X-47.511 Y-54.45 E2959.30367
G0 F12000 X-47.511 Y-55
G1 F600 X-45.961 Y-55 E2959.41
G0 F12000 X-45.961 Y-55.55
G1 F600 X-47.511 Y-55.55 E2959.51633
G0 F12000 X-47.511 Y-56.1
G1 F600 X-45.961 Y-56.1 E2959.62266
G0 F12000 X-45.961 Y-56.65
G1 F600 X-47.511 Y-56.65 E2959.72899
G0 F12000 X-47.511 Y-57.2
G1 F600 X-45.961 Y-57.2 E2959.83531
G0 F12000 X-45.961 Y-57.75
G1 F600 X-47.511 Y-57.75 E2959.94164
G0 F12000 X-47.511 Y-58.3
G1 F600 X-45.961 Y-58.3 E2960.04797
G0 F12000 X-45.961 Y-58.85
G1 F600 X-47.511 Y-58.85 E2960.1543
G0 F12000 X-47.511 Y-59.4
G1 F600 X-45.961 Y-59.4 E2960.26063
G0 F12000 X-45.961 Y-59.95
G1 F600 X-47.511 Y-59.95 E2960.36696
G0 F12000 X-47.511 Y-60.5
G1 F600 X-45.961 Y-60.5 E2960.47329
G0 F12000 X-45.961 Y-61.05
G1 F600 X-47.511 Y-61.05 E2960.57961
G0 F12000 X-47.511 Y-61.6
G1 F600 X-45.961 Y-61.6 E2960.68594
G0 F12000 X-45.961 Y-62.15
G1 F600 X-47.511 Y-62.15 E2960.79227
G0 F12000 X-47.511 Y-62.7
G1 F600 X-45.961 Y-62.7 E2960.8986
G0 F12000 X-45.961 Y-63.25
G1 F600 X-47.511 Y-63.25 E2961.00493
G0 F12000 X-47.511 Y-63.8
G1 F600 X-45.961 Y-63.8 E2961.11126
G0 F12000 X-45.961 Y-64.35
G1 F600 X-47.511 Y-64.35 E2961.21759
G0 F12000 X-47.511 Y-64.9
G1 F600 X-45.961 Y-64.9 E2961.32391
G0 F12000 X-45.961 Y-65.45
G1 F600 X-47.511 Y-65.45 E2961.43024
G0 F12000 X-47.511 Y-66
G1 F600 X-45.961 Y-66 E2961.53657
G0 F12000 X-45.961 Y-66.55
G1 F600 X-47.511 Y-66.55 E2961.6429
G0 F12000 X-47.511 Y-67.1
G1 F600 X-45.961 Y-67.1 E2961.74923
G0 F12000 X-45.961 Y-67.65
G1 F600 X-47.511 Y-67.65 E2961.85556
G0 F12000 X-47.511 Y-68.2
G1 F600 X-45.961 Y-68.2 E2961.96188
G0 F12000 X-45.961 Y-68.75
G1 F600 X-47.511 Y-68.75 E2962.06821
G0 F12000 X-47.511 Y-69.3
G1 F600 X-45.961 Y-69.3 E2962.17454
G0 F12000 X-45.961 Y-69.85
G1 F600 X-47.511 Y-69.85 E2962.28087
G0 F12000 X-47.511 Y-70.4
G1 F600 X-45.961 Y-70.4 E2962.3872
G0 F12000 X-45.961 Y-70.95
G1 F600 X-47.511 Y-70.95 E2962.49353
G0 F12000 X-47.511 Y-71.5
G1 F600 X-45.961 Y-71.5 E2962.59986
G0 F12000 X-45.961 Y-72.05
G1 F600 X-47.511 Y-72.05 E2962.70618
G0 F12000 X-47.511 Y-72.6
G1 F600 X-45.961 Y-72.6 E2962.81251
G0 F12000 X-37.511 Y-72.6
G1 F600 X-35.961 Y-72.6 E2962.91884
G0 F12000 X-35.961 Y-72.05
G1 F600 X-37.511 Y-72.05 E2963.02517
G0 F12000 X-37.511 Y-71.5
G1 F600 X-35.961 Y-71.5 E2963.1315
G0 F12000 X-35.961 Y-70.95
G1 F600 X-37.511 Y-70.95 E2963.23783
G0 F12000 X-37.511 Y-70.4
G1 F600 X-35.961 Y-70.4 E2963.34416
G0 F12000 X-35.961 Y-69.85
G1 F600 X-37.511 Y-69.85 E2963.45048
G0 F12000 X-37.511 Y-69.3
G1 F600 X-35.961 Y-69.3 E2963.55681
G0 F12000 X-35.961 Y-68.75
G1 F600 X-37.511 Y-68.75 E2963.66314
G0 F12000 X-37.511 Y-68.2
G1 F600 X-35.961 Y-68.2 E2963.76947
G0 F12000 X-35.961 Y-67.65
G1 F600 X-37.511 Y-67.65 E2963.8758
G0 F12000 X-37.511 Y-67.1
G1 F600 X-35.961 Y-67.1 E2963.98213
G0 F12000 X-35.961 Y-66.55
G1 F600 X-37.511 Y-66.55 E2964.08845
G0 F12000 X-37.511 Y-66
G1 F600 X-35.961 Y-66 E2964.19478
G0 F12000 X-35.961 Y-65.45
G1 F600 X-37.511 Y-65.45 E2964.30111
G0 F12000 X-37.511 Y-64.9
G1 F600 X-35.961 Y-64.9 E2964.40744
G0 F12000 X-35.961 Y-64.35
G1 F600 X-37.511 Y-64.35 E2964.51377
G0 F12000 X-37.511 Y-63.8
G1 F600 X-35.961 Y-63.8 E2964.6201
G0 F12000 X-35.961 Y-63.25
G1 F600 X-37.511 Y-63.25 E2964.72643
G0 F12000 X-37.511 Y-62.7
G1 F600 X-35.961 Y-62.7 E2964.83275
G0 F12000 X-35.961 Y-62.15
G1 F600 X-37.511 Y-62.15 E2964.93908
G0 F12000 X-37.511 Y-61.6
G1 F600 X-35.961 Y-61.6 E2965.04541
G0 F12000 X-35.961 Y-61.05
G1 F600 X-37.511 Y-61.05 E2965.15174
G0 F12000 X-37.511 Y-60.5
G1 F600 X-35.961 Y-60.5 E2965.25807
G0 F12000 X-35.961 Y-59.95
G1 F600 X-37.511 Y-59.95 E2965.3644
G0 F12000 X-37.511 Y-59.4
G1 F600 X-35.961 Y-59.4 E2965.47073
G0 F12000 X-35.961 Y-58.85
G1 F600 X-37.511 Y-58.85 E2965.57705
G0 F12000 X-37.511 Y-58.3
G1 F600 X-35.961 Y-58.3 E2965.68338
G0 F12000 X-35.961 Y-57.75
G1 F600 X-37.511 Y-57.75 E2965.78971
G0 F12000 X-37.511 Y-57.2
G1 F600 X-35.961 Y-57.2 E2965.89604
G0 F12000 X-35.961 Y-56.65
G1 F600 X-37.511 Y-56.65 E2966.00237
G0 F12000 X-37.511 Y-56.1
G1 F600 X-35.961 Y-56.1 E2966.1087
G0 F12000 X-35.961 Y-55.55
G1 F600 X-37.511 Y-55.55 E2966.21502
G0 F12000 X-37.511 Y-55
G1 F600 X-35.961 Y-55 E2966.32135
G0 F12000 X-35.961 Y-54.45
G1 F600 X-37.511 Y-54.45 E2966.42768
G0 F12000 X-37.511 Y-53.9
G1 F600 X-35.961 Y-53.9 E2966.53401
G0 F12000 X-35.961 Y-53.35
G1 F600 X-37.511 Y-53.35 E2966.64034
G0 F12000 X-37.511 Y-52.8
G1 F600 X-35.961 Y-52.8 E2966.74667
G0 F12000 X-35.961 Y-52.25
G1 F600 X-37.511 Y-52.25 E2966.853
G0 F12000 X-37.511 Y-51.7
G1 F600 X-35.961 Y-51.7 E2966.95932
G0 F12000 X-35.961 Y-51.15
G1 F600 X-37.511 Y-51.15 E2967.06565
G0 F12000 X-37.511 Y-50.6
G1 F600 X-35.961 Y-50.6 E2967.17198
G0 F12000 X-35.961 Y-50.05
G1 F600 X-37.511 Y-50.05 E2967.27831
G0 F12000 X-37.511 Y-49.5
G1 F600 X-35.961 Y-49.5 E2967.38464
G0 F12000 X-35.961 Y-48.95
G1 F600 X-37.511 Y-48.95 E2967.49097
G0 F12000 X-37.511 Y-48.4
G1 F600 X-35.961 Y-48.4 E2967.59729
G0 F12000 X-35.961 Y-47.85
G1 F600 X-37.511 Y-47.85 E2967.70362
G0 F12000 X-37.511 Y-47.3
G1 F600 X-35.961 Y-47.3 E2967.80995
G0 F12000 X-35.961 Y-46.75
G1 F600 X-37.511 Y-46.75 E2967.91628
G0 F12000 X-37.511 Y-46.2
G1 F600 X-35.961 Y-46.2 E2968.02261
G0 F12000 X-35.961 Y-45.65
G1 F600 X-37.511 Y-45.65 E2968.12894
G0 F12000 X-37.511 Y-45.1
G1 F600 X-35.961 Y-45.1 E2968.23527
G0 F12000 X-35.961 Y-44.55
G1 F600 X-37.511 Y-44.55 E2968.34159
G0 F12000 X-37.511 Y-44
G1 F600 X-35.961 Y-44 E2968.44792
G0 F12000 X-35.962 Y-43.45
G1 F600 X-37.512 Y-43.45 E2968.55425
G0 F12000 X-37.512 Y-42.9
G1 F600 X-35.962 Y-42.9 E2968.66058
G0 F12000 X-35.962 Y-42.35
G1 F600 X-37.512 Y-42.35 E2968.76691
G0 F12000 X-37.512 Y-41.8
G1 F600 X-35.962 Y-41.8 E2968.87324
G0 F12000 X-35.962 Y-41.25
G1 F600 X-37.512 Y-41.25 E2968.97957
G0 F12000 X-37.512 Y-40.7
G1 F600 X-35.962 Y-40.7 E2969.08589
G0 F12000 X-35.962 Y-40.15
G1 F600 X-37.512 Y-40.15 E2969.19222
G0 F12000 X-37.512 Y-39.6
G1 F600 X-35.962 Y-39.6 E2969.29855
G0 F12000 X-35.962 Y-39.05
G1 F600 X-37.512 Y-39.05 E2969.40488
G0 F12000 X-37.512 Y-38.5
G1 F600 X-35.962 Y-38.5 E2969.51121
G0 F12000 X-35.962 Y-37.95
G1 F600 X-37.512 Y-37.95 E2969.61754
G0 F12000 X-37.512 Y-37.4
G1 F600 X-35.962 Y-37.4 E2969.72386
G0 F12000 X-35.962 Y-36.85
G1 F600 X-37.512 Y-36.85 E2969.83019
G0 F12000 X-37.512 Y-36.3
G1 F600 X-35.962 Y-36.3 E2969.93652
G0 F12000 X-35.962 Y-35.75
G1 F600 X-37.512 Y-35.75 E2970.04285
G0 F12000 X-37.512 Y-35.2
G1 F600 X-35.962 Y-35.2 E2970.14918
G0 F12000 X-35.962 Y-34.65
G1 F600 X-37.512 Y-34.65 E2970.25551
G0 F12000 X-37.512 Y-34.1
G1 F600 X-35.962 Y-34.1 E2970.36184
G0 F12000 X-35.962 Y-33.55
G1 F600 X-37.512 Y-33.55 E2970.46816
G0 F12000 X-37.512 Y-33
G1 F600 X-35.962 Y-33 E2970.57449
G0 F12000 X-35.962 Y-32.449
G1 F600 X-37.512 Y-32.449 E2970.68082
G0 F12000 X-37.512 Y-31.899
G1 F600 X-35.962 Y-31.899 E2970.78715
G0 F12000 X-35.962 Y-31.349
G1 F600 X-37.512 Y-31.349 E2970.89348
G0 F12000 X-37.512 Y-30.799
G1 F600 X-35.962 Y-30.799 E2970.99981
G0 F12000 X-35.962 Y-30.249
G1 F600 X-37.512 Y-30.249 E2971.10614
G0 F12000 X-37.512 Y-29.699
G1 F600 X-35.962 Y-29.699 E2971.21246
G0 F12000 X-35.962 Y-29.149
G1 F600 X-37.512 Y-29.149 E2971.31879
G0 F12000 X-37.512 Y-28.599
G1 F600 X-35.962 Y-28.599 E2971.42512
G0 F12000 X-35.962 Y-28.049
G1 F600 X-37.512 Y-28.049 E2971.53145
G0 F12000 X-37.512 Y-27.499
G1 F600 X-35.962 Y-27.499 E2971.63778
G0 F12000 X-35.962 Y-26.949
G1 F600 X-37.512 Y-26.949 E2971.74411
G0 F12000 X-37.512 Y-26.399
G1 F600 X-35.962 Y-26.399 E2971.85043
G0 F12000 X-35.962 Y-25.849
G1 F600 X-37.512 Y-25.849 E2971.95676
G0 F12000 X-37.512 Y-25.299
G1 F600 X-35.962 Y-25.299 E2972.06309
G0 F12000 X-35.962 Y-24.749
G1 F600 X-37.512 Y-24.749 E2972.16942
G0 F12000 X-37.512 Y-24.199
G1 F600 X-35.962 Y-24.199 E2972.27575
G0 F12000 X-35.962 Y-23.649
G1 F600 X-37.512 Y-23.649 E2972.38208
G0 F12000 X-37.512 Y-23.099
G1 F600 X-35.962 Y-23.099 E2972.48841
G0 F12000 X-35.962 Y-22.549
G1 F600 X-37.512 Y-22.549 E2972.59473
G0 F12000 X-37.512 Y-21.999
G1 F600 X-35.962 Y-21.999 E2972.70106
G0 F12000 X-35.962 Y-21.449
G1 F600 X-37.512 Y-21.449 E2972.80739
G0 F12000 X-37.512 Y-20.899
G1 F600 X-35.962 Y-20.899 E2972.91372
G0 F12000 X-35.962 Y-20.349
G1 F600 X-37.512 Y-20.349 E2973.02005
G0 F12000 X-37.512 Y-19.799
G1 F600 X-35.962 Y-19.799 E2973.12638
G0 F12000 X-35.962 Y-19.249
G1 F600 X-37.512 Y-19.249 E2973.23271
G0 F12000 X-37.512 Y-18.699
G1 F600 X-35.962 Y-18.699 E2973.33903
G0 F12000 X-35.962 Y-18.149
G1 F600 X-37.512 Y-18.149 E2973.44536
G0 F12000 X-37.512 Y-17.599
G1 F600 X-35.962 Y-17.599 E2973.55169
G0 F12000 X-35.962 Y-17.049
G1 F600 X-37.512 Y-17.049 E2973.65802
G0 F12000 X-37.512 Y-16.499
G1 F600 X-35.962 Y-16.499 E2973.76435
G0 F12000 X-35.962 Y-15.949
G1 F600 X-37.512 Y-15.949 E2973.87068
G0 F12000 X-37.512 Y-15.399
G1 F600 X-35.962 Y-15.399 E2973.977
G0 F12000 X-35.962 Y-14.849
G1 F600 X-37.512 Y-14.849 E2974.08333
G0 F12000 X-37.512 Y-14.299
G1 F600 X-35.962 Y-14.299 E2974.18966
G0 F12000 X-27.512 Y-14.299
G1 F600 X-25.962 Y-14.299 E2974.29599
G0 F12000 X-25.962 Y-14.849
G1 F600 X-27.512 Y-14.849 E2974.40232
G0 F12000 X-27.512 Y-15.399
G1 F600 X-25.962 Y-15.399 E2974.50865
G0 F12000 X-25.962 Y-15.949
G1 F600 X-27.512 Y-15.949 E2974.61498
G0 F12000 X-27.512 Y-16.5
G1 F600 X-25.962 Y-16.5 E2974.7213
G0 F12000 X-25.962 Y-17.05
G1 F600 X-27.512 Y-17.05 E2974.82763
G0 F12000 X-27.512 Y-17.6
G1 F600 X-25.962 Y-17.6 E2974.93396
G0 F12000 X-25.962 Y-18.15
G1 F600 X-27.512 Y-18.15 E2975.04029
G0 F12000 X-27.512 Y-18.7
G1 F600 X-25.962 Y-18.7 E2975.14662
G0 F12000 X-25.962 Y-19.25
G1 F600 X-27.512 Y-19.25 E2975.25295
G0 F12000 X-27.512 Y-19.8
G1 F600 X-25.962 Y-19.8 E2975.35928
G0 F12000 X-25.962 Y-20.35
G1 F600 X-27.512 Y-20.35 E2975.4656
G0 F12000 X-27.512 Y-20.9
G1 F600 X-25.962 Y-20.9 E2975.57193
G0 F12000 X-25.962 Y-21.45
G1 F600 X-27.512 Y-21.45 E2975.67826
G0 F12000 X-27.512 Y-22
G1 F600 X-25.962 Y-22 E2975.78459
G0 F12000 X-25.962 Y-22.55
G1 F600 X-27.512 Y-22.55 E2975.89092
G0 F12000 X-27.512 Y-23.1
G1 F600 X-25.962 Y-23.1 E2975.99725
G0 F12000 X-25.962 Y-23.65
G1 F600 X-27.512 Y-23.65 E2976.10357
G0 F12000 X-27.512 Y-24.2
G1 F600 X-25.962 Y-24.2 E2976.2099
G0 F12000 X-25.962 Y-24.75
G1 F600 X-27.512 Y-24.75 E2976.31623
G0 F12000 X-27.512 Y-25.3
G1 F600 X-25.962 Y-25.3 E2976.42256
G0 F12000 X-25.962 Y-25.85
G1 F600 X-27.512 Y-25.85 E2976.52889
G0 F12000 X-27.512 Y-26.4
G1 F600 X-25.962 Y-26.4 E2976.63522
G0 F12000 X-25.962 Y-26.95
G1 F600 X-27.512 Y-26.95 E2976.74155
G0 F12000 X-27.512 Y-27.5
G1 F600 X-25.962 Y-27.5 E2976.84787
G0 F12000 X-25.962 Y-28.05
G1 F600 X-27.512 Y-28.05 E2976.9542
G0 F12000 X-27.512 Y-28.6
G1 F600 X-25.962 Y-28.6 E2977.06053
G0 F12000 X-25.962 Y-29.15
G1 F600 X-27.512 Y-29.15 E2977.16686
G0 F12000 X-27.512 Y-29.7
G1 F600 X-25.962 Y-29.7 E2977.27319
G0 F12000 X-25.962 Y-30.25
G1 F600 X-27.512 Y-30.25 E2977.37952
G0 F12000 X-27.512 Y-30.8
G1 F600 X-25.962 Y-30.8 E2977.48584
G0 F12000 X-25.962 Y-31.35
G1 F600 X-27.512 Y-31.35 E2977.59217
G0 F12000 X-27.512 Y-31.9
G1 F600 X-25.962 Y-31.9 E2977.6985
G0 F12000 X-25.962 Y-32.45
G1 F600 X-27.512 Y-32.45 E2977.80483
G0 F12000 X-27.512 Y-33
G1 F600 X-25.962 Y-33 E2977.91116
G0 F12000 X-25.962 Y-33.55
G1 F600 X-27.512 Y-33.55 E2978.01749
G0 F12000 X-27.512 Y-34.1
G1 F600 X-25.962 Y-34.1 E2978.12382
G0 F12000 X-25.962 Y-34.65
G1 F600 X-27.512 Y-34.65 E2978.23014
G0 F12000 X-27.512 Y-35.2
G1 F600 X-25.962 Y-35.2 E2978.33647
G0 F12000 X-25.962 Y-35.75
G1 F600 X-27.512 Y-35.75 E2978.4428
G0 F12000 X-27.512 Y-36.3
G1 F600 X-25.962 Y-36.3 E2978.54913
G0 F12000 X-25.962 Y-36.85
G1 F600 X-27.512 Y-36.85 E2978.65546
G0 F12000 X-27.512 Y-37.4
G1 F600 X-25.962 Y-37.4 E2978.76179
G0 F12000 X-25.962 Y-37.95
G1 F600 X-27.512 Y-37.95 E2978.86812
G0 F12000 X-27.512 Y-38.5
G1 F600 X-25.962 Y-38.5 E2978.97444
G0 F12000 X-25.962 Y-39.05
G1 F600 X-27.512 Y-39.05 E2979.08077
G0 F12000 X-27.512 Y-39.6
G1 F600 X-25.962 Y-39.6 E2979.1871
G0 F12000 X-25.962 Y-40.15
G1 F600 X-27.512 Y-40.15 E2979.29343
G0 F12000 X-27.512 Y-40.7
G1 F600 X-25.962 Y-40.7 E2979.39976
G0 F12000 X-25.962 Y-41.25
G1 F600 X-27.512 Y-41.25 E2979.50609
G0 F12000 X-27.512 Y-41.8
G1 F600 X-25.962 Y-41.8 E2979.61241
G0 F12000 X-25.962 Y-42.35
G1 F600 X-27.512 Y-42.35 E2979.71874
G0 F12000 X-27.512 Y-42.9
G1 F600 X-25.962 Y-42.9 E2979.82507
G0 F12000 X-25.962 Y-43.45
G1 F600 X-27.512 Y-43.45 E2979.9314
G0 F12000 X-27.511 Y-44
G1 F600 X-25.961 Y-44 E2980.03773
G0 F12000 X-25.961 Y-44.55
G1 F600 X-27.511 Y-44.55 E2980.14406
G0 F12000 X-27.511 Y-45.1
G1 F600 X-25.961 Y-45.1 E2980.25039
G0 F12000 X-25.961 Y-45.65
G1 F600 X-27.511 Y-45.65 E2980.35671
G0 F12000 X-27.511 Y-46.2
G1 F600 X-25.961 Y-46.2 E2980.46304
G0 F12000 X-25.961 Y-46.75
G1 F600 X-27.511 Y-46.75 E2980.56937
G0 F12000 X-27.511 Y-47.3
G1 F600 X-25.961 Y-47.3 E2980.6757
G0 F12000 X-25.961 Y-47.85
G1 F600 X-27.511 Y-47.85 E2980.78203
G0 F12000 X-27.511 Y-48.4
G1 F600 X-25.961 Y-48.4 E2980.88836
G0 F12000 X-25.961 Y-48.95
G1 F600 X-27.511 Y-48.95 E2980.99469
G0 F12000 X-27.511 Y-49.5
G1 F600 X-25.961 Y-49.5 E2981.10101
G0 F12000 X-25.961 Y-50.05
G1 F600 X-27.511 Y-50.05 E2981.20734
G0 F12000 X-27.511 Y-50.6
G1 F600 X-25.961 Y-50.6 E2981.31367
G0 F12000 X-25.961 Y-51.15
G1 F600 X-27.511 Y-51.15 E2981.42
G0 F12000 X-27.511 Y-51.7
G1 F600 X-25.961 Y-51.7 E2981.52633
G0 F12000 X-25.961 Y-52.25
G1 F600 X-27.511 Y-52.25 E2981.63266
G0 F12000 X-27.511 Y-52.8
G1 F600 X-25.961 Y-52.8 E2981.73898
G0 F12000 X-25.961 Y-53.35
G1 F600 X-27.511 Y-53.35 E2981.84531
G0 F12000 X-27.511 Y-53.9
G1 F600 X-25.961 Y-53.9 E2981.95164
G0 F12000 X-25.961 Y-54.45
G1 F600 X-27.511 Y-54.45 E2982.05797
G0 F12000 X-27.511 Y-55
G1 F600 X-25.961 Y-55 E2982.1643
G0 F12000 X-25.961 Y-55.55
G1 F600 X-27.511 Y-55.55 E2982.27063
G0 F12000 X-27.511 Y-56.1
G1 F600 X-25.961 Y-56.1 E2982.37696
G0 F12000 X-25.961 Y-56.65
G1 F600 X-27.511 Y-56.65 E2982.48328
G0 F12000 X-27.511 Y-57.2
G1 F600 X-25.961 Y-57.2 E2982.58961
G0 F12000 X-25.961 Y-57.75
G1 F600 X-27.511 Y-57.75 E2982.69594
G0 F12000 X-27.511 Y-58.3
G1 F600 X-25.961 Y-58.3 E2982.80227
G0 F12000 X-25.961 Y-58.85
G1 F600 X-27.511 Y-58.85 E2982.9086
G0 F12000 X-27.511 Y-59.4
G1 F600 X-25.961 Y-59.4 E2983.01493
G0 F12000 X-25.961 Y-59.95
G1 F600 X-27.511 Y-59.95 E2983.12126
G0 F12000 X-27.511 Y-60.5
G1 F600 X-25.961 Y-60.5 E2983.22758
G0 F12000 X-25.961 Y-61.05
G1 F600 X-27.511 Y-61.05 E2983.33391
G0 F12000 X-27.511 Y-61.6
G1 F600 X-25.961 Y-61.6 E2983.44024
G0 F12000 X-25.961 Y-62.15
G1 F600 X-27.511 Y-62.15 E2983.54657
G0 F12000 X-27.511 Y-62.7
G1 F600 X-25.961 Y-62.7 E2983.6529
G0 F12000 X-25.961 Y-63.25
G1 F600 X-27.511 Y-63.25 E2983.75923
G0 F12000 X-27.511 Y-63.8
G1 F600 X-25.961 Y-63.8 E2983.86555
G0 F12000 X-25.961 Y-64.35
G1 F600 X-27.511 Y-64.35 E2983.97188
G0 F12000 X-27.511 Y-64.9
G1 F600 X-25.961 Y-64.9 E2984.07821
G0 F12000 X-25.961 Y-65.45
G1 F600 X-27.511 Y-65.45 E2984.18454
G0 F12000 X-27.511 Y-66
G1 F600 X-25.961 Y-66 E2984.29087
G0 F12000 X-25.961 Y-66.55
G1 F600 X-27.511 Y-66.55 E2984.3972
G0 F12000 X-27.511 Y-67.1
G1 F600 X-25.961 Y-67.1 E2984.50353
G0 F12000 X-25.961 Y-67.65
G1 F600 X-27.511 Y-67.65 E2984.60985
G0 F12000 X-27.511 Y-68.2
G1 F600 X-25.961 Y-68.2 E2984.71618
G0 F12000 X-25.961 Y-68.75
G1 F600 X-27.511 Y-68.75 E2984.82251
G0 F12000 X-27.511 Y-69.3
G1 F600 X-25.961 Y-69.3 E2984.92884
G0 F12000 X-25.961 Y-69.85
G1 F600 X-27.511 Y-69.85 E2985.03517
G0 F12000 X-27.511 Y-70.4
G1 F600 X-25.961 Y-70.4 E2985.1415
G0 F12000 X-25.961 Y-70.95
G1 F600 X-27.511 Y-70.95 E2985.24782
G0 F12000 X-27.511 Y-71.5
G1 F600 X-25.961 Y-71.5 E2985.35415
G0 F12000 X-25.961 Y-72.05
G1 F600 X-27.511 Y-72.05 E2985.46048
G0 F12000 X-27.511 Y-72.6
G1 F600 X-25.961 Y-72.6 E2985.56681
G0 F12000 X-17.511 Y-72.6
G1 F600 X-15.961 Y-72.6 E2985.67314
G0 F12000 X-15.961 Y-72.05
G1 F600 X-17.511 Y-72.05 E2985.77947
G0 F12000 X-17.511 Y-71.5
G1 F600 X-15.961 Y-71.5 E2985.8858
G0 F12000 X-15.961 Y-70.95
G1 F600 X-17.511 Y-70.95 E2985.99212
G0 F12000 X-17.511 Y-70.4
G1 F600 X-15.961 Y-70.4 E2986.09845
G0 F12000 X-15.961 Y-69.85
G1 F600 X-17.511 Y-69.85 E2986.20478
G0 F12000 X-17.511 Y-69.3
G1 F600 X-15.961 Y-69.3 E2986.31111
G0 F12000 X-15.961 Y-68.75
G1 F600 X-17.511 Y-68.75 E2986.41744
G0 F12000 X-17.511 Y-68.2
G1 F600 X-15.961 Y-68.2 E2986.52377
