; Generated with MatterSlice 1.0
; filamentDiameter = 1.75
; extrusionWidth = 0.5
; firstLayerExtrusionWidth = 0.5
; layerThickness = 0.2
; firstLayerThickness = 0.3
; automatic settings before start_gcode
G21 ; set units to millimeters
M107 ; fan off
T0 ; set the active extruder to 0
; settings from start_gcode
M104 S215
M190 S60
M109 S215
G28
; automatic settings after start_gcode
T0 ; set the active extruder to 0
G90 ; use absolute coordinates
G92 E0 ; reset the expected extruder position
M82 ; use absolute distance for extrusion
; Layer count: 162
; Layer Change GCode
; LAYER:0
M400
M107
G0 F12000 X60.175 Y-22.795 Z0.7
; TYPE:SKIRT
G1 Z0.4
G1 F6600 E0
G1 F600 X39.445 Y50.84 E4.77059
G1 X-60.384 Y22.737 E11.23818
G1 X-39.655 Y-50.899 E16.00881
G1 X60.175 Y-22.795 E22.47648
G0 F12000 X59.559 Y-22.449
G1 F600 X39.099 Y50.224 E27.18476
G1 X-59.768 Y22.391 E33.59004
G1 X-39.309 Y-50.283 E38.29836
G1 X59.559 Y-22.449 E44.70372
G0 F12000 X58.942 Y-22.103
G1 F600 X38.753 Y49.607 E49.3496
G1 X-59.151 Y22.046 E55.69248
G1 X-38.964 Y-49.666 E60.33845
G1 X58.942 Y-22.103 E66.68149
G0 F12000 X58.325 Y-21.758
G1 F600 X38.408 Y48.99 E71.26503
G1 X-58.534 Y21.7 E77.54558
G1 X-38.618 Y-49.049 E82.12916
G1 X58.325 Y-21.758 E88.40979
G0 F12000 X57.708 Y-21.412
G1 F600 X38.062 Y48.373 E92.93095
G1 X-57.917 Y21.354 E99.14911
G1 X-38.272 Y-48.432 E103.6703
G1 X57.708 Y-21.412 E109.88854
G0 F12000 X57.092 Y-21.066
G1 F600 X37.716 Y47.757 E114.34739
G1 X-57.301 Y21.008 E120.50324
G1 X-37.926 Y-47.816 E124.96212
G1 X57.092 Y-21.066 E131.11805
G0 F12000 X56.475 Y-20.72
G1 F600 X37.37 Y47.14 E135.51451
G1 X-56.684 Y20.662 E141.60797
G1 X-37.58 Y-47.199 E146.00447
G1 X56.475 Y-20.72 E152.09801
G0 F12000 X55.858 Y-20.374
G1 F600 X37.024 Y46.523 E156.43208
G1 X-56.067 Y20.317 E162.46313
G1 X-37.235 Y-46.582 E166.79729
G1 X55.858 Y-20.374 E172.8285
G0 F12000 X55.241 Y-20.029
G1 F600 X36.679 Y45.906 E177.10022
G1 X-55.45 Y19.971 E183.06895
G1 X-36.889 Y-45.965 E187.34072
G1 X55.241 Y-20.029 E193.30952
G0 F12000 X54.624 Y-19.683
G1 F600 X36.333 Y45.289 E197.51886
G1 X-54.833 Y19.625 E203.4252
G1 X-36.543 Y-45.348 E207.63458
G1 X54.624 Y-19.683 E213.541
G1 F6600 E206.741
G1 Z0.7
G0 F12000 X54.316 Y-19.51
G0 X53.391 Y-18.991
G0 X38.356 Y14.577
G0 X37.501 Y16.094
G0 X36.505 Y17.524
G0 X35.378 Y18.851
G0 X34.129 Y20.066
G0 X32.748 Y21.169
G0 X31.292 Y22.122
G0 X29.75 Y22.933
G0 X28.137 Y23.591
G0 X26.47 Y24.093
G0 X24.763 Y24.434
G0 X15.493 Y27.166
G0 X15.169 Y27.545
; TYPE:WALL-OUTER
G1 Z0.4
G1 F6600 E213.641
G1 F600 X-27.299 Y15.584 E216.39246
G1 X-33.515 Y16.582 E216.78507
G1 X-36.022 Y17.043 E216.94403
G1 X-38.506 Y17.619 E217.10305
G1 X-40.964 Y18.31 E217.26228
G1 X-43.376 Y19.111 E217.42078
G1 X-45.775 Y20.031 E217.58101
G1 X-48.021 Y21.015 E217.73393
G1 X-54.216 Y19.279 E218.13515
G1 X-36.197 Y-44.731 E222.28214
G1 X-30.008 Y-42.985 E222.68317
G1 X-28.618 Y-40.991 E222.83475
G1 X-27.07 Y-38.975 E222.99326
G1 X-25.412 Y-37.01 E223.1536
G1 X-23.683 Y-35.145 E223.3122
G1 X-21.862 Y-33.352 E223.47157
G1 X-19.964 Y-31.649 E223.63059
G1 X-15.167 Y-27.545 E224.02429
G1 X27.302 Y-15.584 E226.77581
G1 X33.518 Y-16.581 E227.16841
G1 X36.024 Y-17.042 E227.32732
G1 X38.508 Y-17.619 E227.48635
G1 X40.966 Y-18.309 E227.64556
G1 X43.378 Y-19.11 E227.80406
G1 X45.777 Y-20.03 E227.96429
G1 X48.023 Y-21.014 E228.11721
G1 X54.007 Y-19.337 E228.50477
G1 X35.987 Y44.672 E232.65171
G1 X30.01 Y42.985 E233.03902
G1 X28.604 Y40.969 E233.1923
G1 X27.072 Y38.976 E233.34906
G1 X25.415 Y37.011 E233.50936
G1 X23.685 Y35.146 E233.668
G1 X21.864 Y33.353 E233.82737
G1 X19.966 Y31.65 E233.9864
G1 X15.169 Y27.545 E234.38013
G0 F12000 X15.493 Y27.166
G0 X15.41 Y27.094
; TYPE:WALL-INNER
G1 F600 X-27.27 Y15.073 E237.14533
G1 X-33.6 Y16.089 E237.54514
G1 X-36.124 Y16.553 E237.70518
G1 X-38.63 Y17.134 E237.86561
G1 X-41.111 Y17.832 E238.02634
G1 X-43.545 Y18.64 E238.18628
G1 X-45.965 Y19.568 E238.34791
G1 X-48.059 Y20.486 E238.49049
G1 X-53.6 Y18.933 E238.84936
G1 X-35.851 Y-44.114 E242.93398
G1 X-30.316 Y-42.553 E243.29262
G1 X-29.021 Y-40.696 E243.43381
G1 X-27.459 Y-38.662 E243.59374
G1 X-25.787 Y-36.679 E243.7555
G1 X-24.042 Y-34.797 E243.91555
G1 X-22.205 Y-32.987 E244.07638
G1 X-20.293 Y-31.273 E244.23652
G1 X-15.408 Y-27.094 E244.63742
G1 X27.273 Y-15.073 E247.40268
G1 X33.603 Y-16.088 E247.80248
G1 X36.126 Y-16.553 E247.96247
G1 X38.632 Y-17.134 E248.1229
G1 X41.113 Y-17.831 E248.28361
G1 X43.547 Y-18.639 E248.44355
G1 X45.967 Y-19.567 E248.60518
G1 X48.061 Y-20.485 E248.74777
G1 X53.391 Y-18.991 E249.09297
G1 X35.642 Y44.055 E253.17753
G1 X30.318 Y42.553 E253.52251
G1 X29.007 Y40.674 E253.66539
G1 X27.461 Y38.663 E253.82358
G1 X25.79 Y36.68 E253.9853
G1 X24.044 Y34.798 E254.14539
G1 X22.207 Y32.988 E254.30622
G1 X20.295 Y31.274 E254.46635
G1 X15.41 Y27.094 E254.8673
G0 F12000 X15.652 Y26.642
G1 F600 X-27.24 Y14.562 E257.64622
G1 X-33.685 Y15.596 E258.05329
G1 X-36.225 Y16.064 E258.21436
G1 X-38.754 Y16.65 E258.37625
G1 X-41.257 Y17.354 E258.5384
G1 X-43.713 Y18.169 E258.69978
G1 X-46.155 Y19.105 E258.86287
G1 X-48.096 Y19.956 E258.99504
G1 X-52.983 Y18.586 E259.31156
G1 X-35.506 Y-43.498 E263.33377
G1 X-30.624 Y-42.12 E263.65012
G1 X-29.425 Y-40.4 E263.78088
G1 X-27.849 Y-38.348 E263.94223
G1 X-26.162 Y-36.348 E264.1054
G1 X-24.401 Y-34.448 E264.26696
G1 X-22.547 Y-32.623 E264.4292
G1 X-20.623 Y-30.897 E264.59039
G1 X-15.65 Y-26.642 E264.99855
G1 X27.243 Y-14.562 E267.77753
G1 X33.688 Y-15.595 E268.18459
G1 X36.228 Y-16.063 E268.34566
G1 X38.756 Y-16.65 E268.5075
G1 X41.259 Y-17.352 E268.66962
G1 X43.715 Y-18.168 E268.83101
G1 X46.157 Y-19.104 E268.99411
G1 X48.098 Y-19.955 E269.12628
G1 X52.774 Y-18.644 E269.42913
G1 X35.296 Y43.438 E273.45124
G1 X30.626 Y42.12 E273.75385
G1 X29.411 Y40.378 E273.8863
G1 X27.851 Y38.349 E274.04591
G1 X26.165 Y36.349 E274.20904
G1 X24.403 Y34.449 E274.37064
G1 X22.549 Y32.624 E274.53288
G1 X20.625 Y30.898 E274.69407
G1 X15.652 Y26.642 E275.10227
G0 F12000 X22.993 Y24.611
G0 X23.01 Y24.111
; TYPE:WALL-OUTER
G1 F600 X24.688 Y23.939 E275.20746
G1 X26.349 Y23.608 E275.31308
G1 X27.97 Y23.119 E275.41867
G1 X29.539 Y22.479 E275.52435
G1 X31.038 Y21.691 E275.62996
G1 X32.455 Y20.764 E275.73556
G1 X33.798 Y19.691 E275.84276
G1 X35.012 Y18.509 E275.94842
G1 X36.108 Y17.219 E276.05399
G1 X37.077 Y15.828 E276.15971
G1 X37.909 Y14.352 E276.26537
G1 X38.595 Y12.804 E276.37096
G1 X39.13 Y11.199 E276.47647
G1 X39.228 Y10.853 E276.49889
G1 X39.607 Y9.209 E276.60411
G1 X39.829 Y7.531 E276.70966
G1 X39.889 Y5.838 E276.81531
G1 X39.789 Y4.147 E276.92095
G1 X39.527 Y2.474 E277.02656
G1 X39.106 Y0.832 E277.13227
G1 X38.532 Y-0.759 E277.23775
G1 X37.819 Y-2.267 E277.34177
G1 X36.955 Y-3.724 E277.44741
G1 X35.956 Y-5.092 E277.55305
G1 X34.831 Y-6.358 E277.65867
G1 X33.589 Y-7.511 E277.76435
G1 X32.242 Y-8.544 E277.87021
G1 X31.45 Y-8.999 E277.92717
G1 X30.598 Y-9.307 E277.98367
G1 X29.706 Y-9.465 E278.04017
G1 X28.8 Y-9.466 E278.09667
G1 X27.907 Y-9.313 E278.15317
G1 X27.042 Y-9.003 E278.21047
G1 X26.265 Y-8.56 E278.26625
G1 X25.567 Y-7.984 E278.32269
G1 X24.977 Y-7.296 E278.37921
G1 X24.515 Y-6.517 E278.43569
G1 X24.196 Y-5.681 E278.49149
G1 X17.681 Y17.456 E279.99049
G1 X17.515 Y18.323 E280.04554
G1 X17.5 Y19.228 E280.10199
G1 X17.64 Y20.123 E280.15848
G1 X17.932 Y20.982 E280.21506
G1 X18.367 Y21.777 E280.27158
G1 X18.939 Y22.495 E280.32882
G1 X19.61 Y23.085 E280.38454
G1 X20.381 Y23.56 E280.44102
G1 X21.223 Y23.895 E280.49753
G1 X22.109 Y24.08 E280.55398
G1 X23.01 Y24.111 E280.6102
G0 F12000 X22.993 Y24.611
G0 X23.027 Y24.612
; TYPE:WALL-INNER
G1 F600 X24.763 Y24.434 E280.71903
G1 X26.47 Y24.093 E280.82758
G1 X28.137 Y23.591 E280.93616
G1 X29.75 Y22.933 E281.04479
G1 X31.292 Y22.122 E281.15345
G1 X32.748 Y21.169 E281.26197
G1 X34.129 Y20.066 E281.37219
G1 X35.378 Y18.851 E281.48085
G1 X36.505 Y17.524 E281.58943
G1 X37.501 Y16.094 E281.69811
G1 X38.356 Y14.577 E281.8067
G1 X39.062 Y12.985 E281.91531
G1 X39.608 Y11.346 E282.02304
G1 X39.713 Y10.978 E282.04691
G1 X40.1 Y9.298 E282.15442
G1 X40.328 Y7.573 E282.26293
G1 X40.39 Y5.832 E282.37157
G1 X40.287 Y4.094 E282.48015
G1 X40.017 Y2.373 E282.58879
G1 X39.585 Y0.685 E282.69745
G1 X38.994 Y-0.951 E282.80593
G1 X38.261 Y-2.502 E282.91291
G1 X37.373 Y-3.999 E283.02146
G1 X36.346 Y-5.406 E283.13009
G1 X35.189 Y-6.708 E283.23871
G1 X33.912 Y-7.894 E283.3474
G1 X32.52 Y-8.961 E283.45678
G1 X31.661 Y-9.454 E283.51854
G1 X30.727 Y-9.792 E283.58049
G1 X29.75 Y-9.965 E283.64236
G1 X28.757 Y-9.966 E283.70429
G1 X27.78 Y-9.798 E283.76611
G1 X26.832 Y-9.459 E283.8289
G1 X25.98 Y-8.973 E283.89007
G1 X25.216 Y-8.343 E283.95182
G1 X24.569 Y-7.589 E284.01378
G1 X24.063 Y-6.735 E284.07569
G1 X23.721 Y-5.838 E284.13555
G1 X17.194 Y17.341 E285.63728
G1 X17.016 Y18.271 E285.69633
G1 X16.999 Y19.263 E285.7582
G1 X17.153 Y20.243 E285.82006
G1 X17.473 Y21.184 E285.88205
G1 X17.949 Y22.055 E285.94395
G1 X18.576 Y22.841 E286.00665
G1 X19.311 Y23.488 E286.06772
G1 X20.156 Y24.009 E286.12962
G1 X21.078 Y24.376 E286.19151
G1 X22.049 Y24.578 E286.25336
G1 X23.027 Y24.612 E286.31439
G0 F12000 X23.044 Y25.113
G1 F600 X24.838 Y24.929 E286.42685
G1 X26.592 Y24.579 E286.5384
G1 X28.304 Y24.063 E286.6499
G1 X29.961 Y23.387 E286.76151
G1 X31.545 Y22.554 E286.87312
G1 X33.042 Y21.575 E286.98467
G1 X34.46 Y20.441 E287.0979
G1 X35.743 Y19.193 E287.20952
G1 X36.901 Y17.83 E287.32105
G1 X37.925 Y16.361 E287.43272
G1 X38.803 Y14.802 E287.54431
G1 X39.529 Y13.166 E287.65593
G1 X40.086 Y11.494 E287.76583
G1 X40.197 Y11.103 E287.79118
G1 X40.592 Y9.387 E287.90099
G1 X40.827 Y7.614 E288.01253
G1 X40.89 Y5.826 E288.1241
G1 X40.784 Y4.04 E288.23568
G1 X40.508 Y2.272 E288.34727
G1 X40.063 Y0.538 E288.45891
G1 X39.457 Y-1.143 E288.57035
G1 X38.703 Y-2.737 E288.68031
G1 X37.791 Y-4.275 E288.79182
G1 X36.735 Y-5.721 E288.90348
G1 X35.547 Y-7.058 E289.01502
G1 X34.235 Y-8.276 E289.12667
G1 X32.797 Y-9.378 E289.23965
G1 X31.872 Y-9.909 E289.30616
G1 X30.857 Y-10.277 E289.37349
G1 X29.794 Y-10.465 E289.44081
G1 X28.715 Y-10.466 E289.5081
G1 X27.652 Y-10.284 E289.57536
G1 X26.622 Y-9.915 E289.64359
G1 X25.695 Y-9.386 E289.71015
G1 X24.865 Y-8.701 E289.77726
G1 X24.161 Y-7.881 E289.84466
G1 X23.611 Y-6.953 E289.91194
G1 X23.246 Y-5.995 E289.97587
G1 X16.707 Y17.226 E291.48032
G1 X16.517 Y18.22 E291.54343
G1 X16.498 Y19.298 E291.61066
G1 X16.666 Y20.363 E291.6779
G1 X17.013 Y21.386 E291.74527
G1 X17.531 Y22.333 E291.81258
G1 X18.212 Y23.188 E291.88075
G1 X19.013 Y23.892 E291.94725
G1 X19.931 Y24.457 E292.01448
G1 X20.933 Y24.856 E292.08174
G1 X21.989 Y25.077 E292.14902
G1 X23.044 Y25.113 E292.21485
G1 F6600 E285.41485
G1 Z0.7
G0 F12000 X1.478 Y18.838
G0 X1.492 Y18.338
; TYPE:WALL-OUTER
G1 Z0.4
G1 F6600 E292.31485
G1 F600 X2.984 Y18.238 E292.4081
G1 X4.46 Y17.991 E292.50143
G1 X5.905 Y17.6 E292.59479
G1 X7.304 Y17.069 E292.6881
G1 X8.645 Y16.405 E292.78142
G1 X9.914 Y15.612 E292.87474
G1 X11.099 Y14.698 E292.96807
G1 X12.189 Y13.672 E293.06142
G1 X13.173 Y12.545 E293.15473
G1 X14.042 Y11.326 E293.24808
G1 X14.788 Y10.029 E293.34139
G1 X15.402 Y8.665 E293.43468
G1 X15.878 Y7.253 E293.5276
G1 X17.302 Y2.195 E293.8553
G1 X17.652 Y0.687 E293.95184
G1 X17.845 Y-0.796 E294.0451
G1 X17.889 Y-2.292 E294.13844
G1 X17.79 Y-3.785 E294.23175
G1 X17.542 Y-5.26 E294.32503
G1 X17.151 Y-6.706 E294.41844
G1 X16.62 Y-8.104 E294.5117
G1 X15.956 Y-9.445 E294.60502
G1 X15.163 Y-10.714 E294.69834
G1 X14.249 Y-11.9 E294.79172
G1 X13.223 Y-12.989 E294.88502
G1 X12.096 Y-13.973 E294.97833
G1 X10.877 Y-14.843 E295.07172
G1 X9.58 Y-15.588 E295.165
G1 X8.215 Y-16.202 E295.25834
G1 X6.803 Y-16.678 E295.35127
G1 X2.978 Y-17.756 E295.5991
G1 X1.489 Y-18.1 E295.6944
G1 X0.006 Y-18.293 E295.78766
G1 X-1.491 Y-18.337 E295.88106
G1 X-2.983 Y-18.238 E295.97431
G1 X-4.459 Y-17.99 E296.06765
G1 X-5.904 Y-17.599 E296.161
G1 X-7.303 Y-17.068 E296.25432
G1 X-8.644 Y-16.404 E296.34764
G1 X-9.913 Y-15.611 E296.44096
G1 X-11.098 Y-14.698 E296.53425
G1 X-12.188 Y-13.672 E296.6276
G1 X-13.172 Y-12.544 E296.72095
G1 X-14.041 Y-11.325 E296.81431
G1 X-14.785 Y-10.028 E296.90756
G1 X-15.4 Y-8.664 E297.00087
G1 X-15.876 Y-7.251 E297.09385
G1 X-17.3 Y-2.193 E297.42155
G1 X-17.65 Y-0.686 E297.51803
G1 X-17.842 Y0.798 E297.61135
G1 X-17.887 Y2.294 E297.70468
G1 X-17.787 Y3.787 E297.798
G1 X-17.54 Y5.262 E297.89126
G1 X-17.149 Y6.707 E297.98462
G1 X-16.618 Y8.106 E298.07794
G1 X-15.953 Y9.446 E298.17123
G1 X-15.161 Y10.715 E298.26452
G1 X-14.248 Y11.9 E298.35781
G1 X-13.222 Y12.99 E298.45116
G1 X-12.095 Y13.974 E298.54446
G1 X-10.876 Y14.843 E298.63782
G1 X-9.579 Y15.589 E298.73113
G1 X-8.213 Y16.203 E298.82453
G1 X-6.802 Y16.679 E298.91739
G1 X-2.976 Y17.757 E299.16528
G1 X-1.488 Y18.101 E299.26053
G1 X-0.004 Y18.294 E299.35385
G1 X1.492 Y18.338 E299.44719
G0 F12000 X1.478 Y18.838
G0 X1.501 Y18.839
; TYPE:WALL-INNER
G1 F600 X3.042 Y18.735 E299.54351
G1 X4.567 Y18.48 E299.63993
G1 X6.059 Y18.076 E299.73633
G1 X7.504 Y17.528 E299.8327
G1 X8.889 Y16.842 E299.92909
G1 X10.2 Y16.023 E300.02549
G1 X11.424 Y15.079 E300.12189
G1 X12.55 Y14.019 E300.21833
G1 X13.566 Y12.855 E300.31468
G1 X14.463 Y11.596 E300.41108
G1 X15.234 Y10.257 E300.50744
G1 X15.868 Y8.848 E300.6038
G1 X16.356 Y7.401 E300.69903
G1 X17.787 Y2.32 E301.02822
G1 X18.145 Y0.776 E301.12706
G1 X18.344 Y-0.756 E301.2234
G1 X18.39 Y-2.301 E301.3198
G1 X18.287 Y-3.843 E301.41618
G1 X18.031 Y-5.367 E301.51255
G1 X17.627 Y-6.86 E301.609
G1 X17.079 Y-8.304 E301.70532
G1 X16.393 Y-9.689 E301.80171
G1 X15.574 Y-10.999 E301.89806
G1 X14.63 Y-12.225 E301.99455
G1 X13.57 Y-13.35 E302.09095
G1 X12.407 Y-14.366 E302.18725
G1 X11.147 Y-15.264 E302.28374
G1 X9.808 Y-16.034 E302.38007
G1 X8.398 Y-16.668 E302.47648
G1 X6.951 Y-17.156 E302.57171
G1 X3.102 Y-18.241 E302.8211
G1 X1.578 Y-18.593 E302.91865
G1 X0.046 Y-18.792 E303.01499
G1 X-1.5 Y-18.838 E303.11144
G1 X-3.041 Y-18.735 E303.20776
G1 X-4.566 Y-18.479 E303.30419
G1 X-6.058 Y-18.075 E303.40059
G1 X-7.503 Y-17.527 E303.49697
G1 X-8.888 Y-16.841 E303.59335
G1 X-10.199 Y-16.022 E303.68975
G1 X-11.423 Y-15.079 E303.78611
G1 X-12.549 Y-14.019 E303.88255
G1 X-13.565 Y-12.854 E303.97895
G1 X-14.462 Y-11.595 E304.07536
G1 X-15.231 Y-10.256 E304.17165
G1 X-15.866 Y-8.847 E304.26803
G1 X-16.354 Y-7.399 E304.36332
G1 X-17.785 Y-2.318 E304.69251
G1 X-18.143 Y-0.775 E304.7913
G1 X-18.341 Y0.759 E304.88775
G1 X-18.388 Y2.303 E304.98409
G1 X-18.284 Y3.845 E305.08047
G1 X-18.029 Y5.369 E305.17683
G1 X-17.625 Y6.861 E305.27323
G1 X-17.077 Y8.306 E305.3696
G1 X-16.39 Y9.69 E305.46596
G1 X-15.572 Y11.001 E305.56233
G1 X-14.629 Y12.225 E305.65869
G1 X-13.569 Y13.351 E305.75513
G1 X-12.405 Y14.367 E305.85148
G1 X-11.146 Y15.264 E305.94789
G1 X-9.807 Y16.035 E306.04424
G1 X-8.396 Y16.669 E306.14071
G1 X-6.95 Y17.157 E306.23588
G1 X-3.1 Y18.242 E306.48533
G1 X-1.577 Y18.594 E306.58282
G1 X-0.043 Y18.793 E306.67928
G1 X1.501 Y18.839 E306.77561
G0 F12000 X1.51 Y19.339
G1 F600 X3.101 Y19.232 E306.87506
G1 X4.674 Y18.969 E306.97451
G1 X6.214 Y18.553 E307.074
G1 X7.705 Y17.987 E307.17345
G1 X9.133 Y17.279 E307.27285
G1 X10.485 Y16.434 E307.37228
G1 X11.749 Y15.46 E307.47179
G1 X12.91 Y14.366 E307.57128
G1 X13.959 Y13.166 E307.67067
G1 X14.884 Y11.867 E307.77012
G1 X15.679 Y10.485 E307.86955
G1 X16.334 Y9.031 E307.969
G1 X16.834 Y7.548 E308.0666
G1 X18.271 Y2.444 E308.39728
G1 X18.638 Y0.865 E308.49837
G1 X18.843 Y-0.717 E308.59785
G1 X18.89 Y-2.31 E308.69724
G1 X18.784 Y-3.902 E308.79674
G1 X18.52 Y-5.474 E308.89615
G1 X18.104 Y-7.015 E308.99569
G1 X17.538 Y-8.505 E309.09509
G1 X16.83 Y-9.933 E309.19449
G1 X15.985 Y-11.285 E309.29392
G1 X15.011 Y-12.55 E309.39348
G1 X13.917 Y-13.711 E309.49296
G1 X12.717 Y-14.759 E309.59232
G1 X11.418 Y-15.685 E309.6918
G1 X10.035 Y-16.48 E309.79129
G1 X8.581 Y-17.134 E309.89071
G1 X7.098 Y-17.634 E309.98831
G1 X3.227 Y-18.725 E310.23912
G1 X1.667 Y-19.086 E310.33898
G1 X0.085 Y-19.291 E310.43846
G1 X-1.509 Y-19.338 E310.53791
G1 X-3.1 Y-19.232 E310.63735
G1 X-4.673 Y-18.968 E310.73682
G1 X-6.213 Y-18.552 E310.8363
G1 X-7.704 Y-17.986 E310.93576
G1 X-9.132 Y-17.278 E311.03515
G1 X-10.484 Y-16.433 E311.13458
G1 X-11.748 Y-15.46 E311.23406
G1 X-12.909 Y-14.366 E311.33354
G1 X-13.958 Y-13.164 E311.43303
G1 X-14.884 Y-11.865 E311.53252
G1 X-15.677 Y-10.483 E311.63188
G1 X-16.332 Y-9.03 E311.73128
G1 X-16.832 Y-7.546 E311.82894
G1 X-18.269 Y-2.442 E312.15961
G1 X-18.636 Y-0.864 E312.26065
G1 X-18.84 Y0.719 E312.36018
G1 X-18.888 Y2.312 E312.45957
G1 X-18.781 Y3.904 E312.55908
G1 X-18.518 Y5.476 E312.65847
G1 X-18.102 Y7.016 E312.75795
G1 X-17.536 Y8.507 E312.85741
G1 X-16.827 Y9.935 E312.95684
G1 X-15.983 Y11.286 E313.05618
G1 X-15.01 Y12.55 E313.15566
G1 X-13.916 Y13.711 E313.25514
G1 X-12.716 Y14.76 E313.35454
G1 X-11.417 Y15.685 E313.45399
G1 X-10.034 Y16.481 E313.5535
G1 X-8.579 Y17.135 E313.65298
G1 X-7.097 Y17.635 E313.75052
G1 X-3.225 Y18.726 E314.00139
G1 X-1.666 Y19.087 E314.10119
G1 X-0.083 Y19.292 E314.20073
G1 X1.51 Y19.339 E314.30012
G1 F6600 E307.50012
G1 Z0.7
G0 F12000 X-3.1 Y18.242
G0 X-6.95 Y17.157
G0 X-28.798 Y9.966
G0 X-28.798 Y9.467
; TYPE:WALL-OUTER
G1 Z0.4
G1 F6600 E314.40012
G1 F600 X-27.905 Y9.313 E314.45663
G1 X-27.039 Y9.004 E314.51397
G1 X-26.264 Y8.562 E314.56961
G1 X-25.565 Y7.986 E314.6261
G1 X-24.975 Y7.298 E314.68262
G1 X-24.513 Y6.519 E314.7391
G1 X-24.194 Y5.683 E314.7949
G1 X-17.678 Y-17.456 E316.29404
G1 X-17.513 Y-18.322 E316.34902
G1 X-17.498 Y-19.228 E316.40552
G1 X-17.637 Y-20.123 E316.46201
G1 X-17.929 Y-20.981 E316.51853
G1 X-18.364 Y-21.776 E316.57504
G1 X-18.937 Y-22.494 E316.63233
G1 X-19.608 Y-23.084 E316.68805
G1 X-20.379 Y-23.559 E316.74453
G1 X-21.221 Y-23.894 E316.80104
G1 X-22.107 Y-24.08 E316.8575
G1 X-23.008 Y-24.11 E316.91372
G1 X-24.685 Y-23.938 E317.01885
G1 X-26.346 Y-23.607 E317.12447
G1 X-27.969 Y-23.118 E317.23018
G1 X-29.536 Y-22.478 E317.33574
G1 X-31.036 Y-21.69 E317.4414
G1 X-32.453 Y-20.763 E317.547
G1 X-33.796 Y-19.69 E317.6542
G1 X-35.01 Y-18.509 E317.75983
G1 X-36.106 Y-17.218 E317.86544
G1 X-37.075 Y-15.828 E317.97111
G1 X-37.906 Y-14.352 E318.07674
G1 X-38.593 Y-12.803 E318.18241
G1 X-39.128 Y-11.198 E318.28792
G1 X-39.226 Y-10.853 E318.31029
G1 X-39.605 Y-9.208 E318.41556
G1 X-39.826 Y-7.529 E318.52117
G1 X-39.887 Y-5.836 E318.62682
G1 X-39.786 Y-4.145 E318.73246
G1 X-39.524 Y-2.472 E318.83807
G1 X-39.104 Y-0.831 E318.9437
G1 X-38.53 Y0.761 E319.04924
G1 X-37.817 Y2.269 E319.15327
G1 X-36.953 Y3.726 E319.2589
G1 X-35.954 Y5.094 E319.36454
G1 X-34.829 Y6.359 E319.47011
G1 X-33.587 Y7.513 E319.57584
G1 X-32.24 Y8.546 E319.6817
G1 X-31.448 Y9 E319.73863
G1 X-30.596 Y9.308 E319.79513
G1 X-29.704 Y9.466 E319.85162
G1 X-28.798 Y9.467 E319.90813
G0 F12000 X-28.798 Y9.966
G0 X-28.755 Y9.967
; TYPE:WALL-INNER
G1 F600 X-27.778 Y9.798 E319.96996
G1 X-26.83 Y9.46 E320.03272
G1 X-25.979 Y8.975 E320.09381
G1 X-25.214 Y8.345 E320.15561
G1 X-24.567 Y7.591 E320.21757
G1 X-24.061 Y6.737 E320.27948
G1 X-23.719 Y5.84 E320.33934
G1 X-17.191 Y-17.341 E321.8412
G1 X-17.014 Y-18.271 E321.90024
G1 X-16.997 Y-19.263 E321.96211
G1 X-17.15 Y-20.243 E322.02397
G1 X-17.47 Y-21.183 E322.08589
G1 X-17.946 Y-22.054 E322.14779
G1 X-18.574 Y-22.841 E322.21058
G1 X-19.309 Y-23.487 E322.27161
G1 X-20.154 Y-24.008 E322.33352
G1 X-21.076 Y-24.375 E322.3954
G1 X-22.047 Y-24.578 E322.45727
G1 X-23.025 Y-24.611 E322.51829
G1 X-24.76 Y-24.433 E322.62706
G1 X-26.467 Y-24.092 E322.73562
G1 X-28.136 Y-23.59 E322.84431
G1 X-29.747 Y-22.932 E322.95283
G1 X-31.29 Y-22.121 E323.06154
G1 X-32.746 Y-21.168 E323.17006
G1 X-34.127 Y-20.065 E323.28028
G1 X-35.376 Y-18.851 E323.3889
G1 X-36.503 Y-17.523 E323.49752
G1 X-37.499 Y-16.094 E323.60615
G1 X-38.353 Y-14.577 E323.71471
G1 X-39.06 Y-12.984 E323.8234
G1 X-39.606 Y-11.345 E323.93114
G1 X-39.711 Y-10.978 E323.95494
G1 X-40.098 Y-9.297 E324.06252
G1 X-40.325 Y-7.571 E324.17108
G1 X-40.388 Y-5.83 E324.27973
G1 X-40.284 Y-4.091 E324.38837
G1 X-40.014 Y-2.371 E324.49695
G1 X-39.583 Y-0.684 E324.60553
G1 X-38.992 Y0.953 E324.71407
G1 X-38.259 Y2.504 E324.82105
G1 X-37.371 Y4.001 E324.9296
G1 X-36.343 Y5.408 E325.03827
G1 X-35.187 Y6.709 E325.1468
G1 X-33.91 Y7.896 E325.25553
G1 X-32.517 Y8.963 E325.36496
G1 X-31.659 Y9.455 E325.42664
G1 X-30.725 Y9.793 E325.48858
G1 X-29.748 Y9.966 E325.55046
G1 X-28.755 Y9.967 E325.61238
G0 F12000 X-28.712 Y10.467
G1 F600 X-27.65 Y10.283 E325.6796
G1 X-26.62 Y9.916 E325.74779
G1 X-25.694 Y9.388 E325.81426
G1 X-24.863 Y8.703 E325.88142
G1 X-24.159 Y7.883 E325.94882
G1 X-23.609 Y6.955 E326.0161
G1 X-23.244 Y5.997 E326.08003
G1 X-16.704 Y-17.226 E327.58461
G1 X-16.515 Y-18.219 E327.64765
G1 X-16.496 Y-19.297 E327.71489
G1 X-16.663 Y-20.363 E327.78218
G1 X-17.01 Y-21.385 E327.84949
G1 X-17.528 Y-22.332 E327.9168
G1 X-18.211 Y-23.187 E327.98505
G1 X-19.011 Y-23.891 E328.0515
G1 X-19.929 Y-24.456 E328.11873
G1 X-20.931 Y-24.855 E328.18599
G1 X-21.987 Y-25.077 E328.25328
G1 X-23.042 Y-25.112 E328.31911
G1 X-24.835 Y-24.928 E328.43151
G1 X-26.588 Y-24.578 E328.54299
G1 X-28.303 Y-24.062 E328.65468
G1 X-29.958 Y-23.386 E328.76617
G1 X-31.543 Y-22.553 E328.87783
G1 X-33.04 Y-21.574 E328.98938
G1 X-34.458 Y-20.441 E329.10257
G1 X-35.741 Y-19.193 E329.21419
G1 X-36.899 Y-17.829 E329.32578
G1 X-37.923 Y-16.361 E329.4374
G1 X-38.8 Y-14.801 E329.549
G1 X-39.527 Y-13.165 E329.66065
G1 X-40.084 Y-11.493 E329.77055
G1 X-40.195 Y-11.103 E329.79584
G1 X-40.591 Y-9.386 E329.90573
G1 X-40.824 Y-7.612 E330.01731
G1 X-40.888 Y-5.824 E330.12888
G1 X-40.781 Y-4.038 E330.24046
G1 X-40.505 Y-2.27 E330.35206
G1 X-40.061 Y-0.537 E330.46362
G1 X-39.455 Y1.145 E330.57512
G1 X-38.701 Y2.739 E330.68508
G1 X-37.789 Y4.277 E330.79659
G1 X-36.733 Y5.723 E330.90826
G1 X-35.545 Y7.059 E331.01975
G1 X-34.233 Y8.278 E331.13143
G1 X-32.795 Y9.38 E331.24442
G1 X-31.87 Y9.91 E331.3109
G1 X-30.855 Y10.278 E331.37823
G1 X-29.792 Y10.466 E331.44555
G1 X-28.712 Y10.467 E331.5129
G0 F12000 X-27.366 Y10.5
; TYPE:BOTTOM-FILL
G1 F600 X-16.826 Y10.5 E332.1702
G0 F12000 X-17.129 Y10
G1 F600 X-26.164 Y10 E332.73365
G0 F12000 X-25.359 Y9.5
G1 F600 X-17.377 Y9.5 E333.23143
G0 F12000 X-17.626 Y9
G1 F600 X-24.753 Y9 E333.67589
G0 F12000 X-24.294 Y8.5
G1 F600 X-17.859 Y8.5 E334.0772
G0 F12000 X-18.049 Y8
G1 F600 X-23.88 Y8 E334.44083
G0 F12000 X-23.584 Y7.5
G1 F600 X-18.239 Y7.5 E334.77416
G0 F12000 X-18.417 Y7
G1 F600 X-23.306 Y7 E335.07905
G0 F12000 X-23.115 Y6.5
G1 F600 X-18.552 Y6.5 E335.36361
G0 F12000 X-18.687 Y6
G1 F600 X-22.935 Y6 E335.62853
G0 F12000 X-22.794 Y5.5
G1 F600 X-18.818 Y5.5 E335.87649
G0 F12000 X-18.902 Y5
G1 F600 X-22.653 Y5 E336.11041
G0 F12000 X-22.512 Y4.5
G1 F600 X-18.985 Y4.5 E336.33036
G0 F12000 X-19.069 Y4
G1 F600 X-22.371 Y4 E336.53628
G0 F12000 X-22.23 Y3.5
G1 F600 X-19.108 Y3.5 E336.73098
G0 F12000 X-19.142 Y3
G1 F600 X-22.09 Y3 E336.91483
G0 F12000 X-21.949 Y2.5
G1 F600 X-19.176 Y2.5 E337.08776
G0 F12000 X-19.179 Y2
G1 F600 X-21.808 Y2 E337.25171
G0 F12000 X-21.667 Y1.5
G1 F600 X-19.164 Y1.5 E337.4078
G0 F12000 X-19.149 Y1
G1 F600 X-21.526 Y1 E337.55604
G0 F12000 X-21.385 Y0.5
G1 F600 X-19.115 Y0.5 E337.6976
G0 F12000 X-19.05 Y0
G1 F600 X-21.245 Y0 E337.83449
G0 F12000 X-21.104 Y-0.499
G1 F600 X-18.986 Y-0.499 E337.96657
G0 F12000 X-18.913 Y-0.999
G1 F600 X-20.963 Y-0.999 E338.09442
G0 F12000 X-20.822 Y-1.499
G1 F600 X-18.796 Y-1.499 E338.22076
G0 F12000 X-18.679 Y-1.999
G1 F600 X-20.681 Y-1.999 E338.34561
G0 F12000 X-20.54 Y-2.499
G1 F600 X-18.563 Y-2.499 E338.46891
G0 F12000 X-18.423 Y-2.999
G1 F600 X-20.4 Y-2.999 E338.5922
G0 F12000 X-20.259 Y-3.499
G1 F600 X-18.282 Y-3.499 E338.71549
G0 F12000 X-18.141 Y-3.999
G1 F600 X-20.118 Y-3.999 E338.83878
G0 F12000 X-19.977 Y-4.499
G1 F600 X-18.001 Y-4.499 E338.96201
G0 F12000 X-17.86 Y-4.999
G1 F600 X-19.836 Y-4.999 E339.08524
G0 F12000 X-19.695 Y-5.499
G1 F600 X-17.719 Y-5.499 E339.20847
G0 F12000 X-17.579 Y-5.999
G1 F600 X-19.555 Y-5.999 E339.33169
G0 F12000 X-19.414 Y-6.499
G1 F600 X-17.438 Y-6.499 E339.45492
G0 F12000 X-17.297 Y-6.999
G1 F600 X-19.273 Y-6.999 E339.57815
G0 F12000 X-19.132 Y-7.499
G1 F600 X-17.157 Y-7.499 E339.70132
G0 F12000 X-16.995 Y-7.999
G1 F600 X-18.991 Y-7.999 E339.82579
G0 F12000 X-18.851 Y-8.499
G1 F600 X-16.827 Y-8.499 E339.95202
G0 F12000 X-16.658 Y-8.999
G1 F600 X-18.71 Y-8.999 E340.07998
G0 F12000 X-18.569 Y-9.499
G1 F600 X-16.45 Y-9.499 E340.21213
G0 F12000 X-16.224 Y-9.999
G1 F600 X-18.428 Y-9.999 E340.34958
G0 F12000 X-18.287 Y-10.499
G1 F600 X-15.999 Y-10.499 E340.49226
G0 F12000 X-15.727 Y-10.999
G1 F600 X-18.146 Y-10.999 E340.64312
G0 F12000 X-18.006 Y-11.499
G1 F600 X-15.439 Y-11.499 E340.80321
G0 F12000 X-15.152 Y-11.999
G1 F600 X-17.865 Y-11.999 E340.9724
G0 F12000 X-17.724 Y-12.499
G1 F600 X-14.799 Y-12.5 E341.15481
G0 F12000 X-14.443 Y-13
G1 F600 X-17.583 Y-12.999 E341.35063
G0 F12000 X-17.442 Y-13.499
G1 F600 X-14.063 Y-13.5 E341.56135
G0 F12000 X-13.627 Y-14
G1 F600 X-17.301 Y-13.999 E341.79047
G0 F12000 X-17.161 Y-14.499
G1 F600 X-13.191 Y-14.5 E342.03805
G0 F12000 X-12.674 Y-15
G1 F600 X-17.02 Y-14.999 E342.30908
G0 F12000 X-16.879 Y-15.499
G1 F600 X-12.143 Y-15.5 E342.60443
G0 F12000 X-11.539 Y-16
G1 F600 X-16.738 Y-15.999 E342.92865
G0 F12000 X-16.597 Y-16.5
G1 F600 X-10.889 Y-16.5 E343.28462
G0 F12000 X-10.141 Y-17
G1 F600 X-16.456 Y-17 E343.67844
G0 F12000 X-16.346 Y-17.5
G1 F600 X-9.34 Y-17.5 E344.11535
G0 F12000 X-8.35 Y-18
G1 F600 X-16.25 Y-18 E344.60802
G0 F12000 X-16.209 Y-18.5
G1 F600 X-7.194 Y-18.5 E345.17022
G0 F12000 X-5.704 Y-19
G1 F600 X-16.2 Y-19 E345.82478
G0 F12000 X-16.223 Y-19.5
G1 F600 X-3.314 Y-19.5 E346.62982
G0 F12000 X-2.048 Y-22.5
G1 F600 X-17.278 Y-22.5 E347.5796
G0 F12000 X-17.005 Y-22
G1 F600 X-0.273 Y-22 E348.62306
G0 F12000 X1.501 Y-21.5
G1 F600 X-16.733 Y-21.5 E349.76018
G0 F12000 X-16.562 Y-21
G1 F600 X3.277 Y-21 E350.9974
G0 F12000 X5.052 Y-20.5
G1 F600 X-16.391 Y-20.5 E352.33464
G0 F12000 X-16.302 Y-20
G1 F600 X6.827 Y-20 E353.77703
G0 F12000 X8.602 Y-19.5
G1 F600 X0.809 Y-19.5 E354.26302
G0 F12000 X3.353 Y-19
G1 F600 X10.377 Y-19 E354.70106
G0 F12000 X12.152 Y-18.5
G1 F600 X5.128 Y-18.5 E355.13909
G0 F12000 X6.903 Y-18
G1 F600 X13.927 Y-18 E355.57713
G0 F12000 X15.702 Y-17.5
G1 F600 X8.432 Y-17.5 E356.03051
G0 F12000 X9.611 Y-17
G1 F600 X17.478 Y-17 E356.52111
G0 F12000 X19.253 Y-16.5
G1 F600 X10.602 Y-16.5 E357.06061
G0 F12000 X11.471 Y-16
G1 F600 X21.028 Y-16 E357.65661
G0 F12000 X22.803 Y-15.5
G1 F600 X12.193 Y-15.5 E358.31828
G0 F12000 X12.895 Y-15
G1 F600 X24.579 Y-15 E359.04693
G0 F12000 X26.354 Y-14.5
G1 F600 X13.469 Y-14.5 E359.85047
G0 F12000 X14.041 Y-14
G1 F600 X51.156 Y-14 E362.16507
G0 F12000 X51.297 Y-14.5
G1 F600 X28.762 Y-14.5 E363.57041
G0 F12000 X31.883 Y-15
G1 F600 X51.438 Y-15 E364.78992
G0 F12000 X51.578 Y-15.5
G1 F600 X34.834 Y-15.5 E365.83412
G0 F12000 X37.287 Y-16
G1 F600 X51.719 Y-16 E366.73414
G0 F12000 X51.86 Y-16.5
G1 F600 X39.332 Y-16.5 E367.51542
G0 F12000 X41.116 Y-17
G1 F600 X52.001 Y-17 E368.19424
G0 F12000 X52.141 Y-17.5
G1 F600 X42.658 Y-17.5 E368.78562
G0 F12000 X44.116 Y-18
G1 F600 X52.282 Y-18 E369.29488
G0 F12000 X52.177 Y-18.5
G1 F600 X45.421 Y-18.5 E369.7162
G0 F12000 X46.669 Y-19
G1 F600 X50.393 Y-19 E369.94844
G0 F12000 X48.61 Y-19.5
G1 F600 X47.809 Y-19.5 E369.99839
G0 F12000 X51.015 Y-13.5
G1 F600 X14.527 Y-13.5 E372.27388
G0 F12000 X14.998 Y-13
G1 F600 X50.875 Y-13 E374.51127
G0 F12000 X50.734 Y-12.5
G1 F600 X15.428 Y-12.5 E376.71305
G0 F12000 X15.813 Y-12
G1 F600 X50.593 Y-12 E378.88203
G0 F12000 X50.452 Y-11.5
G1 F600 X16.198 Y-11.5 E381.0182
G0 F12000 X16.516 Y-11
G1 F600 X50.311 Y-11 E383.12575
G0 F12000 X50.171 Y-10.5
G1 F600 X31.121 Y-10.5 E384.31376
G0 F12000 X32.315 Y-10
G1 F600 X50.03 Y-10 E385.41852
G0 F12000 X49.889 Y-9.5
G1 F600 X33.13 Y-9.5 E386.46365
G0 F12000 X33.782 Y-9
G1 F600 X49.748 Y-9 E387.45934
G0 F12000 X49.608 Y-8.5
G1 F600 X34.434 Y-8.5 E388.40563
G0 F12000 X34.972 Y-8
G1 F600 X49.467 Y-8 E389.30958
G0 F12000 X49.326 Y-7.5
G1 F600 X35.51 Y-7.5 E390.17118
G0 F12000 X35.998 Y-7
G1 F600 X49.185 Y-7 E390.99356
G0 F12000 X49.045 Y-6.5
G1 F600 X36.443 Y-6.5 E391.77946
G0 F12000 X36.887 Y-6
G1 F600 X48.904 Y-6 E392.52887
G0 F12000 X48.763 Y-5.5
G1 F600 X37.267 Y-5.5 E393.24579
G0 F12000 X37.632 Y-5
G1 F600 X48.622 Y-5 E393.93116
G0 F12000 X48.481 Y-4.5
G1 F600 X37.997 Y-4.5 E394.58497
G0 F12000 X38.302 Y-4
G1 F600 X48.341 Y-4 E395.21103
G0 F12000 X48.2 Y-3.5
G1 F600 X38.599 Y-3.5 E395.80977
G0 F12000 X38.895 Y-3
G1 F600 X48.059 Y-3 E396.38127
G0 F12000 X47.918 Y-2.5
G1 F600 X39.146 Y-2.5 E396.92831
G0 F12000 X39.383 Y-2
G1 F600 X47.778 Y-2 E397.45185
G0 F12000 X47.637 Y-1.5
G1 F600 X39.619 Y-1.5 E397.95187
G0 F12000 X39.827 Y-1
G1 F600 X47.496 Y-1 E398.43013
G0 F12000 X47.355 Y-0.5
G1 F600 X40.007 Y-0.5 E398.88837
G0 F12000 X40.188 Y0
G1 F600 X47.214 Y0 E399.32653
G0 F12000 X47.074 Y0.499
G1 F600 X40.362 Y0.499 E399.74511
G0 F12000 X40.49 Y0.999
G1 F600 X46.933 Y0.999 E400.14692
G0 F12000 X46.792 Y1.499
G1 F600 X40.619 Y1.499 E400.53188
G0 F12000 X40.747 Y1.999
G1 F600 X46.651 Y1.999 E400.90007
G0 F12000 X46.511 Y2.499
G1 F600 X40.846 Y2.499 E401.25336
G0 F12000 X40.925 Y2.999
G1 F600 X46.37 Y2.999 E401.59292
G0 F12000 X46.229 Y3.499
G1 F600 X41.003 Y3.499 E401.91883
G0 F12000 X41.082 Y3.999
G1 F600 X46.088 Y3.999 E402.23102
G0 F12000 X45.948 Y4.499
G1 F600 X41.112 Y4.499 E402.5326
G0 F12000 X41.142 Y4.999
G1 F600 X45.807 Y4.999 E402.82352
G0 F12000 X45.666 Y5.499
G1 F600 X41.172 Y5.499 E403.10378
G0 F12000 X41.185 Y5.999
G1 F600 X45.525 Y5.999 E403.37444
G0 F12000 X45.384 Y6.499
G1 F600 X41.167 Y6.499 E403.63742
G0 F12000 X41.149 Y6.999
G1 F600 X45.244 Y6.999 E403.8928
G0 F12000 X45.103 Y7.499
G1 F600 X41.131 Y7.499 E404.1405
G0 F12000 X41.079 Y7.999
G1 F600 X44.962 Y7.999 E404.38266
G0 F12000 X44.821 Y8.499
G1 F600 X41.013 Y8.499 E404.62013
G0 F12000 X40.947 Y8.999
G1 F600 X44.681 Y8.999 E404.853
G0 F12000 X44.54 Y9.499
G1 F600 X40.874 Y9.499 E405.08162
G0 F12000 X40.759 Y9.999
G1 F600 X44.399 Y9.999 E405.30862
G0 F12000 X44.258 Y10.499
G1 F600 X40.643 Y10.499 E405.53406
G0 F12000 X40.528 Y10.999
G1 F600 X44.118 Y10.999 E405.75794
G0 F12000 X43.977 Y11.499
G1 F600 X40.396 Y11.499 E405.98126
G0 F12000 X40.233 Y11.999
G1 F600 X43.836 Y11.999 E406.20596
G0 F12000 X43.695 Y12.499
G1 F600 X40.067 Y12.499 E406.43221
G0 F12000 X39.901 Y12.999
G1 F600 X43.554 Y12.999 E406.66002
G0 F12000 X43.414 Y13.499
G1 F600 X39.709 Y13.499 E406.89107
G0 F12000 X39.487 Y13.999
G1 F600 X43.273 Y13.999 E407.12718
G0 F12000 X43.132 Y14.499
G1 F600 X39.265 Y14.499 E407.36834
G0 F12000 X39.036 Y14.999
G1 F600 X42.991 Y14.999 E407.61498
G0 F12000 X42.851 Y15.499
G1 F600 X38.754 Y15.499 E407.87048
G0 F12000 X38.473 Y15.999
G1 F600 X42.71 Y15.999 E408.13471
G0 F12000 X42.569 Y16.499
G1 F600 X38.191 Y16.499 E408.40774
G0 F12000 X37.846 Y16.999
G1 F600 X42.428 Y16.999 E408.69348
G0 F12000 X42.287 Y17.499
G1 F600 X37.498 Y17.499 E408.99214
G0 F12000 X37.149 Y17.999
G1 F600 X42.147 Y17.999 E409.30383
G0 F12000 X42.006 Y18.499
G1 F600 X36.726 Y18.499 E409.6331
G0 F12000 X36.301 Y18.999
G1 F600 X41.865 Y18.999 E409.98009
G0 F12000 X41.724 Y19.499
G1 F600 X35.859 Y19.499 E410.34584
G0 F12000 X35.344 Y19.999
G1 F600 X41.584 Y19.999 E410.73499
G0 F12000 X41.443 Y20.499
G1 F600 X34.83 Y20.499 E411.14739
G0 F12000 X34.241 Y20.999
G1 F600 X41.302 Y20.999 E411.58774
G0 F12000 X41.161 Y21.499
G1 F600 X33.616 Y21.499 E412.05826
G0 F12000 X32.941 Y21.999
G1 F600 X41.021 Y21.999 E412.56215
G0 F12000 X40.88 Y22.499
G1 F600 X32.176 Y22.499 E413.10496
G0 F12000 X31.341 Y22.999
G1 F600 X40.739 Y22.999 E413.69105
G0 F12000 X40.598 Y23.499
G1 F600 X30.39 Y23.499 E414.32764
G0 F12000 X29.253 Y24
G1 F600 X40.457 Y23.999 E415.02636
G0 F12000 X40.317 Y24.499
G1 F600 X27.895 Y24.5 E415.80103
G0 F12000 X26.016 Y25
G1 F600 X40.176 Y24.999 E416.68408
G0 F12000 X40.035 Y25.499
G1 F600 X12.7 Y25.5 E418.38877
G0 F12000 X10.925 Y25
G1 F600 X20.484 Y25 E418.98489
G0 F12000 X19.427 Y24.5
G1 F600 X9.15 Y24.5 E419.6258
G0 F12000 X7.375 Y24
G1 F600 X18.681 Y24 E420.33087
G0 F12000 X18.113 Y23.5
G1 F600 X5.6 Y23.5 E421.11122
G0 F12000 X3.825 Y23
G1 F600 X17.679 Y23 E421.97519
G0 F12000 X17.28 Y22.5
G1 F600 X2.05 Y22.5 E422.92497
G0 F12000 X0.275 Y22
G1 F600 X17.006 Y22 E423.96836
G0 F12000 X16.734 Y21.5
G1 F600 X-1.499 Y21.5 E425.10542
G0 F12000 X-3.274 Y21
G1 F600 X16.564 Y21 E426.34258
G0 F12000 X16.394 Y20.5
G1 F600 X-5.049 Y20.5 E427.67982
G0 F12000 X-6.824 Y20
G1 F600 X16.304 Y20 E429.12215
G0 F12000 X16.225 Y19.5
G1 F600 X3.316 Y19.5 E429.92719
G0 F12000 X5.709 Y19
G1 F600 X16.202 Y19 E430.58156
G0 F12000 X16.211 Y18.5
G1 F600 X7.198 Y18.5 E431.14364
G0 F12000 X8.353 Y18
G1 F600 X16.253 Y18 E431.6363
G0 F12000 X16.349 Y17.5
G1 F600 X9.343 Y17.5 E432.07322
G0 F12000 X10.144 Y17
G1 F600 X16.459 Y17 E432.46704
G0 F12000 X16.6 Y16.5
G1 F600 X10.891 Y16.5 E432.82306
G0 F12000 X11.54 Y16
G1 F600 X16.741 Y15.999 E433.14741
G0 F12000 X16.882 Y15.499
G1 F600 X12.144 Y15.5 E433.44289
G0 F12000 X12.674 Y15
G1 F600 X17.023 Y14.999 E433.7141
G0 F12000 X17.164 Y14.499
G1 F600 X13.19 Y14.5 E433.96193
G0 F12000 X13.627 Y14
G1 F600 X17.304 Y13.999 E434.19124
G0 F12000 X17.445 Y13.499
G1 F600 X14.064 Y13.5 E434.40209
G0 F12000 X14.445 Y13
G1 F600 X17.586 Y12.999 E434.59797
G0 F12000 X17.727 Y12.499
G1 F600 X14.801 Y12.5 E434.78044
G0 F12000 X15.154 Y11.999
G1 F600 X17.868 Y11.999 E434.9497
G0 F12000 X18.008 Y11.499
G1 F600 X15.441 Y11.499 E435.10978
G0 F12000 X15.729 Y10.999
G1 F600 X18.149 Y10.999 E435.2607
G0 F12000 X18.29 Y10.499
G1 F600 X16.002 Y10.499 E435.40339
G0 F12000 X16.227 Y9.999
G1 F600 X18.431 Y9.999 E435.54083
G0 F12000 X18.572 Y9.499
G1 F600 X16.452 Y9.499 E435.67304
G0 F12000 X16.66 Y8.999
G1 F600 X18.712 Y8.999 E435.80101
G0 F12000 X18.853 Y8.499
G1 F600 X16.829 Y8.499 E435.92723
G0 F12000 X16.998 Y7.999
G1 F600 X18.994 Y7.999 E436.05171
G0 F12000 X19.135 Y7.499
G1 F600 X17.159 Y7.499 E436.17494
G0 F12000 X17.3 Y6.999
G1 F600 X19.276 Y6.999 E436.29817
G0 F12000 X19.416 Y6.499
G1 F600 X17.44 Y6.499 E436.4214
G0 F12000 X17.581 Y5.999
G1 F600 X19.557 Y5.999 E436.54462
G0 F12000 X19.698 Y5.499
G1 F600 X17.722 Y5.499 E436.66785
G0 F12000 X17.863 Y4.999
G1 F600 X19.839 Y4.999 E436.79108
G0 F12000 X19.98 Y4.499
G1 F600 X18.003 Y4.499 E436.91437
G0 F12000 X18.144 Y3.999
G1 F600 X20.121 Y3.999 E437.03766
G0 F12000 X20.261 Y3.499
G1 F600 X18.285 Y3.499 E437.16089
G0 F12000 X18.425 Y2.999
G1 F600 X20.402 Y2.999 E437.28418
G0 F12000 X20.543 Y2.499
G1 F600 X18.565 Y2.499 E437.40754
G0 F12000 X18.682 Y1.999
G1 F600 X20.684 Y1.999 E437.53239
G0 F12000 X20.825 Y1.499
G1 F600 X18.798 Y1.499 E437.6588
G0 F12000 X18.915 Y0.999
G1 F600 X20.965 Y0.999 E437.78664
G0 F12000 X21.106 Y0.499
G1 F600 X18.988 Y0.499 E437.91873
G0 F12000 X19.053 Y0
G1 F600 X21.247 Y0 E438.05555
G0 F12000 X21.388 Y-0.5
G1 F600 X19.118 Y-0.5 E438.19711
G0 F12000 X19.151 Y-1
G1 F600 X21.529 Y-1 E438.34541
G0 F12000 X21.669 Y-1.5
G1 F600 X19.166 Y-1.5 E438.50151
G0 F12000 X19.181 Y-2
G1 F600 X21.81 Y-2 E438.66546
G0 F12000 X21.951 Y-2.5
G1 F600 X19.177 Y-2.5 E438.83845
G0 F12000 X19.144 Y-3
G1 F600 X22.092 Y-3 E439.0223
G0 F12000 X22.233 Y-3.5
G1 F600 X19.111 Y-3.5 E439.21699
G0 F12000 X19.072 Y-4
G1 F600 X22.373 Y-4 E439.42285
G0 F12000 X22.514 Y-4.5
G1 F600 X18.988 Y-4.5 E439.64274
G0 F12000 X18.904 Y-5
G1 F600 X22.655 Y-5 E439.87667
G0 F12000 X22.796 Y-5.5
G1 F600 X18.82 Y-5.5 E440.12462
G0 F12000 X18.689 Y-6
G1 F600 X22.937 Y-6 E440.38954
G0 F12000 X23.118 Y-6.5
G1 F600 X18.553 Y-6.5 E440.67422
G0 F12000 X18.418 Y-7
G1 F600 X23.308 Y-7 E440.97918
G0 F12000 X23.587 Y-7.5
G1 F600 X18.24 Y-7.5 E441.31263
G0 F12000 X18.05 Y-8
G1 F600 X23.883 Y-8 E441.67639
G0 F12000 X24.298 Y-8.5
G1 F600 X17.86 Y-8.5 E442.07788
G0 F12000 X17.627 Y-9
G1 F600 X24.758 Y-9 E442.52259
G0 F12000 X25.363 Y-9.5
G1 F600 X17.379 Y-9.5 E443.0205
G0 F12000 X17.131 Y-10
G1 F600 X26.168 Y-10 E443.58407
G0 F12000 X27.367 Y-10.5
G1 F600 X16.828 Y-10.5 E444.24131
G1 F6600 E437.44131
G1 Z0.7
G0 F12000 X13.57 Y-13.35
G0 X12.407 Y-14.366
G0 X11.147 Y-15.264
G0 X9.808 Y-16.034
G0 X-3.823 Y-23
G1 Z0.4
G1 F6600 E444.34131
G1 F600 X-17.678 Y-23 E445.20535
G0 F12000 X-18.113 Y-23.5
G1 F600 X-5.598 Y-23.5 E445.98582
G0 F12000 X-7.373 Y-24
G1 F600 X-18.681 Y-24 E446.69101
G0 F12000 X-19.427 Y-24.5
G1 F600 X-9.148 Y-24.5 E447.33204
G0 F12000 X-10.923 Y-25
G1 F600 X-20.484 Y-25 E447.92829
G0 F12000 X-17.697 Y-28
G1 F600 X-39.558 Y-27.999 E449.2916
G0 F12000 X-39.699 Y-27.499
G1 F600 X-17.113 Y-27.5 E450.70013
G0 F12000 X-16.528 Y-27
G1 F600 X-39.839 Y-26.999 E452.15387
G0 F12000 X-39.98 Y-26.499
G1 F600 X-15.944 Y-26.5 E453.65282
G0 F12000 X-14.473 Y-26
G1 F600 X-40.121 Y-25.999 E455.2523
G0 F12000 X-40.262 Y-25.499
G1 F600 X-12.698 Y-25.5 E456.97127
G0 F12000 X-18.281 Y-28.5
G1 F600 X-39.417 Y-28.499 E458.28936
G0 F12000 X-39.276 Y-28.999
G1 F600 X-18.866 Y-29 E459.56219
G0 F12000 X-19.45 Y-29.5
G1 F600 X-39.136 Y-29.499 E460.78986
G0 F12000 X-38.995 Y-29.999
G1 F600 X-20.035 Y-30 E461.97226
G0 F12000 X-20.619 Y-30.5
G1 F600 X-38.854 Y-30.499 E463.10944
G0 F12000 X-38.713 Y-30.999
G1 F600 X-21.186 Y-31 E464.20248
G0 F12000 X-21.743 Y-31.5
G1 F600 X-38.572 Y-31.499 E465.25198
G0 F12000 X-38.432 Y-31.999
G1 F600 X-22.3 Y-32 E466.25801
G0 F12000 X-22.848 Y-32.5
G1 F600 X-38.291 Y-32.499 E467.22108
G0 F12000 X-38.15 Y-33
G1 F600 X-23.356 Y-33 E468.14368
G0 F12000 X-23.864 Y-33.5
G1 F600 X-38.009 Y-33.5 E469.0258
G0 F12000 X-37.869 Y-34
G1 F600 X-24.372 Y-34 E469.86751
G0 F12000 X-24.857 Y-34.5
G1 F600 X-37.728 Y-34.5 E470.67018
G0 F12000 X-37.587 Y-35
G1 F600 X-25.32 Y-35 E471.43518
G0 F12000 X-25.784 Y-35.5
G1 F600 X-37.446 Y-35.5 E472.16246
G0 F12000 X-37.306 Y-36
G1 F600 X-26.247 Y-36 E472.85213
G0 F12000 X-26.682 Y-36.5
G1 F600 X-37.165 Y-36.5 E473.50588
G0 F12000 X-37.024 Y-37
G1 F600 X-27.104 Y-37 E474.12451
G0 F12000 X-27.526 Y-37.5
G1 F600 X-36.883 Y-37.5 E474.70804
G0 F12000 X-36.743 Y-38
G1 F600 X-27.947 Y-38 E475.25659
G0 F12000 X-28.343 Y-38.5
G1 F600 X-36.602 Y-38.5 E475.77164
G0 F12000 X-36.461 Y-39
G1 F600 X-28.727 Y-39 E476.25395
G0 F12000 X-29.111 Y-39.5
G1 F600 X-36.32 Y-39.5 E476.70353
G0 F12000 X-36.18 Y-40
G1 F600 X-29.495 Y-40 E477.12042
G0 F12000 X-29.859 Y-40.5
G1 F600 X-36.039 Y-40.5 E477.50582
G0 F12000 X-35.898 Y-41
G1 F600 X-30.208 Y-41 E477.86067
G0 F12000 X-30.556 Y-41.5
G1 F600 X-35.757 Y-41.5 E478.18502
G0 F12000 X-35.617 Y-42
G1 F600 X-31.301 Y-42 E478.45417
G0 F12000 X-33.073 Y-42.5
G1 F600 X-35.476 Y-42.5 E478.60403
G0 F12000 X-35.335 Y-43
G1 F600 X-34.845 Y-43 E478.63459
G0 F12000 X-40.402 Y-24.999
G1 F600 X-26.008 Y-25 E479.53224
G0 F12000 X-27.887 Y-24.5
G1 F600 X-40.543 Y-24.499 E480.3215
G0 F12000 X-40.684 Y-23.999
G1 F600 X-29.248 Y-24 E481.03468
G0 F12000 X-30.386 Y-23.499
G1 F600 X-40.825 Y-23.499 E481.68569
G0 F12000 X-40.965 Y-22.999
G1 F600 X-31.339 Y-22.999 E482.28599
G0 F12000 X-32.173 Y-22.499
G1 F600 X-41.106 Y-22.499 E482.84308
G0 F12000 X-41.247 Y-21.999
G1 F600 X-32.936 Y-21.999 E483.36137
G0 F12000 X-33.612 Y-21.499
G1 F600 X-41.388 Y-21.499 E483.84631
G0 F12000 X-41.528 Y-20.999
G1 F600 X-34.238 Y-20.999 E484.30093
G0 F12000 X-34.828 Y-20.499
G1 F600 X-41.669 Y-20.499 E484.72755
G0 F12000 X-41.81 Y-19.999
G1 F600 X-35.342 Y-19.999 E485.13092
G0 F12000 X-35.857 Y-19.499
G1 F600 X-41.951 Y-19.499 E485.51096
G0 F12000 X-42.091 Y-18.999
G1 F600 X-36.3 Y-18.999 E485.8721
G0 F12000 X-36.724 Y-18.499
G1 F600 X-42.232 Y-18.499 E486.21559
G0 F12000 X-42.373 Y-17.999
G1 F600 X-37.146 Y-17.999 E486.54156
G0 F12000 X-37.495 Y-17.499
G1 F600 X-42.514 Y-17.499 E486.85456
G0 F12000 X-42.654 Y-16.999
G1 F600 X-37.843 Y-16.999 E487.15459
G0 F12000 X-38.189 Y-16.499
G1 F600 X-42.795 Y-16.499 E487.44183
G0 F12000 X-42.936 Y-15.999
G1 F600 X-38.47 Y-15.999 E487.72034
G0 F12000 X-38.751 Y-15.499
G1 F600 X-43.077 Y-15.499 E487.99012
G0 F12000 X-43.218 Y-14.999
G1 F600 X-39.032 Y-14.999 E488.25117
G0 F12000 X-39.262 Y-14.499
G1 F600 X-43.358 Y-14.499 E488.50661
G0 F12000 X-43.499 Y-13.999
G1 F600 X-39.484 Y-13.999 E488.757
G0 F12000 X-39.706 Y-13.499
G1 F600 X-43.64 Y-13.499 E489.00233
G0 F12000 X-43.781 Y-12.999
G1 F600 X-39.898 Y-12.999 E489.24449
G0 F12000 X-40.065 Y-12.499
G1 F600 X-43.921 Y-12.499 E489.48496
G0 F12000 X-44.062 Y-11.999
G1 F600 X-40.231 Y-11.999 E489.72387
G0 F12000 X-40.394 Y-11.499
G1 F600 X-44.203 Y-11.499 E489.96141
G0 F12000 X-44.344 Y-10.999
G1 F600 X-40.526 Y-10.999 E490.19951
G0 F12000 X-40.642 Y-10.499
G1 F600 X-44.484 Y-10.499 E490.43911
G0 F12000 X-44.625 Y-9.999
G1 F600 X-40.757 Y-9.999 E490.68033
G0 F12000 X-40.873 Y-9.499
G1 F600 X-44.766 Y-9.499 E490.92311
G0 F12000 X-44.907 Y-8.999
G1 F600 X-40.945 Y-8.999 E491.17019
G0 F12000 X-41.011 Y-8.499
G1 F600 X-45.047 Y-8.499 E491.42188
G0 F12000 X-45.188 Y-7.999
G1 F600 X-41.077 Y-7.999 E491.67826
G0 F12000 X-41.128 Y-7.499
G1 F600 X-45.329 Y-7.499 E491.94024
G0 F12000 X-45.47 Y-6.999
G1 F600 X-41.146 Y-6.999 E492.2099
G0 F12000 X-41.165 Y-6.499
G1 F600 X-45.61 Y-6.499 E492.4871
G0 F12000 X-45.751 Y-5.999
G1 F600 X-41.183 Y-5.999 E492.77198
G0 F12000 X-41.17 Y-5.499
G1 F600 X-45.892 Y-5.499 E493.06645
G0 F12000 X-46.033 Y-4.999
G1 F600 X-41.14 Y-4.999 E493.37159
G0 F12000 X-41.11 Y-4.499
G1 F600 X-46.173 Y-4.499 E493.68734
G0 F12000 X-46.314 Y-3.999
G1 F600 X-41.079 Y-3.999 E494.01381
G0 F12000 X-41.001 Y-3.499
G1 F600 X-46.455 Y-3.499 E494.35393
G0 F12000 X-46.596 Y-2.999
G1 F600 X-40.922 Y-2.999 E494.70778
G0 F12000 X-40.844 Y-2.499
G1 F600 X-46.736 Y-2.499 E495.07522
G0 F12000 X-46.877 Y-1.999
G1 F600 X-40.744 Y-1.999 E495.45769
G0 F12000 X-40.616 Y-1.499
G1 F600 X-47.018 Y-1.499 E495.85694
G0 F12000 X-47.159 Y-0.999
G1 F600 X-40.488 Y-0.999 E496.27296
G0 F12000 X-40.36 Y-0.499
G1 F600 X-47.3 Y-0.499 E496.70576
G0 F12000 X-47.44 Y0
G1 F600 X-40.186 Y0 E497.15814
G0 F12000 X-40.005 Y0.5
G1 F600 X-47.581 Y0.5 E497.6306
G0 F12000 X-47.722 Y1
G1 F600 X-39.825 Y1 E498.12307
G0 F12000 X-39.618 Y1.5
G1 F600 X-47.863 Y1.5 E498.63725
G0 F12000 X-48.003 Y2
G1 F600 X-39.382 Y2 E499.17488
G0 F12000 X-39.145 Y2.5
G1 F600 X-48.144 Y2.5 E499.73609
G0 F12000 X-48.285 Y3
G1 F600 X-38.894 Y3 E500.32174
G0 F12000 X-38.598 Y3.5
G1 F600 X-48.426 Y3.5 E500.93464
G0 F12000 X-48.566 Y4
G1 F600 X-38.302 Y4 E501.57473
G0 F12000 X-37.997 Y4.5
G1 F600 X-48.707 Y4.5 E502.24263
G0 F12000 X-48.848 Y5
G1 F600 X-37.632 Y5 E502.94209
G0 F12000 X-37.267 Y5.5
G1 F600 X-48.989 Y5.5 E503.67311
G0 F12000 X-49.129 Y6
G1 F600 X-36.888 Y6 E504.43649
G0 F12000 X-36.444 Y6.5
G1 F600 X-49.27 Y6.5 E505.23636
G0 F12000 X-49.411 Y7
G1 F600 X-35.999 Y7 E506.07277
G0 F12000 X-35.51 Y7.5
G1 F600 X-49.552 Y7.5 E506.94846
G0 F12000 X-49.692 Y8
G1 F600 X-34.972 Y8 E507.86644
G0 F12000 X-34.433 Y8.5
G1 F600 X-49.833 Y8.5 E508.82683
G0 F12000 X-49.974 Y9
G1 F600 X-33.782 Y9 E509.83661
G0 F12000 X-33.13 Y9.5
G1 F600 X-50.115 Y9.5 E510.89584
G0 F12000 X-50.255 Y10
G1 F600 X-32.314 Y10 E512.01469
G0 F12000 X-31.121 Y10.5
G1 F600 X-50.396 Y10.5 E513.21673
G0 F12000 X-50.537 Y11
G1 F600 X-16.514 Y11 E515.3385
G0 F12000 X-16.197 Y11.5
G1 F600 X-50.678 Y11.5 E517.48883
G0 F12000 X-50.818 Y12
G1 F600 X-15.812 Y12 E519.6719
G0 F12000 X-15.427 Y12.5
G1 F600 X-50.959 Y12.5 E521.88777
G0 F12000 X-51.1 Y13
G1 F600 X-14.997 Y13 E524.13926
G0 F12000 X-14.526 Y13.5
G1 F600 X-51.241 Y13.5 E526.4289
G0 F12000 X-51.382 Y14
G1 F600 X-14.04 Y14 E528.75765
G0 F12000 X-13.469 Y14.5
G1 F600 X-26.351 Y14.5 E529.56101
G0 F12000 X-24.576 Y15
G1 F600 X-12.896 Y15 E530.28941
G0 F12000 X-12.193 Y15.5
G1 F600 X-22.801 Y15.5 E530.95095
G0 F12000 X-21.026 Y16
G1 F600 X-11.47 Y16 E531.54689
G0 F12000 X-10.602 Y16.5
G1 F600 X-19.25 Y16.5 E532.0862
G0 F12000 X-17.475 Y17
G1 F600 X-9.611 Y17 E532.57662
G0 F12000 X-8.436 Y17.5
G1 F600 X-15.699 Y17.5 E533.02956
G0 F12000 X-13.924 Y18
G1 F600 X-6.906 Y18 E533.46723
G0 F12000 X-5.13 Y18.5
G1 F600 X-12.149 Y18.5 E533.90495
G0 F12000 X-10.374 Y19
G1 F600 X-3.354 Y19 E534.34274
G0 F12000 X-0.815 Y19.5
G1 F600 X-8.599 Y19.5 E534.82817
G0 F12000 X-28.758 Y14.5
G1 F600 X-51.522 Y14.5 E536.24779
G0 F12000 X-51.663 Y15
G1 F600 X-31.876 Y15 E537.48177
G0 F12000 X-34.825 Y15.5
G1 F600 X-51.804 Y15.5 E538.54062
G0 F12000 X-51.945 Y16
G1 F600 X-37.282 Y16 E539.45505
G0 F12000 X-39.329 Y16.5
G1 F600 X-52.085 Y16.5 E540.25055
G0 F12000 X-52.226 Y17
G1 F600 X-41.108 Y17 E540.9439
G0 F12000 X-42.652 Y17.5
G1 F600 X-52.367 Y17.5 E541.54975
G0 F12000 X-52.508 Y18
G1 F600 X-44.112 Y18 E542.07335
G0 F12000 X-45.417 Y18.5
G1 F600 X-52.179 Y18.5 E542.49505
G0 F12000 X-50.395 Y19
G1 F600 X-46.665 Y19 E542.72766
G0 F12000 X-47.804 Y19.5
G1 F600 X-48.611 Y19.5 E542.77799
G1 F6600 E535.97799
G1 Z0.7
G0 F12000 X-38.63 Y17.134
G0 X-36.124 Y16.553
G0 X-33.6 Y16.089
G0 X-27.27 Y15.073
G0 X14.475 Y26
G1 Z0.4
G1 F6600 E542.87799
G1 F600 X39.894 Y25.999 E544.46318
G0 F12000 X39.754 Y26.499
G1 F600 X15.946 Y26.5 E545.94792
G0 F12000 X16.53 Y27
G1 F600 X39.613 Y26.999 E547.38744
G0 F12000 X39.472 Y27.499
G1 F600 X17.114 Y27.5 E548.78174
G0 F12000 X17.699 Y28
G1 F600 X39.331 Y27.999 E550.13077
G0 F12000 X39.191 Y28.499
G1 F600 X18.283 Y28.5 E551.43465
G0 F12000 X18.867 Y29
G1 F600 X39.05 Y28.999 E552.69332
G0 F12000 X38.909 Y29.499
G1 F600 X19.452 Y29.5 E553.90671
G0 F12000 X20.036 Y30
G1 F600 X38.768 Y29.999 E555.07489
G0 F12000 X38.627 Y30.499
G1 F600 X20.62 Y30.5 E556.19786
G0 F12000 X21.187 Y31
G1 F600 X38.487 Y30.999 E557.27673
G0 F12000 X38.346 Y31.499
G1 F600 X21.744 Y31.5 E558.31208
G0 F12000 X22.301 Y32
G1 F600 X38.205 Y31.999 E559.3039
G0 F12000 X38.064 Y32.499
G1 F600 X22.849 Y32.5 E560.25275
G0 F12000 X23.357 Y33
G1 F600 X37.924 Y33 E561.16119
G0 F12000 X37.783 Y33.5
G1 F600 X23.865 Y33.5 E562.02915
G0 F12000 X24.373 Y34
G1 F600 X37.642 Y34 E562.85664
G0 F12000 X37.501 Y34.5
G1 F600 X24.858 Y34.5 E563.64509
G0 F12000 X25.322 Y35
G1 F600 X37.36 Y35 E564.39582
G0 F12000 X37.22 Y35.5
G1 F600 X25.786 Y35.5 E565.10887
G0 F12000 X26.25 Y36
G1 F600 X37.079 Y36 E565.7842
G0 F12000 X36.938 Y36.5
G1 F600 X26.684 Y36.5 E566.42367
G0 F12000 X27.105 Y37
G1 F600 X36.797 Y37 E567.02809
G0 F12000 X36.657 Y37.5
G1 F600 X27.527 Y37.5 E567.59746
G0 F12000 X27.949 Y38
G1 F600 X36.516 Y38 E568.13172
G0 F12000 X36.375 Y38.5
G1 F600 X28.345 Y38.5 E568.63249
G0 F12000 X28.729 Y39
G1 F600 X36.234 Y39 E569.10053
G0 F12000 X36.094 Y39.5
G1 F600 X29.113 Y39.5 E569.53588
G0 F12000 X29.497 Y40
G1 F600 X35.953 Y40 E569.93849
G0 F12000 X35.812 Y40.5
G1 F600 X29.861 Y40.5 E570.30961
G0 F12000 X30.21 Y41
G1 F600 X35.671 Y41 E570.65018
G0 F12000 X35.53 Y41.5
G1 F600 X30.559 Y41.5 E570.96018
G0 F12000 X31.306 Y42
G1 F600 X35.39 Y42 E571.21487
G0 F12000 X35.249 Y42.5
G1 F600 X33.077 Y42.5 E571.35032
G0 F12000 X34.848 Y43
G1 F600 X35.108 Y43 E571.36654
; Layer Change GCode
; LAYER:1
G1 F6600 E564.56654
G1 Z0.7
G0 F12000 X35.108 Y43 Z0.9
G0 X22.97 Y24.61
G0 X22.988 Y24.11
G0 X22.97 Y24.61
G0 X23.019 Y25.112
; TYPE:WALL-INNER
G1 Z0.6
G1 F6600 E571.46654
G1 F1500 X24.794 Y24.934 E571.5407
G1 X26.549 Y24.588 E571.61507
G1 X28.262 Y24.076 E571.68941
G1 X29.92 Y23.403 E571.7638
G1 X31.506 Y22.574 E571.8382
G1 X33.005 Y21.599 E571.91255
G1 X34.459 Y20.442 E571.9898
G1 X35.743 Y19.193 E572.06427
G1 X36.901 Y17.83 E572.13863
G1 X37.925 Y16.361 E572.21308
G1 X38.803 Y14.802 E572.28746
G1 X39.529 Y13.166 E572.36188
G1 X40.085 Y11.498 E572.43498
G1 X40.197 Y11.102 E572.45209
G1 X40.592 Y9.387 E572.52525
G1 X40.827 Y7.614 E572.59961
G1 X40.89 Y5.826 E572.67399
G1 X40.784 Y4.04 E572.74838
G1 X40.508 Y2.272 E572.82277
G1 X40.063 Y0.538 E572.8972
G1 X39.457 Y-1.143 E572.97149
G1 X38.722 Y-2.699 E573.04304
G1 X37.813 Y-4.238 E573.11735
G1 X36.761 Y-5.684 E573.19169
G1 X35.576 Y-7.025 E573.26609
G1 X34.268 Y-8.246 E573.34048
G1 X32.835 Y-9.349 E573.41567
G1 X31.897 Y-9.895 E573.46079
G1 X30.882 Y-10.268 E573.50575
G1 X29.821 Y-10.46 E573.55058
G1 X28.743 Y-10.467 E573.59539
G1 X27.678 Y-10.289 E573.64029
G1 X26.625 Y-9.916 E573.68673
G1 X25.717 Y-9.398 E573.73019
G1 X24.885 Y-8.719 E573.77484
G1 X24.179 Y-7.902 E573.81973
G1 X23.625 Y-6.978 E573.86452
G1 X23.254 Y-6.018 E573.90731
G1 X16.707 Y17.226 E574.91129
G1 X16.521 Y18.196 E574.95235
G1 X16.499 Y19.272 E574.99709
G1 X16.662 Y20.337 E575.04189
G1 X17.004 Y21.359 E575.08669
G1 X17.517 Y22.309 E575.13158
G1 X18.211 Y23.186 E575.17808
G1 X18.995 Y23.876 E575.2215
G1 X19.908 Y24.444 E575.2662
G1 X20.908 Y24.847 E575.31103
G1 X21.962 Y25.072 E575.35583
G1 X23.019 Y25.112 E575.39981
G0 F12000 X23.003 Y24.611
G1 F1500 X24.72 Y24.439 E575.47155
G1 X26.428 Y24.102 E575.54393
G1 X28.096 Y23.603 E575.61632
G1 X29.709 Y22.948 E575.68869
G1 X31.253 Y22.142 E575.76111
G1 X32.712 Y21.193 E575.83347
G1 X34.128 Y20.067 E575.90868
G1 X35.378 Y18.851 E575.98118
G1 X36.505 Y17.524 E576.05357
G1 X37.501 Y16.094 E576.12602
G1 X38.356 Y14.577 E576.19842
G1 X39.062 Y12.985 E576.27082
G1 X39.607 Y11.351 E576.34243
G1 X39.713 Y10.978 E576.35855
G1 X40.1 Y9.298 E576.43023
G1 X40.328 Y7.573 E576.50257
G1 X40.39 Y5.832 E576.575
G1 X40.287 Y4.094 E576.64738
G1 X40.017 Y2.373 E576.71981
G1 X39.585 Y0.685 E576.79225
G1 X38.994 Y-0.951 E576.86457
G1 X38.279 Y-2.465 E576.93418
G1 X37.395 Y-3.963 E577.0065
G1 X36.371 Y-5.371 E577.07888
G1 X35.217 Y-6.676 E577.1513
G1 X33.945 Y-7.865 E577.22369
G1 X32.555 Y-8.933 E577.29657
G1 X31.684 Y-9.441 E577.33849
G1 X30.751 Y-9.783 E577.37981
G1 X29.775 Y-9.961 E577.42105
G1 X28.783 Y-9.966 E577.4623
G1 X27.804 Y-9.803 E577.50356
G1 X26.834 Y-9.46 E577.54633
G1 X26.001 Y-8.984 E577.58622
G1 X25.235 Y-8.359 E577.62732
G1 X24.585 Y-7.607 E577.66865
G1 X24.076 Y-6.757 E577.70984
G1 X23.729 Y-5.859 E577.74986
G1 X17.194 Y17.341 E578.75194
G1 X17.02 Y18.249 E578.79038
G1 X17 Y19.239 E578.83155
G1 X17.149 Y20.219 E578.87276
G1 X17.464 Y21.16 E578.91401
G1 X17.936 Y22.033 E578.95527
G1 X18.575 Y22.84 E578.99807
G1 X19.294 Y23.473 E579.0379
G1 X20.135 Y23.996 E579.07907
G1 X21.055 Y24.367 E579.12031
G1 X22.025 Y24.574 E579.16155
G1 X23.003 Y24.611 E579.20224
G0 F12000 X22.97 Y24.61
G0 X22.988 Y24.11
; TYPE:WALL-OUTER
G1 F600 X24.647 Y23.944 E579.27156
G1 X26.308 Y23.616 E579.34195
G1 X27.93 Y23.131 E579.41233
G1 X29.499 Y22.494 E579.48273
G1 X31 Y21.71 E579.55314
G1 X32.419 Y20.787 E579.62352
G1 X33.797 Y19.691 E579.69672
G1 X35.012 Y18.509 E579.76719
G1 X36.108 Y17.219 E579.83757
G1 X37.077 Y15.828 E579.90805
G1 X37.909 Y14.352 E579.97849
G1 X38.595 Y12.804 E580.04888
G1 X39.129 Y11.204 E580.11901
G1 X39.228 Y10.853 E580.13417
G1 X39.607 Y9.209 E580.20432
G1 X39.829 Y7.531 E580.27469
G1 X39.889 Y5.838 E580.34512
G1 X39.789 Y4.147 E580.41554
G1 X39.527 Y2.474 E580.48595
G1 X39.106 Y0.832 E580.55642
G1 X38.532 Y-0.759 E580.62674
G1 X37.837 Y-2.23 E580.69438
G1 X36.976 Y-3.688 E580.76478
G1 X35.98 Y-5.058 E580.8352
G1 X34.858 Y-6.327 E580.90562
G1 X33.621 Y-7.483 E580.97601
G1 X32.276 Y-8.517 E581.04654
G1 X31.47 Y-8.987 E581.08533
G1 X30.619 Y-9.299 E581.12302
G1 X29.728 Y-9.461 E581.16067
G1 X28.823 Y-9.466 E581.19829
G1 X27.929 Y-9.317 E581.23598
G1 X27.043 Y-9.003 E581.27506
G1 X26.285 Y-8.571 E581.31133
G1 X25.585 Y-7.999 E581.34891
G1 X24.992 Y-7.313 E581.38661
G1 X24.527 Y-6.537 E581.42422
G1 X24.204 Y-5.701 E581.46148
G1 X17.681 Y17.456 E582.46171
G1 X17.519 Y18.302 E582.49752
G1 X17.501 Y19.206 E582.53511
G1 X17.637 Y20.101 E582.57275
G1 X17.925 Y20.96 E582.61041
G1 X18.355 Y21.757 E582.64806
G1 X18.939 Y22.495 E582.68719
G1 X19.593 Y23.07 E582.7234
G1 X20.362 Y23.549 E582.76106
G1 X21.202 Y23.887 E582.79871
G1 X22.087 Y24.076 E582.83633
G1 X22.988 Y24.11 E582.87382
G0 F12000 X22.97 Y24.61
G0 X15.492 Y27.165
G0 X15.168 Y27.544
G0 X15.492 Y27.165
G0 X15.651 Y26.641
; TYPE:WALL-INNER
G1 F1500 X-27.242 Y14.563 E584.72645
G1 X-33.645 Y15.59 E584.99606
G1 X-36.206 Y16.06 E585.10431
G1 X-38.731 Y16.644 E585.21206
G1 X-41.234 Y17.346 E585.32014
G1 X-43.673 Y18.155 E585.42697
G1 X-46.141 Y19.1 E585.53684
G1 X-48.106 Y19.961 E585.62604
G1 X-52.877 Y18.617 E585.83211
G1 X-35.4 Y-43.468 E588.51363
G1 X-30.628 Y-42.125 E588.71973
G1 X-29.444 Y-40.427 E588.80579
G1 X-27.88 Y-38.388 E588.91263
G1 X-26.174 Y-36.362 E589.02275
G1 X-24.425 Y-34.474 E589.12975
G1 X-22.569 Y-32.643 E589.23814
G1 X-20.644 Y-30.915 E589.34569
G1 X-15.649 Y-26.641 E589.619
G1 X27.245 Y-14.563 E591.47167
G1 X33.648 Y-15.589 E591.74128
G1 X36.208 Y-16.059 E591.84949
G1 X38.733 Y-16.644 E591.95724
G1 X41.236 Y-17.345 E592.06531
G1 X43.675 Y-18.154 E592.17215
G1 X46.143 Y-19.099 E592.28202
G1 X48.108 Y-19.96 E592.37121
G1 X53.854 Y-18.342 E592.61939
G1 X50.188 Y-5.083 E593.19132
G1 X49.702 Y-3.414 E593.26359
G1 X40.622 Y28.841 E594.65672
G1 X40.165 Y30.52 E594.72906
G1 X36.377 Y43.743 E595.30093
G1 X30.629 Y42.125 E595.54919
G1 X29.403 Y40.367 E595.63829
G1 X27.882 Y38.388 E595.74206
G1 X26.177 Y36.363 E595.85212
G1 X24.427 Y34.475 E595.95915
G1 X22.571 Y32.644 E596.06754
G1 X20.646 Y30.916 E596.17509
G1 X15.651 Y26.641 E596.44843
G0 F12000 X15.409 Y27.093
G1 F1500 X-27.272 Y15.074 E598.29192
G1 X-33.56 Y16.083 E598.55668
G1 X-36.104 Y16.549 E598.66421
G1 X-38.607 Y17.128 E598.77102
G1 X-41.088 Y17.825 E598.87816
G1 X-43.505 Y18.626 E598.98403
G1 X-45.952 Y19.563 E599.09296
G1 X-48.069 Y20.49 E599.18905
G1 X-53.494 Y18.962 E599.42337
G1 X-35.745 Y-44.085 E602.14645
G1 X-30.32 Y-42.558 E602.38076
G1 X-29.041 Y-40.722 E602.47378
G1 X-27.491 Y-38.701 E602.57967
G1 X-25.799 Y-36.693 E602.68884
G1 X-24.066 Y-34.822 E602.79487
G1 X-22.226 Y-33.008 E602.90229
G1 X-20.314 Y-31.291 E603.00913
G1 X-15.407 Y-27.093 E603.27761
G1 X27.275 Y-15.074 E605.12114
G1 X33.563 Y-16.082 E605.3859
G1 X36.106 Y-16.548 E605.49339
G1 X38.609 Y-17.128 E605.60021
G1 X41.089 Y-17.824 E605.7073
G1 X43.507 Y-18.625 E605.8132
G1 X45.954 Y-19.562 E605.92213
G1 X48.071 Y-20.489 E606.01822
G1 X54.469 Y-18.688 E606.29455
G1 X50.673 Y-4.96 E606.88671
G1 X50.183 Y-3.276 E606.95963
G1 X41.104 Y28.975 E608.35259
G1 X40.646 Y30.657 E608.42506
G1 X36.72 Y44.359 E609.01765
G1 X30.321 Y42.558 E609.29403
G1 X28.999 Y40.663 E609.39009
G1 X27.493 Y38.702 E609.49288
G1 X25.802 Y36.694 E609.60203
G1 X24.068 Y34.823 E609.70808
G1 X22.228 Y33.009 E609.81551
G1 X20.316 Y31.292 E609.92235
G1 X15.409 Y27.093 E610.19085
G0 F12000 X15.492 Y27.165
G0 X15.168 Y27.544
; TYPE:WALL-OUTER
G1 F600 X-27.301 Y15.585 E612.02518
G1 X-33.475 Y16.576 E612.28515
G1 X-36.003 Y17.039 E612.392
G1 X-38.483 Y17.613 E612.49783
G1 X-40.941 Y18.303 E612.60397
G1 X-43.337 Y19.097 E612.70891
G1 X-45.762 Y20.026 E612.81688
G1 X-48.032 Y21.02 E612.91991
G1 X-54.11 Y19.308 E613.18243
G1 X-36.091 Y-44.701 E615.94705
G1 X-30.011 Y-42.99 E616.20965
G1 X-28.637 Y-41.017 E616.30961
G1 X-27.101 Y-39.014 E616.41455
G1 X-25.424 Y-37.024 E616.52274
G1 X-23.707 Y-35.17 E616.6278
G1 X-21.883 Y-33.372 E616.73428
G1 X-19.985 Y-31.667 E616.84036
G1 X-15.166 Y-27.544 E617.10403
G1 X27.304 Y-15.585 E618.93839
G1 X33.478 Y-16.575 E619.19836
G1 X36.005 Y-17.038 E619.30517
G1 X38.485 Y-17.613 E619.41101
G1 X40.943 Y-18.302 E619.51714
G1 X43.339 Y-19.096 E619.62208
G1 X45.764 Y-20.025 E619.73004
G1 X48.034 Y-21.019 E619.83307
G1 X55.083 Y-19.034 E620.13753
G1 X51.153 Y-4.82 E620.75065
G1 X50.664 Y-3.139 E620.82344
G1 X41.586 Y29.108 E622.21623
G1 X41.127 Y30.795 E622.28891
G1 X37.065 Y44.975 E622.90216
G1 X30.013 Y42.99 E623.20674
G1 X28.596 Y40.958 E623.30974
G1 X27.103 Y39.015 E623.41161
G1 X25.427 Y37.025 E623.51978
G1 X23.709 Y35.171 E623.62486
G1 X21.885 Y33.373 E623.73135
G1 X19.987 Y31.668 E623.83742
G1 X15.168 Y27.544 E624.10112
G0 F12000 X15.492 Y27.165
G0 X15.409 Y27.093
G0 X1.438 Y18.837
G0 X1.454 Y18.337
G0 X1.438 Y18.837
G0 X1.471 Y19.338
; TYPE:WALL-INNER
G1 F1500 X3.061 Y19.234 E624.16736
G1 X4.635 Y18.975 E624.23368
G1 X6.175 Y18.563 E624.29996
G1 X7.668 Y18.001 E624.36629
G1 X9.098 Y17.296 E624.43257
G1 X10.452 Y16.454 E624.49886
G1 X11.717 Y15.484 E624.56513
G1 X12.881 Y14.393 E624.63146
G1 X13.932 Y13.195 E624.69772
G1 X14.861 Y11.9 E624.76398
G1 X15.66 Y10.519 E624.83031
G1 X16.318 Y9.068 E624.89655
G1 X16.821 Y7.585 E624.96166
G1 X18.235 Y2.573 E625.17817
G1 X18.629 Y0.904 E625.24946
G1 X18.838 Y-0.678 E625.31581
G1 X18.889 Y-2.27 E625.38203
G1 X18.786 Y-3.862 E625.44835
G1 X18.526 Y-5.435 E625.51464
G1 X18.114 Y-6.976 E625.58096
G1 X17.552 Y-8.468 E625.64724
G1 X16.847 Y-9.898 E625.71353
G1 X16.005 Y-11.252 E625.77982
G1 X15.035 Y-12.518 E625.84612
G1 X13.944 Y-13.681 E625.91242
G1 X12.747 Y-14.733 E625.97867
G1 X11.451 Y-15.663 E626.04499
G1 X10.07 Y-16.46 E626.11128
G1 X8.618 Y-17.118 E626.17756
G1 X7.135 Y-17.621 E626.24267
G1 X3.325 Y-18.698 E626.40727
G1 X1.705 Y-19.077 E626.47644
G1 X0.123 Y-19.286 E626.54279
G1 X-1.469 Y-19.337 E626.60901
G1 X-3.06 Y-19.234 E626.67529
G1 X-4.634 Y-18.974 E626.74162
G1 X-6.174 Y-18.562 E626.8079
G1 X-7.667 Y-18 E626.87422
G1 X-9.097 Y-17.295 E626.94051
G1 X-10.451 Y-16.453 E627.0068
G1 X-11.715 Y-15.484 E627.07301
G1 X-12.88 Y-14.393 E627.13937
G1 X-13.931 Y-13.194 E627.20566
G1 X-14.861 Y-11.898 E627.27198
G1 X-15.657 Y-10.518 E627.33821
G1 X-16.316 Y-9.066 E627.4045
G1 X-16.819 Y-7.583 E627.46961
G1 X-18.233 Y-2.571 E627.68612
G1 X-18.627 Y-0.903 E627.75738
G1 X-18.835 Y0.68 E627.82375
G1 X-18.887 Y2.272 E627.88998
G1 X-18.783 Y3.864 E627.95631
G1 X-18.524 Y5.437 E628.02258
G1 X-18.112 Y6.977 E628.08886
G1 X-17.55 Y8.47 E628.15519
G1 X-16.845 Y9.899 E628.22143
G1 X-16.003 Y11.253 E628.28772
G1 X-15.035 Y12.517 E628.35391
G1 X-13.944 Y13.682 E628.42027
G1 X-12.745 Y14.734 E628.48659
G1 X-11.45 Y15.663 E628.55285
G1 X-10.069 Y16.461 E628.61916
G1 X-8.616 Y17.119 E628.68547
G1 X-7.134 Y17.622 E628.75054
G1 X-3.323 Y18.699 E628.91519
G1 X-1.704 Y19.078 E628.98432
G1 X-0.121 Y19.287 E629.0507
G1 X1.471 Y19.338 E629.11693
G0 F12000 X1.463 Y18.838
G1 F1500 X3.004 Y18.737 E629.18113
G1 X4.529 Y18.486 E629.24539
G1 X6.022 Y18.086 E629.30965
G1 X7.469 Y17.542 E629.37392
G1 X8.855 Y16.858 E629.43817
G1 X10.167 Y16.043 E629.50239
G1 X11.393 Y15.103 E629.56662
G1 X12.522 Y14.045 E629.63095
G1 X13.54 Y12.884 E629.69514
G1 X14.441 Y11.628 E629.75941
G1 X15.215 Y10.29 E629.82367
G1 X15.852 Y8.884 E629.88784
G1 X16.344 Y7.436 E629.95143
G1 X17.751 Y2.448 E630.1669
G1 X18.137 Y0.814 E630.2367
G1 X18.339 Y-0.719 E630.30098
G1 X18.389 Y-2.262 E630.36517
G1 X18.289 Y-3.805 E630.42945
G1 X18.037 Y-5.33 E630.49372
G1 X17.637 Y-6.823 E630.55798
G1 X17.093 Y-8.269 E630.62221
G1 X16.409 Y-9.655 E630.68647
G1 X15.594 Y-10.967 E630.75068
G1 X14.654 Y-12.194 E630.81494
G1 X13.596 Y-13.322 E630.87924
G1 X12.435 Y-14.341 E630.94346
G1 X11.179 Y-15.242 E631.00773
G1 X9.841 Y-16.015 E631.07197
G1 X8.434 Y-16.652 E631.13618
G1 X6.987 Y-17.143 E631.19971
G1 X3.2 Y-18.213 E631.36332
G1 X1.615 Y-18.585 E631.43101
G1 X0.082 Y-18.787 E631.49529
G1 X-1.461 Y-18.837 E631.55948
G1 X-3.003 Y-18.737 E631.62372
G1 X-4.529 Y-18.485 E631.68802
G1 X-6.021 Y-18.085 E631.75224
G1 X-7.468 Y-17.541 E631.81652
G1 X-8.854 Y-16.857 E631.88077
G1 X-10.166 Y-16.042 E631.94499
G1 X-11.392 Y-15.102 E632.00922
G1 X-12.521 Y-14.045 E632.07352
G1 X-13.539 Y-12.883 E632.13774
G1 X-14.44 Y-11.627 E632.20201
G1 X-15.212 Y-10.289 E632.26623
G1 X-15.85 Y-8.882 E632.33046
G1 X-16.342 Y-7.434 E632.39404
G1 X-17.749 Y-2.446 E632.60951
G1 X-18.135 Y-0.812 E632.67931
G1 X-18.336 Y0.721 E632.74359
G1 X-18.387 Y2.264 E632.80778
G1 X-18.286 Y3.807 E632.87207
G1 X-18.035 Y5.331 E632.93628
G1 X-17.635 Y6.824 E633.00054
G1 X-17.091 Y8.271 E633.06481
G1 X-16.407 Y9.656 E633.12903
G1 X-15.592 Y10.968 E633.19325
G1 X-14.653 Y12.194 E633.25745
G1 X-13.595 Y13.322 E633.32175
G1 X-12.434 Y14.342 E633.386
G1 X-11.178 Y15.242 E633.45024
G1 X-9.84 Y16.016 E633.5145
G1 X-8.432 Y16.653 E633.57875
G1 X-6.986 Y17.144 E633.64224
G1 X-3.198 Y18.214 E633.80589
G1 X-1.614 Y18.586 E633.87354
G1 X-0.08 Y18.788 E633.93787
G1 X1.463 Y18.838 E634.00205
G0 F12000 X1.438 Y18.837
G0 X1.454 Y18.337
; TYPE:WALL-OUTER
G1 F600 X2.947 Y18.24 E634.06425
G1 X4.424 Y17.997 E634.12648
G1 X5.869 Y17.609 E634.18869
G1 X7.27 Y17.083 E634.25091
G1 X8.612 Y16.421 E634.31312
G1 X9.882 Y15.631 E634.3753
G1 X11.069 Y14.721 E634.43748
G1 X12.162 Y13.697 E634.49975
G1 X13.148 Y12.573 E634.56192
G1 X14.02 Y11.357 E634.62413
G1 X14.77 Y10.061 E634.68638
G1 X15.387 Y8.7 E634.74851
G1 X15.866 Y7.288 E634.8105
G1 X17.267 Y2.323 E635.02498
G1 X17.644 Y0.723 E635.09332
G1 X17.84 Y-0.76 E635.15551
G1 X17.888 Y-2.254 E635.21766
G1 X17.792 Y-3.748 E635.2799
G1 X17.548 Y-5.224 E635.3421
G1 X17.16 Y-6.67 E635.40434
G1 X16.634 Y-8.07 E635.46652
G1 X15.972 Y-9.412 E635.52873
G1 X15.182 Y-10.682 E635.59091
G1 X14.272 Y-11.87 E635.65313
G1 X13.248 Y-12.962 E635.71537
G1 X12.124 Y-13.949 E635.77756
G1 X10.908 Y-14.821 E635.83977
G1 X9.612 Y-15.57 E635.902
G1 X8.25 Y-16.187 E635.96417
G1 X6.838 Y-16.666 E636.02616
G1 X3.075 Y-17.729 E636.18873
G1 X1.525 Y-18.092 E636.25491
G1 X0.041 Y-18.288 E636.31714
G1 X-1.453 Y-18.336 E636.37929
G1 X-2.946 Y-18.24 E636.44149
G1 X-4.423 Y-17.996 E636.50373
G1 X-5.868 Y-17.608 E636.56593
G1 X-7.269 Y-17.082 E636.62815
G1 X-8.611 Y-16.42 E636.69036
G1 X-9.881 Y-15.63 E636.75254
G1 X-11.068 Y-14.72 E636.81473
G1 X-12.161 Y-13.697 E636.87697
G1 X-13.147 Y-12.572 E636.93916
G1 X-14.019 Y-11.356 E637.00137
G1 X-14.767 Y-10.06 E637.06358
G1 X-15.385 Y-8.698 E637.12577
G1 X-15.864 Y-7.286 E637.18776
G1 X-17.265 Y-2.321 E637.40224
G1 X-17.642 Y-0.722 E637.47054
G1 X-17.837 Y0.762 E637.53277
G1 X-17.886 Y2.256 E637.59491
G1 X-17.789 Y3.75 E637.65716
G1 X-17.546 Y5.226 E637.71935
G1 X-17.158 Y6.671 E637.78155
G1 X-16.632 Y8.072 E637.84377
G1 X-15.97 Y9.413 E637.90595
G1 X-15.18 Y10.683 E637.96813
G1 X-14.271 Y11.87 E638.03029
G1 X-13.247 Y12.963 E638.09255
G1 X-12.123 Y13.95 E638.15474
G1 X-10.907 Y14.821 E638.21693
G1 X-9.611 Y15.571 E638.27918
G1 X-8.248 Y16.188 E638.34139
G1 X-6.837 Y16.667 E638.40334
G1 X-3.073 Y17.73 E638.56595
G1 X-1.524 Y18.093 E638.63209
G1 X-0.039 Y18.289 E638.69437
G1 X1.454 Y18.337 E638.75647
G1 F6600 E631.95647
G1 Z0.9
G0 F12000 X1.438 Y18.837
G0 X-0.08 Y18.788
G0 X-1.614 Y18.586
G0 X-3.198 Y18.214
G0 X-6.986 Y17.144
G0 X-28.823 Y9.966
G0 X-28.821 Y9.467
G0 X-28.823 Y9.966
G0 X-28.74 Y10.468
; TYPE:WALL-INNER
G1 Z0.6
G1 F6600 E638.85647
G1 F1500 X-27.676 Y10.289 E638.90133
G1 X-26.623 Y9.918 E638.94774
G1 X-25.715 Y9.4 E638.99121
G1 X-24.883 Y8.721 E639.03585
G1 X-24.177 Y7.904 E639.08075
G1 X-23.623 Y6.98 E639.12554
G1 X-23.252 Y6.02 E639.16833
G1 X-16.704 Y-17.226 E640.17239
G1 X-16.519 Y-18.196 E640.21345
G1 X-16.497 Y-19.27 E640.25811
G1 X-16.658 Y-20.336 E640.30293
G1 X-17.001 Y-21.358 E640.34775
G1 X-17.514 Y-22.308 E640.39264
G1 X-18.209 Y-23.185 E640.43916
G1 X-18.993 Y-23.875 E640.48258
G1 X-19.906 Y-24.443 E640.52728
G1 X-20.905 Y-24.846 E640.57207
G1 X-21.96 Y-25.072 E640.61693
G1 X-23.018 Y-25.111 E640.66094
G1 X-24.791 Y-24.933 E640.73503
G1 X-26.546 Y-24.587 E640.80939
G1 X-28.26 Y-24.075 E640.88377
G1 X-29.917 Y-23.402 E640.95812
G1 X-31.503 Y-22.573 E641.03252
G1 X-33.003 Y-21.598 E641.1069
G1 X-34.457 Y-20.442 E641.18413
G1 X-35.741 Y-19.193 E641.2586
G1 X-36.899 Y-17.829 E641.33299
G1 X-37.923 Y-16.361 E641.40741
G1 X-38.8 Y-14.801 E641.48181
G1 X-39.527 Y-13.165 E641.55624
G1 X-40.083 Y-11.498 E641.6293
G1 X-40.195 Y-11.102 E641.64641
G1 X-40.591 Y-9.386 E641.71963
G1 X-40.824 Y-7.612 E641.79401
G1 X-40.888 Y-5.824 E641.8684
G1 X-40.781 Y-4.038 E641.94278
G1 X-40.505 Y-2.27 E642.01718
G1 X-40.061 Y-0.537 E642.09156
G1 X-39.455 Y1.145 E642.16589
G1 X-38.72 Y2.701 E642.23743
G1 X-37.811 Y4.24 E642.31174
G1 X-36.759 Y5.687 E642.38612
G1 X-35.574 Y7.026 E642.46046
G1 X-34.267 Y8.248 E642.53485
G1 X-32.832 Y9.351 E642.6101
G1 X-31.895 Y9.897 E642.65518
G1 X-30.88 Y10.269 E642.70013
G1 X-29.819 Y10.461 E642.74496
G1 X-28.74 Y10.468 E642.78982
G0 F12000 X-28.781 Y9.967
G1 F1500 X-27.802 Y9.803 E642.83109
G1 X-26.831 Y9.461 E642.87389
G1 X-25.999 Y8.986 E642.91372
G1 X-25.233 Y8.361 E642.95482
G1 X-24.583 Y7.609 E642.99614
G1 X-24.074 Y6.759 E643.03733
G1 X-23.727 Y5.861 E643.07736
G1 X-17.191 Y-17.341 E644.07953
G1 X-17.018 Y-18.248 E644.11792
G1 X-16.998 Y-19.238 E644.15909
G1 X-17.146 Y-20.219 E644.20033
G1 X-17.461 Y-21.159 E644.24155
G1 X-17.933 Y-22.032 E644.28281
G1 X-18.573 Y-22.84 E644.32566
G1 X-19.292 Y-23.472 E644.36546
G1 X-20.133 Y-23.995 E644.40664
G1 X-21.052 Y-24.366 E644.44784
G1 X-22.023 Y-24.574 E644.48913
G1 X-23.002 Y-24.61 E644.52986
G1 X-24.717 Y-24.438 E644.60151
G1 X-26.425 Y-24.101 E644.67389
G1 X-28.094 Y-23.602 E644.74632
G1 X-29.706 Y-22.947 E644.81866
G1 X-31.251 Y-22.141 E644.89111
G1 X-32.71 Y-21.192 E644.96347
G1 X-34.126 Y-20.066 E645.03868
G1 X-35.376 Y-18.851 E645.11116
G1 X-36.503 Y-17.523 E645.18357
G1 X-37.499 Y-16.094 E645.25599
G1 X-38.353 Y-14.577 E645.32836
G1 X-39.06 Y-12.984 E645.40082
G1 X-39.605 Y-11.35 E645.47244
G1 X-39.711 Y-10.978 E645.48852
G1 X-40.098 Y-9.297 E645.56023
G1 X-40.325 Y-7.571 E645.63261
G1 X-40.388 Y-5.83 E645.70504
G1 X-40.284 Y-4.091 E645.77747
G1 X-40.014 Y-2.371 E645.84985
G1 X-39.583 Y-0.684 E645.92224
G1 X-38.992 Y0.953 E645.9946
G1 X-38.277 Y2.467 E646.06421
G1 X-37.393 Y3.965 E646.13653
G1 X-36.368 Y5.373 E646.20893
G1 X-35.215 Y6.677 E646.2813
G1 X-33.943 Y7.867 E646.35372
G1 X-32.553 Y8.935 E646.4266
G1 X-31.681 Y9.442 E646.46853
G1 X-30.749 Y9.784 E646.50981
G1 X-29.773 Y9.962 E646.55106
G1 X-28.781 Y9.967 E646.5923
G0 F12000 X-28.823 Y9.966
G0 X-28.821 Y9.467
; TYPE:WALL-OUTER
G1 F600 X-27.927 Y9.317 E646.62999
G1 X-27.04 Y9.004 E646.66909
G1 X-26.283 Y8.573 E646.70531
G1 X-25.583 Y8.001 E646.74289
G1 X-24.99 Y7.315 E646.78059
G1 X-24.525 Y6.539 E646.8182
G1 X-24.202 Y5.703 E646.85546
G1 X-17.678 Y-17.456 E647.85578
G1 X-17.517 Y-18.301 E647.89154
G1 X-17.499 Y-19.205 E647.92913
G1 X-17.634 Y-20.101 E647.9668
G1 X-17.922 Y-20.959 E648.00443
G1 X-18.352 Y-21.756 E648.04208
G1 X-18.937 Y-22.494 E648.08123
G1 X-19.591 Y-23.069 E648.11744
G1 X-20.36 Y-23.548 E648.15511
G1 X-21.199 Y-23.886 E648.19271
G1 X-22.085 Y-24.076 E648.23038
G1 X-22.986 Y-24.109 E648.26787
G1 X-24.644 Y-23.943 E648.33714
G1 X-26.305 Y-23.615 E648.40753
G1 X-27.928 Y-23.13 E648.47796
G1 X-29.496 Y-22.493 E648.54832
G1 X-30.998 Y-21.709 E648.61876
G1 X-32.417 Y-20.786 E648.68914
G1 X-33.795 Y-19.69 E648.76234
G1 X-35.01 Y-18.509 E648.83279
G1 X-36.106 Y-17.218 E648.9032
G1 X-37.075 Y-15.828 E648.97364
G1 X-37.906 Y-14.352 E649.04406
G1 X-38.593 Y-12.803 E649.11451
G1 X-39.127 Y-11.203 E649.18464
G1 X-39.226 Y-10.853 E649.19976
G1 X-39.605 Y-9.208 E649.26995
G1 X-39.826 Y-7.529 E649.34035
G1 X-39.887 Y-5.836 E649.41078
G1 X-39.786 Y-4.145 E649.48121
G1 X-39.524 Y-2.472 E649.55162
G1 X-39.104 Y-0.831 E649.62204
G1 X-38.53 Y0.761 E649.6924
G1 X-37.835 Y2.232 E649.76004
G1 X-36.974 Y3.69 E649.83044
G1 X-35.978 Y5.06 E649.90086
G1 X-34.856 Y6.328 E649.97125
G1 X-33.619 Y7.485 E650.04167
G1 X-32.274 Y8.519 E650.1122
G1 X-31.468 Y8.988 E650.15097
G1 X-30.617 Y9.3 E650.18865
G1 X-29.726 Y9.462 E650.2263
G1 X-28.821 Y9.467 E650.26393
G0 F12000 X-28.823 Y9.966
G0 X-28.5 Y10.731
; TYPE:FILL
G1 F1800 X-28.5 Y14.459 E650.41892
G0 F12000 X-29 Y14.539
G1 F1800 X-29 Y10.765 E650.57583
G0 F12000 X-29.5 Y10.762
G1 F1800 X-29.5 Y14.62 E650.73622
G0 F12000 X-30 Y14.7
G1 F1800 X-30 Y10.732 E650.90119
G0 F12000 X-30.5 Y10.641
G1 F1800 X-30.5 Y14.78 E651.07327
G0 F12000 X-30.999 Y14.86
G1 F1800 X-31 Y10.543 E651.25275
G0 F12000 X-31.5 Y10.36
G1 F1800 X-31.499 Y14.94 E651.44317
G0 F12000 X-31.999 Y15.02
G1 F1800 X-32 Y10.176 E651.64456
G0 F12000 X-32.5 Y9.89
G1 F1800 X-32.499 Y15.101 E651.86121
G0 F12000 X-33 Y15.181
G1 F1800 X-33 Y9.598 E652.09332
G0 F12000 X-33.5 Y9.215
G1 F1800 X-33.5 Y15.261 E652.34468
G0 F12000 X-34 Y15.349
G1 F1800 X-34 Y8.831 E652.61567
G0 F12000 X-34.5 Y8.44
G1 F1800 X-34.5 Y15.441 E652.90674
G0 F12000 X-35 Y15.533
G1 F1800 X-35 Y7.972 E653.22109
G0 F12000 X-35.5 Y7.504
G1 F1800 X-35.5 Y15.624 E653.55868
G0 F12000 X-36 Y15.716
G1 F1800 X-36 Y6.996 E653.92121
G0 F12000 X-36.5 Y6.431
G1 F1800 X-36.5 Y15.819 E654.31152
G0 F12000 X-37 Y15.934
G1 F1800 X-37 Y5.864 E654.73018
G0 F12000 X-37.5 Y5.176
G1 F1800 X-37.5 Y16.05 E655.18227
G0 F12000 X-38 Y16.166
G1 F1800 X-38 Y4.488 E655.66779
G0 F12000 X-38.5 Y3.661
G1 F1800 X-38.5 Y16.281 E656.19246
G0 F12000 X-39 Y16.407
G1 F1800 X-39 Y2.808 E656.75785
G0 F12000 X-39.5 Y1.75
G1 F1800 X-39.5 Y16.547 E657.37303
G0 F12000 X-40 Y16.688
G1 F1800 X-40 Y0.515 E658.04543
G0 F12000 X-40.5 Y-1.045
G1 F1800 X-40.5 Y16.828 E658.7885
G0 F12000 X-41 Y16.968
G1 F1800 X-41 Y-3.495 E659.63925
G0 F12000 X-41 Y-8.582
G1 F1800 X-41 Y-22.465 E660.21644
G0 F12000 X-41.5 Y-20.69
G1 F1800 X-41.5 Y17.118 E661.78832
G0 F12000 X-42 Y17.283
G1 F1800 X-42 Y-18.914 E663.29321
G0 F12000 X-42.5 Y-17.138
G1 F1800 X-42.5 Y17.449 E664.73117
G0 F12000 X-43 Y17.615
G1 F1800 X-43 Y-15.362 E666.1022
G0 F12000 X-43.5 Y-13.586
G1 F1800 X-43.5 Y17.781 E667.40629
G0 F12000 X-44 Y17.958
G1 F1800 X-44 Y-11.81 E668.6439
G0 F12000 X-44.5 Y-10.033
G1 F1800 X-44.5 Y18.149 E669.81557
G0 F12000 X-45 Y18.341
G1 F1800 X-45 Y-8.258 E670.92142
G0 F12000 X-45.5 Y-6.482
G1 F1800 X-45.5 Y18.532 E671.96139
G0 F12000 X-46 Y18.723
G1 F1800 X-46 Y-4.706 E672.93545
G0 F12000 X-46.5 Y-2.93
G1 F1800 X-46.5 Y18.928 E673.8442
G0 F12000 X-47 Y19.147
G1 F1800 X-47 Y-1.154 E674.68822
G0 F12000 X-47.5 Y0.62
G1 F1800 X-47.5 Y19.367 E675.46763
G0 F12000 X-48 Y19.586
G1 F1800 X-48 Y2.396 E676.1823
G0 F12000 X-48.5 Y4.172
G1 F1800 X-48.5 Y19.537 E676.82111
G0 F12000 X-49 Y19.396
G1 F1800 X-49 Y5.948 E677.38021
G0 F12000 X-49.5 Y7.724
G1 F1800 X-49.5 Y19.255 E677.85961
G0 F12000 X-50 Y19.115
G1 F1800 X-50 Y9.5 E678.25936
G0 F12000 X-50.5 Y11.276
G1 F1800 X-50.5 Y18.974 E678.5794
G0 F12000 X-51 Y18.833
G1 F1800 X-51 Y13.052 E678.81975
G0 F12000 X-51.5 Y14.828
G1 F1800 X-51.5 Y18.692 E678.9804
G0 F12000 X-52 Y18.551
G1 F1800 X-52 Y16.604 E679.06134
G0 F12000 X-52.5 Y18.38
G1 F1800 X-52.5 Y18.41 E679.06259
G0 F12000 X-28 Y14.379
G1 F1800 X-28 Y10.647 E679.21775
G0 F12000 X-27.5 Y10.543
G1 F1800 X-27.5 Y14.299 E679.37391
G0 F12000 X-27 Y14.319
G1 F1800 X-27 Y10.368 E679.53817
G0 F12000 X-26.5 Y10.192
G1 F1800 X-26.5 Y14.459 E679.71557
G0 F12000 X-26 Y14.6
G1 F1800 X-26 Y9.907 E679.91068
G0 F12000 X-25.5 Y9.612
G1 F1800 X-25.5 Y14.741 E680.12392
G0 F12000 X-24.999 Y14.882
G1 F1800 X-25 Y9.204 E680.35999
G0 F12000 X-24.5 Y8.737
G1 F1800 X-24.499 Y15.023 E680.62133
G0 F12000 X-23.999 Y15.164
G1 F1800 X-24 Y8.157 E680.91264
G0 F12000 X-23.5 Y7.356
G1 F1800 X-23.499 Y15.304 E681.24308
G0 F12000 X-22.999 Y15.445
G1 F1800 X-23 Y6.199 E681.62749
G0 F12000 X-22.5 Y4.456
G1 F1800 X-22.499 Y15.586 E682.09022
G0 F12000 X-21.999 Y15.727
G1 F1800 X-22 Y2.681 E682.63261
G0 F12000 X-21.5 Y0.907
G1 F1800 X-21.499 Y15.868 E683.25462
G0 F12000 X-20.999 Y16.008
G1 F1800 X-21 Y-0.867 E683.9562
G0 F12000 X-20.5 Y-2.642
G1 F1800 X-20.499 Y16.149 E684.73744
G0 F12000 X-19.999 Y16.29
G1 F1800 X-20 Y-4.417 E685.59833
G0 F12000 X-19.5 Y-6.192
G1 F1800 X-19.499 Y16.431 E686.53889
G0 F12000 X-18.999 Y16.572
G1 F1800 X-19 Y4.391 E687.04531
G0 F12000 X-18.5 Y6.688
G1 F1800 X-18.499 Y16.713 E687.46211
G0 F12000 X-17.999 Y16.853
G1 F1800 X-18 Y8.124 E687.82502
G0 F12000 X-17.5 Y9.25
G1 F1800 X-17.499 Y16.994 E688.14697
G0 F12000 X-16.999 Y17.135
G1 F1800 X-17 Y10.217 E688.43459
G0 F12000 X-16.5 Y11.02
G1 F1800 X-16.499 Y17.276 E688.69468
G0 F12000 X-15.999 Y17.417
G1 F1800 X-15.999 Y11.749 E688.93033
G0 F12000 X-15.499 Y12.402
G1 F1800 X-15.499 Y17.557 E689.14465
G0 F12000 X-14.999 Y17.698
G1 F1800 X-14.999 Y12.993 E689.34026
G0 F12000 X-14.499 Y13.526
G1 F1800 X-14.499 Y17.839 E689.51958
G0 F12000 X-13.999 Y17.98
G1 F1800 X-13.999 Y14.032 E689.68372
G0 F12000 X-13.499 Y14.47
G1 F1800 X-13.499 Y18.121 E689.83551
G0 F12000 X-12.999 Y18.261
G1 F1800 X-12.999 Y14.908 E689.97491
G0 F12000 X-12.499 Y15.278
G1 F1800 X-12.499 Y18.402 E690.10479
G0 F12000 X-11.999 Y18.543
G1 F1800 X-11.999 Y15.637 E690.22561
G0 F12000 X-11.499 Y15.98
G1 F1800 X-11.499 Y18.684 E690.33803
G0 F12000 X-10.999 Y18.825
G1 F1800 X-10.999 Y16.269 E690.44429
G0 F12000 X-10.499 Y16.558
G1 F1800 X-10.499 Y18.966 E690.54441
G0 F12000 X-9.999 Y19.106
G1 F1800 X-9.999 Y16.821 E690.6394
G0 F12000 X-9.499 Y17.048
G1 F1800 X-9.499 Y19.247 E690.73083
G0 F12000 X-8.999 Y19.388
G1 F1800 X-8.999 Y17.275 E690.81868
G0 F12000 X-8.499 Y17.476
G1 F1800 X-8.499 Y19.529 E690.90403
G0 F12000 X-7.999 Y19.67
G1 F1800 X-7.999 Y17.646 E690.98818
G0 F12000 X-7.499 Y17.815
G1 F1800 X-7.499 Y19.81 E691.07112
G0 F12000 X-6.999 Y19.951
G1 F1800 X-6.999 Y17.972 E691.1534
G0 F12000 X-6.499 Y18.114
G1 F1800 X-6.499 Y20.092 E691.23563
G0 F12000 X-5.999 Y20.233
G1 F1800 X-5.999 Y18.255 E691.31787
G0 F12000 X-5.499 Y18.396
G1 F1800 X-5.499 Y20.374 E691.40011
G0 F12000 X-4.999 Y20.515
G1 F1800 X-4.999 Y18.538 E691.4823
G0 F12000 X-4.499 Y18.679
G1 F1800 X-4.499 Y20.655 E691.56445
G0 F12000 X-3.999 Y20.796
G1 F1800 X-3.999 Y18.82 E691.6466
G0 F12000 X-3.499 Y18.961
G1 F1800 X-3.499 Y20.937 E691.72876
G0 F12000 X-2.999 Y21.078
G1 F1800 X-2.999 Y19.082 E691.81174
G0 F12000 X-2.499 Y19.199
G1 F1800 X-2.499 Y21.219 E691.89572
G0 F12000 X-1.999 Y21.359
G1 F1800 X-1.999 Y19.316 E691.98066
G0 F12000 X-1.499 Y19.407
G1 F1800 X-1.499 Y21.5 E692.06768
G0 F12000 X-0.999 Y21.641
G1 F1800 X-0.999 Y19.473 E692.15781
G0 F12000 X-0.499 Y19.54
G1 F1800 X-0.499 Y21.782 E692.25102
G0 F12000 X0 Y21.923
G1 F1800 X0 Y19.591 E692.34798
G0 F12000 X0.5 Y19.607
G1 F1800 X0.5 Y22.063 E692.45009
G0 F12000 X1 Y22.204
G1 F1800 X1 Y19.624 E692.55735
G0 F12000 X1.5 Y19.637
G1 F1800 X1.5 Y22.345 E692.66994
G0 F12000 X2 Y22.486
G1 F1800 X2 Y19.604 E692.78976
G0 F12000 X2.5 Y19.571
G1 F1800 X2.5 Y22.627 E692.91681
G0 F12000 X3 Y22.768
G1 F1800 X3 Y19.538 E693.0511
G0 F12000 X3.5 Y19.466
G1 F1800 X3.5 Y22.908 E693.1942
G0 F12000 X4 Y23.049
G1 F1800 X4 Y19.383 E693.34661
G0 F12000 X4.5 Y19.301
G1 F1800 X4.5 Y23.19 E693.5083
G0 F12000 X5 Y23.331
G1 F1800 X5 Y19.187 E693.68059
G0 F12000 X5.5 Y19.054
G1 F1800 X5.5 Y23.472 E693.86427
G0 F12000 X6 Y23.612
G1 F1800 X6 Y18.92 E694.05934
G0 F12000 X6.5 Y18.761
G1 F1800 X6.5 Y23.753 E694.26688
G0 F12000 X7 Y23.894
G1 F1800 X7 Y18.573 E694.4881
G0 F12000 X7.5 Y18.384
G1 F1800 X7.5 Y24.035 E694.72304
G0 F12000 X8 Y24.176
G1 F1800 X8 Y18.172 E694.97266
G0 F12000 X8.5 Y17.925
G1 F1800 X8.5 Y24.317 E695.23841
G0 F12000 X9 Y24.457
G1 F1800 X9 Y17.679 E695.5202
G0 F12000 X9.5 Y17.398
G1 F1800 X9.5 Y24.598 E695.81955
G0 F12000 X10 Y24.739
G1 F1800 X10 Y17.087 E696.13768
G0 F12000 X10.5 Y16.776
G1 F1800 X10.5 Y24.88 E696.4746
G0 F12000 X11 Y25.021
G1 F1800 X11 Y16.411 E696.83257
G0 F12000 X11.5 Y16.027
G1 F1800 X11.5 Y25.161 E697.21231
G0 F12000 X12 Y25.302
G1 F1800 X12 Y15.628 E697.61451
G0 F12000 X12.5 Y15.16
G1 F1800 X12.5 Y25.443 E698.04203
G0 F12000 X13 Y25.584
G1 F1800 X13 Y14.691 E698.49491
G0 F12000 X13.5 Y14.141
G1 F1800 X13.5 Y25.725 E698.97651
G0 F12000 X14 Y25.865
G1 F1800 X14 Y13.57 E699.48768
G0 F12000 X14.5 Y12.916
G1 F1800 X14.5 Y26.006 E700.0319
G0 F12000 X15 Y26.146
G1 F1800 X15 Y12.219 E700.61092
G0 F12000 X15.5 Y11.392
G1 F1800 X15.5 Y26.287 E701.23018
G0 F12000 X16 Y26.545
G1 F1800 X16 Y10.492 E701.89759
G0 F12000 X16.5 Y9.393
G1 F1800 X16.5 Y16.852 E702.2077
G0 F12000 X17 Y15.077
G1 F1800 X17 Y7.993 E702.50221
G0 F12000 X17.5 Y6.285
G1 F1800 X17.5 Y13.302 E702.79395
G0 F12000 X18 Y11.527
G1 F1800 X18 Y4.512 E703.0856
G0 F12000 X18.5 Y2.74
G1 F1800 X18.5 Y9.752 E703.37712
G0 F12000 X19 Y7.977
G1 F1800 X19 Y0.387 E703.69268
G0 F12000 X21 Y0.877
G1 F1800 X20.999 Y-16.009 E704.39472
G0 F12000 X20.499 Y-16.15
G1 F1800 X20.5 Y2.652 E705.17641
G0 F12000 X20 Y4.427
G1 F1800 X19.999 Y-16.291 E706.03777
G0 F12000 X19.499 Y-16.432
G1 F1800 X19.5 Y6.202 E706.97878
G0 F12000 X21.5 Y-0.897
G1 F1800 X21.499 Y-15.868 E707.6012
G0 F12000 X21.999 Y-15.728
G1 F1800 X22 Y-2.672 E708.14401
G0 F12000 X22.5 Y-4.447
G1 F1800 X22.499 Y-15.587 E708.60715
G0 F12000 X22.999 Y-15.446
G1 F1800 X23 Y-6.192 E708.99189
G0 F12000 X23.5 Y-7.35
G1 F1800 X23.499 Y-15.305 E709.32262
G0 F12000 X23.999 Y-15.164
G1 F1800 X24 Y-8.153 E709.6141
G0 F12000 X24.5 Y-8.732
G1 F1800 X24.499 Y-15.024 E709.87569
G0 F12000 X24.999 Y-14.883
G1 F1800 X25 Y-9.2 E710.11197
G0 F12000 X25.5 Y-9.608
G1 F1800 X25.5 Y-14.742 E710.32541
G0 F12000 X26 Y-14.601
G1 F1800 X26 Y-9.904 E710.52069
G0 F12000 X26.5 Y-10.188
G1 F1800 X26.5 Y-14.46 E710.6983
G0 F12000 X27 Y-14.319
G1 F1800 X27 Y-10.367 E710.86261
G0 F12000 X27.5 Y-10.544
G1 F1800 X27.5 Y-14.298 E711.01868
G0 F12000 X28 Y-14.378
G1 F1800 X28 Y-10.647 E711.1738
G0 F12000 X28.5 Y-10.73
G1 F1800 X28.5 Y-14.459 E711.32883
G0 F12000 X29 Y-14.539
G1 F1800 X29 Y-10.764 E711.48578
G0 F12000 X29.5 Y-10.761
G1 F1800 X29.5 Y-14.619 E711.64617
G0 F12000 X30 Y-14.699
G1 F1800 X30 Y-10.731 E711.81114
G0 F12000 X30.5 Y-10.641
G1 F1800 X30.5 Y-14.779 E711.98318
G0 F12000 X30.999 Y-14.859
G1 F1800 X31 Y-10.543 E712.16262
G0 F12000 X31.5 Y-10.359
G1 F1800 X31.499 Y-14.939 E712.35303
G0 F12000 X31.999 Y-15.019
G1 F1800 X32 Y-10.175 E712.55442
G0 F12000 X32.5 Y-9.89
G1 F1800 X32.499 Y-15.099 E712.77099
G0 F12000 X33 Y-15.179
G1 F1800 X33 Y-9.599 E713.00298
G0 F12000 X33.5 Y-9.214
G1 F1800 X33.5 Y-15.259 E713.2543
G0 F12000 X34 Y-15.348
G1 F1800 X34 Y-8.83 E713.52529
G0 F12000 X34.5 Y-8.44
G1 F1800 X34.5 Y-15.439 E713.81627
G0 F12000 X35 Y-15.531
G1 F1800 X35 Y-7.973 E714.1305
G0 F12000 X35.5 Y-7.507
G1 F1800 X35.5 Y-15.623 E714.46792
G0 F12000 X36 Y-15.715
G1 F1800 X36 Y-6.998 E714.83033
G0 F12000 X36.5 Y-6.432
G1 F1800 X36.5 Y-15.817 E715.22052
G0 F12000 X37 Y-15.933
G1 F1800 X37 Y-5.863 E715.63918
G0 F12000 X37.5 Y-5.176
G1 F1800 X37.5 Y-16.049 E716.09122
G0 F12000 X38 Y-16.165
G1 F1800 X38 Y-4.489 E716.57666
G0 F12000 X38.5 Y-3.663
G1 F1800 X38.5 Y-16.281 E717.10125
G0 F12000 X39 Y-16.407
G1 F1800 X39 Y-2.81 E717.66655
G0 F12000 X39.5 Y-1.752
G1 F1800 X39.5 Y-16.547 E718.28165
G0 F12000 X40 Y-16.687
G1 F1800 X40 Y-0.52 E718.9538
G0 F12000 X40.5 Y1.036
G1 F1800 X40.5 Y-16.827 E719.69646
G0 F12000 X41 Y-16.967
G1 F1800 X41 Y3.479 E720.5465
G0 F12000 X41 Y8.597
G1 F1800 X41 Y23.912 E721.18323
G0 F12000 X40.5 Y25.687
G1 F1800 X40.5 Y11.119 E721.78889
G0 F12000 X40 Y12.701
G1 F1800 X40 Y27.463 E722.40263
G0 F12000 X39.5 Y29.239
G1 F1800 X39.5 Y13.97 E723.03744
G0 F12000 X39 Y15.063
G1 F1800 X39 Y31.015 E723.70064
G0 F12000 X38.5 Y32.791
G1 F1800 X38.5 Y15.951 E724.40077
G0 F12000 X38 Y16.777
G1 F1800 X38 Y34.566 E725.14035
G0 F12000 X37.5 Y36.342
G1 F1800 X37.5 Y17.495 E725.92392
G0 F12000 X37 Y18.177
G1 F1800 X37 Y38.118 E726.75297
G0 F12000 X36.5 Y39.894
G1 F1800 X36.5 Y18.765 E727.63141
G0 F12000 X36 Y19.354
G1 F1800 X36 Y41.67 E728.5592
G0 F12000 X35.5 Y43.185
G1 F1800 X35.5 Y19.848 E729.52944
G0 F12000 X35 Y20.334
G1 F1800 X35 Y43.044 E730.47361
G0 F12000 X34.5 Y42.903
G1 F1800 X34.5 Y20.791 E731.39292
G0 F12000 X34 Y21.189
G1 F1800 X34 Y42.762 E732.28982
G0 F12000 X33.5 Y42.622
G1 F1800 X33.5 Y21.587 E733.16436
G0 F12000 X33 Y21.959
G1 F1800 X33 Y42.481 E734.01756
G0 F12000 X32.5 Y42.34
G1 F1800 X32.5 Y22.284 E734.8514
G0 F12000 X32 Y22.609
G1 F1800 X32 Y42.199 E735.66585
G0 F12000 X31.5 Y42.058
G1 F1800 X31.5 Y22.914 E736.46177
G0 F12000 X31 Y23.176
G1 F1800 X31 Y41.918 E737.24097
G0 F12000 X30.5 Y41.416
G1 F1800 X30.5 Y23.437 E737.98845
G0 F12000 X30 Y23.693
G1 F1800 X30 Y40.699 E738.69548
G0 F12000 X29.5 Y40.003
G1 F1800 X29.5 Y23.896 E739.36513
G0 F12000 X29 Y24.099
G1 F1800 X29 Y39.352 E739.99927
G0 F12000 X28.5 Y38.701
G1 F1800 X28.5 Y24.302 E740.59792
G0 F12000 X28 Y24.466
G1 F1800 X28 Y38.063 E741.16321
G0 F12000 X27.5 Y37.469
G1 F1800 X27.5 Y24.615 E741.69762
G0 F12000 X27 Y24.765
G1 F1800 X27 Y36.876 E742.20114
G0 F12000 X26.5 Y36.282
G1 F1800 X26.5 Y24.903 E742.67422
G0 F12000 X26 Y25.001
G1 F1800 X26 Y35.732 E743.12036
G0 F12000 X25.5 Y35.193
G1 F1800 X25.5 Y25.1 E743.53998
G0 F12000 X25 Y25.198
G1 F1800 X25 Y34.653 E743.93308
G0 F12000 X24.5 Y34.127
G1 F1800 X24.5 Y25.264 E744.30156
G0 F12000 X24 Y25.314
G1 F1800 X24 Y33.633 E744.64742
G0 F12000 X23.5 Y33.139
G1 F1800 X23.5 Y25.365 E744.97063
G0 F12000 X23 Y25.411
G1 F1800 X23 Y32.644 E745.27134
G0 F12000 X22.5 Y32.178
G1 F1800 X22.5 Y25.392 E745.55347
G0 F12000 X22 Y25.373
G1 F1800 X22 Y31.729 E745.81772
G0 F12000 X21.5 Y31.28
G1 F1800 X21.5 Y25.279 E746.06721
G0 F12000 X21 Y25.173
G1 F1800 X21 Y30.831 E746.30244
G0 F12000 X20.5 Y30.396
G1 F1800 X20.5 Y25.005 E746.52658
G0 F12000 X20 Y24.804
G1 F1800 X20 Y29.968 E746.74127
G0 F12000 X19.5 Y29.54
G1 F1800 X19.5 Y24.543 E746.94902
G0 F12000 X19 Y24.232
G1 F1800 X19 Y29.113 E747.15195
G0 F12000 X18.5 Y28.685
G1 F1800 X18.5 Y23.84 E747.35338
G0 F12000 X18 Y23.4
G1 F1800 X18 Y28.257 E747.55531
G0 F12000 X17.5 Y27.829
G1 F1800 X17.5 Y22.77 E747.76564
G0 F12000 X17 Y21.983
G1 F1800 X17 Y27.401 E747.99089
G0 F12000 X16.5 Y26.973
G1 F1800 X16.5 Y20.798 E748.24762
G1 F6600 E741.44762
G1 Z0.9
G0 F12000 X18.575 Y22.84
G0 X19.294 Y23.473
G0 X20.135 Y23.996
G0 X21.055 Y24.367
G0 X22.025 Y24.574
G0 X23.003 Y24.611
G0 X24.72 Y24.439
G0 X41.5 Y22.136
G1 Z0.6
G1 F6600 E748.34762
G1 F1800 X41.5 Y-17.116 E749.97953
G0 F12000 X42 Y-17.282
G1 F1800 X42 Y20.36 E751.5445
G0 F12000 X42.5 Y18.584
G1 F1800 X42.5 Y-17.448 E753.04254
G0 F12000 X43 Y-17.613
G1 F1800 X43 Y16.808 E754.4736
G0 F12000 X43.5 Y15.033
G1 F1800 X43.5 Y-17.779 E755.83776
G0 F12000 X44 Y-17.956
G1 F1800 X44 Y13.257 E757.13545
G0 F12000 X44.5 Y11.481
G1 F1800 X44.5 Y-18.148 E758.36728
G0 F12000 X45 Y-18.339
G1 F1800 X45 Y9.705 E759.53321
G0 F12000 X45.5 Y7.929
G1 F1800 X45.5 Y-18.53 E760.63325
G0 F12000 X46 Y-18.722
G1 F1800 X46 Y6.153 E761.66743
G0 F12000 X46.5 Y4.378
G1 F1800 X46.5 Y-18.926 E762.6363
G0 F12000 X47 Y-19.146
G1 F1800 X47 Y2.602 E763.54048
G0 F12000 X47.5 Y0.826
G1 F1800 X47.5 Y-19.365 E764.37992
G0 F12000 X48 Y-19.584
G1 F1800 X48 Y-0.947 E765.15476
G0 F12000 X48.5 Y-2.725
G1 F1800 X48.5 Y-19.537 E765.85372
G0 F12000 X49 Y-19.396
G1 F1800 X49 Y-4.5 E766.47302
G0 F12000 X49.5 Y-6.276
G1 F1800 X49.5 Y-19.255 E767.01263
G0 F12000 X50 Y-19.115
G1 F1800 X50 Y-8.052 E767.47257
G0 F12000 X50.5 Y-9.828
G1 F1800 X50.5 Y-18.974 E767.85282
G0 F12000 X51 Y-18.833
G1 F1800 X51 Y-11.604 E768.15337
G0 F12000 X51.5 Y-13.379
G1 F1800 X51.5 Y-18.692 E768.37426
G0 F12000 X52 Y-18.551
G1 F1800 X52 Y-15.155 E768.51544
G0 F12000 X52.5 Y-16.931
G1 F1800 X52.5 Y-18.411 E768.57698
G1 F6600 E761.77698
G1 Z0.9
G0 F12000 X27.275 Y-15.074
G0 X18.999 Y-16.572
G1 Z0.6
G1 F6600 E768.67698
G1 F1800 X19 Y-4.407 E769.18274
G0 F12000 X18.5 Y-6.694
G1 F1800 X18.499 Y-16.713 E769.59928
G0 F12000 X17.999 Y-16.854
G1 F1800 X18 Y-8.128 E769.96206
G0 F12000 X17.5 Y-9.253
G1 F1800 X17.499 Y-16.995 E770.28394
G0 F12000 X16.999 Y-17.136
G1 F1800 X17 Y-10.219 E770.57152
G0 F12000 X16.5 Y-11.022
G1 F1800 X16.499 Y-17.277 E770.83157
G0 F12000 X15.999 Y-17.417
G1 F1800 X15.999 Y-11.75 E771.06717
G0 F12000 X15.499 Y-12.403
G1 F1800 X15.499 Y-17.558 E771.28149
G0 F12000 X14.999 Y-17.699
G1 F1800 X14.999 Y-12.993 E771.47715
G0 F12000 X14.499 Y-13.526
G1 F1800 X14.499 Y-17.84 E771.6565
G0 F12000 X13.999 Y-17.981
G1 F1800 X13.999 Y-14.031 E771.82072
G0 F12000 X13.499 Y-14.47
G1 F1800 X13.499 Y-18.121 E771.97252
G0 F12000 X12.999 Y-18.262
G1 F1800 X12.999 Y-14.91 E772.11188
G0 F12000 X12.499 Y-15.278
G1 F1800 X12.499 Y-18.403 E772.2418
G0 F12000 X11.999 Y-18.544
G1 F1800 X11.999 Y-15.637 E772.36266
G0 F12000 X11.499 Y-15.981
G1 F1800 X11.499 Y-18.685 E772.47508
G0 F12000 X10.999 Y-18.825
G1 F1800 X10.999 Y-16.269 E772.58134
G0 F12000 X10.499 Y-16.558
G1 F1800 X10.499 Y-18.966 E772.68145
G0 F12000 X9.999 Y-19.107
G1 F1800 X9.999 Y-16.821 E772.7765
G0 F12000 X9.499 Y-17.048
G1 F1800 X9.499 Y-19.248 E772.86796
G0 F12000 X8.999 Y-19.389
G1 F1800 X8.999 Y-17.275 E772.95585
G0 F12000 X8.499 Y-17.476
G1 F1800 X8.499 Y-19.53 E773.04125
G0 F12000 X7.999 Y-19.67
G1 F1800 X7.999 Y-17.645 E773.12544
G0 F12000 X7.499 Y-17.815
G1 F1800 X7.499 Y-19.811 E773.20842
G0 F12000 X6.999 Y-19.952
G1 F1800 X6.999 Y-17.972 E773.29074
G0 F12000 X6.499 Y-18.113
G1 F1800 X6.499 Y-20.093 E773.37306
G0 F12000 X5.999 Y-20.234
G1 F1800 X5.999 Y-18.254 E773.45538
G0 F12000 X5.499 Y-18.396
G1 F1800 X5.499 Y-20.374 E773.53761
G0 F12000 X4.999 Y-20.515
G1 F1800 X4.999 Y-18.537 E773.61985
G0 F12000 X4.499 Y-18.678
G1 F1800 X4.499 Y-20.656 E773.70208
G0 F12000 X3.999 Y-20.797
G1 F1800 X3.999 Y-18.82 E773.78428
G0 F12000 X3.499 Y-18.961
G1 F1800 X3.499 Y-20.938 E773.86647
G0 F12000 X2.999 Y-21.078
G1 F1800 X2.999 Y-19.081 E773.9495
G0 F12000 X2.499 Y-19.198
G1 F1800 X2.499 Y-21.219 E774.03352
G0 F12000 X1.999 Y-21.36
G1 F1800 X1.999 Y-19.315 E774.11854
G0 F12000 X1.499 Y-19.406
G1 F1800 X1.499 Y-21.501 E774.20564
G0 F12000 X0.999 Y-21.642
G1 F1800 X0.999 Y-19.473 E774.29582
G0 F12000 X0.499 Y-19.539
G1 F1800 X0.499 Y-21.783 E774.38911
G0 F12000 X0 Y-21.923
G1 F1800 X0 Y-19.59 E774.48611
G0 F12000 X-0.5 Y-19.606
G1 F1800 X-0.5 Y-22.064 E774.5883
G0 F12000 X-1 Y-22.205
G1 F1800 X-1 Y-19.623 E774.69565
G0 F12000 X-1.5 Y-19.636
G1 F1800 X-1.5 Y-22.346 E774.80832
G0 F12000 X-2 Y-22.487
G1 F1800 X-2 Y-19.603 E774.92822
G0 F12000 X-2.5 Y-19.57
G1 F1800 X-2.5 Y-22.627 E775.05531
G0 F12000 X-3 Y-22.768
G1 F1800 X-3 Y-19.538 E775.1896
G0 F12000 X-3.5 Y-19.465
G1 F1800 X-3.5 Y-22.909 E775.33279
G0 F12000 X-4 Y-23.05
G1 F1800 X-4 Y-19.383 E775.48524
G0 F12000 X-4.5 Y-19.3
G1 F1800 X-4.5 Y-23.191 E775.64701
G0 F12000 X-5 Y-23.331
G1 F1800 X-5 Y-19.186 E775.81934
G0 F12000 X-5.5 Y-19.053
G1 F1800 X-5.5 Y-23.472 E776.00306
G0 F12000 X-6 Y-23.613
G1 F1800 X-6 Y-18.919 E776.19822
G0 F12000 X-6.5 Y-18.76
G1 F1800 X-6.5 Y-23.754 E776.40584
G0 F12000 X-7 Y-23.895
G1 F1800 X-7 Y-18.571 E776.62719
G0 F12000 X-7.5 Y-18.383
G1 F1800 X-7.5 Y-24.035 E776.86217
G0 F12000 X-8 Y-24.176
G1 F1800 X-8 Y-18.17 E777.11187
G0 F12000 X-8.5 Y-17.924
G1 F1800 X-8.5 Y-24.317 E777.37766
G0 F12000 X-9 Y-24.458
G1 F1800 X-9 Y-17.678 E777.65954
G0 F12000 X-9.5 Y-17.397
G1 F1800 X-9.5 Y-24.599 E777.95897
G0 F12000 X-10 Y-24.74
G1 F1800 X-10 Y-17.086 E778.27718
G0 F12000 X-10.5 Y-16.775
G1 F1800 X-10.5 Y-24.88 E778.61415
G0 F12000 X-11 Y-25.021
G1 F1800 X-11 Y-16.409 E778.97219
G0 F12000 X-11.5 Y-16.025
G1 F1800 X-11.5 Y-25.162 E779.35207
G0 F12000 X-12 Y-25.303
G1 F1800 X-12 Y-15.627 E779.75435
G0 F12000 X-12.5 Y-15.158
G1 F1800 X-12.5 Y-25.444 E780.18199
G0 F12000 X-13 Y-25.584
G1 F1800 X-13 Y-14.69 E780.63491
G0 F12000 X-13.5 Y-14.139
G1 F1800 X-13.5 Y-25.725 E781.1166
G0 F12000 X-14 Y-25.866
G1 F1800 X-14 Y-13.568 E781.62789
G0 F12000 X-14.5 Y-12.913
G1 F1800 X-14.5 Y-26.007 E782.17228
G0 F12000 X-15 Y-26.147
G1 F1800 X-15 Y-12.216 E782.75146
G0 F12000 X-15.5 Y-11.388
G1 F1800 X-15.5 Y-26.287 E783.37089
G0 F12000 X-16 Y-26.547
G1 F1800 X-16 Y-10.485 E784.03867
G0 F12000 X-16.5 Y-9.386
G1 F1800 X-16.5 Y-16.841 E784.34861
G0 F12000 X-17 Y-15.066
G1 F1800 X-17 Y-7.985 E784.64301
G0 F12000 X-17.5 Y-6.276
G1 F1800 X-17.5 Y-13.291 E784.93465
G0 F12000 X-18 Y-11.516
G1 F1800 X-18 Y-4.503 E785.22622
G0 F12000 X-18.5 Y-2.731
G1 F1800 X-18.5 Y-9.742 E785.51771
G0 F12000 X-19 Y-7.967
G1 F1800 X-19 Y-0.368 E785.83363
G0 F12000 X-16.5 Y-20.809
G1 F1800 X-16.5 Y-26.975 E786.08999
G0 F12000 X-17 Y-27.403
G1 F1800 X-17 Y-21.989 E786.31508
G0 F12000 X-17.5 Y-22.774
G1 F1800 X-17.5 Y-27.83 E786.52528
G0 F12000 X-18 Y-28.258
G1 F1800 X-18 Y-23.401 E786.72721
G0 F12000 X-18.5 Y-23.841
G1 F1800 X-18.5 Y-28.686 E786.92864
G0 F12000 X-19 Y-29.114
G1 F1800 X-19 Y-24.232 E787.13161
G0 F12000 X-19.5 Y-24.542
G1 F1800 X-19.5 Y-29.541 E787.33945
G0 F12000 X-20 Y-29.969
G1 F1800 X-20 Y-24.804 E787.55418
G0 F12000 X-20.5 Y-25.006
G1 F1800 X-20.5 Y-30.397 E787.77831
G0 F12000 X-21 Y-30.832
G1 F1800 X-21 Y-25.172 E788.01363
G0 F12000 X-21.5 Y-25.279
G1 F1800 X-21.5 Y-31.28 E788.26312
G0 F12000 X-22 Y-31.729
G1 F1800 X-22 Y-25.373 E788.52737
G0 F12000 X-22.5 Y-25.391
G1 F1800 X-22.5 Y-32.178 E788.80954
G0 F12000 X-23 Y-32.645
G1 F1800 X-23 Y-25.41 E789.11034
G0 F12000 X-23.5 Y-25.363
G1 F1800 X-23.5 Y-33.14 E789.43367
G0 F12000 X-24 Y-33.634
G1 F1800 X-24 Y-25.313 E789.77962
G0 F12000 X-24.5 Y-25.263
G1 F1800 X-24.5 Y-34.128 E790.14818
G0 F12000 X-25 Y-34.655
G1 F1800 X-25 Y-25.197 E790.5414
G0 F12000 X-25.5 Y-25.098
G1 F1800 X-25.5 Y-35.195 E790.96118
G0 F12000 X-26 Y-35.734
G1 F1800 X-26 Y-25 E791.40745
G0 F12000 X-26.5 Y-24.901
G1 F1800 X-26.5 Y-36.285 E791.88074
G0 F12000 X-27 Y-36.879
G1 F1800 X-27 Y-24.763 E792.38447
G0 F12000 X-27.5 Y-24.614
G1 F1800 X-27.5 Y-37.472 E792.91904
G0 F12000 X-28 Y-38.066
G1 F1800 X-28 Y-24.464 E793.48455
G0 F12000 X-28.5 Y-24.3
G1 F1800 X-28.5 Y-38.705 E794.08344
G0 F12000 X-29 Y-39.357
G1 F1800 X-29 Y-24.097 E794.71787
G0 F12000 X-29.5 Y-23.894
G1 F1800 X-29.5 Y-40.009 E795.38786
G0 F12000 X-30 Y-40.7
G1 F1800 X-30 Y-23.691 E796.09501
G0 F12000 X-30.5 Y-23.434
G1 F1800 X-30.5 Y-41.418 E796.8427
G0 F12000 X-31 Y-41.918
G1 F1800 X-31 Y-23.173 E797.62202
G0 F12000 X-31.5 Y-22.912
G1 F1800 X-31.5 Y-42.059 E798.41806
G0 F12000 X-32 Y-42.2
G1 F1800 X-32 Y-22.606 E799.23269
G0 F12000 X-32.5 Y-22.281
G1 F1800 X-32.5 Y-42.34 E800.06664
G0 F12000 X-33 Y-42.481
G1 F1800 X-33 Y-21.956 E800.91997
G0 F12000 X-33.5 Y-21.585
G1 F1800 X-33.5 Y-42.622 E801.79459
G0 F12000 X-34 Y-42.763
G1 F1800 X-34 Y-21.188 E802.69158
G0 F12000 X-34.5 Y-20.791
G1 F1800 X-34.5 Y-42.903 E803.61089
G0 F12000 X-35 Y-43.044
G1 F1800 X-35 Y-20.333 E804.5551
G0 F12000 X-35.5 Y-19.847
G1 F1800 X-35.5 Y-42 E805.47611
G0 F12000 X-36 Y-40.225
G1 F1800 X-36 Y-19.352 E806.34391
G0 F12000 X-36.5 Y-18.763
G1 F1800 X-36.5 Y-38.449 E807.16236
G0 F12000 X-37 Y-36.673
G1 F1800 X-37 Y-18.174 E807.93146
G0 F12000 X-37.5 Y-17.491
G1 F1800 X-37.5 Y-34.897 E808.65512
G0 F12000 X-38 Y-33.121
G1 F1800 X-38 Y-16.774 E809.33475
G0 F12000 X-38.5 Y-15.946
G1 F1800 X-38.5 Y-31.345 E809.97496
G0 F12000 X-39 Y-29.569
G1 F1800 X-39 Y-15.056 E810.57834
G0 F12000 X-39.5 Y-13.963
G1 F1800 X-39.5 Y-27.793 E811.15333
G0 F12000 X-40 Y-26.017
G1 F1800 X-40 Y-12.694 E811.70723
G0 F12000 X-40.5 Y-11.111
G1 F1800 X-40.5 Y-24.241 E812.25312
G1 F6600 E805.45312
G1 Z0.9
G0 F12000 X-23.002 Y-24.61
G0 X-22.023 Y-24.574
G0 X-21.052 Y-24.366
G0 X3.2 Y-18.213
G0 X6.987 Y-17.143
G0 X30.751 Y-9.783
G0 X31.684 Y-9.441
G0 X32.555 Y-8.933
G0 X47.177 Y0.499
; TYPE:BOTTOM-FILL
G1 Z0.6
G1 F6600 E812.35312
G1 F1800 X48.288 Y0.499 E812.39931
G0 F12000 X48.429 Y0
G1 F1800 X47.317 Y0 E812.44554
G0 F12000 X47.458 Y-0.5
G1 F1800 X48.57 Y-0.5 E812.49177
G0 F12000 X48.711 Y-1
G1 F1800 X47.599 Y-1 E812.538
G0 F12000 X47.74 Y-1.5
G1 F1800 X48.851 Y-1.5 E812.58419
G0 F12000 X48.992 Y-2
G1 F1800 X47.881 Y-2 E812.63038
G0 F12000 X48.021 Y-2.5
G1 F1800 X49.133 Y-2.5 E812.67661
G0 F12000 X49.274 Y-3
G1 F1800 X48.162 Y-3 E812.72284
G0 F12000 X48.303 Y-3.5
G1 F1800 X49.414 Y-3.5 E812.76903
G0 F12000 X49.56 Y-4
G1 F1800 X48.444 Y-4 E812.81543
G0 F12000 X48.584 Y-4.5
G1 F1800 X49.706 Y-4.5 E812.86208
G0 F12000 X49.851 Y-5
G1 F1800 X48.725 Y-5 E812.90889
G0 F12000 X48.866 Y-5.5
G1 F1800 X49.992 Y-5.5 E812.95571
G0 F12000 X50.13 Y-6
G1 F1800 X49.007 Y-6 E813.0024
G0 F12000 X49.148 Y-6.5
G1 F1800 X50.269 Y-6.5 E813.049
G0 F12000 X50.407 Y-7
G1 F1800 X49.288 Y-7 E813.09552
G0 F12000 X49.429 Y-7.5
G1 F1800 X50.545 Y-7.5 E813.14192
G0 F12000 X50.683 Y-8
G1 F1800 X49.57 Y-8 E813.1882
G0 F12000 X49.711 Y-8.5
G1 F1800 X50.821 Y-8.5 E813.23434
G0 F12000 X50.96 Y-9
G1 F1800 X49.851 Y-9 E813.28045
G0 F12000 X49.992 Y-9.5
G1 F1800 X51.098 Y-9.5 E813.32643
G0 F12000 X51.236 Y-10
G1 F1800 X50.133 Y-10 E813.37229
G0 F12000 X50.274 Y-10.5
G1 F1800 X51.374 Y-10.5 E813.41802
G0 F12000 X51.513 Y-11
G1 F1800 X50.414 Y-11 E813.46371
G0 F12000 X50.555 Y-11.5
G1 F1800 X51.651 Y-11.5 E813.50928
G0 F12000 X51.789 Y-12
G1 F1800 X50.696 Y-12 E813.55472
G0 F12000 X50.837 Y-12.5
G1 F1800 X51.927 Y-12.5 E813.60004
G0 F12000 X52.066 Y-13
G1 F1800 X50.978 Y-13 E813.64527
G0 F12000 X51.118 Y-13.5
G1 F1800 X52.204 Y-13.5 E813.69042
G0 F12000 X52.342 Y-14
G1 F1800 X51.259 Y-14 E813.73545
G0 F12000 X51.4 Y-14.5
G1 F1800 X52.48 Y-14.5 E813.78035
G0 F12000 X52.619 Y-15
G1 F1800 X51.541 Y-15 E813.82517
G0 F12000 X51.681 Y-15.5
G1 F1800 X52.757 Y-15.5 E813.8699
G0 F12000 X52.895 Y-16
G1 F1800 X51.822 Y-16 E813.91451
G0 F12000 X51.963 Y-16.5
G1 F1800 X53.033 Y-16.5 E813.959
G0 F12000 X53.171 Y-17
G1 F1800 X52.104 Y-17 E814.00336
G0 F12000 X52.245 Y-17.5
G1 F1800 X53.31 Y-17.5 E814.04764
G0 F12000 X53.448 Y-18
G1 F1800 X52.385 Y-18 E814.09183
G0 F12000 X48.148 Y0.999
G1 F1800 X47.036 Y0.999 E814.13806
G0 F12000 X46.895 Y1.499
G1 F1800 X48.007 Y1.499 E814.18429
G0 F12000 X47.866 Y1.999
G1 F1800 X46.754 Y1.999 E814.23053
G0 F12000 X46.614 Y2.499
G1 F1800 X47.725 Y2.499 E814.27672
G0 F12000 X47.585 Y2.999
G1 F1800 X46.473 Y2.999 E814.32295
G0 F12000 X46.332 Y3.499
G1 F1800 X47.444 Y3.499 E814.36918
G0 F12000 X47.303 Y3.999
G1 F1800 X46.191 Y3.999 E814.41541
G0 F12000 X46.051 Y4.499
G1 F1800 X47.162 Y4.499 E814.4616
G0 F12000 X47.022 Y4.999
G1 F1800 X45.91 Y4.999 E814.50783
G0 F12000 X45.769 Y5.499
G1 F1800 X46.881 Y5.499 E814.55406
G0 F12000 X46.74 Y5.999
G1 F1800 X45.628 Y5.999 E814.6003
G0 F12000 X45.487 Y6.499
G1 F1800 X46.6 Y6.499 E814.64657
G0 F12000 X46.459 Y6.999
G1 F1800 X45.347 Y6.999 E814.6928
G0 F12000 X45.206 Y7.499
G1 F1800 X46.318 Y7.499 E814.73903
G0 F12000 X46.177 Y7.999
G1 F1800 X45.065 Y7.999 E814.78526
G0 F12000 X44.924 Y8.499
G1 F1800 X46.037 Y8.499 E814.83154
G0 F12000 X45.896 Y8.999
G1 F1800 X44.784 Y8.999 E814.87777
G0 F12000 X44.643 Y9.499
G1 F1800 X45.755 Y9.499 E814.924
G0 F12000 X45.614 Y9.999
G1 F1800 X44.502 Y9.999 E814.97023
G0 F12000 X44.361 Y10.499
G1 F1800 X45.474 Y10.499 E815.0165
G0 F12000 X45.333 Y10.999
G1 F1800 X44.22 Y10.999 E815.06278
G0 F12000 X44.08 Y11.499
G1 F1800 X45.192 Y11.499 E815.10901
G0 F12000 X45.051 Y11.999
G1 F1800 X43.939 Y11.999 E815.15524
G0 F12000 X43.798 Y12.499
G1 F1800 X44.911 Y12.499 E815.20151
G0 F12000 X44.77 Y12.999
G1 F1800 X43.657 Y12.999 E815.24779
G0 F12000 X43.517 Y13.499
G1 F1800 X44.629 Y13.499 E815.29402
G0 F12000 X44.488 Y13.999
G1 F1800 X43.376 Y13.999 E815.34025
G0 F12000 X43.235 Y14.499
G1 F1800 X44.348 Y14.499 E815.38652
G0 F12000 X44.207 Y14.999
G1 F1800 X43.094 Y14.999 E815.4328
G0 F12000 X42.954 Y15.499
G1 F1800 X44.066 Y15.499 E815.47903
G0 F12000 X43.925 Y15.999
G1 F1800 X42.813 Y15.999 E815.52526
G0 F12000 X42.672 Y16.499
G1 F1800 X43.785 Y16.499 E815.57153
G0 F12000 X43.644 Y16.999
G1 F1800 X42.531 Y16.999 E815.61781
G0 F12000 X42.39 Y17.499
G1 F1800 X43.503 Y17.499 E815.66408
G0 F12000 X43.362 Y17.999
G1 F1800 X42.25 Y17.999 E815.71031
G0 F12000 X42.109 Y18.499
G1 F1800 X43.222 Y18.499 E815.75658
G0 F12000 X43.081 Y18.999
G1 F1800 X41.968 Y18.999 E815.80286
G0 F12000 X41.827 Y19.499
G1 F1800 X42.94 Y19.499 E815.84913
G0 F12000 X42.799 Y19.999
G1 F1800 X41.687 Y19.999 E815.89536
G0 F12000 X41.546 Y20.499
G1 F1800 X42.659 Y20.499 E815.94164
G0 F12000 X42.518 Y20.999
G1 F1800 X41.405 Y20.999 E815.98791
G0 F12000 X41.264 Y21.499
G1 F1800 X42.377 Y21.499 E816.03418
G0 F12000 X42.236 Y21.999
G1 F1800 X41.123 Y21.999 E816.08045
G0 F12000 X40.983 Y22.499
G1 F1800 X42.096 Y22.499 E816.12673
G0 F12000 X41.955 Y22.999
G1 F1800 X40.842 Y22.999 E816.173
G0 F12000 X40.701 Y23.499
G1 F1800 X41.814 Y23.499 E816.21927
G0 F12000 X41.673 Y23.999
G1 F1800 X40.56 Y23.999 E816.26555
G0 F12000 X40.42 Y24.499
G1 F1800 X41.533 Y24.499 E816.31182
G0 F12000 X41.392 Y24.999
G1 F1800 X40.279 Y24.999 E816.35809
G0 F12000 X40.138 Y25.499
G1 F1800 X41.251 Y25.499 E816.40437
G0 F12000 X41.11 Y25.999
G1 F1800 X39.997 Y25.999 E816.45064
G0 F12000 X39.857 Y26.499
G1 F1800 X40.97 Y26.499 E816.49691
G0 F12000 X40.829 Y26.999
G1 F1800 X39.716 Y26.999 E816.54319
G0 F12000 X39.575 Y27.499
G1 F1800 X40.688 Y27.499 E816.58946
G0 F12000 X40.547 Y27.999
G1 F1800 X39.434 Y27.999 E816.63573
G0 F12000 X39.293 Y28.499
G1 F1800 X40.407 Y28.499 E816.68205
G0 F12000 X40.267 Y28.999
G1 F1800 X39.153 Y28.999 E816.72836
G0 F12000 X39.012 Y29.499
G1 F1800 X40.132 Y29.499 E816.77493
G0 F12000 X39.996 Y29.999
G1 F1800 X38.871 Y29.999 E816.8217
G0 F12000 X38.73 Y30.499
G1 F1800 X39.86 Y30.499 E816.86868
G0 F12000 X39.716 Y30.999
G1 F1800 X38.59 Y30.999 E816.91549
G0 F12000 X38.449 Y31.499
G1 F1800 X39.573 Y31.499 E816.96222
G0 F12000 X39.43 Y31.999
G1 F1800 X38.308 Y31.999 E817.00887
G0 F12000 X38.167 Y32.499
G1 F1800 X39.286 Y32.499 E817.05539
G0 F12000 X39.143 Y33
G1 F1800 X38.026 Y33 E817.10183
G0 F12000 X37.886 Y33.5
G1 F1800 X39 Y33.5 E817.14815
G0 F12000 X38.856 Y34
G1 F1800 X37.745 Y34 E817.19434
G0 F12000 X37.604 Y34.5
G1 F1800 X38.713 Y34.5 E817.24044
G0 F12000 X38.57 Y35
G1 F1800 X37.463 Y35 E817.28647
G0 F12000 X37.323 Y35.5
G1 F1800 X38.427 Y35.5 E817.33237
G0 F12000 X38.283 Y36
G1 F1800 X37.182 Y36 E817.37814
G0 F12000 X37.041 Y36.5
G1 F1800 X38.14 Y36.5 E817.42383
G0 F12000 X37.997 Y37
G1 F1800 X36.9 Y37 E817.46944
G0 F12000 X36.76 Y37.5
G1 F1800 X37.853 Y37.5 E817.51488
G0 F12000 X37.71 Y38
G1 F1800 X36.619 Y38 E817.56024
G0 F12000 X36.478 Y38.5
G1 F1800 X37.567 Y38.5 E817.60552
G0 F12000 X37.423 Y39
G1 F1800 X36.337 Y39 E817.65067
G0 F12000 X36.196 Y39.5
G1 F1800 X37.28 Y39.5 E817.69573
G0 F12000 X37.137 Y40
G1 F1800 X36.056 Y40 E817.74068
G0 F12000 X35.915 Y40.5
G1 F1800 X36.993 Y40.5 E817.78549
G0 F12000 X36.85 Y41
G1 F1800 X35.774 Y41 E817.83023
G0 F12000 X35.633 Y41.5
G1 F1800 X36.707 Y41.5 E817.87488
G0 F12000 X36.564 Y42
G1 F1800 X35.493 Y42 E817.91941
G0 F12000 X35.352 Y42.5
G1 F1800 X36.42 Y42.5 E817.96381
G0 F12000 X36.277 Y43
G1 F1800 X35.211 Y43 E818.00813
G1 F6600 E811.20813
G1 Z0.9
G0 F12000 X15.409 Y27.093
G0 X-27.272 Y15.074
G0 X-53.494 Y18.962
G0 X-54.419 Y19.481
G0 X-54.525 Y19.452
G0 X-54.698 Y19.143
; TYPE:WALL-OUTER
G1 Z0.6
G1 F6600 E818.10813
G1 F600 X-55.123 Y19.023 E818.12649
G0 F12000 X-54.91 Y19.083
G1 F600 X-54.257 Y16.744 E818.3165
G1 X-50.412 Y3.209 E819.35193
G1 X-41.334 Y-29.037 E821.8143
G1 X-37.554 Y-42.587 E822.84832
G1 X-36.891 Y-44.927 E823.03862
G0 F12000 X-36.679 Y-44.867
G1 F600 X-37.104 Y-44.987 E823.05698
; Layer Change GCode
; LAYER:2
M400
M106 S153
G1 F6600 E816.25698
G1 Z0.9
G0 F12000 X-36.37 Y-45.04 Z1.1
G0 X-36.264 Y-45.01
G0 X-35.745 Y-44.085
G0 X-32.812 Y-21.108
G0 X-34.126 Y-20.066
G0 X-35.376 Y-18.851
G0 X-36.503 Y-17.523
G0 X-37.499 Y-16.094
G0 X-38.353 Y-14.577
G0 X-39.06 Y-12.984
G0 X-39.605 Y-11.35
G0 X-39.711 Y-10.978
G0 X-40.098 Y-9.297
G0 X-40.325 Y-7.571
G0 X-40.388 Y-5.83
G0 X-40.284 Y-4.091
G0 X-40.014 Y-2.371
G0 X-39.583 Y-0.684
G0 X-38.992 Y0.953
G0 X-38.292 Y2.435
G0 X-37.41 Y3.935
G0 X-36.389 Y5.345
G0 X-35.239 Y6.651
G0 X-33.969 Y7.843
G0 X-32.497 Y8.978
G0 X-31.694 Y9.434
G0 X-30.768 Y9.778
G0 X-29.792 Y9.958
G0 X-28.844 Y9.967
G0 X-28.839 Y9.467
G0 X-28.844 Y9.967
G0 X-28.762 Y10.468
; TYPE:WALL-INNER
G1 Z0.8
G1 F6600 E823.15698
G1 F1500 X-27.697 Y10.293 E823.20185
G1 X-26.625 Y9.919 E823.24906
G1 X-25.732 Y9.41 E823.29179
G1 X-24.899 Y8.734 E823.33639
G1 X-24.192 Y7.921 E823.38118
G1 X-23.633 Y6.999 E823.42601
G1 X-23.258 Y6.037 E823.46894
G1 X-16.704 Y-17.227 E824.47379
G1 X-16.524 Y-18.177 E824.51399
G1 X-16.497 Y-19.248 E824.55853
G1 X-16.654 Y-20.315 E824.60337
G1 X-16.993 Y-21.339 E824.64822
G1 X-17.504 Y-22.29 E824.6931
G1 X-18.207 Y-23.184 E824.74038
G1 X-18.978 Y-23.862 E824.78307
G1 X-19.887 Y-24.432 E824.82768
G1 X-20.885 Y-24.838 E824.87247
G1 X-21.94 Y-25.069 E824.91737
G1 X-22.997 Y-25.11 E824.96135
G1 X-24.754 Y-24.936 E825.03475
G1 X-26.51 Y-24.594 E825.10913
G1 X-28.226 Y-24.085 E825.18355
G1 X-29.883 Y-23.416 E825.25784
G1 X-31.472 Y-22.591 E825.33228
G1 X-32.973 Y-21.618 E825.40665
G1 X-34.456 Y-20.442 E825.48533
G1 X-35.741 Y-19.193 E825.55984
G1 X-36.899 Y-17.829 E825.63423
G1 X-37.923 Y-16.361 E825.70864
G1 X-38.8 Y-14.801 E825.78304
G1 X-39.527 Y-13.165 E825.85747
G1 X-40.083 Y-11.498 E825.93053
G1 X-40.195 Y-11.102 E825.94764
G1 X-40.591 Y-9.386 E826.02086
G1 X-40.824 Y-7.612 E826.09525
G1 X-40.888 Y-5.824 E826.16963
G1 X-40.781 Y-4.038 E826.24402
G1 X-40.505 Y-2.27 E826.31841
G1 X-40.061 Y-0.537 E826.39279
G1 X-39.455 Y1.145 E826.46712
G1 X-38.734 Y2.669 E826.53721
G1 X-37.829 Y4.209 E826.61148
G1 X-36.78 Y5.657 E826.68581
G1 X-35.599 Y6.999 E826.76014
G1 X-34.293 Y8.224 E826.83458
G1 X-32.775 Y9.396 E826.91431
G1 X-31.905 Y9.889 E826.95589
G1 X-30.902 Y10.261 E827.00036
G1 X-29.84 Y10.458 E827.04527
G1 X-28.762 Y10.468 E827.09009
G0 F12000 X-28.8 Y9.968
G1 F1500 X-27.821 Y9.807 E827.13134
G1 X-26.832 Y9.462 E827.17489
G1 X-26.015 Y8.996 E827.21399
G1 X-25.248 Y8.373 E827.25507
G1 X-24.597 Y7.625 E827.2963
G1 X-24.083 Y6.777 E827.33753
G1 X-23.733 Y5.878 E827.37763
G1 X-17.191 Y-17.341 E828.38055
G1 X-17.023 Y-18.23 E828.41817
G1 X-16.998 Y-19.218 E828.45926
G1 X-17.143 Y-20.199 E828.50048
G1 X-17.454 Y-21.141 E828.54173
G1 X-17.924 Y-22.015 E828.58299
G1 X-18.572 Y-22.839 E828.62657
G1 X-19.278 Y-23.46 E828.66566
