; Generated with MatterSlice 1.0
; filamentDiameter = 1.75
; extrusionWidth = 0.5
; firstLayerExtrusionWidth = 0.5
; layerThickness = 0.2
; firstLayerThickness = 0.3
; automatic settings before start_gcode
G21 ; set units to millimeters
M107 ; fan off
T0 ; set the active extruder to 0
; settings from start_gcode
M104 S215
M190 S60
M109 S215
G28
; automatic settings after start_gcode
T0 ; set the active extruder to 0
G90 ; use absolute coordinates
G92 E0 ; reset the expected extruder position
M82 ; use absolute distance for extrusion
; Layer count: 90
; Layer Change GCode
; LAYER:0
M400
M107
G0 F12000 X57.25 Y38.25 Z0.7
; TYPE:SKIRT
G1 Z0.4
G1 F6600 E0
G1 F600 X-57.249 Y38.25 E7.14047
G1 X-57.249 Y-38.249 E11.91116
G1 X57.25 Y-38.249 E19.05163
G1 X57.25 Y38.25 E23.82232
G0 F12000 X56.75 Y37.75
G1 F600 X-56.749 Y37.75 E30.90043
G1 X-56.749 Y-37.749 E35.60876
G1 X56.75 Y-37.749 E42.68687
G1 X56.75 Y37.75 E47.39519
G0 F12000 X56.25 Y37.25
G1 F600 X-56.249 Y37.25 E54.41094
G1 X-56.249 Y-37.249 E59.0569
G1 X56.25 Y-37.249 E66.07265
G1 X56.25 Y37.25 E70.71861
G0 F12000 X55.75 Y36.75
G1 F600 X-55.749 Y36.75 E77.672
G1 X-55.749 Y-36.749 E82.2556
G1 X55.75 Y-36.749 E89.20898
G1 X55.75 Y36.75 E93.79258
G0 F12000 X55.25 Y36.25
G1 F600 X-55.249 Y36.25 E100.6836
G1 X-55.249 Y-36.249 E105.20484
G1 X55.25 Y-36.249 E112.09586
G1 X55.25 Y36.25 E116.6171
G0 F12000 X54.75 Y35.75
G1 F600 X-54.749 Y35.75 E123.44576
G1 X-54.749 Y-35.749 E127.90463
G1 X54.75 Y-35.749 E134.73329
G1 X54.75 Y35.75 E139.19217
G0 F12000 X54.25 Y35.25
G1 F600 X-54.249 Y35.25 E145.95846
G1 X-54.249 Y-35.249 E150.35498
G1 X54.25 Y-35.249 E157.12127
G1 X54.25 Y35.25 E161.51778
G0 F12000 X53.75 Y34.75
G1 F600 X-53.749 Y34.75 E168.22172
G1 X-53.749 Y-34.749 E172.55587
G1 X53.75 Y-34.749 E179.2598
G1 X53.75 Y34.75 E183.59395
G0 F12000 X53.25 Y34.25
G1 F600 X-53.249 Y34.25 E190.23552
G1 X-53.249 Y-34.249 E194.50731
G1 X53.25 Y-34.249 E201.14888
G1 X53.25 Y34.25 E205.42066
G0 F12000 X52.75 Y33.75
G1 F600 X-52.749 Y33.75 E211.99987
G1 X-52.749 Y-33.749 E216.2093
G1 X52.75 Y-33.749 E222.7885
G1 X52.75 Y33.75 E226.99793
G1 F6600 E220.19793
G1 Z0.7
G0 F12000 X1.001 Y2.001
G0 X-2.499 Y0.001
G0 X-2.499 Y-1.499
G0 X-3.249 Y-2.249
G0 X-51.749 Y-2.249
G0 X-52.249 Y-1.749
; TYPE:WALL-OUTER
G1 Z0.4
G1 F6600 E227.09793
G1 F600 X-52.249 Y-33.249 E229.06235
G1 X-2.749 Y-33.249 E232.14931
G1 X-2.749 Y-1.749 E234.11374
G1 X-52.249 Y-1.749 E237.20069
G0 F12000 X-51.749 Y-2.249
; TYPE:WALL-INNER
G1 F600 X-51.749 Y-32.749 E239.10276
G1 X-3.249 Y-32.749 E242.12735
G1 X-3.249 Y-2.249 E244.02941
G1 X-51.749 Y-2.249 E247.05401
G0 F12000 X-51.249 Y-2.749
G1 F600 X-51.249 Y-32.249 E248.89371
G1 X-3.749 Y-32.249 E251.85594
G1 X-3.749 Y-2.749 E253.69564
G1 X-51.249 Y-2.749 E256.65787
G0 F12000 X-50.949 Y-3.499
; TYPE:BOTTOM-FILL
G1 F600 X-4.049 Y-3.499 E259.58269
G0 F12000 X-4.049 Y-3.999
G1 F600 X-50.949 Y-3.999 E262.5075
G0 F12000 X-50.949 Y-4.499
G1 F600 X-4.049 Y-4.5 E265.43231
G0 F12000 X-4.049 Y-5
G1 F600 X-50.949 Y-4.999 E268.35712
G0 F12000 X-50.949 Y-5.499
G1 F600 X-4.049 Y-5.5 E271.28194
G0 F12000 X-4.049 Y-6
G1 F600 X-50.949 Y-5.999 E274.20675
G0 F12000 X-50.949 Y-6.499
G1 F600 X-4.049 Y-6.5 E277.13156
G0 F12000 X-4.049 Y-7
G1 F600 X-50.949 Y-6.999 E280.05638
G0 F12000 X-50.949 Y-7.499
G1 F600 X-4.049 Y-7.5 E282.98119
G0 F12000 X-4.049 Y-8
G1 F600 X-50.949 Y-7.999 E285.906
G0 F12000 X-50.949 Y-8.499
G1 F600 X-4.049 Y-8.5 E288.83082
G0 F12000 X-4.049 Y-9
G1 F600 X-50.949 Y-8.999 E291.75563
G0 F12000 X-50.949 Y-9.499
G1 F600 X-4.049 Y-9.5 E294.68044
G0 F12000 X-4.049 Y-10
G1 F600 X-50.949 Y-9.999 E297.60526
G0 F12000 X-50.949 Y-10.499
G1 F600 X-4.049 Y-10.5 E300.53007
G0 F12000 X-4.049 Y-11
G1 F600 X-50.949 Y-10.999 E303.45488
G0 F12000 X-50.949 Y-11.499
G1 F600 X-4.049 Y-11.5 E306.3797
G0 F12000 X-4.049 Y-12
G1 F600 X-50.949 Y-11.999 E309.30451
G0 F12000 X-50.949 Y-12.499
G1 F600 X-4.049 Y-12.5 E312.22932
G0 F12000 X-4.049 Y-13
G1 F600 X-50.949 Y-12.999 E315.15413
G0 F12000 X-50.949 Y-13.499
G1 F600 X-4.049 Y-13.5 E318.07895
G0 F12000 X-4.049 Y-14
G1 F600 X-50.949 Y-13.999 E321.00376
G0 F12000 X-50.949 Y-14.499
G1 F600 X-4.049 Y-14.5 E323.92857
G0 F12000 X-4.049 Y-15
G1 F600 X-50.949 Y-14.999 E326.85339
G0 F12000 X-50.949 Y-15.499
G1 F600 X-4.049 Y-15.5 E329.7782
G0 F12000 X-4.049 Y-16
G1 F600 X-50.949 Y-15.999 E332.70301
G0 F12000 X-50.949 Y-16.499
G1 F600 X-4.049 Y-16.5 E335.62783
G0 F12000 X-4.049 Y-17
G1 F600 X-50.949 Y-16.999 E338.55264
G0 F12000 X-50.949 Y-17.499
G1 F600 X-4.048 Y-17.5 E341.47752
G0 F12000 X-4.048 Y-18
G1 F600 X-50.949 Y-17.999 E344.40239
G0 F12000 X-50.949 Y-18.499
G1 F600 X-4.048 Y-18.5 E347.32727
G0 F12000 X-4.048 Y-19
G1 F600 X-50.949 Y-18.999 E350.25214
G0 F12000 X-50.949 Y-19.499
G1 F600 X-4.048 Y-19.5 E353.17702
G0 F12000 X-4.048 Y-20
G1 F600 X-50.949 Y-19.999 E356.10189
G0 F12000 X-50.949 Y-20.499
G1 F600 X-4.048 Y-20.5 E359.02677
G0 F12000 X-4.048 Y-21
G1 F600 X-50.949 Y-20.999 E361.95164
G0 F12000 X-50.949 Y-21.499
G1 F600 X-4.048 Y-21.5 E364.87652
G0 F12000 X-4.048 Y-22
G1 F600 X-50.949 Y-21.999 E367.80139
G0 F12000 X-50.949 Y-22.499
G1 F600 X-4.048 Y-22.5 E370.72627
G0 F12000 X-4.048 Y-23
G1 F600 X-50.949 Y-22.999 E373.65115
G0 F12000 X-50.949 Y-23.499
G1 F600 X-4.048 Y-23.5 E376.57602
G0 F12000 X-4.048 Y-24
G1 F600 X-50.949 Y-23.999 E379.5009
G0 F12000 X-50.949 Y-24.499
G1 F600 X-4.048 Y-24.5 E382.42577
G0 F12000 X-4.048 Y-25
G1 F600 X-50.949 Y-24.999 E385.35065
G0 F12000 X-50.949 Y-25.499
G1 F600 X-4.048 Y-25.5 E388.27552
G0 F12000 X-4.048 Y-26
G1 F600 X-50.949 Y-25.999 E391.2004
G0 F12000 X-50.949 Y-26.499
G1 F600 X-4.048 Y-26.5 E394.12527
G0 F12000 X-4.048 Y-27
G1 F600 X-50.949 Y-26.999 E397.05015
G0 F12000 X-50.949 Y-27.499
G1 F600 X-4.048 Y-27.5 E399.97503
G0 F12000 X-4.048 Y-28
G1 F600 X-50.949 Y-27.999 E402.8999
G0 F12000 X-50.949 Y-28.499
G1 F600 X-4.048 Y-28.5 E405.82478
G0 F12000 X-4.048 Y-29
G1 F600 X-50.949 Y-28.999 E408.74965
G0 F12000 X-50.949 Y-29.499
G1 F600 X-4.048 Y-29.5 E411.67453
G0 F12000 X-4.048 Y-30
G1 F600 X-50.949 Y-29.999 E414.5994
G0 F12000 X-50.949 Y-30.499
G1 F600 X-4.048 Y-30.5 E417.52428
G0 F12000 X-4.048 Y-31
G1 F600 X-50.949 Y-30.999 E420.44915
G0 F12000 X-50.949 Y-31.499
G1 F600 X-4.048 Y-31.5 E423.37403
G1 F6600 E416.57403
G1 Z0.7
G0 F12000 X-3.249 Y-2.249
G0 X-2.499 Y-1.499
G0 X-2.499 Y0.001
G0 X-2.499 Y1.5
G0 X-3.249 Y2.25
G0 X-51.749 Y32.75
G0 X-52.249 Y33.25
; TYPE:WALL-OUTER
G1 Z0.4
G1 F6600 E423.47403
G1 F600 X-52.249 Y1.75 E425.43846
G1 X-2.749 Y1.75 E428.52541
G1 X-2.749 Y33.25 E430.48984
G1 X-52.249 Y33.25 E433.57679
G0 F12000 X-51.749 Y32.75
; TYPE:WALL-INNER
G1 F600 X-51.749 Y2.25 E435.47886
G1 X-3.249 Y2.25 E438.50345
G1 X-3.249 Y32.75 E440.40552
G1 X-51.749 Y32.75 E443.43011
G0 F12000 X-51.249 Y32.25
G1 F600 X-51.249 Y2.75 E445.26981
G1 X-3.749 Y2.75 E448.23204
G1 X-3.749 Y32.25 E450.07174
G1 X-51.249 Y32.25 E453.03397
G0 F12000 X-50.949 Y31.5
; TYPE:BOTTOM-FILL
G1 F600 X-4.048 Y31.5 E455.95885
G0 F12000 X-4.048 Y31
G1 F600 X-50.949 Y31 E458.88372
G0 F12000 X-50.949 Y30.5
G1 F600 X-4.048 Y30.5 E461.8086
G0 F12000 X-4.048 Y30
G1 F600 X-50.949 Y30 E464.73348
G0 F12000 X-50.949 Y29.5
G1 F600 X-4.048 Y29.5 E467.65835
G0 F12000 X-4.048 Y29
G1 F600 X-50.949 Y29 E470.58323
G0 F12000 X-50.949 Y28.5
G1 F600 X-4.048 Y28.5 E473.5081
G0 F12000 X-4.048 Y28
G1 F600 X-50.949 Y28 E476.43298
G0 F12000 X-50.949 Y27.5
G1 F600 X-4.048 Y27.5 E479.35785
G0 F12000 X-4.048 Y27
G1 F600 X-50.949 Y27 E482.28273
G0 F12000 X-50.949 Y26.5
G1 F600 X-4.048 Y26.5 E485.2076
G0 F12000 X-4.048 Y26
G1 F600 X-50.949 Y26 E488.13248
G0 F12000 X-50.949 Y25.5
G1 F600 X-4.048 Y25.5 E491.05736
G0 F12000 X-4.048 Y25
G1 F600 X-50.949 Y25 E493.98223
G0 F12000 X-50.949 Y24.5
G1 F600 X-4.048 Y24.5 E496.90711
G0 F12000 X-4.048 Y24
G1 F600 X-50.949 Y24 E499.83198
G0 F12000 X-50.949 Y23.5
G1 F600 X-4.048 Y23.5 E502.75686
G0 F12000 X-4.048 Y23
G1 F600 X-50.949 Y23 E505.68173
G0 F12000 X-50.949 Y22.5
G1 F600 X-4.048 Y22.5 E508.60661
G0 F12000 X-4.048 Y22
G1 F600 X-50.949 Y22 E511.53148
G0 F12000 X-50.949 Y21.5
G1 F600 X-4.048 Y21.5 E514.45636
G0 F12000 X-4.048 Y21
G1 F600 X-50.949 Y21 E517.38123
G0 F12000 X-50.949 Y20.5
G1 F600 X-4.048 Y20.5 E520.30611
G0 F12000 X-4.048 Y20
G1 F600 X-50.949 Y20 E523.23099
G0 F12000 X-50.949 Y19.5
G1 F600 X-4.048 Y19.5 E526.15586
G0 F12000 X-4.048 Y19
G1 F600 X-50.949 Y19 E529.08074
G0 F12000 X-50.949 Y18.5
G1 F600 X-4.048 Y18.5 E532.00561
G0 F12000 X-4.048 Y18
G1 F600 X-50.949 Y18 E534.93049
G0 F12000 X-50.949 Y17.5
G1 F600 X-4.048 Y17.5 E537.85536
G0 F12000 X-4.048 Y17
G1 F600 X-50.949 Y17 E540.78024
G0 F12000 X-50.949 Y16.5
G1 F600 X-4.048 Y16.5 E543.70511
G0 F12000 X-4.048 Y16
G1 F600 X-50.949 Y16 E546.62999
G0 F12000 X-50.949 Y15.5
G1 F600 X-4.048 Y15.5 E549.55487
G0 F12000 X-4.048 Y15
G1 F600 X-50.949 Y15 E552.47974
G0 F12000 X-50.949 Y14.5
G1 F600 X-4.048 Y14.5 E555.40462
G0 F12000 X-4.048 Y14
G1 F600 X-50.949 Y14 E558.32949
G0 F12000 X-50.949 Y13.5
G1 F600 X-4.048 Y13.5 E561.25437
G0 F12000 X-4.048 Y13
G1 F600 X-50.949 Y13 E564.17924
G0 F12000 X-50.949 Y12.5
G1 F600 X-4.048 Y12.5 E567.10412
G0 F12000 X-4.048 Y12
G1 F600 X-50.949 Y12 E570.02899
G0 F12000 X-50.949 Y11.5
G1 F600 X-4.048 Y11.5 E572.95387
G0 F12000 X-4.048 Y11
G1 F600 X-50.949 Y11 E575.87874
G0 F12000 X-50.949 Y10.5
G1 F600 X-4.048 Y10.5 E578.80362
G0 F12000 X-4.048 Y10
G1 F600 X-50.949 Y10 E581.7285
G0 F12000 X-50.949 Y9.5
G1 F600 X-4.048 Y9.5 E584.65337
G0 F12000 X-4.048 Y9
G1 F600 X-50.949 Y9 E587.57825
G0 F12000 X-50.949 Y8.5
G1 F600 X-4.048 Y8.5 E590.50312
G0 F12000 X-4.048 Y8
G1 F600 X-50.949 Y8 E593.428
G0 F12000 X-50.949 Y7.5
G1 F600 X-4.048 Y7.5 E596.35287
G0 F12000 X-4.048 Y7
G1 F600 X-50.949 Y7 E599.27775
G0 F12000 X-50.949 Y6.5
G1 F600 X-4.048 Y6.5 E602.20262
G0 F12000 X-4.048 Y6
G1 F600 X-50.949 Y6 E605.1275
G0 F12000 X-50.949 Y5.5
G1 F600 X-4.048 Y5.5 E608.05237
G0 F12000 X-4.048 Y5
G1 F600 X-50.949 Y5 E610.97725
G0 F12000 X-50.949 Y4.5
G1 F600 X-4.048 Y4.5 E613.90213
G0 F12000 X-4.048 Y4
G1 F600 X-50.949 Y4 E616.827
G0 F12000 X-50.949 Y3.5
G1 F600 X-4.049 Y3.5 E619.75181
G1 F6600 E612.95181
G1 Z0.7
G0 F12000 X-3.249 Y2.25
G0 X-2.499 Y1.5
G0 X1.001 Y1.5
G0 X2.5 Y1.5
G0 X3.25 Y2.25
G0 X3.25 Y32.75
G0 X2.75 Y33.25
; TYPE:WALL-OUTER
G1 Z0.4
G1 F6600 E619.85181
G1 F600 X2.75 Y1.75 E621.81624
G1 X52.25 Y1.75 E624.9032
G1 X52.25 Y33.25 E626.86762
G1 X2.75 Y33.25 E629.95458
G0 F12000 X3.25 Y32.75
; TYPE:WALL-INNER
G1 F600 X3.25 Y2.25 E631.85664
G1 X51.75 Y2.25 E634.88124
G1 X51.75 Y32.75 E636.7833
G1 X3.25 Y32.75 E639.8079
G0 F12000 X3.75 Y32.25
G1 F600 X3.75 Y2.75 E641.6476
G1 X51.25 Y2.75 E644.60983
G1 X51.25 Y32.25 E646.44953
G1 X3.75 Y32.25 E649.41176
G0 F12000 X4.049 Y31.5
; TYPE:BOTTOM-FILL
G1 F600 X50.95 Y31.499 E652.33663
G0 F12000 X50.95 Y30.999
G1 F600 X4.049 Y31 E655.26151
G0 F12000 X4.049 Y30.5
G1 F600 X50.95 Y30.499 E658.18639
G0 F12000 X50.95 Y29.999
G1 F600 X4.049 Y30 E661.11126
G0 F12000 X4.049 Y29.5
G1 F600 X50.95 Y29.499 E664.03614
G0 F12000 X50.95 Y28.999
G1 F600 X4.049 Y29 E666.96101
G0 F12000 X4.049 Y28.5
G1 F600 X50.95 Y28.499 E669.88589
G0 F12000 X50.95 Y27.999
G1 F600 X4.049 Y28 E672.81076
G0 F12000 X4.049 Y27.5
G1 F600 X50.95 Y27.499 E675.73564
G0 F12000 X50.95 Y26.999
G1 F600 X4.049 Y27 E678.66051
G0 F12000 X4.049 Y26.5
G1 F600 X50.95 Y26.499 E681.58539
G0 F12000 X50.95 Y25.999
G1 F600 X4.049 Y26 E684.51027
G0 F12000 X4.049 Y25.5
G1 F600 X50.95 Y25.499 E687.43514
G0 F12000 X50.95 Y24.999
G1 F600 X4.049 Y25 E690.36002
G0 F12000 X4.049 Y24.5
G1 F600 X50.95 Y24.499 E693.28489
G0 F12000 X50.95 Y23.999
G1 F600 X4.049 Y24 E696.20977
G0 F12000 X4.049 Y23.5
G1 F600 X50.95 Y23.499 E699.13464
G0 F12000 X50.95 Y22.999
G1 F600 X4.049 Y23 E702.05952
G0 F12000 X4.049 Y22.5
G1 F600 X50.95 Y22.499 E704.98439
G0 F12000 X50.95 Y21.999
G1 F600 X4.049 Y22 E707.90927
G0 F12000 X4.049 Y21.5
G1 F600 X50.95 Y21.499 E710.83414
G0 F12000 X50.95 Y20.999
G1 F600 X4.049 Y21 E713.75902
G0 F12000 X4.049 Y20.5
G1 F600 X50.95 Y20.499 E716.6839
G0 F12000 X50.95 Y19.999
G1 F600 X4.049 Y20 E719.60877
G0 F12000 X4.049 Y19.5
G1 F600 X50.95 Y19.499 E722.53365
G0 F12000 X50.95 Y18.999
G1 F600 X4.049 Y19 E725.45852
G0 F12000 X4.049 Y18.5
G1 F600 X50.95 Y18.499 E728.3834
G0 F12000 X50.95 Y17.999
G1 F600 X4.049 Y18 E731.30827
G0 F12000 X4.05 Y17.5
G1 F600 X50.95 Y17.499 E734.23309
G0 F12000 X50.95 Y16.999
G1 F600 X4.05 Y17 E737.1579
G0 F12000 X4.05 Y16.5
G1 F600 X50.95 Y16.499 E740.08271
G0 F12000 X50.95 Y15.999
G1 F600 X4.05 Y16 E743.00753
G0 F12000 X4.05 Y15.5
G1 F600 X50.95 Y15.499 E745.93234
G0 F12000 X50.95 Y14.999
G1 F600 X4.05 Y15 E748.85715
G0 F12000 X4.05 Y14.5
G1 F600 X50.95 Y14.499 E751.78197
G0 F12000 X50.95 Y13.999
G1 F600 X4.05 Y14 E754.70678
G0 F12000 X4.05 Y13.5
G1 F600 X50.95 Y13.499 E757.63159
G0 F12000 X50.95 Y12.999
G1 F600 X4.05 Y13 E760.5564
G0 F12000 X4.05 Y12.5
G1 F600 X50.95 Y12.499 E763.48122
G0 F12000 X50.95 Y11.999
G1 F600 X4.05 Y12 E766.40603
G0 F12000 X4.05 Y11.5
G1 F600 X50.95 Y11.499 E769.33084
G0 F12000 X50.95 Y10.999
G1 F600 X4.05 Y11 E772.25566
G0 F12000 X4.05 Y10.5
G1 F600 X50.95 Y10.499 E775.18047
G0 F12000 X50.95 Y9.999
G1 F600 X4.05 Y10 E778.10528
G0 F12000 X4.05 Y9.5
G1 F600 X50.95 Y9.499 E781.0301
G0 F12000 X50.95 Y8.999
G1 F600 X4.05 Y9 E783.95491
G0 F12000 X4.05 Y8.5
G1 F600 X50.95 Y8.499 E786.87972
G0 F12000 X50.95 Y7.999
G1 F600 X4.05 Y8 E789.80454
G0 F12000 X4.05 Y7.5
G1 F600 X50.95 Y7.499 E792.72935
G0 F12000 X50.95 Y6.999
G1 F600 X4.05 Y7 E795.65416
G0 F12000 X4.05 Y6.5
G1 F600 X50.95 Y6.499 E798.57898
G0 F12000 X50.95 Y5.999
G1 F600 X4.05 Y6 E801.50379
G0 F12000 X4.05 Y5.5
G1 F600 X50.95 Y5.499 E804.4286
G0 F12000 X50.95 Y4.999
G1 F600 X4.05 Y5 E807.35341
G0 F12000 X4.05 Y4.5
G1 F600 X50.95 Y4.499 E810.27823
G0 F12000 X50.95 Y3.999
G1 F600 X4.05 Y3.999 E813.20304
G0 F12000 X4.05 Y3.499
G1 F600 X50.95 Y3.499 E816.12785
G1 F6600 E809.32785
G1 Z0.7
G0 F12000 X51.75 Y2.25
G0 X52.5 Y1.5
G0 X52.5 Y-1.499
G0 X51.75 Y-2.249
G0 X3.25 Y-2.249
G0 X2.75 Y-1.749
; TYPE:WALL-OUTER
G1 Z0.4
G1 F6600 E816.22785
G1 F600 X2.75 Y-33.249 E818.19228
G1 X52.25 Y-33.249 E821.27924
G1 X52.25 Y-1.749 E823.24366
G1 X2.75 Y-1.749 E826.33062
G0 F12000 X3.25 Y-2.249
; TYPE:WALL-INNER
G1 F600 X3.25 Y-32.749 E828.23268
G1 X51.75 Y-32.749 E831.25728
G1 X51.75 Y-2.249 E833.15934
G1 X3.25 Y-2.249 E836.18393
G0 F12000 X3.75 Y-2.749
G1 F600 X3.75 Y-32.249 E838.02364
G1 X51.25 Y-32.249 E840.98587
G1 X51.25 Y-2.749 E842.82557
G1 X3.75 Y-2.749 E845.7878
G0 F12000 X4.05 Y-3.5
; TYPE:BOTTOM-FILL
G1 F600 X50.95 Y-3.5 E848.71261
G0 F12000 X50.95 Y-4
G1 F600 X4.049 Y-4 E851.63749
G0 F12000 X4.049 Y-4.5
G1 F600 X50.95 Y-4.5 E854.56236
G0 F12000 X50.95 Y-5
G1 F600 X4.049 Y-5 E857.48724
G0 F12000 X4.049 Y-5.5
G1 F600 X50.95 Y-5.5 E860.41211
G0 F12000 X50.95 Y-6
G1 F600 X4.049 Y-6 E863.33699
G0 F12000 X4.049 Y-6.5
G1 F600 X50.95 Y-6.5 E866.26186
G0 F12000 X50.95 Y-7
G1 F600 X4.049 Y-7 E869.18674
G0 F12000 X4.049 Y-7.5
G1 F600 X50.95 Y-7.5 E872.11162
G0 F12000 X50.95 Y-8
G1 F600 X4.049 Y-8 E875.03649
G0 F12000 X4.049 Y-8.5
G1 F600 X50.95 Y-8.5 E877.96137
G0 F12000 X50.95 Y-9
G1 F600 X4.049 Y-9 E880.88624
G0 F12000 X4.049 Y-9.5
G1 F600 X50.95 Y-9.5 E883.81112
G0 F12000 X50.95 Y-10
G1 F600 X4.049 Y-10 E886.73599
G0 F12000 X4.049 Y-10.5
G1 F600 X50.95 Y-10.5 E889.66087
G0 F12000 X50.95 Y-11
G1 F600 X4.049 Y-11 E892.58574
G0 F12000 X4.049 Y-11.5
G1 F600 X50.95 Y-11.5 E895.51062
G0 F12000 X50.95 Y-12
G1 F600 X4.049 Y-12 E898.4355
G0 F12000 X4.049 Y-12.5
G1 F600 X50.95 Y-12.5 E901.36037
G0 F12000 X50.95 Y-13
G1 F600 X4.049 Y-13 E904.28525
G0 F12000 X4.049 Y-13.5
G1 F600 X50.95 Y-13.5 E907.21012
G0 F12000 X50.95 Y-14
G1 F600 X4.049 Y-14 E910.135
G0 F12000 X4.049 Y-14.5
G1 F600 X50.95 Y-14.5 E913.05987
G0 F12000 X50.95 Y-15
G1 F600 X4.049 Y-15 E915.98475
G0 F12000 X4.049 Y-15.5
G1 F600 X50.95 Y-15.5 E918.90962
G0 F12000 X50.95 Y-16
G1 F600 X4.049 Y-16 E921.8345
G0 F12000 X4.049 Y-16.5
G1 F600 X50.95 Y-16.5 E924.75937
G0 F12000 X50.95 Y-17
G1 F600 X4.049 Y-17 E927.68425
G0 F12000 X4.049 Y-17.5
G1 F600 X50.95 Y-17.5 E930.60913
G0 F12000 X50.95 Y-18
G1 F600 X4.049 Y-18 E933.534
G0 F12000 X4.049 Y-18.5
G1 F600 X50.95 Y-18.5 E936.45888
G0 F12000 X50.95 Y-19
G1 F600 X4.049 Y-19 E939.38375
G0 F12000 X4.049 Y-19.5
G1 F600 X50.95 Y-19.5 E942.30863
G0 F12000 X50.95 Y-20
G1 F600 X4.049 Y-20 E945.2335
G0 F12000 X4.049 Y-20.5
G1 F600 X50.95 Y-20.5 E948.15838
G0 F12000 X50.95 Y-21
G1 F600 X4.049 Y-21 E951.08325
G0 F12000 X4.049 Y-21.5
G1 F600 X50.95 Y-21.5 E954.00813
G0 F12000 X50.95 Y-22
G1 F600 X4.049 Y-22 E956.93301
G0 F12000 X4.049 Y-22.5
G1 F600 X50.95 Y-22.5 E959.85788
G0 F12000 X50.95 Y-23
G1 F600 X4.049 Y-23 E962.78276
G0 F12000 X4.049 Y-23.5
G1 F600 X50.95 Y-23.5 E965.70763
G0 F12000 X50.95 Y-24
G1 F600 X4.049 Y-24 E968.63251
G0 F12000 X4.049 Y-24.5
G1 F600 X50.95 Y-24.5 E971.55738
G0 F12000 X50.95 Y-25
G1 F600 X4.049 Y-25 E974.48226
G0 F12000 X4.049 Y-25.5
G1 F600 X50.95 Y-25.5 E977.40713
G0 F12000 X50.95 Y-26
G1 F600 X4.049 Y-26 E980.33201
G0 F12000 X4.049 Y-26.5
G1 F600 X50.95 Y-26.5 E983.25688
G0 F12000 X50.95 Y-27
G1 F600 X4.049 Y-27 E986.18176
G0 F12000 X4.049 Y-27.5
G1 F600 X50.95 Y-27.5 E989.10664
G0 F12000 X50.95 Y-28
G1 F600 X4.049 Y-28 E992.03151
G0 F12000 X4.049 Y-28.5
G1 F600 X50.95 Y-28.5 E994.95639
G0 F12000 X50.95 Y-29
G1 F600 X4.049 Y-29 E997.88126
G0 F12000 X4.049 Y-29.5
G1 F600 X50.95 Y-29.5 E1000.80614
G0 F12000 X50.95 Y-30
G1 F600 X4.049 Y-30 E1003.73101
G0 F12000 X4.049 Y-30.5
G1 F600 X50.95 Y-30.5 E1006.65589
G0 F12000 X50.95 Y-31
G1 F600 X4.049 Y-31 E1009.58076
G0 F12000 X4.049 Y-31.5
G1 F600 X50.95 Y-31.5 E1012.50564
; Layer Change GCode
; LAYER:1
G1 F6600 E1005.70564
G1 Z0.7
G0 F12000 X50.95 Y-31.5 Z0.9
G0 X3.25 Y-32.749
G0 X2.5 Y-33.499
G0 X1.001 Y-33.499
G0 X-0.999 Y-33.499
G0 X-2.499 Y-33.499
G0 X-3.249 Y-32.749
G0 X-51.749 Y-2.249
G0 X-52.249 Y-1.749
G0 X-51.749 Y-2.249
G0 X-51.249 Y-2.749
; TYPE:WALL-INNER
G1 Z0.6
G1 F6600 E1012.60564
G1 F1500 X-51.249 Y-32.249 E1013.83211
G1 X-3.749 Y-32.249 E1015.80693
G1 X-3.749 Y-2.749 E1017.03339
G1 X-51.249 Y-2.749 E1019.00822
G0 F12000 X-51.749 Y-2.249
G1 F1500 X-51.749 Y-32.749 E1020.27626
G1 X-3.249 Y-32.749 E1022.29265
G1 X-3.249 Y-2.249 E1023.5607
G1 X-51.749 Y-2.249 E1025.57709
G0 F12000 X-52.249 Y-1.749
; TYPE:WALL-OUTER
G1 F600 X-52.249 Y-33.249 E1026.88671
G1 X-2.749 Y-33.249 E1028.94468
G1 X-2.749 Y-1.749 E1030.2543
G1 X-52.249 Y-1.749 E1032.31227
G0 F12000 X-51.749 Y-2.249
G0 X-50.5 Y-3.048
; TYPE:FILL
G1 F1800 X-50.5 Y-31.948 E1033.51379
G0 F12000 X-50 Y-31.948
G1 F1800 X-50 Y-3.048 E1034.71531
G0 F12000 X-49.5 Y-3.048
G1 F1800 X-49.5 Y-31.948 E1035.91684
G0 F12000 X-49 Y-31.948
G1 F1800 X-49 Y-3.048 E1037.11836
G0 F12000 X-48.5 Y-3.048
G1 F1800 X-48.5 Y-31.948 E1038.31988
G0 F12000 X-48 Y-31.948
G1 F1800 X-48 Y-3.048 E1039.5214
G0 F12000 X-47.5 Y-3.048
G1 F1800 X-47.5 Y-31.948 E1040.72293
G0 F12000 X-47 Y-31.948
G1 F1800 X-47 Y-3.048 E1041.92445
G0 F12000 X-46.5 Y-3.048
G1 F1800 X-46.5 Y-31.948 E1043.12597
G0 F12000 X-46 Y-31.948
G1 F1800 X-46 Y-3.048 E1044.32749
G0 F12000 X-45.5 Y-3.048
G1 F1800 X-45.5 Y-31.948 E1045.52902
G0 F12000 X-45 Y-31.948
G1 F1800 X-45 Y-3.048 E1046.73054
G0 F12000 X-44.5 Y-3.048
G1 F1800 X-44.5 Y-31.948 E1047.93206
G0 F12000 X-44 Y-31.948
G1 F1800 X-44 Y-3.048 E1049.13358
G0 F12000 X-43.5 Y-3.048
G1 F1800 X-43.5 Y-31.948 E1050.3351
G0 F12000 X-43 Y-31.948
G1 F1800 X-43 Y-3.048 E1051.53663
G0 F12000 X-42.5 Y-3.048
G1 F1800 X-42.5 Y-31.948 E1052.73815
G0 F12000 X-42 Y-31.948
G1 F1800 X-42 Y-3.048 E1053.93967
G0 F12000 X-41.5 Y-3.048
G1 F1800 X-41.5 Y-31.948 E1055.14119
G0 F12000 X-41 Y-31.948
G1 F1800 X-41 Y-3.048 E1056.34272
G0 F12000 X-40.5 Y-3.048
G1 F1800 X-40.5 Y-31.948 E1057.54424
G0 F12000 X-40 Y-31.948
G1 F1800 X-40 Y-3.048 E1058.74576
G0 F12000 X-39.5 Y-3.048
G1 F1800 X-39.5 Y-31.948 E1059.94728
G0 F12000 X-39 Y-31.948
G1 F1800 X-39 Y-3.048 E1061.14881
G0 F12000 X-38.5 Y-3.048
G1 F1800 X-38.5 Y-31.948 E1062.35033
G0 F12000 X-38 Y-31.948
G1 F1800 X-38 Y-3.048 E1063.55185
G0 F12000 X-37.5 Y-3.048
G1 F1800 X-37.5 Y-31.948 E1064.75337
G0 F12000 X-37 Y-31.948
G1 F1800 X-37 Y-3.048 E1065.9549
G0 F12000 X-36.5 Y-3.048
G1 F1800 X-36.5 Y-31.948 E1067.15642
G0 F12000 X-36 Y-31.948
G1 F1800 X-36 Y-3.048 E1068.35794
G0 F12000 X-35.5 Y-3.048
G1 F1800 X-35.5 Y-31.948 E1069.55946
G0 F12000 X-35 Y-31.948
G1 F1800 X-35 Y-3.048 E1070.76099
G0 F12000 X-34.5 Y-3.048
G1 F1800 X-34.5 Y-31.948 E1071.96251
G0 F12000 X-34 Y-31.948
G1 F1800 X-34 Y-3.048 E1073.16403
G0 F12000 X-33.5 Y-3.048
G1 F1800 X-33.5 Y-31.948 E1074.36555
G0 F12000 X-33 Y-31.948
G1 F1800 X-33 Y-3.048 E1075.56707
G0 F12000 X-32.5 Y-3.048
G1 F1800 X-32.5 Y-31.948 E1076.7686
G0 F12000 X-32 Y-31.948
G1 F1800 X-32 Y-3.048 E1077.97012
G0 F12000 X-31.5 Y-3.048
G1 F1800 X-31.5 Y-31.948 E1079.17164
G0 F12000 X-31 Y-31.948
G1 F1800 X-31 Y-3.048 E1080.37316
G0 F12000 X-30.5 Y-3.048
G1 F1800 X-30.5 Y-31.948 E1081.57469
G0 F12000 X-30 Y-31.948
G1 F1800 X-30 Y-3.048 E1082.77621
G0 F12000 X-29.5 Y-3.048
G1 F1800 X-29.5 Y-31.948 E1083.97773
G0 F12000 X-29 Y-31.948
G1 F1800 X-29 Y-3.048 E1085.17925
G0 F12000 X-28.5 Y-3.048
G1 F1800 X-28.5 Y-31.948 E1086.38078
G0 F12000 X-28 Y-31.948
G1 F1800 X-28 Y-3.048 E1087.5823
G0 F12000 X-27.5 Y-3.048
G1 F1800 X-27.5 Y-31.948 E1088.78382
G0 F12000 X-27 Y-31.948
G1 F1800 X-27 Y-3.048 E1089.98534
G0 F12000 X-26.5 Y-3.048
G1 F1800 X-26.5 Y-31.948 E1091.18687
G0 F12000 X-26 Y-31.948
G1 F1800 X-26 Y-3.048 E1092.38839
G0 F12000 X-25.5 Y-3.048
G1 F1800 X-25.5 Y-31.948 E1093.58991
G0 F12000 X-25 Y-31.948
G1 F1800 X-25 Y-3.048 E1094.79143
G0 F12000 X-24.5 Y-3.048
G1 F1800 X-24.5 Y-31.948 E1095.99296
G0 F12000 X-24 Y-31.948
G1 F1800 X-24 Y-3.048 E1097.19448
G0 F12000 X-23.5 Y-3.048
G1 F1800 X-23.5 Y-31.948 E1098.396
G0 F12000 X-23 Y-31.948
G1 F1800 X-23 Y-3.048 E1099.59752
G0 F12000 X-22.5 Y-3.048
G1 F1800 X-22.5 Y-31.948 E1100.79904
G0 F12000 X-22 Y-31.948
G1 F1800 X-22 Y-3.048 E1102.00057
G0 F12000 X-21.5 Y-3.048
G1 F1800 X-21.5 Y-31.948 E1103.20209
G0 F12000 X-21 Y-31.948
G1 F1800 X-21 Y-3.048 E1104.40361
G0 F12000 X-20.5 Y-3.048
G1 F1800 X-20.5 Y-31.948 E1105.60513
G0 F12000 X-20 Y-31.948
G1 F1800 X-20 Y-3.048 E1106.80666
G0 F12000 X-19.5 Y-3.048
G1 F1800 X-19.5 Y-31.948 E1108.00818
G0 F12000 X-19 Y-31.948
G1 F1800 X-19 Y-3.048 E1109.2097
G0 F12000 X-18.5 Y-3.048
G1 F1800 X-18.5 Y-31.948 E1110.41122
G0 F12000 X-18 Y-31.948
G1 F1800 X-18 Y-3.048 E1111.61275
G0 F12000 X-17.5 Y-3.048
G1 F1800 X-17.5 Y-31.948 E1112.81427
G0 F12000 X-17 Y-31.948
G1 F1800 X-17 Y-3.048 E1114.01579
G0 F12000 X-16.5 Y-3.048
G1 F1800 X-16.5 Y-31.948 E1115.21731
G0 F12000 X-16 Y-31.948
G1 F1800 X-16 Y-3.048 E1116.41884
G0 F12000 X-15.5 Y-3.048
G1 F1800 X-15.5 Y-31.948 E1117.62036
G0 F12000 X-15 Y-31.948
G1 F1800 X-15 Y-3.048 E1118.82188
G0 F12000 X-14.5 Y-3.048
G1 F1800 X-14.5 Y-31.949 E1120.02344
G0 F12000 X-14 Y-31.949
G1 F1800 X-14 Y-3.048 E1121.22501
G0 F12000 X-13.5 Y-3.048
G1 F1800 X-13.5 Y-31.949 E1122.42657
G0 F12000 X-13 Y-31.949
G1 F1800 X-13 Y-3.048 E1123.62814
G0 F12000 X-12.5 Y-3.048
G1 F1800 X-12.5 Y-31.949 E1124.8297
G0 F12000 X-12 Y-31.949
G1 F1800 X-12 Y-3.048 E1126.03126
G0 F12000 X-11.5 Y-3.048
G1 F1800 X-11.5 Y-31.949 E1127.23283
G0 F12000 X-11 Y-31.949
G1 F1800 X-11 Y-3.048 E1128.43439
G0 F12000 X-10.5 Y-3.048
G1 F1800 X-10.5 Y-31.949 E1129.63596
G0 F12000 X-10 Y-31.949
G1 F1800 X-10 Y-3.048 E1130.83752
G0 F12000 X-9.5 Y-3.048
G1 F1800 X-9.5 Y-31.949 E1132.03908
G0 F12000 X-9 Y-31.949
G1 F1800 X-9 Y-3.048 E1133.24065
G0 F12000 X-8.5 Y-3.048
G1 F1800 X-8.5 Y-31.949 E1134.44221
G0 F12000 X-8 Y-31.949
G1 F1800 X-8 Y-3.048 E1135.64378
G0 F12000 X-7.5 Y-3.048
G1 F1800 X-7.5 Y-31.949 E1136.84534
G0 F12000 X-7 Y-31.949
G1 F1800 X-7 Y-3.048 E1138.0469
G0 F12000 X-6.5 Y-3.048
G1 F1800 X-6.5 Y-31.949 E1139.24847
G0 F12000 X-6 Y-31.949
G1 F1800 X-6 Y-3.048 E1140.45003
G0 F12000 X-5.5 Y-3.048
G1 F1800 X-5.5 Y-31.949 E1141.6516
G0 F12000 X-5 Y-31.949
G1 F1800 X-5 Y-3.048 E1142.85316
G0 F12000 X-4.5 Y-3.048
G1 F1800 X-4.5 Y-31.949 E1144.05472
G1 F6600 E1137.25472
G1 Z0.9
G0 F12000 X-3.249 Y-2.249
G0 X-2.499 Y-1.499
G0 X-2.499 Y0.001
G0 X-2.499 Y1.5
G0 X-3.249 Y2.25
G0 X-51.749 Y32.75
G0 X-52.249 Y33.25
G0 X-51.749 Y32.75
G0 X-51.249 Y32.25
; TYPE:WALL-INNER
G1 Z0.6
G1 F6600 E1144.15472
G1 F1500 X-51.249 Y2.75 E1145.38119
G1 X-3.749 Y2.75 E1147.35601
G1 X-3.749 Y32.25 E1148.58248
G1 X-51.249 Y32.25 E1150.5573
G0 F12000 X-51.749 Y32.75
G1 F1500 X-51.749 Y2.25 E1151.82534
G1 X-3.249 Y2.25 E1153.84174
G1 X-3.249 Y32.75 E1155.10978
G1 X-51.749 Y32.75 E1157.12618
G0 F12000 X-52.249 Y33.25
; TYPE:WALL-OUTER
G1 F600 X-52.249 Y1.75 E1158.43579
G1 X-2.749 Y1.75 E1160.49376
G1 X-2.749 Y33.25 E1161.80338
G1 X-52.249 Y33.25 E1163.86135
G0 F12000 X-51.749 Y32.75
G0 X-50.499 Y31.949
; TYPE:FILL
G1 F1800 X-50.5 Y3.049 E1165.06288
G0 F12000 X-50 Y3.049
G1 F1800 X-49.999 Y31.949 E1166.2644
G0 F12000 X-49.499 Y31.949
G1 F1800 X-49.5 Y3.049 E1167.46592
G0 F12000 X-49 Y3.049
G1 F1800 X-48.999 Y31.949 E1168.66744
G0 F12000 X-48.499 Y31.949
G1 F1800 X-48.5 Y3.049 E1169.86897
G0 F12000 X-48 Y3.049
G1 F1800 X-47.999 Y31.949 E1171.07049
G0 F12000 X-47.499 Y31.949
G1 F1800 X-47.5 Y3.049 E1172.27201
G0 F12000 X-47 Y3.049
G1 F1800 X-46.999 Y31.949 E1173.47353
G0 F12000 X-46.499 Y31.949
G1 F1800 X-46.5 Y3.049 E1174.67506
G0 F12000 X-46 Y3.049
G1 F1800 X-45.999 Y31.949 E1175.87658
G0 F12000 X-45.499 Y31.949
G1 F1800 X-45.5 Y3.049 E1177.0781
G0 F12000 X-45 Y3.049
G1 F1800 X-44.999 Y31.949 E1178.27962
G0 F12000 X-44.499 Y31.949
G1 F1800 X-44.5 Y3.049 E1179.48114
G0 F12000 X-44 Y3.049
G1 F1800 X-43.999 Y31.949 E1180.68267
G0 F12000 X-43.499 Y31.949
G1 F1800 X-43.5 Y3.049 E1181.88419
G0 F12000 X-43 Y3.049
G1 F1800 X-42.999 Y31.949 E1183.08571
G0 F12000 X-42.499 Y31.949
G1 F1800 X-42.5 Y3.049 E1184.28723
G0 F12000 X-42 Y3.049
G1 F1800 X-41.999 Y31.949 E1185.48876
G0 F12000 X-41.499 Y31.949
G1 F1800 X-41.5 Y3.049 E1186.69028
G0 F12000 X-41 Y3.049
G1 F1800 X-40.999 Y31.949 E1187.8918
G0 F12000 X-40.499 Y31.949
G1 F1800 X-40.5 Y3.049 E1189.09332
G0 F12000 X-40 Y3.049
G1 F1800 X-39.999 Y31.949 E1190.29485
G0 F12000 X-39.499 Y31.949
G1 F1800 X-39.5 Y3.049 E1191.49637
G0 F12000 X-39 Y3.049
G1 F1800 X-38.999 Y31.949 E1192.69789
G0 F12000 X-38.499 Y31.949
G1 F1800 X-38.5 Y3.049 E1193.89941
G0 F12000 X-38 Y3.049
G1 F1800 X-37.999 Y31.949 E1195.10094
G0 F12000 X-37.499 Y31.949
G1 F1800 X-37.5 Y3.049 E1196.30246
G0 F12000 X-37 Y3.049
G1 F1800 X-36.999 Y31.949 E1197.50398
G0 F12000 X-36.499 Y31.949
G1 F1800 X-36.5 Y3.049 E1198.7055
G0 F12000 X-36 Y3.049
G1 F1800 X-35.999 Y31.949 E1199.90702
G0 F12000 X-35.499 Y31.949
G1 F1800 X-35.5 Y3.049 E1201.10855
G0 F12000 X-35 Y3.049
G1 F1800 X-34.999 Y31.949 E1202.31007
G0 F12000 X-34.499 Y31.949
G1 F1800 X-34.5 Y3.049 E1203.51159
G0 F12000 X-34 Y3.049
G1 F1800 X-33.999 Y31.949 E1204.71311
G0 F12000 X-33.499 Y31.949
G1 F1800 X-33.5 Y3.049 E1205.91464
G0 F12000 X-33 Y3.049
G1 F1800 X-32.999 Y31.949 E1207.11616
G0 F12000 X-32.499 Y31.949
G1 F1800 X-32.5 Y3.049 E1208.31768
G0 F12000 X-32 Y3.049
G1 F1800 X-31.999 Y31.949 E1209.5192
G0 F12000 X-31.499 Y31.949
G1 F1800 X-31.5 Y3.049 E1210.72073
G0 F12000 X-31 Y3.049
G1 F1800 X-30.999 Y31.949 E1211.92225
G0 F12000 X-30.499 Y31.949
G1 F1800 X-30.5 Y3.049 E1213.12377
G0 F12000 X-30 Y3.049
G1 F1800 X-29.999 Y31.949 E1214.32529
G0 F12000 X-29.499 Y31.949
G1 F1800 X-29.5 Y3.049 E1215.52682
G0 F12000 X-29 Y3.049
G1 F1800 X-28.999 Y31.949 E1216.72834
G0 F12000 X-28.499 Y31.949
G1 F1800 X-28.5 Y3.049 E1217.92986
G0 F12000 X-28 Y3.049
G1 F1800 X-27.999 Y31.949 E1219.13138
G0 F12000 X-27.499 Y31.949
G1 F1800 X-27.5 Y3.049 E1220.33291
G0 F12000 X-27 Y3.049
G1 F1800 X-26.999 Y31.95 E1221.53447
G0 F12000 X-26.499 Y31.95
G1 F1800 X-26.5 Y3.049 E1222.73603
G0 F12000 X-26 Y3.049
G1 F1800 X-25.999 Y31.95 E1223.9376
G0 F12000 X-25.499 Y31.95
G1 F1800 X-25.5 Y3.049 E1225.13916
G0 F12000 X-25 Y3.049
G1 F1800 X-24.999 Y31.95 E1226.34073
G0 F12000 X-24.499 Y31.95
G1 F1800 X-24.5 Y3.049 E1227.54229
G0 F12000 X-24 Y3.049
G1 F1800 X-23.999 Y31.95 E1228.74385
G0 F12000 X-23.499 Y31.95
G1 F1800 X-23.5 Y3.049 E1229.94542
G0 F12000 X-23 Y3.049
G1 F1800 X-22.999 Y31.95 E1231.14698
G0 F12000 X-22.499 Y31.95
G1 F1800 X-22.5 Y3.049 E1232.34854
G0 F12000 X-22 Y3.049
G1 F1800 X-21.999 Y31.95 E1233.55011
G0 F12000 X-21.499 Y31.95
G1 F1800 X-21.5 Y3.049 E1234.75167
G0 F12000 X-21 Y3.049
G1 F1800 X-20.999 Y31.95 E1235.95324
G0 F12000 X-20.499 Y31.95
G1 F1800 X-20.5 Y3.049 E1237.1548
G0 F12000 X-20 Y3.049
G1 F1800 X-19.999 Y31.95 E1238.35636
G0 F12000 X-19.499 Y31.95
G1 F1800 X-19.5 Y3.049 E1239.55793
G0 F12000 X-19 Y3.049
G1 F1800 X-18.999 Y31.95 E1240.75949
G0 F12000 X-18.499 Y31.95
G1 F1800 X-18.5 Y3.049 E1241.96106
G0 F12000 X-18 Y3.049
G1 F1800 X-17.999 Y31.95 E1243.16262
G0 F12000 X-17.499 Y31.95
G1 F1800 X-17.5 Y3.049 E1244.36418
G0 F12000 X-17 Y3.049
G1 F1800 X-16.999 Y31.95 E1245.56575
G0 F12000 X-16.499 Y31.95
G1 F1800 X-16.5 Y3.049 E1246.76731
G0 F12000 X-16 Y3.049
G1 F1800 X-15.999 Y31.95 E1247.96888
G0 F12000 X-15.499 Y31.95
G1 F1800 X-15.5 Y3.049 E1249.17044
G0 F12000 X-15 Y3.049
G1 F1800 X-14.999 Y31.95 E1250.372
G0 F12000 X-14.499 Y31.95
G1 F1800 X-14.5 Y3.049 E1251.57357
G0 F12000 X-14 Y3.049
G1 F1800 X-13.999 Y31.95 E1252.77513
G0 F12000 X-13.499 Y31.95
G1 F1800 X-13.5 Y3.049 E1253.9767
G0 F12000 X-13 Y3.049
G1 F1800 X-12.999 Y31.95 E1255.17826
G0 F12000 X-12.499 Y31.95
G1 F1800 X-12.5 Y3.049 E1256.37982
G0 F12000 X-12 Y3.049
G1 F1800 X-11.999 Y31.95 E1257.58139
G0 F12000 X-11.499 Y31.95
G1 F1800 X-11.5 Y3.049 E1258.78295
G0 F12000 X-11 Y3.049
G1 F1800 X-10.999 Y31.95 E1259.98452
G0 F12000 X-10.499 Y31.95
G1 F1800 X-10.5 Y3.049 E1261.18608
G0 F12000 X-10 Y3.049
G1 F1800 X-9.999 Y31.95 E1262.38764
G0 F12000 X-9.499 Y31.95
G1 F1800 X-9.5 Y3.049 E1263.58921
G0 F12000 X-9 Y3.049
G1 F1800 X-8.999 Y31.95 E1264.79077
G0 F12000 X-8.499 Y31.95
G1 F1800 X-8.5 Y3.049 E1265.99234
G0 F12000 X-8 Y3.049
G1 F1800 X-7.999 Y31.95 E1267.1939
G0 F12000 X-7.499 Y31.95
G1 F1800 X-7.5 Y3.049 E1268.39546
G0 F12000 X-7 Y3.049
G1 F1800 X-6.999 Y31.95 E1269.59703
G0 F12000 X-6.499 Y31.95
G1 F1800 X-6.5 Y3.049 E1270.79859
G0 F12000 X-6 Y3.049
G1 F1800 X-5.999 Y31.95 E1272.00016
G0 F12000 X-5.499 Y31.95
G1 F1800 X-5.5 Y3.049 E1273.20172
G0 F12000 X-5 Y3.049
G1 F1800 X-4.999 Y31.95 E1274.40328
G0 F12000 X-4.499 Y31.95
G1 F1800 X-4.5 Y3.049 E1275.60485
G1 F6600 E1268.80485
G1 Z0.9
G0 F12000 X-3.249 Y2.25
G0 X-2.499 Y1.5
G0 X1.001 Y1.5
G0 X2.5 Y1.5
G0 X3.25 Y2.25
G0 X3.25 Y32.75
G0 X2.75 Y33.25
G0 X3.25 Y32.75
G0 X3.75 Y32.25
; TYPE:WALL-INNER
G1 Z0.6
G1 F6600 E1275.70485
G1 F1500 X3.75 Y2.75 E1276.93131
G1 X51.25 Y2.75 E1278.90614
G1 X51.25 Y32.25 E1280.1326
G1 X3.75 Y32.25 E1282.10742
G0 F12000 X3.25 Y32.75
G1 F1500 X3.25 Y2.25 E1283.37547
G1 X51.75 Y2.25 E1285.39186
G1 X51.75 Y32.75 E1286.6599
G1 X3.25 Y32.75 E1288.6763
G0 F12000 X2.75 Y33.25
; TYPE:WALL-OUTER
G1 F600 X2.75 Y1.75 E1289.98592
G1 X52.25 Y1.75 E1292.04389
G1 X52.25 Y33.25 E1293.35351
G1 X2.75 Y33.25 E1295.41148
G0 F12000 X3.25 Y32.75
G0 X4.5 Y31.95
; TYPE:FILL
G1 F1800 X4.5 Y3.049 E1296.61304
G0 F12000 X5 Y3.049
G1 F1800 X5 Y31.95 E1297.81461
G0 F12000 X5.5 Y31.95
G1 F1800 X5.5 Y3.049 E1299.01617
G0 F12000 X6 Y3.049
G1 F1800 X6 Y31.95 E1300.21773
G0 F12000 X6.5 Y31.95
G1 F1800 X6.5 Y3.049 E1301.4193
G0 F12000 X7 Y3.049
G1 F1800 X7 Y31.95 E1302.62086
G0 F12000 X7.5 Y31.95
G1 F1800 X7.5 Y3.049 E1303.82243
G0 F12000 X8 Y3.049
G1 F1800 X8 Y31.95 E1305.02399
G0 F12000 X8.5 Y31.95
G1 F1800 X8.5 Y3.049 E1306.22555
G0 F12000 X9 Y3.049
G1 F1800 X9 Y31.95 E1307.42712
G0 F12000 X9.5 Y31.95
G1 F1800 X9.5 Y3.049 E1308.62868
G0 F12000 X10 Y3.049
G1 F1800 X10 Y31.95 E1309.83024
G0 F12000 X10.5 Y31.95
G1 F1800 X10.5 Y3.049 E1311.03181
G0 F12000 X11 Y3.049
G1 F1800 X11 Y31.95 E1312.23337
G0 F12000 X11.5 Y31.95
G1 F1800 X11.5 Y3.049 E1313.43494
G0 F12000 X12 Y3.049
G1 F1800 X12 Y31.95 E1314.6365
G0 F12000 X12.5 Y31.95
G1 F1800 X12.5 Y3.049 E1315.83806
G0 F12000 X13 Y3.049
G1 F1800 X13 Y31.95 E1317.03963
G0 F12000 X13.5 Y31.95
G1 F1800 X13.5 Y3.049 E1318.24119
G0 F12000 X14 Y3.049
G1 F1800 X14 Y31.95 E1319.44276
G0 F12000 X14.5 Y31.95
G1 F1800 X14.5 Y3.049 E1320.64432
G0 F12000 X15 Y3.049
G1 F1800 X15 Y31.949 E1321.84584
G0 F12000 X15.5 Y31.949
G1 F1800 X15.5 Y3.049 E1323.04737
G0 F12000 X16 Y3.049
G1 F1800 X16 Y31.949 E1324.24889
G0 F12000 X16.5 Y31.949
G1 F1800 X16.5 Y3.049 E1325.45041
G0 F12000 X17 Y3.049
G1 F1800 X17 Y31.949 E1326.65193
G0 F12000 X17.5 Y31.949
G1 F1800 X17.5 Y3.049 E1327.85345
G0 F12000 X18 Y3.049
G1 F1800 X18 Y31.949 E1329.05498
G0 F12000 X18.5 Y31.949
G1 F1800 X18.5 Y3.049 E1330.2565
G0 F12000 X19 Y3.049
G1 F1800 X19 Y31.949 E1331.45802
G0 F12000 X19.5 Y31.949
G1 F1800 X19.5 Y3.049 E1332.65954
G0 F12000 X20 Y3.049
G1 F1800 X20 Y31.949 E1333.86107
G0 F12000 X20.5 Y31.949
G1 F1800 X20.5 Y3.049 E1335.06259
G0 F12000 X21 Y3.049
G1 F1800 X21 Y31.949 E1336.26411
G0 F12000 X21.5 Y31.949
G1 F1800 X21.5 Y3.049 E1337.46563
G0 F12000 X22 Y3.049
G1 F1800 X22 Y31.949 E1338.66716
G0 F12000 X22.5 Y31.949
G1 F1800 X22.5 Y3.049 E1339.86868
G0 F12000 X23 Y3.049
G1 F1800 X23 Y31.949 E1341.0702
G0 F12000 X23.5 Y31.949
G1 F1800 X23.5 Y3.049 E1342.27172
G0 F12000 X24 Y3.049
G1 F1800 X24 Y31.949 E1343.47325
G0 F12000 X24.5 Y31.949
G1 F1800 X24.5 Y3.049 E1344.67477
G0 F12000 X25 Y3.049
G1 F1800 X25 Y31.949 E1345.87629
G0 F12000 X25.5 Y31.949
G1 F1800 X25.5 Y3.049 E1347.07781
G0 F12000 X26 Y3.049
G1 F1800 X26 Y31.949 E1348.27934
G0 F12000 X26.5 Y31.949
G1 F1800 X26.5 Y3.049 E1349.48086
G0 F12000 X27 Y3.049
G1 F1800 X27 Y31.949 E1350.68238
G0 F12000 X27.5 Y31.949
G1 F1800 X27.5 Y3.049 E1351.8839
G0 F12000 X28 Y3.049
G1 F1800 X28 Y31.949 E1353.08542
G0 F12000 X28.5 Y31.949
G1 F1800 X28.5 Y3.049 E1354.28695
G0 F12000 X29 Y3.049
G1 F1800 X29 Y31.949 E1355.48847
G0 F12000 X29.5 Y31.949
G1 F1800 X29.5 Y3.049 E1356.68999
G0 F12000 X30 Y3.049
G1 F1800 X30 Y31.949 E1357.89151
G0 F12000 X30.5 Y31.949
G1 F1800 X30.5 Y3.049 E1359.09304
G0 F12000 X31 Y3.049
G1 F1800 X31 Y31.949 E1360.29456
G0 F12000 X31.5 Y31.949
G1 F1800 X31.5 Y3.049 E1361.49608
G0 F12000 X32 Y3.049
G1 F1800 X32 Y31.949 E1362.6976
G0 F12000 X32.5 Y31.949
G1 F1800 X32.5 Y3.049 E1363.89913
G0 F12000 X33 Y3.049
G1 F1800 X33 Y31.949 E1365.10065
G0 F12000 X33.5 Y31.949
G1 F1800 X33.5 Y3.049 E1366.30217
G0 F12000 X34 Y3.049
G1 F1800 X34 Y31.949 E1367.50369
G0 F12000 X34.5 Y31.949
G1 F1800 X34.5 Y3.049 E1368.70522
G0 F12000 X35 Y3.049
G1 F1800 X35 Y31.949 E1369.90674
G0 F12000 X35.5 Y31.949
G1 F1800 X35.5 Y3.049 E1371.10826
G0 F12000 X36 Y3.049
G1 F1800 X36 Y31.949 E1372.30978
G0 F12000 X36.5 Y31.949
G1 F1800 X36.5 Y3.049 E1373.51131
G0 F12000 X37 Y3.049
G1 F1800 X37 Y31.949 E1374.71283
G0 F12000 X37.5 Y31.949
G1 F1800 X37.5 Y3.049 E1375.91435
G0 F12000 X38 Y3.049
G1 F1800 X38 Y31.949 E1377.11587
G0 F12000 X38.5 Y31.949
G1 F1800 X38.5 Y3.049 E1378.31739
G0 F12000 X39 Y3.049
G1 F1800 X39 Y31.949 E1379.51892
G0 F12000 X39.5 Y31.949
G1 F1800 X39.5 Y3.049 E1380.72044
G0 F12000 X40 Y3.049
G1 F1800 X40 Y31.949 E1381.92196
G0 F12000 X40.5 Y31.949
G1 F1800 X40.5 Y3.049 E1383.12348
G0 F12000 X41 Y3.049
G1 F1800 X41 Y31.949 E1384.32501
G0 F12000 X41.5 Y31.949
G1 F1800 X41.5 Y3.049 E1385.52653
G0 F12000 X42 Y3.049
G1 F1800 X42 Y31.949 E1386.72805
G0 F12000 X42.5 Y31.949
G1 F1800 X42.5 Y3.049 E1387.92957
G0 F12000 X43 Y3.049
G1 F1800 X43 Y31.949 E1389.1311
G0 F12000 X43.5 Y31.949
G1 F1800 X43.5 Y3.049 E1390.33262
G0 F12000 X44 Y3.049
G1 F1800 X44 Y31.949 E1391.53414
G0 F12000 X44.5 Y31.949
G1 F1800 X44.5 Y3.049 E1392.73566
G0 F12000 X45 Y3.049
G1 F1800 X45 Y31.949 E1393.93719
G0 F12000 X45.5 Y31.949
G1 F1800 X45.5 Y3.049 E1395.13871
G0 F12000 X46 Y3.049
G1 F1800 X46 Y31.949 E1396.34023
G0 F12000 X46.5 Y31.949
G1 F1800 X46.5 Y3.049 E1397.54175
G0 F12000 X47 Y3.049
G1 F1800 X47 Y31.949 E1398.74327
G0 F12000 X47.5 Y31.949
G1 F1800 X47.5 Y3.049 E1399.9448
G0 F12000 X48 Y3.049
G1 F1800 X48 Y31.949 E1401.14632
G0 F12000 X48.5 Y31.949
G1 F1800 X48.5 Y3.049 E1402.34784
G0 F12000 X49 Y3.049
G1 F1800 X49 Y31.949 E1403.54936
G0 F12000 X49.5 Y31.949
G1 F1800 X49.5 Y3.049 E1404.75089
G0 F12000 X50 Y3.049
G1 F1800 X50 Y31.949 E1405.95241
G0 F12000 X50.5 Y31.949
G1 F1800 X50.5 Y3.049 E1407.15393
G1 F6600 E1400.35393
G1 Z0.9
G0 F12000 X51.75 Y2.25
G0 X52.5 Y1.5
G0 X52.5 Y-1.499
G0 X51.75 Y-2.249
G0 X3.25 Y-2.249
G0 X2.75 Y-1.749
G0 X3.25 Y-2.249
G0 X3.75 Y-2.749
; TYPE:WALL-INNER
G1 Z0.6
G1 F6600 E1407.25393
G1 F1500 X3.75 Y-32.249 E1408.4804
G1 X51.25 Y-32.249 E1410.45522
G1 X51.25 Y-2.749 E1411.68169
G1 X3.75 Y-2.749 E1413.65651
G0 F12000 X3.25 Y-2.249
G1 F1500 X3.25 Y-32.749 E1414.92455
G1 X51.75 Y-32.749 E1416.94095
G1 X51.75 Y-2.249 E1418.20899
G1 X3.25 Y-2.249 E1420.22538
G0 F12000 X2.75 Y-1.749
; TYPE:WALL-OUTER
G1 F600 X2.75 Y-33.249 E1421.535
G1 X52.25 Y-33.249 E1423.59297
G1 X52.25 Y-1.749 E1424.90259
G1 X2.75 Y-1.749 E1426.96056
G0 F12000 X3.25 Y-2.249
G0 X4.5 Y-3.048
; TYPE:FILL
G1 F1800 X4.499 Y-31.949 E1428.16213
G0 F12000 X4.999 Y-31.949
G1 F1800 X5 Y-3.048 E1429.36369
G0 F12000 X5.5 Y-3.048
G1 F1800 X5.499 Y-31.949 E1430.56525
G0 F12000 X5.999 Y-31.949
G1 F1800 X6 Y-3.048 E1431.76682
G0 F12000 X6.5 Y-3.048
G1 F1800 X6.499 Y-31.949 E1432.96838
G0 F12000 X6.999 Y-31.949
G1 F1800 X7 Y-3.048 E1434.16995
G0 F12000 X7.5 Y-3.048
G1 F1800 X7.499 Y-31.949 E1435.37151
G0 F12000 X7.999 Y-31.949
G1 F1800 X8 Y-3.048 E1436.57307
G0 F12000 X8.5 Y-3.048
G1 F1800 X8.499 Y-31.949 E1437.77464
G0 F12000 X8.999 Y-31.949
G1 F1800 X9 Y-3.048 E1438.9762
G0 F12000 X9.5 Y-3.048
G1 F1800 X9.499 Y-31.949 E1440.17777
G0 F12000 X9.999 Y-31.949
G1 F1800 X10 Y-3.048 E1441.37933
G0 F12000 X10.5 Y-3.048
G1 F1800 X10.499 Y-31.949 E1442.58089
G0 F12000 X10.999 Y-31.949
G1 F1800 X11 Y-3.048 E1443.78246
G0 F12000 X11.5 Y-3.048
G1 F1800 X11.499 Y-31.949 E1444.98402
G0 F12000 X11.999 Y-31.949
G1 F1800 X12 Y-3.048 E1446.18558
G0 F12000 X12.5 Y-3.048
G1 F1800 X12.499 Y-31.949 E1447.38715
G0 F12000 X12.999 Y-31.949
G1 F1800 X13 Y-3.048 E1448.58871
G0 F12000 X13.5 Y-3.048
G1 F1800 X13.499 Y-31.949 E1449.79028
G0 F12000 X13.999 Y-31.949
G1 F1800 X14 Y-3.048 E1450.99184
G0 F12000 X14.5 Y-3.048
G1 F1800 X14.499 Y-31.949 E1452.1934
G0 F12000 X14.999 Y-31.949
G1 F1800 X15 Y-3.048 E1453.39497
G0 F12000 X15.5 Y-3.048
G1 F1800 X15.499 Y-31.949 E1454.59653
G0 F12000 X15.999 Y-31.949
G1 F1800 X16 Y-3.048 E1455.7981
G0 F12000 X16.5 Y-3.048
G1 F1800 X16.499 Y-31.949 E1456.99966
G0 F12000 X16.999 Y-31.949
G1 F1800 X17 Y-3.048 E1458.20122
G0 F12000 X17.5 Y-3.048
G1 F1800 X17.499 Y-31.949 E1459.40279
G0 F12000 X17.999 Y-31.949
G1 F1800 X18 Y-3.048 E1460.60435
G0 F12000 X18.5 Y-3.048
G1 F1800 X18.499 Y-31.949 E1461.80592
G0 F12000 X18.999 Y-31.949
G1 F1800 X19 Y-3.048 E1463.00748
G0 F12000 X19.5 Y-3.048
G1 F1800 X19.499 Y-31.949 E1464.20904
G0 F12000 X19.999 Y-31.949
G1 F1800 X20 Y-3.048 E1465.41061
G0 F12000 X20.5 Y-3.048
G1 F1800 X20.499 Y-31.949 E1466.61217
G0 F12000 X20.999 Y-31.949
G1 F1800 X21 Y-3.048 E1467.81374
G0 F12000 X21.5 Y-3.048
G1 F1800 X21.499 Y-31.949 E1469.0153
G0 F12000 X21.999 Y-31.949
G1 F1800 X22 Y-3.048 E1470.21686
G0 F12000 X22.5 Y-3.048
G1 F1800 X22.499 Y-31.949 E1471.41843
G0 F12000 X22.999 Y-31.949
G1 F1800 X23 Y-3.048 E1472.61999
G0 F12000 X23.5 Y-3.048
G1 F1800 X23.499 Y-31.949 E1473.82156
G0 F12000 X23.999 Y-31.949
G1 F1800 X24 Y-3.048 E1475.02312
G0 F12000 X24.5 Y-3.048
G1 F1800 X24.499 Y-31.949 E1476.22468
G0 F12000 X24.999 Y-31.949
G1 F1800 X25 Y-3.048 E1477.42625
G0 F12000 X25.5 Y-3.048
G1 F1800 X25.499 Y-31.949 E1478.62781
G0 F12000 X25.999 Y-31.949
G1 F1800 X26 Y-3.048 E1479.82938
G0 F12000 X26.5 Y-3.048
G1 F1800 X26.499 Y-31.949 E1481.03094
G0 F12000 X26.999 Y-31.949
G1 F1800 X27 Y-3.048 E1482.2325
G0 F12000 X27.5 Y-3.048
G1 F1800 X27.499 Y-31.949 E1483.43407
G0 F12000 X27.999 Y-31.948
G1 F1800 X28 Y-3.048 E1484.63559
G0 F12000 X28.5 Y-3.048
G1 F1800 X28.499 Y-31.948 E1485.83711
G0 F12000 X28.999 Y-31.948
G1 F1800 X29 Y-3.048 E1487.03863
G0 F12000 X29.5 Y-3.048
G1 F1800 X29.499 Y-31.948 E1488.24016
G0 F12000 X29.999 Y-31.948
G1 F1800 X30 Y-3.048 E1489.44168
G0 F12000 X30.5 Y-3.048
G1 F1800 X30.499 Y-31.948 E1490.6432
G0 F12000 X30.999 Y-31.948
G1 F1800 X31 Y-3.048 E1491.84472
G0 F12000 X31.5 Y-3.048
G1 F1800 X31.499 Y-31.948 E1493.04625
G0 F12000 X31.999 Y-31.948
G1 F1800 X32 Y-3.048 E1494.24777
G0 F12000 X32.5 Y-3.048
G1 F1800 X32.499 Y-31.948 E1495.44929
G0 F12000 X32.999 Y-31.948
G1 F1800 X33 Y-3.048 E1496.65081
G0 F12000 X33.5 Y-3.048
G1 F1800 X33.499 Y-31.948 E1497.85234
G0 F12000 X33.999 Y-31.948
G1 F1800 X34 Y-3.048 E1499.05386
G0 F12000 X34.5 Y-3.048
G1 F1800 X34.499 Y-31.948 E1500.25538
G0 F12000 X34.999 Y-31.948
G1 F1800 X35 Y-3.048 E1501.4569
G0 F12000 X35.5 Y-3.048
G1 F1800 X35.499 Y-31.948 E1502.65843
G0 F12000 X35.999 Y-31.948
G1 F1800 X36 Y-3.048 E1503.85995
G0 F12000 X36.5 Y-3.048
G1 F1800 X36.499 Y-31.948 E1505.06147
G0 F12000 X36.999 Y-31.948
G1 F1800 X37 Y-3.048 E1506.26299
G0 F12000 X37.5 Y-3.048
G1 F1800 X37.499 Y-31.948 E1507.46452
G0 F12000 X37.999 Y-31.948
G1 F1800 X38 Y-3.048 E1508.66604
G0 F12000 X38.5 Y-3.048
G1 F1800 X38.499 Y-31.948 E1509.86756
G0 F12000 X38.999 Y-31.948
G1 F1800 X39 Y-3.048 E1511.06908
G0 F12000 X39.5 Y-3.048
G1 F1800 X39.499 Y-31.948 E1512.2706
G0 F12000 X39.999 Y-31.948
G1 F1800 X40 Y-3.048 E1513.47213
G0 F12000 X40.5 Y-3.048
G1 F1800 X40.499 Y-31.948 E1514.67365
G0 F12000 X40.999 Y-31.948
G1 F1800 X41 Y-3.048 E1515.87517
G0 F12000 X41.5 Y-3.048
G1 F1800 X41.499 Y-31.948 E1517.07669
G0 F12000 X41.999 Y-31.948
G1 F1800 X42 Y-3.048 E1518.27822
G0 F12000 X42.5 Y-3.048
G1 F1800 X42.499 Y-31.948 E1519.47974
G0 F12000 X42.999 Y-31.948
G1 F1800 X43 Y-3.048 E1520.68126
G0 F12000 X43.5 Y-3.048
G1 F1800 X43.499 Y-31.948 E1521.88278
G0 F12000 X43.999 Y-31.948
G1 F1800 X44 Y-3.048 E1523.08431
G0 F12000 X44.5 Y-3.048
G1 F1800 X44.499 Y-31.948 E1524.28583
G0 F12000 X44.999 Y-31.948
G1 F1800 X45 Y-3.048 E1525.48735
G0 F12000 X45.5 Y-3.048
G1 F1800 X45.499 Y-31.948 E1526.68887
G0 F12000 X45.999 Y-31.948
G1 F1800 X46 Y-3.048 E1527.8904
G0 F12000 X46.5 Y-3.048
G1 F1800 X46.499 Y-31.948 E1529.09192
G0 F12000 X46.999 Y-31.948
G1 F1800 X47 Y-3.048 E1530.29344
G0 F12000 X47.5 Y-3.048
G1 F1800 X47.499 Y-31.948 E1531.49496
G0 F12000 X47.999 Y-31.948
G1 F1800 X48 Y-3.048 E1532.69649
G0 F12000 X48.5 Y-3.048
G1 F1800 X48.499 Y-31.948 E1533.89801
G0 F12000 X48.999 Y-31.948
G1 F1800 X49 Y-3.048 E1535.09953
G0 F12000 X49.5 Y-3.048
G1 F1800 X49.499 Y-31.948 E1536.30105
G0 F12000 X49.999 Y-31.948
G1 F1800 X50 Y-3.048 E1537.50257
G0 F12000 X50.5 Y-3.048
G1 F1800 X50.499 Y-31.948 E1538.7041
; Layer Change GCode
; LAYER:2
M400
M106 S153
G1 F6600 E1531.9041
G1 Z0.9
G0 F12000 X50.499 Y-31.948 Z1.1
G0 X3.25 Y-32.749
G0 X2.5 Y-33.499
G0 X1.001 Y-33.499
G0 X-0.999 Y-33.499
G0 X-2.499 Y-33.499
G0 X-3.249 Y-32.749
G0 X-51.749 Y-2.249
G0 X-52.249 Y-1.749
G0 X-51.749 Y-2.249
G0 X-51.249 Y-2.749
; TYPE:WALL-INNER
G1 Z0.8
G1 F6600 E1538.8041
G1 F1500 X-51.249 Y-32.249 E1540.03056
G1 X-3.749 Y-32.249 E1542.00538
G1 X-3.749 Y-2.749 E1543.23185
G1 X-51.249 Y-2.749 E1545.20667
G0 F12000 X-51.749 Y-2.249
G1 F1500 X-51.749 Y-32.749 E1546.47472
G1 X-3.249 Y-32.749 E1548.49111
G1 X-3.249 Y-2.249 E1549.75915
G1 X-51.749 Y-2.249 E1551.77555
G0 F12000 X-52.249 Y-1.749
; TYPE:WALL-OUTER
G1 F600 X-52.249 Y-33.249 E1553.08517
G1 X-2.749 Y-33.249 E1555.14314
G1 X-2.749 Y-1.749 E1556.45276
G1 X-52.249 Y-1.749 E1558.51073
G0 F12000 X-51.749 Y-2.249
G0 X-50.949 Y-3.499
; TYPE:FILL
G1 F1800 X-4.049 Y-3.499 E1560.4606
G0 F12000 X-4.049 Y-3.999
G1 F1800 X-50.949 Y-3.999 E1562.41048
G0 F12000 X-50.949 Y-4.499
G1 F1800 X-4.049 Y-4.5 E1564.36035
G0 F12000 X-4.049 Y-5
G1 F1800 X-50.949 Y-4.999 E1566.31023
G0 F12000 X-50.949 Y-5.499
G1 F1800 X-4.049 Y-5.5 E1568.2601
G0 F12000 X-4.049 Y-6
G1 F1800 X-50.949 Y-5.999 E1570.20998
G0 F12000 X-50.949 Y-6.499
G1 F1800 X-4.049 Y-6.5 E1572.15985
G0 F12000 X-4.049 Y-7
G1 F1800 X-50.949 Y-6.999 E1574.10973
G0 F12000 X-50.949 Y-7.499
G1 F1800 X-4.049 Y-7.5 E1576.05961
G0 F12000 X-4.049 Y-8
G1 F1800 X-50.949 Y-7.999 E1578.00948
G0 F12000 X-50.949 Y-8.499
G1 F1800 X-4.049 Y-8.5 E1579.95936
G0 F12000 X-4.049 Y-9
G1 F1800 X-50.949 Y-8.999 E1581.90923
G0 F12000 X-50.949 Y-9.499
G1 F1800 X-4.049 Y-9.5 E1583.85911
G0 F12000 X-4.049 Y-10
G1 F1800 X-50.949 Y-9.999 E1585.80898
G0 F12000 X-50.949 Y-10.499
G1 F1800 X-4.049 Y-10.5 E1587.75886
G0 F12000 X-4.049 Y-11
G1 F1800 X-50.949 Y-10.999 E1589.70873
G0 F12000 X-50.949 Y-11.499
G1 F1800 X-4.049 Y-11.5 E1591.65861
G0 F12000 X-4.049 Y-12
G1 F1800 X-50.949 Y-11.999 E1593.60848
G0 F12000 X-50.949 Y-12.499
G1 F1800 X-4.049 Y-12.5 E1595.55836
G0 F12000 X-4.049 Y-13
G1 F1800 X-50.949 Y-12.999 E1597.50824
G0 F12000 X-50.949 Y-13.499
G1 F1800 X-4.049 Y-13.5 E1599.45811
G0 F12000 X-4.049 Y-14
G1 F1800 X-50.949 Y-13.999 E1601.40799
G0 F12000 X-50.949 Y-14.499
G1 F1800 X-4.049 Y-14.5 E1603.35786
G0 F12000 X-4.049 Y-15
G1 F1800 X-50.949 Y-14.999 E1605.30774
G0 F12000 X-50.949 Y-15.499
G1 F1800 X-4.049 Y-15.5 E1607.25761
G0 F12000 X-4.049 Y-16
G1 F1800 X-50.949 Y-15.999 E1609.20749
G0 F12000 X-50.949 Y-16.499
G1 F1800 X-4.049 Y-16.5 E1611.15736
G0 F12000 X-4.049 Y-17
G1 F1800 X-50.949 Y-16.999 E1613.10724
G0 F12000 X-50.949 Y-17.499
G1 F1800 X-4.048 Y-17.5 E1615.05716
G0 F12000 X-4.048 Y-18
G1 F1800 X-50.949 Y-17.999 E1617.00707
G0 F12000 X-50.949 Y-18.499
G1 F1800 X-4.048 Y-18.5 E1618.95699
G0 F12000 X-4.048 Y-19
G1 F1800 X-50.949 Y-18.999 E1620.90691
G0 F12000 X-50.949 Y-19.499
G1 F1800 X-4.048 Y-19.5 E1622.85682
G0 F12000 X-4.048 Y-20
G1 F1800 X-50.949 Y-19.999 E1624.80674
G0 F12000 X-50.949 Y-20.499
G1 F1800 X-4.048 Y-20.5 E1626.75666
G0 F12000 X-4.048 Y-21
G1 F1800 X-50.949 Y-20.999 E1628.70657
G0 F12000 X-50.949 Y-21.499
G1 F1800 X-4.048 Y-21.5 E1630.65649
G0 F12000 X-4.048 Y-22
G1 F1800 X-50.949 Y-21.999 E1632.60641
G0 F12000 X-50.949 Y-22.499
G1 F1800 X-4.048 Y-22.5 E1634.55633
G0 F12000 X-4.048 Y-23
G1 F1800 X-50.949 Y-22.999 E1636.50624
G0 F12000 X-50.949 Y-23.499
G1 F1800 X-4.048 Y-23.5 E1638.45616
G0 F12000 X-4.048 Y-24
G1 F1800 X-50.949 Y-23.999 E1640.40608
G0 F12000 X-50.949 Y-24.499
G1 F1800 X-4.048 Y-24.5 E1642.35599
G0 F12000 X-4.048 Y-25
G1 F1800 X-50.949 Y-24.999 E1644.30591
G0 F12000 X-50.949 Y-25.499
G1 F1800 X-4.048 Y-25.5 E1646.25583
G0 F12000 X-4.048 Y-26
G1 F1800 X-50.949 Y-25.999 E1648.20574
G0 F12000 X-50.949 Y-26.499
G1 F1800 X-4.048 Y-26.5 E1650.15566
G0 F12000 X-4.048 Y-27
G1 F1800 X-50.949 Y-26.999 E1652.10558
G0 F12000 X-50.949 Y-27.499
G1 F1800 X-4.048 Y-27.5 E1654.0555
G0 F12000 X-4.048 Y-28
G1 F1800 X-50.949 Y-27.999 E1656.00541
G0 F12000 X-50.949 Y-28.499
G1 F1800 X-4.048 Y-28.5 E1657.95533
G0 F12000 X-4.048 Y-29
G1 F1800 X-50.949 Y-28.999 E1659.90525
G0 F12000 X-50.949 Y-29.499
G1 F1800 X-4.048 Y-29.5 E1661.85516
G0 F12000 X-4.048 Y-30
G1 F1800 X-50.949 Y-29.999 E1663.80508
G0 F12000 X-50.949 Y-30.499
G1 F1800 X-4.048 Y-30.5 E1665.755
G0 F12000 X-4.048 Y-31
G1 F1800 X-50.949 Y-30.999 E1667.70491
G0 F12000 X-50.949 Y-31.499
G1 F1800 X-4.048 Y-31.5 E1669.65483
G1 F6600 E1662.85483
G1 Z1.1
G0 F12000 X-3.249 Y-2.249
G0 X-2.499 Y-1.499
G0 X-2.499 Y0.001
G0 X-2.499 Y1.5
G0 X-3.249 Y2.25
G0 X-51.749 Y32.75
G0 X-52.249 Y33.25
G0 X-51.749 Y32.75
G0 X-51.249 Y32.25
; TYPE:WALL-INNER
G1 Z0.8
G1 F6600 E1669.75483
G1 F1500 X-51.249 Y2.75 E1670.9813
G1 X-3.749 Y2.75 E1672.95612
G1 X-3.749 Y32.25 E1674.18259
G1 X-51.249 Y32.25 E1676.15741
G0 F12000 X-51.749 Y32.75
G1 F1500 X-51.749 Y2.25 E1677.42545
G1 X-3.249 Y2.25 E1679.44185
G1 X-3.249 Y32.75 E1680.70989
G1 X-51.749 Y32.75 E1682.72628
G0 F12000 X-52.249 Y33.25
; TYPE:WALL-OUTER
G1 F600 X-52.249 Y1.75 E1684.0359
G1 X-2.749 Y1.75 E1686.09387
G1 X-2.749 Y33.25 E1687.40349
G1 X-52.249 Y33.25 E1689.46146
G0 F12000 X-51.749 Y32.75
G0 X-50.949 Y31.5
; TYPE:FILL
G1 F1800 X-4.048 Y31.5 E1691.41138
G0 F12000 X-4.048 Y31
G1 F1800 X-50.949 Y31 E1693.3613
G0 F12000 X-50.949 Y30.5
G1 F1800 X-4.048 Y30.5 E1695.31121
G0 F12000 X-4.048 Y30
G1 F1800 X-50.949 Y30 E1697.26113
G0 F12000 X-50.949 Y29.5
G1 F1800 X-4.048 Y29.5 E1699.21105
G0 F12000 X-4.048 Y29
G1 F1800 X-50.949 Y29 E1701.16096
G0 F12000 X-50.949 Y28.5
G1 F1800 X-4.048 Y28.5 E1703.11088
G0 F12000 X-4.048 Y28
G1 F1800 X-50.949 Y28 E1705.0608
G0 F12000 X-50.949 Y27.5
G1 F1800 X-4.048 Y27.5 E1707.01071
G0 F12000 X-4.048 Y27
G1 F1800 X-50.949 Y27 E1708.96063
G0 F12000 X-50.949 Y26.5
G1 F1800 X-4.048 Y26.5 E1710.91055
G0 F12000 X-4.048 Y26
G1 F1800 X-50.949 Y26 E1712.86047
G0 F12000 X-50.949 Y25.5
G1 F1800 X-4.048 Y25.5 E1714.81038
G0 F12000 X-4.048 Y25
G1 F1800 X-50.949 Y25 E1716.7603
G0 F12000 X-50.949 Y24.5
G1 F1800 X-4.048 Y24.5 E1718.71022
G0 F12000 X-4.048 Y24
G1 F1800 X-50.949 Y24 E1720.66013
G0 F12000 X-50.949 Y23.5
G1 F1800 X-4.048 Y23.5 E1722.61005
G0 F12000 X-4.048 Y23
G1 F1800 X-50.949 Y23 E1724.55997
G0 F12000 X-50.949 Y22.5
G1 F1800 X-4.048 Y22.5 E1726.50988
G0 F12000 X-4.048 Y22
G1 F1800 X-50.949 Y22 E1728.4598
G0 F12000 X-50.949 Y21.5
G1 F1800 X-4.048 Y21.5 E1730.40972
G0 F12000 X-4.048 Y21
G1 F1800 X-50.949 Y21 E1732.35964
G0 F12000 X-50.949 Y20.5
G1 F1800 X-4.048 Y20.5 E1734.30955
G0 F12000 X-4.048 Y20
G1 F1800 X-50.949 Y20 E1736.25947
G0 F12000 X-50.949 Y19.5
G1 F1800 X-4.048 Y19.5 E1738.20939
G0 F12000 X-4.048 Y19
G1 F1800 X-50.949 Y19 E1740.1593
G0 F12000 X-50.949 Y18.5
G1 F1800 X-4.048 Y18.5 E1742.10922
G0 F12000 X-4.048 Y18
G1 F1800 X-50.949 Y18 E1744.05914
G0 F12000 X-50.949 Y17.5
G1 F1800 X-4.048 Y17.5 E1746.00905
G0 F12000 X-4.048 Y17
G1 F1800 X-50.949 Y17 E1747.95897
G0 F12000 X-50.949 Y16.5
G1 F1800 X-4.048 Y16.5 E1749.90889
G0 F12000 X-4.048 Y16
G1 F1800 X-50.949 Y16 E1751.85881
G0 F12000 X-50.949 Y15.5
G1 F1800 X-4.048 Y15.5 E1753.80872
G0 F12000 X-4.048 Y15
G1 F1800 X-50.949 Y15 E1755.75864
G0 F12000 X-50.949 Y14.5
G1 F1800 X-4.048 Y14.5 E1757.70856
G0 F12000 X-4.048 Y14
G1 F1800 X-50.949 Y14 E1759.65847
G0 F12000 X-50.949 Y13.5
G1 F1800 X-4.048 Y13.5 E1761.60839
G0 F12000 X-4.048 Y13
G1 F1800 X-50.949 Y13 E1763.55831
G0 F12000 X-50.949 Y12.5
G1 F1800 X-4.048 Y12.5 E1765.50822
G0 F12000 X-4.048 Y12
G1 F1800 X-50.949 Y12 E1767.45814
G0 F12000 X-50.949 Y11.5
G1 F1800 X-4.048 Y11.5 E1769.40806
G0 F12000 X-4.048 Y11
G1 F1800 X-50.949 Y11 E1771.35798
G0 F12000 X-50.949 Y10.5
G1 F1800 X-4.048 Y10.5 E1773.30789
G0 F12000 X-4.048 Y10
G1 F1800 X-50.949 Y10 E1775.25781
G0 F12000 X-50.949 Y9.5
G1 F1800 X-4.048 Y9.5 E1777.20773
G0 F12000 X-4.048 Y9
G1 F1800 X-50.949 Y9 E1779.15764
G0 F12000 X-50.949 Y8.5
G1 F1800 X-4.048 Y8.5 E1781.10756
G0 F12000 X-4.048 Y8
G1 F1800 X-50.949 Y8 E1783.05748
G0 F12000 X-50.949 Y7.5
G1 F1800 X-4.048 Y7.5 E1785.00739
G0 F12000 X-4.048 Y7
G1 F1800 X-50.949 Y7 E1786.95731
G0 F12000 X-50.949 Y6.5
G1 F1800 X-4.048 Y6.5 E1788.90723
G0 F12000 X-4.048 Y6
G1 F1800 X-50.949 Y6 E1790.85715
G0 F12000 X-50.949 Y5.5
G1 F1800 X-4.048 Y5.5 E1792.80706
G0 F12000 X-4.048 Y5
G1 F1800 X-50.949 Y5 E1794.75698
G0 F12000 X-50.949 Y4.5
G1 F1800 X-4.048 Y4.5 E1796.7069
G0 F12000 X-4.048 Y4
G1 F1800 X-50.949 Y4 E1798.65681
G0 F12000 X-50.949 Y3.5
G1 F1800 X-4.049 Y3.5 E1800.60669
G1 F6600 E1793.80669
G1 Z1.1
G0 F12000 X-3.249 Y2.25
G0 X-2.499 Y1.5
G0 X1.001 Y1.5
G0 X2.5 Y1.5
G0 X3.25 Y2.25
G0 X3.25 Y32.75
G0 X2.75 Y33.25
G0 X3.25 Y32.75
G0 X3.75 Y32.25
; TYPE:WALL-INNER
G1 Z0.8
G1 F6600 E1800.70669
G1 F1500 X3.75 Y2.75 E1801.93316
G1 X51.25 Y2.75 E1803.90798
G1 X51.25 Y32.25 E1805.13444
G1 X3.75 Y32.25 E1807.10926
G0 F12000 X3.25 Y32.75
G1 F1500 X3.25 Y2.25 E1808.37731
G1 X51.75 Y2.25 E1810.3937
G1 X51.75 Y32.75 E1811.66175
G1 X3.25 Y32.75 E1813.67814
G0 F12000 X2.75 Y33.25
; TYPE:WALL-OUTER
G1 F600 X2.75 Y1.75 E1814.98776
G1 X52.25 Y1.75 E1817.04573
G1 X52.25 Y33.25 E1818.35535
G1 X2.75 Y33.25 E1820.41332
G0 F12000 X3.25 Y32.75
G0 X4.049 Y31.5
; TYPE:FILL
G1 F1800 X50.95 Y31.499 E1822.36324
G0 F12000 X50.95 Y30.999
G1 F1800 X4.049 Y31 E1824.31315
G0 F12000 X4.049 Y30.5
G1 F1800 X50.95 Y30.499 E1826.26307
G0 F12000 X50.95 Y29.999
G1 F1800 X4.049 Y30 E1828.21299
G0 F12000 X4.049 Y29.5
G1 F1800 X50.95 Y29.499 E1830.1629
G0 F12000 X50.95 Y28.999
G1 F1800 X4.049 Y29 E1832.11282
G0 F12000 X4.049 Y28.5
G1 F1800 X50.95 Y28.499 E1834.06274
G0 F12000 X50.95 Y27.999
G1 F1800 X4.049 Y28 E1836.01265
G0 F12000 X4.049 Y27.5
G1 F1800 X50.95 Y27.499 E1837.96257
G0 F12000 X50.95 Y26.999
G1 F1800 X4.049 Y27 E1839.91249
G0 F12000 X4.049 Y26.5
G1 F1800 X50.95 Y26.499 E1841.86241
G0 F12000 X50.95 Y25.999
G1 F1800 X4.049 Y26 E1843.81232
G0 F12000 X4.049 Y25.5
G1 F1800 X50.95 Y25.499 E1845.76224
G0 F12000 X50.95 Y24.999
G1 F1800 X4.049 Y25 E1847.71216
G0 F12000 X4.049 Y24.5
G1 F1800 X50.95 Y24.499 E1849.66207
G0 F12000 X50.95 Y23.999
G1 F1800 X4.049 Y24 E1851.61199
G0 F12000 X4.049 Y23.5
G1 F1800 X50.95 Y23.499 E1853.56191
G0 F12000 X50.95 Y22.999
G1 F1800 X4.049 Y23 E1855.51182
G0 F12000 X4.049 Y22.5
G1 F1800 X50.95 Y22.499 E1857.46174
G0 F12000 X50.95 Y21.999
G1 F1800 X4.049 Y22 E1859.41166
G0 F12000 X4.049 Y21.5
G1 F1800 X50.95 Y21.499 E1861.36158
G0 F12000 X50.95 Y20.999
G1 F1800 X4.049 Y21 E1863.31149
G0 F12000 X4.049 Y20.5
G1 F1800 X50.95 Y20.499 E1865.26141
G0 F12000 X50.95 Y19.999
G1 F1800 X4.049 Y20 E1867.21133
G0 F12000 X4.049 Y19.5
G1 F1800 X50.95 Y19.499 E1869.16124
G0 F12000 X50.95 Y18.999
G1 F1800 X4.049 Y19 E1871.11116
G0 F12000 X4.049 Y18.5
G1 F1800 X50.95 Y18.499 E1873.06108
G0 F12000 X50.95 Y17.999
G1 F1800 X4.049 Y18 E1875.01099
G0 F12000 X4.05 Y17.5
G1 F1800 X50.95 Y17.499 E1876.96087
G0 F12000 X50.95 Y16.999
G1 F1800 X4.05 Y17 E1878.91075
G0 F12000 X4.05 Y16.5
G1 F1800 X50.95 Y16.499 E1880.86062
G0 F12000 X50.95 Y15.999
G1 F1800 X4.05 Y16 E1882.8105
G0 F12000 X4.05 Y15.5
G1 F1800 X50.95 Y15.499 E1884.76037
G0 F12000 X50.95 Y14.999
G1 F1800 X4.05 Y15 E1886.71025
G0 F12000 X4.05 Y14.5
G1 F1800 X50.95 Y14.499 E1888.66012
G0 F12000 X50.95 Y13.999
G1 F1800 X4.05 Y14 E1890.61
G0 F12000 X4.05 Y13.5
G1 F1800 X50.95 Y13.499 E1892.55987
G0 F12000 X50.95 Y12.999
G1 F1800 X4.05 Y13 E1894.50975
G0 F12000 X4.05 Y12.5
G1 F1800 X50.95 Y12.499 E1896.45962
G0 F12000 X50.95 Y11.999
G1 F1800 X4.05 Y12 E1898.4095
G0 F12000 X4.05 Y11.5
G1 F1800 X50.95 Y11.499 E1900.35937
G0 F12000 X50.95 Y10.999
G1 F1800 X4.05 Y11 E1902.30925
G0 F12000 X4.05 Y10.5
G1 F1800 X50.95 Y10.499 E1904.25913
G0 F12000 X50.95 Y9.999
G1 F1800 X4.05 Y10 E1906.209
G0 F12000 X4.05 Y9.5
G1 F1800 X50.95 Y9.499 E1908.15888
G0 F12000 X50.95 Y8.999
G1 F1800 X4.05 Y9 E1910.10875
G0 F12000 X4.05 Y8.5
G1 F1800 X50.95 Y8.499 E1912.05863
G0 F12000 X50.95 Y7.999
G1 F1800 X4.05 Y8 E1914.0085
G0 F12000 X4.05 Y7.5
G1 F1800 X50.95 Y7.499 E1915.95838
G0 F12000 X50.95 Y6.999
G1 F1800 X4.05 Y7 E1917.90825
G0 F12000 X4.05 Y6.5
G1 F1800 X50.95 Y6.499 E1919.85813
G0 F12000 X50.95 Y5.999
G1 F1800 X4.05 Y6 E1921.808
G0 F12000 X4.05 Y5.5
G1 F1800 X50.95 Y5.499 E1923.75788
G0 F12000 X50.95 Y4.999
G1 F1800 X4.05 Y5 E1925.70776
G0 F12000 X4.05 Y4.5
G1 F1800 X50.95 Y4.499 E1927.65763
G0 F12000 X50.95 Y3.999
G1 F1800 X4.05 Y3.999 E1929.60751
G0 F12000 X4.05 Y3.499
G1 F1800 X50.95 Y3.499 E1931.55738
G1 F6600 E1924.75738
G1 Z1.1
G0 F12000 X51.75 Y2.25
G0 X52.5 Y1.5
G0 X52.5 Y-1.499
G0 X51.75 Y-2.249
G0 X3.25 Y-2.249
G0 X2.75 Y-1.749
G0 X3.25 Y-2.249
G0 X3.75 Y-2.749
; TYPE:WALL-INNER
G1 Z0.8
G1 F6600 E1931.65738
G1 F1500 X3.75 Y-32.249 E1932.88385
G1 X51.25 Y-32.249 E1934.85867
G1 X51.25 Y-2.749 E1936.08514
G1 X3.75 Y-2.749 E1938.05996
G0 F12000 X3.25 Y-2.249
G1 F1500 X3.25 Y-32.749 E1939.328
G1 X51.75 Y-32.749 E1941.3444
G1 X51.75 Y-2.249 E1942.61244
G1 X3.25 Y-2.249 E1944.62883
G0 F12000 X2.75 Y-1.749
; TYPE:WALL-OUTER
G1 F600 X2.75 Y-33.249 E1945.93845
G1 X52.25 Y-33.249 E1947.99642
G1 X52.25 Y-1.749 E1949.30604
G1 X2.75 Y-1.749 E1951.36401
G0 F12000 X3.25 Y-2.249
G0 X4.05 Y-3.5
; TYPE:FILL
G1 F1800 X50.95 Y-3.5 E1953.31389
G0 F12000 X50.95 Y-4
G1 F1800 X4.049 Y-4 E1955.2638
G0 F12000 X4.049 Y-4.5
G1 F1800 X50.95 Y-4.5 E1957.21372
G0 F12000 X50.95 Y-5
G1 F1800 X4.049 Y-5 E1959.16364
G0 F12000 X4.049 Y-5.5
G1 F1800 X50.95 Y-5.5 E1961.11355
G0 F12000 X50.95 Y-6
G1 F1800 X4.049 Y-6 E1963.06347
G0 F12000 X4.049 Y-6.5
G1 F1800 X50.95 Y-6.5 E1965.01339
G0 F12000 X50.95 Y-7
G1 F1800 X4.049 Y-7 E1966.96331
G0 F12000 X4.049 Y-7.5
G1 F1800 X50.95 Y-7.5 E1968.91322
G0 F12000 X50.95 Y-8
G1 F1800 X4.049 Y-8 E1970.86314
G0 F12000 X4.049 Y-8.5
G1 F1800 X50.95 Y-8.5 E1972.81306
G0 F12000 X50.95 Y-9
G1 F1800 X4.049 Y-9 E1974.76297
G0 F12000 X4.049 Y-9.5
G1 F1800 X50.95 Y-9.5 E1976.71289
G0 F12000 X50.95 Y-10
G1 F1800 X4.049 Y-10 E1978.66281
G0 F12000 X4.049 Y-10.5
G1 F1800 X50.95 Y-10.5 E1980.61272
G0 F12000 X50.95 Y-11
G1 F1800 X4.049 Y-11 E1982.56264
G0 F12000 X4.049 Y-11.5
G1 F1800 X50.95 Y-11.5 E1984.51256
G0 F12000 X50.95 Y-12
G1 F1800 X4.049 Y-12 E1986.46248
G0 F12000 X4.049 Y-12.5
G1 F1800 X50.95 Y-12.5 E1988.41239
G0 F12000 X50.95 Y-13
G1 F1800 X4.049 Y-13 E1990.36231
G0 F12000 X4.049 Y-13.5
G1 F1800 X50.95 Y-13.5 E1992.31223
G0 F12000 X50.95 Y-14
G1 F1800 X4.049 Y-14 E1994.26214
G0 F12000 X4.049 Y-14.5
G1 F1800 X50.95 Y-14.5 E1996.21206
G0 F12000 X50.95 Y-15
G1 F1800 X4.049 Y-15 E1998.16198
G0 F12000 X4.049 Y-15.5
G1 F1800 X50.95 Y-15.5 E2000.11189
G0 F12000 X50.95 Y-16
G1 F1800 X4.049 Y-16 E2002.06181
G0 F12000 X4.049 Y-16.5
G1 F1800 X50.95 Y-16.5 E2004.01173
G0 F12000 X50.95 Y-17
G1 F1800 X4.049 Y-17 E2005.96165
G0 F12000 X4.049 Y-17.5
G1 F1800 X50.95 Y-17.5 E2007.91156
G0 F12000 X50.95 Y-18
G1 F1800 X4.049 Y-18 E2009.86148
G0 F12000 X4.049 Y-18.5
G1 F1800 X50.95 Y-18.5 E2011.8114
G0 F12000 X50.95 Y-19
G1 F1800 X4.049 Y-19 E2013.76131
G0 F12000 X4.049 Y-19.5
G1 F1800 X50.95 Y-19.5 E2015.71123
G0 F12000 X50.95 Y-20
G1 F1800 X4.049 Y-20 E2017.66115
G0 F12000 X4.049 Y-20.5
G1 F1800 X50.95 Y-20.5 E2019.61106
G0 F12000 X50.95 Y-21
G1 F1800 X4.049 Y-21 E2021.56098
G0 F12000 X4.049 Y-21.5
G1 F1800 X50.95 Y-21.5 E2023.5109
G0 F12000 X50.95 Y-22
G1 F1800 X4.049 Y-22 E2025.46082
G0 F12000 X4.049 Y-22.5
G1 F1800 X50.95 Y-22.5 E2027.41073
G0 F12000 X50.95 Y-23
G1 F1800 X4.049 Y-23 E2029.36065
G0 F12000 X4.049 Y-23.5
G1 F1800 X50.95 Y-23.5 E2031.31057
G0 F12000 X50.95 Y-24
G1 F1800 X4.049 Y-24 E2033.26048
G0 F12000 X4.049 Y-24.5
G1 F1800 X50.95 Y-24.5 E2035.2104
G0 F12000 X50.95 Y-25
G1 F1800 X4.049 Y-25 E2037.16032
G0 F12000 X4.049 Y-25.5
G1 F1800 X50.95 Y-25.5 E2039.11023
G0 F12000 X50.95 Y-26
G1 F1800 X4.049 Y-26 E2041.06015
G0 F12000 X4.049 Y-26.5
G1 F1800 X50.95 Y-26.5 E2043.01007
G0 F12000 X50.95 Y-27
G1 F1800 X4.049 Y-27 E2044.95999
G0 F12000 X4.049 Y-27.5
G1 F1800 X50.95 Y-27.5 E2046.9099
G0 F12000 X50.95 Y-28
G1 F1800 X4.049 Y-28 E2048.85982
G0 F12000 X4.049 Y-28.5
G1 F1800 X50.95 Y-28.5 E2050.80974
G0 F12000 X50.95 Y-29
G1 F1800 X4.049 Y-29 E2052.75965
G0 F12000 X4.049 Y-29.5
G1 F1800 X50.95 Y-29.5 E2054.70957
G0 F12000 X50.95 Y-30
G1 F1800 X4.049 Y-30 E2056.65949
G0 F12000 X4.049 Y-30.5
G1 F1800 X50.95 Y-30.5 E2058.6094
G0 F12000 X50.95 Y-31
G1 F1800 X4.049 Y-31 E2060.55932
G0 F12000 X4.049 Y-31.5
G1 F1800 X50.95 Y-31.5 E2062.50924
; Layer Change GCode
; LAYER:3
G1 F6600 E2055.70924
G1 Z1.1
G0 F12000 X50.95 Y-31.5 Z1.3
G0 X3.25 Y-32.749
G0 X2.5 Y-33.499
G0 X1.001 Y-33.499
G0 X-0.999 Y-33.499
G0 X-2.499 Y-33.499
G0 X-3.249 Y-32.749
G0 X-51.749 Y-2.249
G0 X-52.249 Y-1.749
G0 X-51.749 Y-2.249
G0 X-51.249 Y-2.749
; TYPE:WALL-INNER
G1 Z1
G1 F6600 E2062.60924
G1 F1500 X-51.249 Y-32.249 E2063.83571
G1 X-3.749 Y-32.249 E2065.81053
G1 X-3.749 Y-2.749 E2067.03699
G1 X-51.249 Y-2.749 E2069.01181
G0 F12000 X-51.749 Y-2.249
G1 F1500 X-51.749 Y-32.749 E2070.27986
G1 X-3.249 Y-32.749 E2072.29625
G1 X-3.249 Y-2.249 E2073.5643
G1 X-51.749 Y-2.249 E2075.58069
G0 F12000 X-52.249 Y-1.749
; TYPE:WALL-OUTER
G1 F600 X-52.249 Y-33.249 E2076.89031
G1 X-2.749 Y-33.249 E2078.94828
G1 X-2.749 Y-1.749 E2080.2579
G1 X-52.249 Y-1.749 E2082.31587
G0 F12000 X-51.749 Y-2.249
G0 X-50.5 Y-3.048
; TYPE:FILL
G1 F1800 X-50.5 Y-31.948 E2083.51739
G0 F12000 X-50 Y-31.948
G1 F1800 X-50 Y-3.048 E2084.71891
G0 F12000 X-49.5 Y-3.048
G1 F1800 X-49.5 Y-31.948 E2085.92044
G0 F12000 X-49 Y-31.948
G1 F1800 X-49 Y-3.048 E2087.12196
G0 F12000 X-48.5 Y-3.048
G1 F1800 X-48.5 Y-31.948 E2088.32348
G0 F12000 X-48 Y-31.948
G1 F1800 X-48 Y-3.048 E2089.525
G0 F12000 X-47.5 Y-3.048
G1 F1800 X-47.5 Y-31.948 E2090.72653
G0 F12000 X-47 Y-31.948
G1 F1800 X-47 Y-3.048 E2091.92805
G0 F12000 X-46.5 Y-3.048
G1 F1800 X-46.5 Y-31.948 E2093.12957
G0 F12000 X-46 Y-31.948
G1 F1800 X-46 Y-3.048 E2094.33109
G0 F12000 X-45.5 Y-3.048
G1 F1800 X-45.5 Y-31.948 E2095.53261
G0 F12000 X-45 Y-31.948
G1 F1800 X-45 Y-3.048 E2096.73414
G0 F12000 X-44.5 Y-3.048
G1 F1800 X-44.5 Y-31.948 E2097.93566
G0 F12000 X-44 Y-31.948
G1 F1800 X-44 Y-3.048 E2099.13718
G0 F12000 X-43.5 Y-3.048
G1 F1800 X-43.5 Y-31.948 E2100.3387
G0 F12000 X-43 Y-31.948
G1 F1800 X-43 Y-3.048 E2101.54023
G0 F12000 X-42.5 Y-3.048
G1 F1800 X-42.5 Y-31.948 E2102.74175
G0 F12000 X-42 Y-31.948
G1 F1800 X-42 Y-3.048 E2103.94327
G0 F12000 X-41.5 Y-3.048
G1 F1800 X-41.5 Y-31.948 E2105.14479
G0 F12000 X-41 Y-31.948
G1 F1800 X-41 Y-3.048 E2106.34632
G0 F12000 X-40.5 Y-3.048
G1 F1800 X-40.5 Y-31.948 E2107.54784
G0 F12000 X-40 Y-31.948
G1 F1800 X-40 Y-3.048 E2108.74936
G0 F12000 X-39.5 Y-3.048
G1 F1800 X-39.5 Y-31.948 E2109.95088
G0 F12000 X-39 Y-31.948
G1 F1800 X-39 Y-3.048 E2111.15241
G0 F12000 X-38.5 Y-3.048
G1 F1800 X-38.5 Y-31.948 E2112.35393
G0 F12000 X-38 Y-31.948
G1 F1800 X-38 Y-3.048 E2113.55545
G0 F12000 X-37.5 Y-3.048
G1 F1800 X-37.5 Y-31.948 E2114.75697
G0 F12000 X-37 Y-31.948
G1 F1800 X-37 Y-3.048 E2115.95849
G0 F12000 X-36.5 Y-3.048
G1 F1800 X-36.5 Y-31.948 E2117.16002
G0 F12000 X-36 Y-31.948
G1 F1800 X-36 Y-3.048 E2118.36154
G0 F12000 X-35.5 Y-3.048
G1 F1800 X-35.5 Y-31.948 E2119.56306
G0 F12000 X-35 Y-31.948
G1 F1800 X-35 Y-3.048 E2120.76458
G0 F12000 X-34.5 Y-3.048
G1 F1800 X-34.5 Y-31.948 E2121.96611
G0 F12000 X-34 Y-31.948
G1 F1800 X-34 Y-3.048 E2123.16763
G0 F12000 X-33.5 Y-3.048
G1 F1800 X-33.5 Y-31.948 E2124.36915
G0 F12000 X-33 Y-31.948
G1 F1800 X-33 Y-3.048 E2125.57067
G0 F12000 X-32.5 Y-3.048
G1 F1800 X-32.5 Y-31.948 E2126.7722
G0 F12000 X-32 Y-31.948
G1 F1800 X-32 Y-3.048 E2127.97372
G0 F12000 X-31.5 Y-3.048
G1 F1800 X-31.5 Y-31.948 E2129.17524
G0 F12000 X-31 Y-31.948
G1 F1800 X-31 Y-3.048 E2130.37676
G0 F12000 X-30.5 Y-3.048
G1 F1800 X-30.5 Y-31.948 E2131.57829
G0 F12000 X-30 Y-31.948
G1 F1800 X-30 Y-3.048 E2132.77981
G0 F12000 X-29.5 Y-3.048
G1 F1800 X-29.5 Y-31.948 E2133.98133
G0 F12000 X-29 Y-31.948
G1 F1800 X-29 Y-3.048 E2135.18285
G0 F12000 X-28.5 Y-3.048
G1 F1800 X-28.5 Y-31.948 E2136.38438
G0 F12000 X-28 Y-31.948
G1 F1800 X-28 Y-3.048 E2137.5859
G0 F12000 X-27.5 Y-3.048
G1 F1800 X-27.5 Y-31.948 E2138.78742
G0 F12000 X-27 Y-31.948
G1 F1800 X-27 Y-3.048 E2139.98894
G0 F12000 X-26.5 Y-3.048
G1 F1800 X-26.5 Y-31.948 E2141.19046
G0 F12000 X-26 Y-31.948
G1 F1800 X-26 Y-3.048 E2142.39199
G0 F12000 X-25.5 Y-3.048
G1 F1800 X-25.5 Y-31.948 E2143.59351
G0 F12000 X-25 Y-31.948
G1 F1800 X-25 Y-3.048 E2144.79503
G0 F12000 X-24.5 Y-3.048
G1 F1800 X-24.5 Y-31.948 E2145.99655
G0 F12000 X-24 Y-31.948
G1 F1800 X-24 Y-3.048 E2147.19808
G0 F12000 X-23.5 Y-3.048
G1 F1800 X-23.5 Y-31.948 E2148.3996
G0 F12000 X-23 Y-31.948
G1 F1800 X-23 Y-3.048 E2149.60112
G0 F12000 X-22.5 Y-3.048
G1 F1800 X-22.5 Y-31.948 E2150.80264
G0 F12000 X-22 Y-31.948
G1 F1800 X-22 Y-3.048 E2152.00417
G0 F12000 X-21.5 Y-3.048
G1 F1800 X-21.5 Y-31.948 E2153.20569
G0 F12000 X-21 Y-31.948
G1 F1800 X-21 Y-3.048 E2154.40721
G0 F12000 X-20.5 Y-3.048
G1 F1800 X-20.5 Y-31.948 E2155.60873
G0 F12000 X-20 Y-31.948
G1 F1800 X-20 Y-3.048 E2156.81026
G0 F12000 X-19.5 Y-3.048
G1 F1800 X-19.5 Y-31.948 E2158.01178
G0 F12000 X-19 Y-31.948
G1 F1800 X-19 Y-3.048 E2159.2133
G0 F12000 X-18.5 Y-3.048
G1 F1800 X-18.5 Y-31.948 E2160.41482
G0 F12000 X-18 Y-31.948
G1 F1800 X-18 Y-3.048 E2161.61635
G0 F12000 X-17.5 Y-3.048
G1 F1800 X-17.5 Y-31.948 E2162.81787
G0 F12000 X-17 Y-31.948
G1 F1800 X-17 Y-3.048 E2164.01939
G0 F12000 X-16.5 Y-3.048
G1 F1800 X-16.5 Y-31.948 E2165.22091
G0 F12000 X-16 Y-31.948
G1 F1800 X-16 Y-3.048 E2166.42243
G0 F12000 X-15.5 Y-3.048
G1 F1800 X-15.5 Y-31.948 E2167.62396
G0 F12000 X-15 Y-31.948
G1 F1800 X-15 Y-3.048 E2168.82548
G0 F12000 X-14.5 Y-3.048
G1 F1800 X-14.5 Y-31.949 E2170.02704
G0 F12000 X-14 Y-31.949
G1 F1800 X-14 Y-3.048 E2171.22861
G0 F12000 X-13.5 Y-3.048
G1 F1800 X-13.5 Y-31.949 E2172.43017
G0 F12000 X-13 Y-31.949
G1 F1800 X-13 Y-3.048 E2173.63174
G0 F12000 X-12.5 Y-3.048
G1 F1800 X-12.5 Y-31.949 E2174.8333
G0 F12000 X-12 Y-31.949
G1 F1800 X-12 Y-3.048 E2176.03486
G0 F12000 X-11.5 Y-3.048
G1 F1800 X-11.5 Y-31.949 E2177.23643
G0 F12000 X-11 Y-31.949
G1 F1800 X-11 Y-3.048 E2178.43799
G0 F12000 X-10.5 Y-3.048
G1 F1800 X-10.5 Y-31.949 E2179.63956
G0 F12000 X-10 Y-31.949
G1 F1800 X-10 Y-3.048 E2180.84112
G0 F12000 X-9.5 Y-3.048
G1 F1800 X-9.5 Y-31.949 E2182.04268
G0 F12000 X-9 Y-31.949
G1 F1800 X-9 Y-3.048 E2183.24425
G0 F12000 X-8.5 Y-3.048
G1 F1800 X-8.5 Y-31.949 E2184.44581
G0 F12000 X-8 Y-31.949
G1 F1800 X-8 Y-3.048 E2185.64737
G0 F12000 X-7.5 Y-3.048
G1 F1800 X-7.5 Y-31.949 E2186.84894
G0 F12000 X-7 Y-31.949
G1 F1800 X-7 Y-3.048 E2188.0505
G0 F12000 X-6.5 Y-3.048
G1 F1800 X-6.5 Y-31.949 E2189.25207
G0 F12000 X-6 Y-31.949
G1 F1800 X-6 Y-3.048 E2190.45363
G0 F12000 X-5.5 Y-3.048
G1 F1800 X-5.5 Y-31.949 E2191.65519
G0 F12000 X-5 Y-31.949
G1 F1800 X-5 Y-3.048 E2192.85676
G0 F12000 X-4.5 Y-3.048
G1 F1800 X-4.5 Y-31.949 E2194.05832
G1 F6600 E2187.25832
G1 Z1.3
G0 F12000 X-3.249 Y-2.249
G0 X-2.499 Y-1.499
G0 X-2.499 Y0.001
G0 X-2.499 Y1.5
G0 X-3.249 Y2.25
G0 X-51.749 Y32.75
G0 X-52.249 Y33.25
G0 X-51.749 Y32.75
G0 X-51.249 Y32.25
; TYPE:WALL-INNER
G1 Z1
G1 F6600 E2194.15832
G1 F1500 X-51.249 Y2.75 E2195.38479
G1 X-3.749 Y2.75 E2197.35961
G1 X-3.749 Y32.25 E2198.58608
G1 X-51.249 Y32.25 E2200.5609
G0 F12000 X-51.749 Y32.75
G1 F1500 X-51.749 Y2.25 E2201.82894
G1 X-3.249 Y2.25 E2203.84534
G1 X-3.249 Y32.75 E2205.11338
G1 X-51.749 Y32.75 E2207.12978
G0 F12000 X-52.249 Y33.25
; TYPE:WALL-OUTER
G1 F600 X-52.249 Y1.75 E2208.43939
G1 X-2.749 Y1.75 E2210.49736
G1 X-2.749 Y33.25 E2211.80698
G1 X-52.249 Y33.25 E2213.86495
G0 F12000 X-51.749 Y32.75
G0 X-50.499 Y31.949
; TYPE:FILL
G1 F1800 X-50.5 Y3.049 E2215.06648
G0 F12000 X-50 Y3.049
G1 F1800 X-49.999 Y31.949 E2216.268
G0 F12000 X-49.499 Y31.949
G1 F1800 X-49.5 Y3.049 E2217.46952
G0 F12000 X-49 Y3.049
G1 F1800 X-48.999 Y31.949 E2218.67104
G0 F12000 X-48.499 Y31.949
G1 F1800 X-48.5 Y3.049 E2219.87256
G0 F12000 X-48 Y3.049
G1 F1800 X-47.999 Y31.949 E2221.07409
G0 F12000 X-47.499 Y31.949
G1 F1800 X-47.5 Y3.049 E2222.27561
G0 F12000 X-47 Y3.049
G1 F1800 X-46.999 Y31.949 E2223.47713
G0 F12000 X-46.499 Y31.949
G1 F1800 X-46.5 Y3.049 E2224.67865
G0 F12000 X-46 Y3.049
G1 F1800 X-45.999 Y31.949 E2225.88018
G0 F12000 X-45.499 Y31.949
G1 F1800 X-45.5 Y3.049 E2227.0817
G0 F12000 X-45 Y3.049
G1 F1800 X-44.999 Y31.949 E2228.28322
G0 F12000 X-44.499 Y31.949
G1 F1800 X-44.5 Y3.049 E2229.48474
G0 F12000 X-44 Y3.049
G1 F1800 X-43.999 Y31.949 E2230.68627
G0 F12000 X-43.499 Y31.949
G1 F1800 X-43.5 Y3.049 E2231.88779
G0 F12000 X-43 Y3.049
G1 F1800 X-42.999 Y31.949 E2233.08931
G0 F12000 X-42.499 Y31.949
G1 F1800 X-42.5 Y3.049 E2234.29083
G0 F12000 X-42 Y3.049
G1 F1800 X-41.999 Y31.949 E2235.49236
G0 F12000 X-41.499 Y31.949
G1 F1800 X-41.5 Y3.049 E2236.69388
G0 F12000 X-41 Y3.049
G1 F1800 X-40.999 Y31.949 E2237.8954
G0 F12000 X-40.499 Y31.949
G1 F1800 X-40.5 Y3.049 E2239.09692
G0 F12000 X-40 Y3.049
G1 F1800 X-39.999 Y31.949 E2240.29845
G0 F12000 X-39.499 Y31.949
G1 F1800 X-39.5 Y3.049 E2241.49997
G0 F12000 X-39 Y3.049
G1 F1800 X-38.999 Y31.949 E2242.70149
G0 F12000 X-38.499 Y31.949
G1 F1800 X-38.5 Y3.049 E2243.90301
G0 F12000 X-38 Y3.049
G1 F1800 X-37.999 Y31.949 E2245.10453
G0 F12000 X-37.499 Y31.949
G1 F1800 X-37.5 Y3.049 E2246.30606
G0 F12000 X-37 Y3.049
G1 F1800 X-36.999 Y31.949 E2247.50758
G0 F12000 X-36.499 Y31.949
G1 F1800 X-36.5 Y3.049 E2248.7091
G0 F12000 X-36 Y3.049
G1 F1800 X-35.999 Y31.949 E2249.91062
G0 F12000 X-35.499 Y31.949
G1 F1800 X-35.5 Y3.049 E2251.11215
G0 F12000 X-35 Y3.049
G1 F1800 X-34.999 Y31.949 E2252.31367
G0 F12000 X-34.499 Y31.949
G1 F1800 X-34.5 Y3.049 E2253.51519
G0 F12000 X-34 Y3.049
G1 F1800 X-33.999 Y31.949 E2254.71671
G0 F12000 X-33.499 Y31.949
G1 F1800 X-33.5 Y3.049 E2255.91824
G0 F12000 X-33 Y3.049
G1 F1800 X-32.999 Y31.949 E2257.11976
G0 F12000 X-32.499 Y31.949
G1 F1800 X-32.5 Y3.049 E2258.32128
G0 F12000 X-32 Y3.049
G1 F1800 X-31.999 Y31.949 E2259.5228
G0 F12000 X-31.499 Y31.949
G1 F1800 X-31.5 Y3.049 E2260.72433
G0 F12000 X-31 Y3.049
G1 F1800 X-30.999 Y31.949 E2261.92585
G0 F12000 X-30.499 Y31.949
G1 F1800 X-30.5 Y3.049 E2263.12737
G0 F12000 X-30 Y3.049
G1 F1800 X-29.999 Y31.949 E2264.32889
G0 F12000 X-29.499 Y31.949
G1 F1800 X-29.5 Y3.049 E2265.53041
G0 F12000 X-29 Y3.049
G1 F1800 X-28.999 Y31.949 E2266.73194
G0 F12000 X-28.499 Y31.949
G1 F1800 X-28.5 Y3.049 E2267.93346
G0 F12000 X-28 Y3.049
G1 F1800 X-27.999 Y31.949 E2269.13498
G0 F12000 X-27.499 Y31.949
G1 F1800 X-27.5 Y3.049 E2270.3365
G0 F12000 X-27 Y3.049
G1 F1800 X-26.999 Y31.95 E2271.53807
G0 F12000 X-26.499 Y31.95
G1 F1800 X-26.5 Y3.049 E2272.73963
G0 F12000 X-26 Y3.049
G1 F1800 X-25.999 Y31.95 E2273.9412
G0 F12000 X-25.499 Y31.95
G1 F1800 X-25.5 Y3.049 E2275.14276
G0 F12000 X-25 Y3.049
G1 F1800 X-24.999 Y31.95 E2276.34432
G0 F12000 X-24.499 Y31.95
G1 F1800 X-24.5 Y3.049 E2277.54589
G0 F12000 X-24 Y3.049
G1 F1800 X-23.999 Y31.95 E2278.74745
G0 F12000 X-23.499 Y31.95
G1 F1800 X-23.5 Y3.049 E2279.94902
G0 F12000 X-23 Y3.049
G1 F1800 X-22.999 Y31.95 E2281.15058
G0 F12000 X-22.499 Y31.95
G1 F1800 X-22.5 Y3.049 E2282.35214
G0 F12000 X-22 Y3.049
G1 F1800 X-21.999 Y31.95 E2283.55371
G0 F12000 X-21.499 Y31.95
G1 F1800 X-21.5 Y3.049 E2284.75527
G0 F12000 X-21 Y3.049
G1 F1800 X-20.999 Y31.95 E2285.95684
G0 F12000 X-20.499 Y31.95
G1 F1800 X-20.5 Y3.049 E2287.1584
G0 F12000 X-20 Y3.049
G1 F1800 X-19.999 Y31.95 E2288.35996
G0 F12000 X-19.499 Y31.95
G1 F1800 X-19.5 Y3.049 E2289.56153
G0 F12000 X-19 Y3.049
G1 F1800 X-18.999 Y31.95 E2290.76309
G0 F12000 X-18.499 Y31.95
G1 F1800 X-18.5 Y3.049 E2291.96466
G0 F12000 X-18 Y3.049
G1 F1800 X-17.999 Y31.95 E2293.16622
G0 F12000 X-17.499 Y31.95
G1 F1800 X-17.5 Y3.049 E2294.36778
G0 F12000 X-17 Y3.049
G1 F1800 X-16.999 Y31.95 E2295.56935
G0 F12000 X-16.499 Y31.95
G1 F1800 X-16.5 Y3.049 E2296.77091
G0 F12000 X-16 Y3.049
G1 F1800 X-15.999 Y31.95 E2297.97248
G0 F12000 X-15.499 Y31.95
G1 F1800 X-15.5 Y3.049 E2299.17404
G0 F12000 X-15 Y3.049
G1 F1800 X-14.999 Y31.95 E2300.3756
G0 F12000 X-14.499 Y31.95
G1 F1800 X-14.5 Y3.049 E2301.57717
G0 F12000 X-14 Y3.049
G1 F1800 X-13.999 Y31.95 E2302.77873
G0 F12000 X-13.499 Y31.95
G1 F1800 X-13.5 Y3.049 E2303.9803
G0 F12000 X-13 Y3.049
G1 F1800 X-12.999 Y31.95 E2305.18186
G0 F12000 X-12.499 Y31.95
G1 F1800 X-12.5 Y3.049 E2306.38342
G0 F12000 X-12 Y3.049
G1 F1800 X-11.999 Y31.95 E2307.58499
G0 F12000 X-11.499 Y31.95
G1 F1800 X-11.5 Y3.049 E2308.78655
G0 F12000 X-11 Y3.049
G1 F1800 X-10.999 Y31.95 E2309.98811
G0 F12000 X-10.499 Y31.95
G1 F1800 X-10.5 Y3.049 E2311.18968
G0 F12000 X-10 Y3.049
G1 F1800 X-9.999 Y31.95 E2312.39124
G0 F12000 X-9.499 Y31.95
G1 F1800 X-9.5 Y3.049 E2313.59281
G0 F12000 X-9 Y3.049
G1 F1800 X-8.999 Y31.95 E2314.79437
G0 F12000 X-8.499 Y31.95
G1 F1800 X-8.5 Y3.049 E2315.99593
G0 F12000 X-8 Y3.049
G1 F1800 X-7.999 Y31.95 E2317.1975
G0 F12000 X-7.499 Y31.95
G1 F1800 X-7.5 Y3.049 E2318.39906
G0 F12000 X-7 Y3.049
G1 F1800 X-6.999 Y31.95 E2319.60063
G0 F12000 X-6.499 Y31.95
G1 F1800 X-6.5 Y3.049 E2320.80219
G0 F12000 X-6 Y3.049
G1 F1800 X-5.999 Y31.95 E2322.00375
G0 F12000 X-5.499 Y31.95
G1 F1800 X-5.5 Y3.049 E2323.20532
G0 F12000 X-5 Y3.049
G1 F1800 X-4.999 Y31.95 E2324.40688
G0 F12000 X-4.499 Y31.95
G1 F1800 X-4.5 Y3.049 E2325.60845
G1 F6600 E2318.80845
G1 Z1.3
G0 F12000 X-3.249 Y2.25
G0 X-2.499 Y1.5
G0 X1.001 Y1.5
G0 X2.5 Y1.5
G0 X3.25 Y2.25
G0 X3.25 Y32.75
G0 X2.75 Y33.25
G0 X3.25 Y32.75
G0 X3.75 Y32.25
; TYPE:WALL-INNER
G1 Z1
G1 F6600 E2325.70845
G1 F1500 X3.75 Y2.75 E2326.93491
G1 X51.25 Y2.75 E2328.90973
G1 X51.25 Y32.25 E2330.1362
G1 X3.75 Y32.25 E2332.11102
G0 F12000 X3.25 Y32.75
G1 F1500 X3.25 Y2.25 E2333.37907
G1 X51.75 Y2.25 E2335.39546
G1 X51.75 Y32.75 E2336.6635
G1 X3.25 Y32.75 E2338.6799
G0 F12000 X2.75 Y33.25
; TYPE:WALL-OUTER
G1 F600 X2.75 Y1.75 E2339.98952
G1 X52.25 Y1.75 E2342.04749
G1 X52.25 Y33.25 E2343.35711
G1 X2.75 Y33.25 E2345.41508
G0 F12000 X3.25 Y32.75
G0 X4.5 Y31.95
; TYPE:FILL
G1 F1800 X4.5 Y3.049 E2346.61664
G0 F12000 X5 Y3.049
G1 F1800 X5 Y31.95 E2347.8182
G0 F12000 X5.5 Y31.95
G1 F1800 X5.5 Y3.049 E2349.01977
G0 F12000 X6 Y3.049
G1 F1800 X6 Y31.95 E2350.22133
G0 F12000 X6.5 Y31.95
G1 F1800 X6.5 Y3.049 E2351.4229
G0 F12000 X7 Y3.049
G1 F1800 X7 Y31.95 E2352.62446
G0 F12000 X7.5 Y31.95
G1 F1800 X7.5 Y3.049 E2353.82602
G0 F12000 X8 Y3.049
G1 F1800 X8 Y31.95 E2355.02759
G0 F12000 X8.5 Y31.95
G1 F1800 X8.5 Y3.049 E2356.22915
G0 F12000 X9 Y3.049
G1 F1800 X9 Y31.95 E2357.43072
G0 F12000 X9.5 Y31.95
G1 F1800 X9.5 Y3.049 E2358.63228
G0 F12000 X10 Y3.049
G1 F1800 X10 Y31.95 E2359.83384
G0 F12000 X10.5 Y31.95
G1 F1800 X10.5 Y3.049 E2361.03541
G0 F12000 X11 Y3.049
G1 F1800 X11 Y31.95 E2362.23697
G0 F12000 X11.5 Y31.95
G1 F1800 X11.5 Y3.049 E2363.43854
G0 F12000 X12 Y3.049
G1 F1800 X12 Y31.95 E2364.6401
G0 F12000 X12.5 Y31.95
G1 F1800 X12.5 Y3.049 E2365.84166
G0 F12000 X13 Y3.049
G1 F1800 X13 Y31.95 E2367.04323
G0 F12000 X13.5 Y31.95
G1 F1800 X13.5 Y3.049 E2368.24479
G0 F12000 X14 Y3.049
G1 F1800 X14 Y31.95 E2369.44636
G0 F12000 X14.5 Y31.95
G1 F1800 X14.5 Y3.049 E2370.64792
G0 F12000 X15 Y3.049
G1 F1800 X15 Y31.949 E2371.84944
G0 F12000 X15.5 Y31.949
G1 F1800 X15.5 Y3.049 E2373.05096
G0 F12000 X16 Y3.049
G1 F1800 X16 Y31.949 E2374.25249
G0 F12000 X16.5 Y31.949
G1 F1800 X16.5 Y3.049 E2375.45401
G0 F12000 X17 Y3.049
G1 F1800 X17 Y31.949 E2376.65553
G0 F12000 X17.5 Y31.949
G1 F1800 X17.5 Y3.049 E2377.85705
G0 F12000 X18 Y3.049
G1 F1800 X18 Y31.949 E2379.05858
G0 F12000 X18.5 Y31.949
G1 F1800 X18.5 Y3.049 E2380.2601
G0 F12000 X19 Y3.049
G1 F1800 X19 Y31.949 E2381.46162
G0 F12000 X19.5 Y31.949
G1 F1800 X19.5 Y3.049 E2382.66314
G0 F12000 X20 Y3.049
G1 F1800 X20 Y31.949 E2383.86467
G0 F12000 X20.5 Y31.949
G1 F1800 X20.5 Y3.049 E2385.06619
G0 F12000 X21 Y3.049
G1 F1800 X21 Y31.949 E2386.26771
G0 F12000 X21.5 Y31.949
G1 F1800 X21.5 Y3.049 E2387.46923
G0 F12000 X22 Y3.049
G1 F1800 X22 Y31.949 E2388.67076
G0 F12000 X22.5 Y31.949
G1 F1800 X22.5 Y3.049 E2389.87228
G0 F12000 X23 Y3.049
G1 F1800 X23 Y31.949 E2391.0738
G0 F12000 X23.5 Y31.949
G1 F1800 X23.5 Y3.049 E2392.27532
G0 F12000 X24 Y3.049
G1 F1800 X24 Y31.949 E2393.47684
G0 F12000 X24.5 Y31.949
G1 F1800 X24.5 Y3.049 E2394.67837
G0 F12000 X25 Y3.049
G1 F1800 X25 Y31.949 E2395.87989
G0 F12000 X25.5 Y31.949
G1 F1800 X25.5 Y3.049 E2397.08141
G0 F12000 X26 Y3.049
G1 F1800 X26 Y31.949 E2398.28293
G0 F12000 X26.5 Y31.949
G1 F1800 X26.5 Y3.049 E2399.48446
G0 F12000 X27 Y3.049
G1 F1800 X27 Y31.949 E2400.68598
G0 F12000 X27.5 Y31.949
G1 F1800 X27.5 Y3.049 E2401.8875
G0 F12000 X28 Y3.049
G1 F1800 X28 Y31.949 E2403.08902
G0 F12000 X28.5 Y31.949
G1 F1800 X28.5 Y3.049 E2404.29055
G0 F12000 X29 Y3.049
G1 F1800 X29 Y31.949 E2405.49207
G0 F12000 X29.5 Y31.949
G1 F1800 X29.5 Y3.049 E2406.69359
G0 F12000 X30 Y3.049
G1 F1800 X30 Y31.949 E2407.89511
G0 F12000 X30.5 Y31.949
G1 F1800 X30.5 Y3.049 E2409.09664
G0 F12000 X31 Y3.049
G1 F1800 X31 Y31.949 E2410.29816
G0 F12000 X31.5 Y31.949
G1 F1800 X31.5 Y3.049 E2411.49968
G0 F12000 X32 Y3.049
G1 F1800 X32 Y31.949 E2412.7012
G0 F12000 X32.5 Y31.949
G1 F1800 X32.5 Y3.049 E2413.90273
G0 F12000 X33 Y3.049
G1 F1800 X33 Y31.949 E2415.10425
G0 F12000 X33.5 Y31.949
G1 F1800 X33.5 Y3.049 E2416.30577
G0 F12000 X34 Y3.049
G1 F1800 X34 Y31.949 E2417.50729
G0 F12000 X34.5 Y31.949
G1 F1800 X34.5 Y3.049 E2418.70881
G0 F12000 X35 Y3.049
G1 F1800 X35 Y31.949 E2419.91034
G0 F12000 X35.5 Y31.949
G1 F1800 X35.5 Y3.049 E2421.11186
G0 F12000 X36 Y3.049
G1 F1800 X36 Y31.949 E2422.31338
G0 F12000 X36.5 Y31.949
G1 F1800 X36.5 Y3.049 E2423.5149
G0 F12000 X37 Y3.049
G1 F1800 X37 Y31.949 E2424.71643
G0 F12000 X37.5 Y31.949
G1 F1800 X37.5 Y3.049 E2425.91795
G0 F12000 X38 Y3.049
G1 F1800 X38 Y31.949 E2427.11947
G0 F12000 X38.5 Y31.949
G1 F1800 X38.5 Y3.049 E2428.32099
G0 F12000 X39 Y3.049
G1 F1800 X39 Y31.949 E2429.52252
G0 F12000 X39.5 Y31.949
G1 F1800 X39.5 Y3.049 E2430.72404
G0 F12000 X40 Y3.049
G1 F1800 X40 Y31.949 E2431.92556
G0 F12000 X40.5 Y31.949
G1 F1800 X40.5 Y3.049 E2433.12708
G0 F12000 X41 Y3.049
G1 F1800 X41 Y31.949 E2434.32861
G0 F12000 X41.5 Y31.949
G1 F1800 X41.5 Y3.049 E2435.53013
G0 F12000 X42 Y3.049
G1 F1800 X42 Y31.949 E2436.73165
G0 F12000 X42.5 Y31.949
G1 F1800 X42.5 Y3.049 E2437.93317
G0 F12000 X43 Y3.049
G1 F1800 X43 Y31.949 E2439.1347
G0 F12000 X43.5 Y31.949
G1 F1800 X43.5 Y3.049 E2440.33622
G0 F12000 X44 Y3.049
G1 F1800 X44 Y31.949 E2441.53774
G0 F12000 X44.5 Y31.949
G1 F1800 X44.5 Y3.049 E2442.73926
G0 F12000 X45 Y3.049
G1 F1800 X45 Y31.949 E2443.94078
G0 F12000 X45.5 Y31.949
G1 F1800 X45.5 Y3.049 E2445.14231
G0 F12000 X46 Y3.049
G1 F1800 X46 Y31.949 E2446.34383
G0 F12000 X46.5 Y31.949
G1 F1800 X46.5 Y3.049 E2447.54535
G0 F12000 X47 Y3.049
G1 F1800 X47 Y31.949 E2448.74687
G0 F12000 X47.5 Y31.949
G1 F1800 X47.5 Y3.049 E2449.9484
G0 F12000 X48 Y3.049
G1 F1800 X48 Y31.949 E2451.14992
G0 F12000 X48.5 Y31.949
G1 F1800 X48.5 Y3.049 E2452.35144
G0 F12000 X49 Y3.049
G1 F1800 X49 Y31.949 E2453.55296
G0 F12000 X49.5 Y31.949
G1 F1800 X49.5 Y3.049 E2454.75449
G0 F12000 X50 Y3.049
G1 F1800 X50 Y31.949 E2455.95601
G0 F12000 X50.5 Y31.949
G1 F1800 X50.5 Y3.049 E2457.15753
G1 F6600 E2450.35753
G1 Z1.3
G0 F12000 X51.75 Y2.25
G0 X52.5 Y1.5
G0 X52.5 Y-1.499
G0 X51.75 Y-2.249
G0 X3.25 Y-2.249
G0 X2.75 Y-1.749
G0 X3.25 Y-2.249
G0 X3.75 Y-2.749
; TYPE:WALL-INNER
G1 Z1
G1 F6600 E2457.25753
G1 F1500 X3.75 Y-32.249 E2458.484
G1 X51.25 Y-32.249 E2460.45882
G1 X51.25 Y-2.749 E2461.68529
G1 X3.75 Y-2.749 E2463.66011
G0 F12000 X3.25 Y-2.249
G1 F1500 X3.25 Y-32.749 E2464.92815
G1 X51.75 Y-32.749 E2466.94455
G1 X51.75 Y-2.249 E2468.21259
G1 X3.25 Y-2.249 E2470.22898
G0 F12000 X2.75 Y-1.749
; TYPE:WALL-OUTER
G1 F600 X2.75 Y-33.249 E2471.5386
G1 X52.25 Y-33.249 E2473.59657
G1 X52.25 Y-1.749 E2474.90619
G1 X2.75 Y-1.749 E2476.96416
G0 F12000 X3.25 Y-2.249
G0 X4.5 Y-3.048
; TYPE:FILL
G1 F1800 X4.499 Y-31.949 E2478.16572
G0 F12000 X4.999 Y-31.949
G1 F1800 X5 Y-3.048 E2479.36729
G0 F12000 X5.5 Y-3.048
G1 F1800 X5.499 Y-31.949 E2480.56885
G0 F12000 X5.999 Y-31.949
G1 F1800 X6 Y-3.048 E2481.77042
G0 F12000 X6.5 Y-3.048
G1 F1800 X6.499 Y-31.949 E2482.97198
G0 F12000 X6.999 Y-31.949
G1 F1800 X7 Y-3.048 E2484.17354
G0 F12000 X7.5 Y-3.048
G1 F1800 X7.499 Y-31.949 E2485.37511
G0 F12000 X7.999 Y-31.949
G1 F1800 X8 Y-3.048 E2486.57667
G0 F12000 X8.5 Y-3.048
G1 F1800 X8.499 Y-31.949 E2487.77824
G0 F12000 X8.999 Y-31.949
G1 F1800 X9 Y-3.048 E2488.9798
G0 F12000 X9.5 Y-3.048
G1 F1800 X9.499 Y-31.949 E2490.18136
G0 F12000 X9.999 Y-31.949
G1 F1800 X10 Y-3.048 E2491.38293
G0 F12000 X10.5 Y-3.048
G1 F1800 X10.499 Y-31.949 E2492.58449
G0 F12000 X10.999 Y-31.949
G1 F1800 X11 Y-3.048 E2493.78606
G0 F12000 X11.5 Y-3.048
G1 F1800 X11.499 Y-31.949 E2494.98762
G0 F12000 X11.999 Y-31.949
G1 F1800 X12 Y-3.048 E2496.18918
G0 F12000 X12.5 Y-3.048
G1 F1800 X12.499 Y-31.949 E2497.39075
G0 F12000 X12.999 Y-31.949
G1 F1800 X13 Y-3.048 E2498.59231
G0 F12000 X13.5 Y-3.048
G1 F1800 X13.499 Y-31.949 E2499.79388
G0 F12000 X13.999 Y-31.949
G1 F1800 X14 Y-3.048 E2500.99544
G0 F12000 X14.5 Y-3.048
G1 F1800 X14.499 Y-31.949 E2502.197
G0 F12000 X14.999 Y-31.949
G1 F1800 X15 Y-3.048 E2503.39857
G0 F12000 X15.5 Y-3.048
G1 F1800 X15.499 Y-31.949 E2504.60013
G0 F12000 X15.999 Y-31.949
G1 F1800 X16 Y-3.048 E2505.8017
G0 F12000 X16.5 Y-3.048
G1 F1800 X16.499 Y-31.949 E2507.00326
G0 F12000 X16.999 Y-31.949
G1 F1800 X17 Y-3.048 E2508.20482
G0 F12000 X17.5 Y-3.048
G1 F1800 X17.499 Y-31.949 E2509.40639
G0 F12000 X17.999 Y-31.949
G1 F1800 X18 Y-3.048 E2510.60795
G0 F12000 X18.5 Y-3.048
G1 F1800 X18.499 Y-31.949 E2511.80952
G0 F12000 X18.999 Y-31.949
G1 F1800 X19 Y-3.048 E2513.01108
G0 F12000 X19.5 Y-3.048
G1 F1800 X19.499 Y-31.949 E2514.21264
G0 F12000 X19.999 Y-31.949
G1 F1800 X20 Y-3.048 E2515.41421
G0 F12000 X20.5 Y-3.048
G1 F1800 X20.499 Y-31.949 E2516.61577
G0 F12000 X20.999 Y-31.949
G1 F1800 X21 Y-3.048 E2517.81734
G0 F12000 X21.5 Y-3.048
G1 F1800 X21.499 Y-31.949 E2519.0189
G0 F12000 X21.999 Y-31.949
G1 F1800 X22 Y-3.048 E2520.22046
G0 F12000 X22.5 Y-3.048
G1 F1800 X22.499 Y-31.949 E2521.42203
G0 F12000 X22.999 Y-31.949
G1 F1800 X23 Y-3.048 E2522.62359
G0 F12000 X23.5 Y-3.048
G1 F1800 X23.499 Y-31.949 E2523.82515
G0 F12000 X23.999 Y-31.949
G1 F1800 X24 Y-3.048 E2525.02672
G0 F12000 X24.5 Y-3.048
G1 F1800 X24.499 Y-31.949 E2526.22828
G0 F12000 X24.999 Y-31.949
G1 F1800 X25 Y-3.048 E2527.42985
G0 F12000 X25.5 Y-3.048
G1 F1800 X25.499 Y-31.949 E2528.63141
G0 F12000 X25.999 Y-31.949
G1 F1800 X26 Y-3.048 E2529.83297
G0 F12000 X26.5 Y-3.048
G1 F1800 X26.499 Y-31.949 E2531.03454
G0 F12000 X26.999 Y-31.949
G1 F1800 X27 Y-3.048 E2532.2361
G0 F12000 X27.5 Y-3.048
G1 F1800 X27.499 Y-31.949 E2533.43767
G0 F12000 X27.999 Y-31.948
G1 F1800 X28 Y-3.048 E2534.63919
G0 F12000 X28.5 Y-3.048
G1 F1800 X28.499 Y-31.948 E2535.84071
G0 F12000 X28.999 Y-31.948
G1 F1800 X29 Y-3.048 E2537.04223
G0 F12000 X29.5 Y-3.048
G1 F1800 X29.499 Y-31.948 E2538.24376
G0 F12000 X29.999 Y-31.948
G1 F1800 X30 Y-3.048 E2539.44528
G0 F12000 X30.5 Y-3.048
G1 F1800 X30.499 Y-31.948 E2540.6468
G0 F12000 X30.999 Y-31.948
G1 F1800 X31 Y-3.048 E2541.84832
G0 F12000 X31.5 Y-3.048
G1 F1800 X31.499 Y-31.948 E2543.04985
G0 F12000 X31.999 Y-31.948
G1 F1800 X32 Y-3.048 E2544.25137
G0 F12000 X32.5 Y-3.048
G1 F1800 X32.499 Y-31.948 E2545.45289
G0 F12000 X32.999 Y-31.948
G1 F1800 X33 Y-3.048 E2546.65441
G0 F12000 X33.5 Y-3.048
G1 F1800 X33.499 Y-31.948 E2547.85594
G0 F12000 X33.999 Y-31.948
G1 F1800 X34 Y-3.048 E2549.05746
G0 F12000 X34.5 Y-3.048
G1 F1800 X34.499 Y-31.948 E2550.25898
G0 F12000 X34.999 Y-31.948
G1 F1800 X35 Y-3.048 E2551.4605
G0 F12000 X35.5 Y-3.048
G1 F1800 X35.499 Y-31.948 E2552.66202
G0 F12000 X35.999 Y-31.948
G1 F1800 X36 Y-3.048 E2553.86355
G0 F12000 X36.5 Y-3.048
G1 F1800 X36.499 Y-31.948 E2555.06507
G0 F12000 X36.999 Y-31.948
G1 F1800 X37 Y-3.048 E2556.26659
G0 F12000 X37.5 Y-3.048
G1 F1800 X37.499 Y-31.948 E2557.46811
G0 F12000 X37.999 Y-31.948
G1 F1800 X38 Y-3.048 E2558.66964
G0 F12000 X38.5 Y-3.048
G1 F1800 X38.499 Y-31.948 E2559.87116
G0 F12000 X38.999 Y-31.948
G1 F1800 X39 Y-3.048 E2561.07268
G0 F12000 X39.5 Y-3.048
G1 F1800 X39.499 Y-31.948 E2562.2742
G0 F12000 X39.999 Y-31.948
G1 F1800 X40 Y-3.048 E2563.47573
G0 F12000 X40.5 Y-3.048
G1 F1800 X40.499 Y-31.948 E2564.67725
G0 F12000 X40.999 Y-31.948
G1 F1800 X41 Y-3.048 E2565.87877
G0 F12000 X41.5 Y-3.048
G1 F1800 X41.499 Y-31.948 E2567.08029
G0 F12000 X41.999 Y-31.948
G1 F1800 X42 Y-3.048 E2568.28182
G0 F12000 X42.5 Y-3.048
G1 F1800 X42.499 Y-31.948 E2569.48334
G0 F12000 X42.999 Y-31.948
G1 F1800 X43 Y-3.048 E2570.68486
G0 F12000 X43.5 Y-3.048
G1 F1800 X43.499 Y-31.948 E2571.88638
G0 F12000 X43.999 Y-31.948
G1 F1800 X44 Y-3.048 E2573.08791
G0 F12000 X44.5 Y-3.048
G1 F1800 X44.499 Y-31.948 E2574.28943
G0 F12000 X44.999 Y-31.948
G1 F1800 X45 Y-3.048 E2575.49095
G0 F12000 X45.5 Y-3.048
G1 F1800 X45.499 Y-31.948 E2576.69247
G0 F12000 X45.999 Y-31.948
G1 F1800 X46 Y-3.048 E2577.89399
G0 F12000 X46.5 Y-3.048
G1 F1800 X46.499 Y-31.948 E2579.09552
G0 F12000 X46.999 Y-31.948
G1 F1800 X47 Y-3.048 E2580.29704
G0 F12000 X47.5 Y-3.048
G1 F1800 X47.499 Y-31.948 E2581.49856
G0 F12000 X47.999 Y-31.948
G1 F1800 X48 Y-3.048 E2582.70008
G0 F12000 X48.5 Y-3.048
G1 F1800 X48.499 Y-31.948 E2583.90161
G0 F12000 X48.999 Y-31.948
G1 F1800 X49 Y-3.048 E2585.10313
G0 F12000 X49.5 Y-3.048
G1 F1800 X49.499 Y-31.948 E2586.30465
G0 F12000 X49.999 Y-31.948
G1 F1800 X50 Y-3.048 E2587.50617
G0 F12000 X50.5 Y-3.048
G1 F1800 X50.499 Y-31.948 E2588.7077
; Layer Change GCode
; LAYER:4
G1 F6600 E2581.9077
G1 Z1.3
G0 F12000 X50.499 Y-31.948 Z1.5
G0 X3.25 Y-32.749
G0 X2.5 Y-33.499
G0 X1.001 Y-33.499
G0 X-0.999 Y-33.499
G0 X-2.499 Y-33.499
G0 X-3.249 Y-32.749
G0 X-51.749 Y-2.249
G0 X-52.249 Y-1.749
G0 X-51.749 Y-2.249
G0 X-51.249 Y-2.749
; TYPE:WALL-INNER
G1 Z1.2
G1 F6600 E2588.8077
G1 F1500 X-51.249 Y-32.249 E2590.03416
G1 X-3.749 Y-32.249 E2592.00898
G1 X-3.749 Y-2.749 E2593.23545
G1 X-51.249 Y-2.749 E2595.21027
G0 F12000 X-51.749 Y-2.249
G1 F1500 X-51.749 Y-32.749 E2596.47831
G1 X-3.249 Y-32.749 E2598.49471
G1 X-3.249 Y-2.249 E2599.76275
G1 X-51.749 Y-2.249 E2601.77915
G0 F12000 X-52.249 Y-1.749
; TYPE:WALL-OUTER
G1 F600 X-52.249 Y-33.249 E2603.08877
G1 X-2.749 Y-33.249 E2605.14674
G1 X-2.749 Y-1.749 E2606.45636
G1 X-52.249 Y-1.749 E2608.51433
G0 F12000 X-51.749 Y-2.249
G0 X-50.949 Y-3.499
; TYPE:FILL
G1 F1800 X-4.049 Y-3.499 E2610.4642
G0 F12000 X-4.049 Y-3.999
G1 F1800 X-50.949 Y-3.999 E2612.41408
G0 F12000 X-50.949 Y-4.499
G1 F1800 X-4.049 Y-4.5 E2614.36395
G0 F12000 X-4.049 Y-5
G1 F1800 X-50.949 Y-4.999 E2616.31383
G0 F12000 X-50.949 Y-5.499
G1 F1800 X-4.049 Y-5.5 E2618.2637
G0 F12000 X-4.049 Y-6
G1 F1800 X-50.949 Y-5.999 E2620.21358
G0 F12000 X-50.949 Y-6.499
G1 F1800 X-4.049 Y-6.5 E2622.16345
G0 F12000 X-4.049 Y-7
G1 F1800 X-50.949 Y-6.999 E2624.11333
G0 F12000 X-50.949 Y-7.499
G1 F1800 X-4.049 Y-7.5 E2626.0632
G0 F12000 X-4.049 Y-8
G1 F1800 X-50.949 Y-7.999 E2628.01308
G0 F12000 X-50.949 Y-8.499
G1 F1800 X-4.049 Y-8.5 E2629.96296
G0 F12000 X-4.049 Y-9
G1 F1800 X-50.949 Y-8.999 E2631.91283
G0 F12000 X-50.949 Y-9.499
G1 F1800 X-4.049 Y-9.5 E2633.86271
G0 F12000 X-4.049 Y-10
G1 F1800 X-50.949 Y-9.999 E2635.81258
G0 F12000 X-50.949 Y-10.499
G1 F1800 X-4.049 Y-10.5 E2637.76246
G0 F12000 X-4.049 Y-11
G1 F1800 X-50.949 Y-10.999 E2639.71233
G0 F12000 X-50.949 Y-11.499
G1 F1800 X-4.049 Y-11.5 E2641.66221
G0 F12000 X-4.049 Y-12
G1 F1800 X-50.949 Y-11.999 E2643.61208
G0 F12000 X-50.949 Y-12.499
G1 F1800 X-4.049 Y-12.5 E2645.56196
G0 F12000 X-4.049 Y-13
G1 F1800 X-50.949 Y-12.999 E2647.51183
G0 F12000 X-50.949 Y-13.499
G1 F1800 X-4.049 Y-13.5 E2649.46171
G0 F12000 X-4.049 Y-14
G1 F1800 X-50.949 Y-13.999 E2651.41159
G0 F12000 X-50.949 Y-14.499
G1 F1800 X-4.049 Y-14.5 E2653.36146
G0 F12000 X-4.049 Y-15
G1 F1800 X-50.949 Y-14.999 E2655.31134
G0 F12000 X-50.949 Y-15.499
G1 F1800 X-4.049 Y-15.5 E2657.26121
G0 F12000 X-4.049 Y-16
G1 F1800 X-50.949 Y-15.999 E2659.21109
G0 F12000 X-50.949 Y-16.499
G1 F1800 X-4.049 Y-16.5 E2661.16096
G0 F12000 X-4.049 Y-17
G1 F1800 X-50.949 Y-16.999 E2663.11084
G0 F12000 X-50.949 Y-17.499
G1 F1800 X-4.048 Y-17.5 E2665.06075
G0 F12000 X-4.048 Y-18
G1 F1800 X-50.949 Y-17.999 E2667.01067
G0 F12000 X-50.949 Y-18.499
G1 F1800 X-4.048 Y-18.5 E2668.96059
G0 F12000 X-4.048 Y-19
G1 F1800 X-50.949 Y-18.999 E2670.91051
G0 F12000 X-50.949 Y-19.499
G1 F1800 X-4.048 Y-19.5 E2672.86042
G0 F12000 X-4.048 Y-20
G1 F1800 X-50.949 Y-19.999 E2674.81034
G0 F12000 X-50.949 Y-20.499
G1 F1800 X-4.048 Y-20.5 E2676.76026
G0 F12000 X-4.048 Y-21
G1 F1800 X-50.949 Y-20.999 E2678.71017
G0 F12000 X-50.949 Y-21.499
G1 F1800 X-4.048 Y-21.5 E2680.66009
G0 F12000 X-4.048 Y-22
G1 F1800 X-50.949 Y-21.999 E2682.61001
G0 F12000 X-50.949 Y-22.499
G1 F1800 X-4.048 Y-22.5 E2684.55992
G0 F12000 X-4.048 Y-23
G1 F1800 X-50.949 Y-22.999 E2686.50984
G0 F12000 X-50.949 Y-23.499
G1 F1800 X-4.048 Y-23.5 E2688.45976
G0 F12000 X-4.048 Y-24
G1 F1800 X-50.949 Y-23.999 E2690.40968
G0 F12000 X-50.949 Y-24.499
G1 F1800 X-4.048 Y-24.5 E2692.35959
G0 F12000 X-4.048 Y-25
G1 F1800 X-50.949 Y-24.999 E2694.30951
G0 F12000 X-50.949 Y-25.499
G1 F1800 X-4.048 Y-25.5 E2696.25943
G0 F12000 X-4.048 Y-26
G1 F1800 X-50.949 Y-25.999 E2698.20934
G0 F12000 X-50.949 Y-26.499
G1 F1800 X-4.048 Y-26.5 E2700.15926
G0 F12000 X-4.048 Y-27
G1 F1800 X-50.949 Y-26.999 E2702.10918
G0 F12000 X-50.949 Y-27.499
G1 F1800 X-4.048 Y-27.5 E2704.05909
G0 F12000 X-4.048 Y-28
G1 F1800 X-50.949 Y-27.999 E2706.00901
G0 F12000 X-50.949 Y-28.499
G1 F1800 X-4.048 Y-28.5 E2707.95893
G0 F12000 X-4.048 Y-29
G1 F1800 X-50.949 Y-28.999 E2709.90885
G0 F12000 X-50.949 Y-29.499
G1 F1800 X-4.048 Y-29.5 E2711.85876
G0 F12000 X-4.048 Y-30
G1 F1800 X-50.949 Y-29.999 E2713.80868
G0 F12000 X-50.949 Y-30.499
G1 F1800 X-4.048 Y-30.5 E2715.7586
G0 F12000 X-4.048 Y-31
G1 F1800 X-50.949 Y-30.999 E2717.70851
G0 F12000 X-50.949 Y-31.499
G1 F1800 X-4.048 Y-31.5 E2719.65843
G1 F6600 E2712.85843
G1 Z1.5
G0 F12000 X-3.249 Y-2.249
G0 X-2.499 Y-1.499
G0 X-2.499 Y0.001
G0 X-2.499 Y1.5
G0 X-3.249 Y2.25
G0 X-51.749 Y32.75
G0 X-52.249 Y33.25
G0 X-51.749 Y32.75
G0 X-51.249 Y32.25
; TYPE:WALL-INNER
G1 Z1.2
G1 F6600 E2719.75843
G1 F1500 X-51.249 Y2.75 E2720.9849
G1 X-3.749 Y2.75 E2722.95972
G1 X-3.749 Y32.25 E2724.18619
G1 X-51.249 Y32.25 E2726.16101
G0 F12000 X-51.749 Y32.75
G1 F1500 X-51.749 Y2.25 E2727.42905
G1 X-3.249 Y2.25 E2729.44544
G1 X-3.249 Y32.75 E2730.71349
G1 X-51.749 Y32.75 E2732.72988
G0 F12000 X-52.249 Y33.25
; TYPE:WALL-OUTER
G1 F600 X-52.249 Y1.75 E2734.0395
G1 X-2.749 Y1.75 E2736.09747
G1 X-2.749 Y33.25 E2737.40709
G1 X-52.249 Y33.25 E2739.46506
G0 F12000 X-51.749 Y32.75
G0 X-50.949 Y31.5
; TYPE:FILL
G1 F1800 X-4.048 Y31.5 E2741.41498
G0 F12000 X-4.048 Y31
G1 F1800 X-50.949 Y31 E2743.36489
G0 F12000 X-50.949 Y30.5
G1 F1800 X-4.048 Y30.5 E2745.31481
G0 F12000 X-4.048 Y30
G1 F1800 X-50.949 Y30 E2747.26473
G0 F12000 X-50.949 Y29.5
G1 F1800 X-4.048 Y29.5 E2749.21465
G0 F12000 X-4.048 Y29
G1 F1800 X-50.949 Y29 E2751.16456
G0 F12000 X-50.949 Y28.5
G1 F1800 X-4.048 Y28.5 E2753.11448
G0 F12000 X-4.048 Y28
G1 F1800 X-50.949 Y28 E2755.0644
G0 F12000 X-50.949 Y27.5
G1 F1800 X-4.048 Y27.5 E2757.01431
G0 F12000 X-4.048 Y27
G1 F1800 X-50.949 Y27 E2758.96423
G0 F12000 X-50.949 Y26.5
G1 F1800 X-4.048 Y26.5 E2760.91415
G0 F12000 X-4.048 Y26
G1 F1800 X-50.949 Y26 E2762.86406
G0 F12000 X-50.949 Y25.5
G1 F1800 X-4.048 Y25.5 E2764.81398
G0 F12000 X-4.048 Y25
G1 F1800 X-50.949 Y25 E2766.7639
G0 F12000 X-50.949 Y24.5
G1 F1800 X-4.048 Y24.5 E2768.71382
G0 F12000 X-4.048 Y24
G1 F1800 X-50.949 Y24 E2770.66373
G0 F12000 X-50.949 Y23.5
G1 F1800 X-4.048 Y23.5 E2772.61365
G0 F12000 X-4.048 Y23
G1 F1800 X-50.949 Y23 E2774.56357
G0 F12000 X-50.949 Y22.5
G1 F1800 X-4.048 Y22.5 E2776.51348
G0 F12000 X-4.048 Y22
G1 F1800 X-50.949 Y22 E2778.4634
G0 F12000 X-50.949 Y21.5
G1 F1800 X-4.048 Y21.5 E2780.41332
G0 F12000 X-4.048 Y21
G1 F1800 X-50.949 Y21 E2782.36323
G0 F12000 X-50.949 Y20.5
G1 F1800 X-4.048 Y20.5 E2784.31315
G0 F12000 X-4.048 Y20
G1 F1800 X-50.949 Y20 E2786.26307
G0 F12000 X-50.949 Y19.5
G1 F1800 X-4.048 Y19.5 E2788.21299
G0 F12000 X-4.048 Y19
G1 F1800 X-50.949 Y19 E2790.1629
G0 F12000 X-50.949 Y18.5
G1 F1800 X-4.048 Y18.5 E2792.11282
G0 F12000 X-4.048 Y18
G1 F1800 X-50.949 Y18 E2794.06274
G0 F12000 X-50.949 Y17.5
G1 F1800 X-4.048 Y17.5 E2796.01265
G0 F12000 X-4.048 Y17
G1 F1800 X-50.949 Y17 E2797.96257
G0 F12000 X-50.949 Y16.5
G1 F1800 X-4.048 Y16.5 E2799.91249
G0 F12000 X-4.048 Y16
G1 F1800 X-50.949 Y16 E2801.8624
G0 F12000 X-50.949 Y15.5
G1 F1800 X-4.048 Y15.5 E2803.81232
G0 F12000 X-4.048 Y15
G1 F1800 X-50.949 Y15 E2805.76224
G0 F12000 X-50.949 Y14.5
G1 F1800 X-4.048 Y14.5 E2807.71216
G0 F12000 X-4.048 Y14
G1 F1800 X-50.949 Y14 E2809.66207
G0 F12000 X-50.949 Y13.5
G1 F1800 X-4.048 Y13.5 E2811.61199
G0 F12000 X-4.048 Y13
G1 F1800 X-50.949 Y13 E2813.56191
G0 F12000 X-50.949 Y12.5
G1 F1800 X-4.048 Y12.5 E2815.51182
G0 F12000 X-4.048 Y12
G1 F1800 X-50.949 Y12 E2817.46174
G0 F12000 X-50.949 Y11.5
G1 F1800 X-4.048 Y11.5 E2819.41166
G0 F12000 X-4.048 Y11
G1 F1800 X-50.949 Y11 E2821.36157
G0 F12000 X-50.949 Y10.5
G1 F1800 X-4.048 Y10.5 E2823.31149
G0 F12000 X-4.048 Y10
G1 F1800 X-50.949 Y10 E2825.26141
G0 F12000 X-50.949 Y9.5
G1 F1800 X-4.048 Y9.5 E2827.21133
G0 F12000 X-4.048 Y9
G1 F1800 X-50.949 Y9 E2829.16124
G0 F12000 X-50.949 Y8.5
G1 F1800 X-4.048 Y8.5 E2831.11116
G0 F12000 X-4.048 Y8
G1 F1800 X-50.949 Y8 E2833.06108
G0 F12000 X-50.949 Y7.5
G1 F1800 X-4.048 Y7.5 E2835.01099
G0 F12000 X-4.048 Y7
G1 F1800 X-50.949 Y7 E2836.96091
G0 F12000 X-50.949 Y6.5
G1 F1800 X-4.048 Y6.5 E2838.91083
G0 F12000 X-4.048 Y6
G1 F1800 X-50.949 Y6 E2840.86074
G0 F12000 X-50.949 Y5.5
G1 F1800 X-4.048 Y5.5 E2842.81066
G0 F12000 X-4.048 Y5
G1 F1800 X-50.949 Y5 E2844.76058
G0 F12000 X-50.949 Y4.5
G1 F1800 X-4.048 Y4.5 E2846.7105
G0 F12000 X-4.048 Y4
G1 F1800 X-50.949 Y4 E2848.66041
G0 F12000 X-50.949 Y3.5
G1 F1800 X-4.049 Y3.5 E2850.61029
G1 F6600 E2843.81029
G1 Z1.5
G0 F12000 X-3.249 Y2.25
G0 X-2.499 Y1.5
G0 X1.001 Y1.5
G0 X2.5 Y1.5
G0 X3.25 Y2.25
G0 X3.25 Y32.75
G0 X2.75 Y33.25
G0 X3.25 Y32.75
G0 X3.75 Y32.25
; TYPE:WALL-INNER
G1 Z1.2
G1 F6600 E2850.71029
G1 F1500 X3.75 Y2.75 E2851.93675
G1 X51.25 Y2.75 E2853.91158
G1 X51.25 Y32.25 E2855.13804
G1 X3.75 Y32.25 E2857.11286
G0 F12000 X3.25 Y32.75
G1 F1500 X3.25 Y2.25 E2858.38091
G1 X51.75 Y2.25 E2860.3973
G1 X51.75 Y32.75 E2861.66534
G1 X3.25 Y32.75 E2863.68174
G0 F12000 X2.75 Y33.25
; TYPE:WALL-OUTER
G1 F600 X2.75 Y1.75 E2864.99136
G1 X52.25 Y1.75 E2867.04933
G1 X52.25 Y33.25 E2868.35895
G1 X2.75 Y33.25 E2870.41692
G0 F12000 X3.25 Y32.75
G0 X4.049 Y31.5
; TYPE:FILL
G1 F1800 X50.95 Y31.499 E2872.36683
G0 F12000 X50.95 Y30.999
G1 F1800 X4.049 Y31 E2874.31675
G0 F12000 X4.049 Y30.5
G1 F1800 X50.95 Y30.499 E2876.26667
G0 F12000 X50.95 Y29.999
G1 F1800 X4.049 Y30 E2878.21659
G0 F12000 X4.049 Y29.5
G1 F1800 X50.95 Y29.499 E2880.1665
G0 F12000 X50.95 Y28.999
G1 F1800 X4.049 Y29 E2882.11642
G0 F12000 X4.049 Y28.5
G1 F1800 X50.95 Y28.499 E2884.06634
G0 F12000 X50.95 Y27.999
G1 F1800 X4.049 Y28 E2886.01625
G0 F12000 X4.049 Y27.5
G1 F1800 X50.95 Y27.499 E2887.96617
G0 F12000 X50.95 Y26.999
G1 F1800 X4.049 Y27 E2889.91609
G0 F12000 X4.049 Y26.5
G1 F1800 X50.95 Y26.499 E2891.866
G0 F12000 X50.95 Y25.999
G1 F1800 X4.049 Y26 E2893.81592
G0 F12000 X4.049 Y25.5
G1 F1800 X50.95 Y25.499 E2895.76584
G0 F12000 X50.95 Y24.999
G1 F1800 X4.049 Y25 E2897.71576
G0 F12000 X4.049 Y24.5
G1 F1800 X50.95 Y24.499 E2899.66567
G0 F12000 X50.95 Y23.999
G1 F1800 X4.049 Y24 E2901.61559
G0 F12000 X4.049 Y23.5
G1 F1800 X50.95 Y23.499 E2903.56551
G0 F12000 X50.95 Y22.999
G1 F1800 X4.049 Y23 E2905.51542
G0 F12000 X4.049 Y22.5
G1 F1800 X50.95 Y22.499 E2907.46534
G0 F12000 X50.95 Y21.999
G1 F1800 X4.049 Y22 E2909.41526
G0 F12000 X4.049 Y21.5
G1 F1800 X50.95 Y21.499 E2911.36517
G0 F12000 X50.95 Y20.999
G1 F1800 X4.049 Y21 E2913.31509
G0 F12000 X4.049 Y20.5
G1 F1800 X50.95 Y20.499 E2915.26501
G0 F12000 X50.95 Y19.999
G1 F1800 X4.049 Y20 E2917.21493
G0 F12000 X4.049 Y19.5
G1 F1800 X50.95 Y19.499 E2919.16484
G0 F12000 X50.95 Y18.999
G1 F1800 X4.049 Y19 E2921.11476
G0 F12000 X4.049 Y18.5
G1 F1800 X50.95 Y18.499 E2923.06468
G0 F12000 X50.95 Y17.999
G1 F1800 X4.049 Y18 E2925.01459
G0 F12000 X4.05 Y17.5
G1 F1800 X50.95 Y17.499 E2926.96447
G0 F12000 X50.95 Y16.999
G1 F1800 X4.05 Y17 E2928.91434
G0 F12000 X4.05 Y16.5
G1 F1800 X50.95 Y16.499 E2930.86422
G0 F12000 X50.95 Y15.999
G1 F1800 X4.05 Y16 E2932.81409
G0 F12000 X4.05 Y15.5
G1 F1800 X50.95 Y15.499 E2934.76397
G0 F12000 X50.95 Y14.999
G1 F1800 X4.05 Y15 E2936.71385
G0 F12000 X4.05 Y14.5
G1 F1800 X50.95 Y14.499 E2938.66372
G0 F12000 X50.95 Y13.999
G1 F1800 X4.05 Y14 E2940.6136
G0 F12000 X4.05 Y13.5
G1 F1800 X50.95 Y13.499 E2942.56347
G0 F12000 X50.95 Y12.999
G1 F1800 X4.05 Y13 E2944.51335
G0 F12000 X4.05 Y12.5
G1 F1800 X50.95 Y12.499 E2946.46322
G0 F12000 X50.95 Y11.999
G1 F1800 X4.05 Y12 E2948.4131
G0 F12000 X4.05 Y11.5
G1 F1800 X50.95 Y11.499 E2950.36297
G0 F12000 X50.95 Y10.999
G1 F1800 X4.05 Y11 E2952.31285
G0 F12000 X4.05 Y10.5
G1 F1800 X50.95 Y10.499 E2954.26272
G0 F12000 X50.95 Y9.999
G1 F1800 X4.05 Y10 E2956.2126
G0 F12000 X4.05 Y9.5
G1 F1800 X50.95 Y9.499 E2958.16248
G0 F12000 X50.95 Y8.999
G1 F1800 X4.05 Y9 E2960.11235
G0 F12000 X4.05 Y8.5
G1 F1800 X50.95 Y8.499 E2962.06223
G0 F12000 X50.95 Y7.999
G1 F1800 X4.05 Y8 E2964.0121
G0 F12000 X4.05 Y7.5
G1 F1800 X50.95 Y7.499 E2965.96198
G0 F12000 X50.95 Y6.999
G1 F1800 X4.05 Y7 E2967.91185
G0 F12000 X4.05 Y6.5
G1 F1800 X50.95 Y6.499 E2969.86173
G0 F12000 X50.95 Y5.999
G1 F1800 X4.05 Y6 E2971.8116
G0 F12000 X4.05 Y5.5
G1 F1800 X50.95 Y5.499 E2973.76148
G0 F12000 X50.95 Y4.999
G1 F1800 X4.05 Y5 E2975.71135
G0 F12000 X4.05 Y4.5
G1 F1800 X50.95 Y4.499 E2977.66123
G0 F12000 X50.95 Y3.999
G1 F1800 X4.05 Y3.999 E2979.61111
G0 F12000 X4.05 Y3.499
G1 F1800 X50.95 Y3.499 E2981.56098
G1 F6600 E2974.76098
G1 Z1.5
G0 F12000 X51.75 Y2.25
G0 X52.5 Y1.5
G0 X52.5 Y-1.499
G0 X51.75 Y-2.249
G0 X3.25 Y-2.249
G0 X2.75 Y-1.749
G0 X3.25 Y-2.249
G0 X3.75 Y-2.749
; TYPE:WALL-INNER
G1 Z1.2
G1 F6600 E2981.66098
G1 F1500 X3.75 Y-32.249 E2982.88745
G1 X51.25 Y-32.249 E2984.86227
G1 X51.25 Y-2.749 E2986.08874
G1 X3.75 Y-2.749 E2988.06356
G0 F12000 X3.25 Y-2.249
G1 F1500 X3.25 Y-32.749 E2989.3316
G1 X51.75 Y-32.749 E2991.34799
G1 X51.75 Y-2.249 E2992.61604
G1 X3.25 Y-2.249 E2994.63243
G0 F12000 X2.75 Y-1.749
; TYPE:WALL-OUTER
G1 F600 X2.75 Y-33.249 E2995.94205
G1 X52.25 Y-33.249 E2998.00002
G1 X52.25 Y-1.749 E2999.30964
G1 X2.75 Y-1.749 E3001.36761
G0 F12000 X3.25 Y-2.249
G0 X4.05 Y-3.5
; TYPE:FILL
G1 F1800 X50.95 Y-3.5 E3003.31749
G0 F12000 X50.95 Y-4
G1 F1800 X4.049 Y-4 E3005.2674
G0 F12000 X4.049 Y-4.5
G1 F1800 X50.95 Y-4.5 E3007.21732
G0 F12000 X50.95 Y-5
G1 F1800 X4.049 Y-5 E3009.16724
G0 F12000 X4.049 Y-5.5
G1 F1800 X50.95 Y-5.5 E3011.11715
G0 F12000 X50.95 Y-6
G1 F1800 X4.049 Y-6 E3013.06707
G0 F12000 X4.049 Y-6.5
G1 F1800 X50.95 Y-6.5 E3015.01699
G0 F12000 X50.95 Y-7
G1 F1800 X4.049 Y-7 E3016.9669
G0 F12000 X4.049 Y-7.5
G1 F1800 X50.95 Y-7.5 E3018.91682
G0 F12000 X50.95 Y-8
G1 F1800 X4.049 Y-8 E3020.86674
G0 F12000 X4.049 Y-8.5
G1 F1800 X50.95 Y-8.5 E3022.81666
G0 F12000 X50.95 Y-9
G1 F1800 X4.049 Y-9 E3024.76657
G0 F12000 X4.049 Y-9.5
G1 F1800 X50.95 Y-9.5 E3026.71649
G0 F12000 X50.95 Y-10
G1 F1800 X4.049 Y-10 E3028.66641
G0 F12000 X4.049 Y-10.5
G1 F1800 X50.95 Y-10.5 E3030.61632
G0 F12000 X50.95 Y-11
G1 F1800 X4.049 Y-11 E3032.56624
G0 F12000 X4.049 Y-11.5
G1 F1800 X50.95 Y-11.5 E3034.51616
G0 F12000 X50.95 Y-12
G1 F1800 X4.049 Y-12 E3036.46607
G0 F12000 X4.049 Y-12.5
G1 F1800 X50.95 Y-12.5 E3038.41599
G0 F12000 X50.95 Y-13
G1 F1800 X4.049 Y-13 E3040.36591
G0 F12000 X4.049 Y-13.5
G1 F1800 X50.95 Y-13.5 E3042.31583
G0 F12000 X50.95 Y-14
G1 F1800 X4.049 Y-14 E3044.26574
G0 F12000 X4.049 Y-14.5
G1 F1800 X50.95 Y-14.5 E3046.21566
G0 F12000 X50.95 Y-15
G1 F1800 X4.049 Y-15 E3048.16558
G0 F12000 X4.049 Y-15.5
G1 F1800 X50.95 Y-15.5 E3050.11549
G0 F12000 X50.95 Y-16
G1 F1800 X4.049 Y-16 E3052.06541
G0 F12000 X4.049 Y-16.5
G1 F1800 X50.95 Y-16.5 E3054.01533
G0 F12000 X50.95 Y-17
G1 F1800 X4.049 Y-17 E3055.96524
G0 F12000 X4.049 Y-17.5
G1 F1800 X50.95 Y-17.5 E3057.91516
G0 F12000 X50.95 Y-18
G1 F1800 X4.049 Y-18 E3059.86508
G0 F12000 X4.049 Y-18.5
G1 F1800 X50.95 Y-18.5 E3061.815
G0 F12000 X50.95 Y-19
G1 F1800 X4.049 Y-19 E3063.76491
G0 F12000 X4.049 Y-19.5
G1 F1800 X50.95 Y-19.5 E3065.71483
G0 F12000 X50.95 Y-20
G1 F1800 X4.049 Y-20 E3067.66475
G0 F12000 X4.049 Y-20.5
G1 F1800 X50.95 Y-20.5 E3069.61466
G0 F12000 X50.95 Y-21
G1 F1800 X4.049 Y-21 E3071.56458
G0 F12000 X4.049 Y-21.5
G1 F1800 X50.95 Y-21.5 E3073.5145
G0 F12000 X50.95 Y-22
G1 F1800 X4.049 Y-22 E3075.46441
G0 F12000 X4.049 Y-22.5
G1 F1800 X50.95 Y-22.5 E3077.41433
G0 F12000 X50.95 Y-23
G1 F1800 X4.049 Y-23 E3079.36425
G0 F12000 X4.049 Y-23.5
G1 F1800 X50.95 Y-23.5 E3081.31417
G0 F12000 X50.95 Y-24
G1 F1800 X4.049 Y-24 E3083.26408
G0 F12000 X4.049 Y-24.5
G1 F1800 X50.95 Y-24.5 E3085.214
G0 F12000 X50.95 Y-25
G1 F1800 X4.049 Y-25 E3087.16392
G0 F12000 X4.049 Y-25.5
G1 F1800 X50.95 Y-25.5 E3089.11383
G0 F12000 X50.95 Y-26
G1 F1800 X4.049 Y-26 E3091.06375
G0 F12000 X4.049 Y-26.5
G1 F1800 X50.95 Y-26.5 E3093.01367
G0 F12000 X50.95 Y-27
G1 F1800 X4.049 Y-27 E3094.96358
G0 F12000 X4.049 Y-27.5
G1 F1800 X50.95 Y-27.5 E3096.9135
G0 F12000 X50.95 Y-28
G1 F1800 X4.049 Y-28 E3098.86342
G0 F12000 X4.049 Y-28.5
G1 F1800 X50.95 Y-28.5 E3100.81334
G0 F12000 X50.95 Y-29
G1 F1800 X4.049 Y-29 E3102.76325
G0 F12000 X4.049 Y-29.5
G1 F1800 X50.95 Y-29.5 E3104.71317
G0 F12000 X50.95 Y-30
G1 F1800 X4.049 Y-30 E3106.66309
G0 F12000 X4.049 Y-30.5
G1 F1800 X50.95 Y-30.5 E3108.613
G0 F12000 X50.95 Y-31
G1 F1800 X4.049 Y-31 E3110.56292
G0 F12000 X4.049 Y-31.5
G1 F1800 X50.95 Y-31.5 E3112.51284
; Layer Change GCode
; LAYER:5
G1 F6600 E3105.71284
G1 Z1.5
G0 F12000 X50.95 Y-31.5 Z1.7
G0 X3.25 Y-32.749
G0 X2.5 Y-33.499
G0 X1.001 Y-33.499
G0 X-0.999 Y-33.499
G0 X-2.499 Y-33.499
G0 X-3.249 Y-32.749
G0 X-51.749 Y-2.249
G0 X-52.249 Y-1.749
G0 X-51.749 Y-2.249
G0 X-51.249 Y-2.749
; TYPE:WALL-INNER
G1 Z1.4
G1 F6600 E3112.61284
