; Generated with MatterSlice 1.0
; filamentDiameter = 1.75
; extrusionWidth = 0.5
; firstLayerExtrusionWidth = 0.55
; layerThickness = 0.2
; firstLayerThickness = 0.3
; automatic settings before start_gcode
G21 ; set units to millimeters
M107 ; fan off
T0 ; set the active extruder to 0
; settings from start_gcode
M104 S215
M190 S60
M109 S215
G28
; automatic settings after start_gcode
T0 ; set the active extruder to 0
G90 ; use absolute coordinates
G92 E0 ; reset the expected extruder position
M82 ; use absolute distance for extrusion
; Layer count: 100
; Layer Change GCode
; LAYER:0
M400
M107
G0 F12000 X34.257 Y-26.661 Z0.65
; TYPE:SKIRT
G1 Z0.35
G1 F6600 E0
G1 F600 X34.257 Y26.662 E3.65791
G1 X-1.117 Y34.65 E6.14563
G1 X-18.43 Y34.65 E7.33328
G1 X-34.221 Y25.575 E8.58267
G1 X-34.221 Y-25.574 E12.09145
G1 X-18.43 Y-34.649 E13.34084
G1 X-1.117 Y-34.649 E14.52849
G1 X34.257 Y-26.661 E17.01621
G0 F12000 X33.707 Y-26.221
G1 F600 X33.707 Y26.222 E20.61375
G1 X-1.178 Y34.1 E23.06709
G1 X-18.284 Y34.1 E24.24055
G1 X-33.671 Y25.257 E25.45798
G1 X-33.671 Y-25.256 E28.92312
G1 X-18.284 Y-34.099 E30.14055
G1 X-1.178 Y-34.099 E31.31401
G1 X33.707 Y-26.221 E33.76735
G0 F12000 X33.157 Y-25.782
G1 F600 X33.157 Y25.783 E37.30466
G1 X-1.239 Y33.55 E39.7236
G1 X-18.137 Y33.55 E40.88278
G1 X-33.121 Y24.938 E42.06835
G1 X-33.121 Y-24.937 E45.48973
G1 X-18.137 Y-33.549 E46.67529
G1 X-1.239 Y-33.549 E47.83448
G1 X33.157 Y-25.782 E50.25342
G0 F12000 X32.607 Y-25.342
G1 F600 X32.607 Y25.343 E53.73036
G1 X-1.301 Y33 E56.11499
G1 X-17.99 Y33 E57.25984
G1 X-32.571 Y24.62 E58.41351
G1 X-32.571 Y-24.619 E61.79125
G1 X-17.99 Y-32.999 E62.94492
G1 X-1.301 Y-32.999 E64.08977
G1 X32.607 Y-25.342 E66.47439
G0 F12000 X29.332 Y-22.724
G1 F600 X29.332 Y-8.274 E67.46565
G1 X28.332 Y-8.274 E67.53425
G1 X28.332 Y8.275 E68.6695
G1 X29.332 Y8.275 E68.73809
G1 X29.332 Y22.725 E69.72935
G1 X-1.666 Y22.725 E71.85578
G1 X-1.666 Y29.725 E72.33598
G1 X-17.116 Y29.725 E73.39583
G1 X-17.116 Y22.725 E73.87602
G1 X-29.296 Y22.725 E74.71156
G1 X-29.296 Y7.474 E75.75776
G1 X-18.842 Y7.474 E76.4749
G1 X-18.842 Y-7.274 E77.4866
G1 X-29.296 Y-7.274 E78.20373
G1 X-29.296 Y-22.724 E79.26359
G1 X-17.116 Y-22.724 E80.09912
G1 X-17.116 Y-29.724 E80.57932
G1 X-1.666 Y-29.724 E81.63917
G1 X-1.666 Y-22.724 E82.11936
G1 X29.332 Y-22.724 E84.2458
G0 F12000 X28.782 Y-22.174
G1 F600 X28.782 Y-8.824 E85.16159
G1 X27.782 Y-8.824 E85.23019
G1 X27.782 Y8.825 E86.4409
G1 X28.782 Y8.825 E86.5095
G1 X28.782 Y22.175 E87.42529
G1 X-2.216 Y22.175 E89.55173
G1 X-2.216 Y29.175 E90.03192
G1 X-16.566 Y29.175 E91.01631
G1 X-16.566 Y22.175 E91.49651
G1 X-28.746 Y22.175 E92.33204
G1 X-28.746 Y8.024 E93.30279
G1 X-18.292 Y8.024 E94.01992
G1 X-18.292 Y-7.824 E95.10708
G1 X-28.746 Y-7.824 E95.82421
G1 X-28.746 Y-22.174 E96.80861
G1 X-16.566 Y-22.174 E97.64415
G1 X-16.566 Y-29.174 E98.12434
G1 X-2.216 Y-29.174 E99.10874
G1 X-2.216 Y-22.174 E99.58893
G1 X28.782 Y-22.174 E101.71536
G0 F12000 X28.232 Y-21.624
G1 F600 X28.232 Y-9.374 E102.5557
G1 X27.232 Y-9.374 E102.6243
G1 X27.232 Y9.375 E103.91046
G1 X28.232 Y9.375 E103.97906
G1 X28.232 Y21.625 E104.8194
G1 X-2.766 Y21.625 E106.94583
G1 X-2.766 Y28.625 E107.42603
G1 X-16.016 Y28.625 E108.33496
G1 X-16.016 Y21.625 E108.81516
G1 X-28.196 Y21.625 E109.65069
G1 X-28.196 Y8.574 E110.54598
G1 X-17.742 Y8.574 E111.26311
G1 X-17.742 Y-8.374 E112.42573
G1 X-28.196 Y-8.374 E113.14286
G1 X-28.196 Y-21.624 E114.0518
G1 X-16.016 Y-21.624 E114.88734
G1 X-16.016 Y-28.624 E115.36753
G1 X-2.766 Y-28.624 E116.27647
G1 X-2.766 Y-21.624 E116.75666
G1 X28.232 Y-21.624 E118.88309
G0 F12000 X27.682 Y-21.074
G1 F600 X27.682 Y-9.924 E119.64797
G1 X26.682 Y-9.924 E119.71657
G1 X26.682 Y9.925 E121.07819
G1 X27.682 Y9.925 E121.14679
G1 X27.682 Y21.075 E121.91167
G1 X-3.316 Y21.075 E124.0381
G1 X-3.316 Y28.075 E124.5183
G1 X-15.466 Y28.075 E125.35177
G1 X-15.466 Y21.075 E125.83197
G1 X-27.646 Y21.075 E126.6675
G1 X-27.646 Y9.124 E127.48733
G1 X-17.192 Y9.124 E128.20447
G1 X-17.192 Y-8.924 E129.44254
G1 X-27.646 Y-8.924 E130.15967
G1 X-27.646 Y-21.074 E130.99315
G1 X-15.466 Y-21.074 E131.82869
G1 X-15.466 Y-28.074 E132.30888
G1 X-3.316 Y-28.074 E133.14236
G1 X-3.316 Y-21.074 E133.62255
G1 X27.682 Y-21.074 E135.74899
G0 F12000 X27.132 Y-20.524
G1 F600 X27.132 Y-10.474 E136.43841
G1 X26.132 Y-10.474 E136.50701
G1 X26.132 Y10.475 E137.94409
G1 X27.132 Y10.475 E138.01269
G1 X27.132 Y20.525 E138.70211
G1 X-3.866 Y20.525 E140.82854
G1 X-3.866 Y27.525 E141.30873
G1 X-14.916 Y27.525 E142.06675
G1 X-14.916 Y20.525 E142.54694
G1 X-27.096 Y20.525 E143.38248
G1 X-27.096 Y9.674 E144.12685
G1 X-16.642 Y9.674 E144.84398
G1 X-16.642 Y-9.474 E146.15752
G1 X-27.096 Y-9.474 E146.87465
G1 X-27.096 Y-20.524 E147.63267
G1 X-14.916 Y-20.524 E148.46821
G1 X-14.916 Y-27.524 E148.9484
G1 X-3.866 Y-27.524 E149.70642
G1 X-3.866 Y-20.524 E150.18661
G1 X27.132 Y-20.524 E152.31305
G0 F12000 X26.582 Y-19.974
G1 F600 X26.582 Y-11.024 E152.92701
G1 X25.582 Y-11.024 E152.99561
G1 X25.582 Y11.025 E154.50815
G1 X26.582 Y11.025 E154.57674
G1 X26.582 Y19.975 E155.19071
G1 X-4.416 Y19.975 E157.31714
G1 X-4.416 Y26.975 E157.79733
G1 X-14.366 Y26.975 E158.47989
G1 X-14.366 Y19.975 E158.96009
G1 X-26.546 Y19.975 E159.79562
G1 X-26.546 Y10.224 E160.46453
G1 X-16.092 Y10.224 E161.18166
G1 X-16.092 Y-10.024 E162.57066
G1 X-26.546 Y-10.024 E163.28779
G1 X-26.546 Y-19.974 E163.97035
G1 X-14.366 Y-19.974 E164.80589
G1 X-14.366 Y-26.974 E165.28608
G1 X-4.416 Y-26.974 E165.96864
G1 X-4.416 Y-19.974 E166.44884
G1 X26.582 Y-19.974 E168.57527
G0 F12000 X26.032 Y-19.424
G1 F600 X26.032 Y-11.574 E169.11377
G1 X25.032 Y-11.574 E169.18237
G1 X25.032 Y11.575 E170.77037
G1 X26.032 Y11.575 E170.83897
G1 X26.032 Y19.425 E171.37747
G1 X-4.966 Y19.425 E173.5039
G1 X-4.966 Y26.425 E173.9841
G1 X-13.816 Y26.425 E174.5912
G1 X-13.816 Y19.425 E175.07139
G1 X-25.996 Y19.425 E175.90693
G1 X-25.996 Y10.774 E176.50038
G1 X-15.542 Y10.774 E177.21751
G1 X-15.542 Y-10.574 E178.68196
G1 X-25.996 Y-10.574 E179.3991
G1 X-25.996 Y-19.424 E180.0062
G1 X-13.816 Y-19.424 E180.84173
G1 X-13.816 Y-26.424 E181.32193
G1 X-4.966 Y-26.424 E181.92903
G1 X-4.966 Y-19.424 E182.40922
G1 X26.032 Y-19.424 E184.53566
G0 F12000 X25.482 Y-18.874
G1 F600 X25.482 Y-12.124 E184.9987
G1 X24.482 Y-12.124 E185.0673
G1 X24.482 Y12.125 E186.73076
G1 X25.482 Y12.125 E186.79935
G1 X25.482 Y18.875 E187.2624
G1 X-5.516 Y18.875 E189.38883
G1 X-5.516 Y25.875 E189.86902
G1 X-13.266 Y25.875 E190.40067
G1 X-13.266 Y18.875 E190.88086
G1 X-25.446 Y18.875 E191.7164
G1 X-25.446 Y11.324 E192.23439
G1 X-14.992 Y11.324 E192.95152
G1 X-14.992 Y-11.124 E194.49143
G1 X-25.446 Y-11.124 E195.20857
G1 X-25.446 Y-18.874 E195.74021
G1 X-13.266 Y-18.874 E196.57575
G1 X-13.266 Y-25.874 E197.05594
G1 X-5.516 Y-25.874 E197.58758
G1 X-5.516 Y-18.874 E198.06777
G1 X25.482 Y-18.874 E200.19421
G0 F12000 X24.932 Y-18.324
G1 F600 X24.932 Y-12.674 E200.58179
G1 X23.932 Y-12.674 E200.65039
G1 X23.932 Y12.675 E202.38931
G1 X24.932 Y12.675 E202.45791
G1 X24.932 Y18.325 E202.84549
G1 X-6.066 Y18.325 E204.97192
G1 X-6.066 Y25.325 E205.45212
G1 X-12.716 Y25.325 E205.9083
G1 X-12.716 Y18.325 E206.38849
G1 X-24.896 Y18.325 E207.22403
G1 X-24.896 Y11.874 E207.66656
G1 X-14.442 Y11.874 E208.3837
G1 X-14.442 Y-11.674 E209.99907
G1 X-24.896 Y-11.674 E210.7162
G1 X-24.896 Y-18.324 E211.17238
G1 X-12.716 Y-18.324 E212.00792
G1 X-12.716 Y-25.324 E212.48811
G1 X-6.066 Y-25.324 E212.9443
G1 X-6.066 Y-18.324 E213.42449
G1 X24.932 Y-18.324 E215.55092
G0 F12000 X24.382 Y-17.774
G1 F600 X24.382 Y-13.224 E215.86305
G1 X23.382 Y-13.224 E215.93165
G1 X23.382 Y13.225 E217.74602
G1 X24.382 Y13.225 E217.81462
G1 X24.382 Y17.775 E218.12675
G1 X-6.616 Y17.775 E220.25318
G1 X-6.616 Y24.775 E220.73337
G1 X-12.166 Y24.775 E221.1141
G1 X-12.166 Y17.775 E221.59429
G1 X-24.346 Y17.775 E222.42983
G1 X-24.346 Y12.424 E222.7969
G1 X-13.892 Y12.424 E223.51403
G1 X-13.892 Y-12.224 E225.20486
G1 X-24.346 Y-12.224 E225.922
G1 X-24.346 Y-17.774 E226.30272
G1 X-12.166 Y-17.774 E227.13826
G1 X-12.166 Y-24.774 E227.61845
G1 X-6.616 Y-24.774 E227.99918
G1 X-6.616 Y-17.774 E228.47937
G1 X24.382 Y-17.774 E230.6058
G1 F6600 E226.6058
G1 Z0.65
G0 F12000 X24.107 Y-17.499
G0 X23.282 Y-16.674
G0 X6.864 Y-9.915
G0 X5.9 Y-9.772
G0 X4.953 Y-9.533
G0 X4.037 Y-9.202
G0 X3.156 Y-8.782
G0 X2.321 Y-8.276
G0 X1.542 Y-7.69
G0 X0.822 Y-7.031
G0 X0.173 Y-6.301
G0 X-0.4 Y-5.511
G0 X-0.89 Y-4.669
G0 X-11.066 Y17.225
G0 X-11.616 Y17.225
; TYPE:WALL-OUTER
G1 Z0.35
G1 F6600 E230.7058
G1 F600 X-23.796 Y17.225 E231.54134
G1 X-23.796 Y12.974 E231.83295
G1 X-13.342 Y12.974 E232.55009
G1 X-13.342 Y-12.774 E234.31638
G1 X-23.796 Y-12.774 E235.03351
G1 X-23.796 Y-17.224 E235.33878
G1 X-11.616 Y-17.224 E236.17431
G1 X-11.616 Y-24.224 E236.6545
G1 X-7.166 Y-24.224 E236.95977
G1 X-7.166 Y-17.224 E237.43996
G1 X23.832 Y-17.224 E239.5664
G1 X23.832 Y-13.774 E239.80306
G1 X22.832 Y-13.774 E239.87166
G1 X22.832 Y13.775 E241.7615
G1 X23.832 Y13.775 E241.8301
G1 X23.832 Y17.225 E242.06676
G1 X-7.166 Y17.225 E244.19319
G1 X-7.166 Y24.225 E244.67339
G1 X-11.616 Y24.225 E244.97865
G1 X-11.616 Y17.225 E245.45885
G0 F12000 X-11.066 Y17.225
G0 X-11.066 Y16.675
; TYPE:WALL-INNER
G1 F600 X-23.246 Y16.675 E246.29438
G1 X-23.246 Y13.524 E246.51054
G1 X-12.792 Y13.524 E247.22767
G1 X-12.792 Y-13.324 E249.06942
G1 X-23.246 Y-13.324 E249.78655
G1 X-23.246 Y-16.674 E250.01636
G1 X-11.066 Y-16.674 E250.8519
G1 X-11.066 Y-23.674 E251.33209
G1 X-7.716 Y-23.674 E251.5619
G1 X-7.716 Y-16.674 E252.04209
G1 X23.282 Y-16.674 E254.16852
G1 X23.282 Y-14.324 E254.32973
G1 X22.282 Y-14.324 E254.39833
G1 X22.282 Y14.325 E256.36362
G1 X23.282 Y14.325 E256.43222
G1 X23.282 Y16.675 E256.59343
G1 X-7.716 Y16.675 E258.71986
G1 X-7.716 Y23.675 E259.20006
G1 X-11.066 Y23.675 E259.42986
G1 X-11.066 Y16.675 E259.91006
G0 F12000 X-10.516 Y16.125
G1 F600 X-22.696 Y16.125 E260.74559
G1 X-22.696 Y14.074 E260.88629
G1 X-12.242 Y14.074 E261.60342
G1 X-12.242 Y-13.874 E263.52063
G1 X-22.696 Y-13.874 E264.23776
G1 X-22.696 Y-16.124 E264.39211
G1 X-10.516 Y-16.124 E265.22765
G1 X-10.516 Y-23.124 E265.70784
G1 X-8.266 Y-23.124 E265.86219
G1 X-8.266 Y-16.124 E266.34238
G1 X22.732 Y-16.124 E268.46881
G1 X22.732 Y-14.874 E268.55456
G1 X21.732 Y-14.874 E268.62316
G1 X21.732 Y14.875 E270.66391
G1 X22.732 Y14.875 E270.73251
G1 X22.732 Y16.125 E270.81826
G1 X-8.266 Y16.125 E272.94469
G1 X-8.266 Y23.125 E273.42489
G1 X-10.516 Y23.125 E273.57923
G1 X-10.516 Y16.125 E274.05943
G0 F12000 X-0.171 Y6.885
G0 X0.25 Y6.534
G0 X0.511 Y6.41
G0 X1.456 Y6.755
; TYPE:WALL-OUTER
G1 F600 X1.318 Y6.746 E274.06891
G1 X0.916 Y6.826 E274.09703
G1 X0.549 Y7.001 E274.12492
G1 X0.235 Y7.262 E274.15293
G1 X-0.003 Y7.593 E274.1809
G1 X-0.151 Y7.972 E274.20881
G1 X-0.2 Y8.377 E274.2368
G1 X-0.147 Y8.781 E274.26475
G1 X0.005 Y9.16 E274.29276
G1 X0.246 Y9.489 E274.32074
G1 X0.562 Y9.748 E274.34876
G1 X0.931 Y9.919 E274.37666
G1 X1.332 Y9.994 E274.40465
G1 X1.738 Y9.966 E274.43257
G1 X2.125 Y9.838 E274.46053
G1 X2.469 Y9.618 E274.48854
G1 X2.747 Y9.319 E274.51655
G1 X2.942 Y8.962 E274.54445
G1 X3.041 Y8.566 E274.57245
G1 X3.039 Y8.158 E274.60044
G0 F12000 X3.071 Y8.002
G1 F600 X2.921 Y7.758 E274.61712
G1 X3.032 Y7.867 E274.6278
G0 F12000 X3.104 Y7.846
G1 F600 X3.181 Y7.886 E274.63375
G1 X3.922 Y8.275 E274.69116
G1 X4.775 Y8.62 E274.75428
G1 X5.66 Y8.88 E274.81756
G1 X6.563 Y9.05 E274.88059
G1 X7.481 Y9.13 E274.9438
G1 X8.402 Y9.118 E275.00699
G1 X9.317 Y9.015 E275.07015
G1 X10.217 Y8.823 E275.13328
G1 X11.094 Y8.541 E275.19647
G1 X11.938 Y8.174 E275.25961
G1 X12.743 Y7.726 E275.32281
G1 X13.498 Y7.199 E275.38597
G1 X14.198 Y6.6 E275.44917
G1 X14.834 Y5.935 E275.51229
G1 X15.402 Y5.211 E275.57542
G1 X15.896 Y4.433 E275.63864
G1 X16.309 Y3.609 E275.70187
G1 X16.639 Y2.751 E275.76493
G1 X16.882 Y1.862 E275.82815
G1 X17.036 Y0.955 E275.89126
G1 X17.099 Y0.035 E275.95452
G1 X17.07 Y-0.883 E276.01752
G1 X16.951 Y-1.795 E276.08062
G1 X16.742 Y-2.692 E276.1438
G1 X16.445 Y-3.564 E276.20699
G1 X16.062 Y-4.402 E276.2702
G1 X15.599 Y-5.197 E276.33331
G1 X15.059 Y-5.942 E276.39643
G1 X14.445 Y-6.635 E276.45994
G0 F12000 X14.431 Y-6.833
G1 F600 X14.329 Y-6.862 E276.47096
G1 X14.062 Y-6.987 E276.50159
G0 F12000 X13.958 Y-7.083
G1 F600 X14.226 Y-6.956 E276.52193
G0 F12000 X14.418 Y-7.031
G1 F600 X14.692 Y-7.05 E276.54077
G1 X15.079 Y-7.178 E276.56873
G1 X15.423 Y-7.398 E276.59675
G1 X15.701 Y-7.697 E276.62475
G1 X15.896 Y-8.054 E276.65266
G1 X15.995 Y-8.45 E276.68066
G1 X15.993 Y-8.858 E276.70865
G1 X15.89 Y-9.252 E276.73658
G1 X15.693 Y-9.609 E276.76456
G1 X15.411 Y-9.905 E276.7926
G1 X15.065 Y-10.122 E276.82062
G1 X14.678 Y-10.244 E276.84845
G1 X14.272 Y-10.27 E276.87636
G1 X13.87 Y-10.19 E276.90448
G1 X13.503 Y-10.015 E276.93237
G1 X13.189 Y-9.754 E276.96038
G1 X12.951 Y-9.423 E276.98835
G1 X12.803 Y-9.044 E277.01626
G1 X12.754 Y-8.639 E277.04424
G1 X12.79 Y-8.362 E277.06341
G0 F12000 X12.736 Y-8.194
G1 F600 X12.813 Y-8.088 E277.07761
G1 X12.958 Y-7.858 E277.09626
G0 F12000 X12.682 Y-8.026
G1 F600 X12.248 Y-8.29 E277.1311
G1 X11.427 Y-8.684 E277.19357
G1 X10.561 Y-8.999 E277.25679
G1 X9.669 Y-9.227 E277.31995
G1 X8.759 Y-9.365 E277.38309
G1 X7.838 Y-9.411 E277.44634
G1 X6.918 Y-9.367 E277.50953
G1 X6.008 Y-9.232 E277.57264
G1 X5.114 Y-9.006 E277.63589
G1 X4.249 Y-8.694 E277.69897
G1 X3.417 Y-8.297 E277.76221
G1 X2.63 Y-7.82 E277.82534
G1 X1.894 Y-7.267 E277.88849
G1 X1.215 Y-6.644 E277.95171
G1 X0.602 Y-5.956 E278.01492
G1 X0.061 Y-5.21 E278.07813
G1 X-0.401 Y-4.416 E278.14115
G1 X-0.785 Y-3.579 E278.20432
G1 X-1.084 Y-2.707 E278.26756
G1 X-1.295 Y-1.811 E278.33071
G1 X-1.415 Y-0.898 E278.39388
G1 X-1.446 Y0.02 E278.45689
G1 X-1.384 Y0.939 E278.52007
G1 X-1.232 Y1.848 E278.58329
G1 X-0.99 Y2.736 E278.64643
G1 X-0.661 Y3.597 E278.70966
G1 X-0.249 Y4.42 E278.7728
G1 X0.241 Y5.198 E278.83587
G1 X0.808 Y5.924 E278.89906
G1 X1.31 Y6.449 E278.94889
G0 F12000 X1.383 Y6.602
G1 F600 X1.557 Y6.688 E278.96206
G1 X1.459 Y6.682 E278.96886
G1 X1.651 Y6.767 E278.98326
G0 F12000 X0.511 Y6.41
; TYPE:WALL-INNER
G1 F600 X0.467 Y6.382 E278.98738
G1 X0.427 Y6.358 E278.99111
G0 F12000 X0.391 Y6.284
G1 F600 X-0.21 Y5.515 E279.05807
G1 X-0.729 Y4.69 E279.12493
G1 X-1.165 Y3.819 E279.19175
G1 X-1.513 Y2.907 E279.25871
G1 X-1.77 Y1.966 E279.32562
G1 X-1.931 Y1.003 E279.3926
G1 X-1.997 Y0.029 E279.45957
G1 X-1.964 Y-0.943 E279.52629
G1 X-1.836 Y-1.91 E279.5932
G1 X-1.613 Y-2.86 E279.66014
G1 X-1.296 Y-3.783 E279.72709
G1 X-0.89 Y-4.669 E279.79394
G1 X-0.4 Y-5.511 E279.86077
G1 X0.173 Y-6.301 E279.92772
G1 X0.822 Y-7.031 E279.99473
G1 X1.542 Y-7.69 E280.06168
G1 X2.321 Y-8.276 E280.12855
G1 X3.156 Y-8.782 E280.19553
G1 X4.037 Y-9.202 E280.26248
G1 X4.953 Y-9.533 E280.3293
G1 X5.9 Y-9.772 E280.3963
G1 X6.864 Y-9.915 E280.46315
G1 X7.839 Y-9.962 E280.53011
G1 X8.814 Y-9.913 E280.59708
G1 X9.778 Y-9.767 E280.66396
G1 X10.724 Y-9.525 E280.73095
G1 X11.64 Y-9.191 E280.79783
G1 X12.154 Y-8.944 E280.83695
G0 F12000 X12.232 Y-8.907
G1 F600 X12.21 Y-9.061 E280.84762
G0 F12000 X12.266 Y-9.179
G1 F600 X12.464 Y-9.688 E280.88509
G1 X12.783 Y-10.131 E280.92254
G1 X13.204 Y-10.482 E280.96014
G1 X13.696 Y-10.716 E280.99751
G1 X14.235 Y-10.823 E281.03521
G1 X14.779 Y-10.789 E281.0726
G1 X15.298 Y-10.625 E281.10994
G1 X15.762 Y-10.334 E281.14751
G1 X16.14 Y-9.937 E281.18511
G1 X16.405 Y-9.458 E281.22266
G1 X16.542 Y-8.93 E281.26008
G1 X16.546 Y-8.384 E281.29754
G1 X16.413 Y-7.852 E281.33516
G1 X16.15 Y-7.372 E281.3727
G1 X15.778 Y-6.973 E281.41013
G1 X15.318 Y-6.677 E281.44765
G0 F12000 X15.269 Y-6.633
G1 F600 X15.182 Y-6.632 E281.45362
G0 F12000 X15.201 Y-6.61
G1 F600 X15.403 Y-6.482 E281.47172
G0 F12000 X15.488 Y-6.287
G1 F600 X16.06 Y-5.498 E281.53858
G1 X16.551 Y-4.655 E281.6055
G1 X16.957 Y-3.767 E281.67248
G1 X17.271 Y-2.843 E281.73942
G1 X17.493 Y-1.894 E281.80628
G1 X17.619 Y-0.928 E281.87311
G1 X17.65 Y0.045 E281.93989
G1 X17.583 Y1.02 E282.00693
G1 X17.419 Y1.981 E282.07381
G1 X17.162 Y2.922 E282.14073
G1 X16.813 Y3.832 E282.20758
G1 X16.375 Y4.704 E282.27452
G1 X15.852 Y5.529 E282.34153
G1 X15.25 Y6.296 E282.40842
G1 X14.577 Y7 E282.47523
G1 X13.835 Y7.634 E282.54218
G1 X13.035 Y8.193 E282.60913
G1 X12.182 Y8.667 E282.67607
G1 X11.289 Y9.056 E282.74289
G1 X10.359 Y9.355 E282.8099
G1 X9.405 Y9.558 E282.87681
G1 X8.437 Y9.667 E282.94364
G1 X7.46 Y9.68 E283.01066
G1 X6.488 Y9.595 E283.0776
G1 X5.531 Y9.415 E283.1444
G1 X4.594 Y9.14 E283.21139
G1 X3.636 Y8.739 E283.28263
G0 F12000 X3.634 Y8.743
G0 X3.572 Y8.712
G1 F600 X3.547 Y8.951 E283.29911
G0 F12000 X3.459 Y9.164
G1 F600 X3.196 Y9.644 E283.33666
G1 X2.824 Y10.043 E283.37408
G1 X2.364 Y10.339 E283.4116
G1 X1.845 Y10.51 E283.44909
G1 X1.3 Y10.547 E283.48656
G1 X0.762 Y10.447 E283.5241
G1 X0.267 Y10.217 E283.56154
G1 X-0.157 Y9.87 E283.59913
G1 X-0.48 Y9.429 E283.63663
G1 X-0.683 Y8.922 E283.67409
G1 X-0.755 Y8.38 E283.7116
G1 X-0.688 Y7.837 E283.74913
G1 X-0.49 Y7.328 E283.7866
G1 X-0.171 Y6.885 E283.82404
G1 X0.25 Y6.534 E283.86165
G1 X0.463 Y6.433 E283.87782
G1 F6600 E279.87782
G1 Z0.65
G0 F12000 X-0.21 Y5.515
G0 X-0.729 Y4.69
G0 X-1.165 Y3.819
G0 X-1.513 Y2.907
G0 X-1.77 Y1.966
G0 X-1.931 Y1.003
G0 X-1.997 Y0.029
G0 X-1.964 Y-0.943
G0 X-1.836 Y-1.91
G0 X-1.613 Y-2.86
G0 X-1.296 Y-3.783
G0 X-0.89 Y-4.669
G0 X-0.4 Y-5.511
G0 X0.173 Y-6.301
G0 X0.822 Y-7.031
G0 X1.542 Y-7.69
G0 X2.321 Y-8.276
G0 X3.156 Y-8.782
G0 X4.037 Y-9.202
G0 X4.953 Y-9.533
G0 X5.9 Y-9.772
G0 X6.864 Y-9.915
G0 X7.839 Y-9.962
G0 X8.814 Y-9.913
G0 X11.874 Y-9.689
G1 Z0.35
G1 F6600 E283.97782
G1 F600 X10.886 Y-10.051 E284.05
G1 X9.888 Y-10.306 E284.12066
G1 X8.869 Y-10.461 E284.19137
G1 X7.84 Y-10.513 E284.26204
G1 X6.811 Y-10.463 E284.33272
G1 X5.792 Y-10.312 E284.40338
G1 X4.792 Y-10.059 E284.47414
G1 X3.824 Y-9.71 E284.54473
G1 X2.894 Y-9.266 E284.61543
G1 X2.013 Y-8.732 E284.6861
G1 X1.19 Y-8.114 E284.7567
G1 X0.43 Y-7.417 E284.82744
G1 X-0.256 Y-6.646 E284.89823
G1 X-0.861 Y-5.812 E284.96891
G1 X-1.379 Y-4.923 E285.0395
G1 X-1.808 Y-3.988 E285.11006
G1 X-2.142 Y-3.013 E285.18076
G1 X-2.378 Y-2.009 E285.25151
G1 X-2.513 Y-0.988 E285.32216
G1 X-2.548 Y0.038 E285.39259
G1 X-2.478 Y1.067 E285.46334
G1 X-2.308 Y2.084 E285.53407
G1 X-2.037 Y3.078 E285.60475
G1 X-1.669 Y4.04 E285.6754
G1 X-1.209 Y4.96 E285.74596
G1 X-0.661 Y5.831 E285.81656
G1 X-0.308 Y6.283 E285.8559
G1 X-0.577 Y6.507 E285.87991
G1 X-0.977 Y7.063 E285.9269
G1 X-1.226 Y7.701 E285.97388
G1 X-1.309 Y8.382 E286.02094
G1 X-1.22 Y9.062 E286.06799
G1 X-0.965 Y9.698 E286.11499
G1 X-0.56 Y10.251 E286.16201
G1 X-0.028 Y10.687 E286.2092
G1 X0.593 Y10.975 E286.25616
G1 X1.268 Y11.101 E286.30326
G1 X1.952 Y11.054 E286.35029
G1 X2.602 Y10.839 E286.39726
G1 X3.179 Y10.469 E286.44428
G1 X3.646 Y9.968 E286.49126
G1 X3.923 Y9.462 E286.53083
G1 X4.413 Y9.66 E286.56709
G1 X5.402 Y9.951 E286.63781
G1 X6.413 Y10.141 E286.70838
G1 X7.44 Y10.231 E286.7791
G1 X8.471 Y10.217 E286.84983
G1 X9.494 Y10.102 E286.92045
G1 X10.501 Y9.887 E286.99108
G1 X11.483 Y9.571 E287.06185
G1 X12.426 Y9.161 E287.13239
G1 X13.327 Y8.66 E287.20311
G1 X14.172 Y8.07 E287.27381
G1 X14.955 Y7.4 E287.3445
G1 X15.666 Y6.657 E287.41505
G1 X16.301 Y5.846 E287.4857
G1 X16.854 Y4.975 E287.55648
G1 X17.316 Y4.054 E287.62716
G1 X17.685 Y3.094 E287.69771
G1 X17.957 Y2.1 E287.76841
G1 X18.13 Y1.085 E287.83904
G1 X18.2 Y0.055 E287.90986
G1 X18.168 Y-0.972 E287.98035
G1 X18.034 Y-1.992 E288.05092
G1 X17.801 Y-2.995 E288.12156
G1 X17.468 Y-3.97 E288.19223
G1 X17.04 Y-4.908 E288.26296
G1 X16.521 Y-5.799 E288.3337
G1 X16.032 Y-6.475 E288.39093
G0 F12000 X16.028 Y-6.48
G1 F600 X16.082 Y-6.511 E288.3952
G0 F12000 X16.133 Y-6.547
G1 F600 X16.6 Y-7.048 E288.44218
G1 X16.929 Y-7.65 E288.48925
G1 X17.096 Y-8.318 E288.53648
G1 X17.092 Y-9.002 E288.5834
G1 X16.92 Y-9.663 E288.63026
G1 X16.587 Y-10.265 E288.67745
G1 X16.113 Y-10.763 E288.72461
G1 X15.531 Y-11.128 E288.77174
G1 X14.881 Y-11.334 E288.81852
G1 X14.198 Y-11.376 E288.86546
G1 X13.521 Y-11.242 E288.9128
G1 X12.905 Y-10.949 E288.95959
G1 X12.377 Y-10.509 E289.00674
G1 X11.977 Y-9.953 E289.05373
G1 X11.874 Y-9.689 E289.07317
G0 F12000 X12.232 Y-8.907
G0 X13.045 Y-7.783
; TYPE:FILL
G1 F600 X13.215 Y-7.63 E289.08886
G1 X13.41 Y-7.447 E289.1072
G1 X13.627 Y-7.275 E289.1262
G1 X13.709 Y-7.226 E289.13275
G1 F6600 E285.13275
G1 Z0.65
G0 F12000 X15.182 Y-6.632
G0 X15.488 Y-6.287
G0 X16.06 Y-5.498
G0 X16.551 Y-4.655
G0 X16.957 Y-3.767
G0 X17.271 Y-2.843
G0 X17.493 Y-1.894
G0 X17.619 Y-0.928
G0 X17.65 Y0.045
G0 X17.583 Y1.02
G0 X17.419 Y1.981
G0 X17.162 Y2.922
G0 X16.813 Y3.832
G0 X16.375 Y4.704
G0 X15.852 Y5.529
G0 X15.25 Y6.296
G0 X14.577 Y7
G0 X13.835 Y7.634
G0 X13.035 Y8.193
G0 X12.182 Y8.667
G0 X11.289 Y9.056
G0 X10.359 Y9.355
G0 X9.405 Y9.558
G0 X8.437 Y9.667
G0 X7.46 Y9.68
G0 X6.488 Y9.595
G0 X5.531 Y9.415
G0 X4.594 Y9.14
G0 X3.691 Y8.774
G0 X3.572 Y8.712
G0 X2.619 Y7.415
G1 Z0.35
G1 F6600 E289.23275
G1 F600 X2.826 Y7.647 E289.25408
G0 F12000 X2.482 Y7.322
G1 F600 X2.336 Y7.177 E289.26819
G1 X2.221 Y7.086 E289.27825
G1 X1.986 Y6.914 E289.29823
G0 F12000 X2.105 Y7.014
G1 F600 X1.371 Y6.704 E289.31999
G1 X0.881 Y6.511 E289.32341
G1 X0.71 Y6.335 E289.32803
G0 F12000 X0.511 Y6.41
G0 X0.25 Y6.534
G0 X-0.171 Y6.885
G0 X-0.49 Y7.328
G0 X-0.688 Y7.837
G0 X-0.755 Y8.38
G0 X-0.683 Y8.922
G0 X-0.48 Y9.429
G0 X-0.157 Y9.87
G0 X0.267 Y10.217
G0 X0.762 Y10.447
G0 X1.3 Y10.547
G0 X1.845 Y10.51
G0 X2.364 Y10.339
G0 X2.824 Y10.043
G0 X3.196 Y9.644
G0 X3.459 Y9.164
G0 X3.572 Y8.712
G0 X3.383 Y8.303
G1 F600 X3.472 Y8.497 E289.3476
G1 X3.315 Y8.397 E289.35364
G0 F12000 X3.572 Y8.712
G0 X3.675 Y10.45
; TYPE:BOTTOM-FILL
G1 F600 X6.16 Y10.45 E289.5241
G0 F12000 X2.999 Y11
G1 F600 X21.382 Y10.999 E290.78516
G0 F12000 X21.382 Y10.449
G1 F600 X9.529 Y10.45 E291.59826
G0 F12000 X11.605 Y9.9
G1 F600 X21.382 Y9.899 E292.26896
G0 F12000 X21.382 Y9.349
G1 F600 X12.806 Y9.35 E292.85726
G0 F12000 X13.737 Y8.8
G1 F600 X21.382 Y8.799 E293.3817
G0 F12000 X21.382 Y8.249
G1 F600 X14.5 Y8.25 E293.8538
G0 F12000 X15.143 Y7.699
G1 F600 X21.382 Y7.699 E294.28179
G0 F12000 X21.382 Y7.149
G1 F600 X15.679 Y7.149 E294.67301
G0 F12000 X16.156 Y6.599
G1 F600 X21.382 Y6.599 E295.03151
G0 F12000 X21.382 Y6.049
G1 F600 X16.586 Y6.049 E295.36051
G0 F12000 X16.935 Y5.499
G1 F600 X21.382 Y5.499 E295.66557
G0 F12000 X21.382 Y4.949
G1 F600 X17.257 Y4.949 E295.94854
G0 F12000 X17.534 Y4.399
G1 F600 X21.382 Y4.399 E296.21251
G0 F12000 X21.382 Y3.849
G1 F600 X17.769 Y3.849 E296.46036
G0 F12000 X17.98 Y3.299
G1 F600 X21.382 Y3.299 E296.69373
G0 F12000 X21.382 Y2.749
G1 F600 X18.142 Y2.749 E296.91599
G0 F12000 X18.293 Y2.199
G1 F600 X21.382 Y2.199 E297.12789
G0 F12000 X21.382 Y1.649
G1 F600 X18.389 Y1.649 E297.33321
G0 F12000 X18.479 Y1.099
G1 F600 X21.382 Y1.099 E297.53235
G0 F12000 X21.382 Y0.549
G1 F600 X18.517 Y0.549 E297.72889
G0 F12000 X18.549 Y0
G1 F600 X21.382 Y0 E297.92323
G0 F12000 X21.382 Y-0.55
G1 F600 X18.532 Y-0.55 E298.11874
G0 F12000 X18.505 Y-1.1
G1 F600 X21.382 Y-1.1 E298.3161
G0 F12000 X21.382 Y-1.65
G1 F600 X18.432 Y-1.65 E298.51847
G0 F12000 X18.345 Y-2.2
G1 F600 X21.382 Y-2.2 E298.7268
G0 F12000 X21.382 Y-2.75
G1 F600 X18.217 Y-2.75 E298.94392
G0 F12000 X18.067 Y-3.3
G1 F600 X21.382 Y-3.3 E299.17132
G0 F12000 X21.382 Y-3.85
G1 F600 X17.879 Y-3.85 E299.41162
G0 F12000 X17.656 Y-4.4
G1 F600 X21.382 Y-4.4 E299.66722
G0 F12000 X21.382 Y-4.95
G1 F600 X17.405 Y-4.95 E299.94004
G0 F12000 X17.099 Y-5.5
G1 F600 X21.382 Y-5.5 E300.23385
G0 F12000 X21.382 Y-6.05
G1 F600 X16.771 Y-6.05 E300.55016
G0 F12000 X16.662 Y-6.6
G1 F600 X21.382 Y-6.6 E300.87395
G0 F12000 X21.382 Y-7.15
G1 F600 X17.055 Y-7.15 E301.17078
G0 F12000 X17.302 Y-7.7
G1 F600 X21.382 Y-7.7 E301.45066
G0 F12000 X21.382 Y-8.25
G1 F600 X17.44 Y-8.25 E301.72108
G0 F12000 X17.443 Y-8.8
G1 F600 X21.382 Y-8.8 E301.99129
G0 F12000 X21.382 Y-9.35
G1 F600 X17.363 Y-9.35 E302.26699
G0 F12000 X17.188 Y-9.9
G1 F600 X21.382 Y-9.9 E302.5547
G0 F12000 X21.382 Y-10.45
G1 F600 X16.884 Y-10.45 E302.86325
G0 F12000 X16.369 Y-11
G1 F600 X21.382 Y-11 E303.20714
G0 F12000 X21.382 Y-11.55
G1 F600 X15.353 Y-11.55 E303.62072
G0 F12000 X13.355 Y-11.55
G1 F600 X-11.892 Y-11.55 E305.35264
G0 F12000 X-11.892 Y-12.1
G1 F600 X21.382 Y-12.1 E307.63521
G0 F12000 X21.382 Y-12.65
G1 F600 X-11.892 Y-12.65 E309.91777
G0 F12000 X-11.892 Y-13.2
G1 F600 X21.382 Y-13.2 E312.20034
G0 F12000 X21.382 Y-13.75
G1 F600 X-11.892 Y-13.75 E314.4829
G0 F12000 X-11.892 Y-11
G1 F600 X12.419 Y-11 E316.15061
G0 F12000 X11.903 Y-10.45
G1 F600 X10.737 Y-10.45 E316.2306
G0 F12000 X4.909 Y-10.45
G1 F600 X-11.892 Y-10.45 E317.38313
G0 F12000 X-11.892 Y-9.9
G1 F600 X3.41 Y-9.9 E318.43283
G0 F12000 X2.357 Y-9.35
G1 F600 X-11.892 Y-9.35 E319.4103
G0 F12000 X-11.892 Y-8.8
G1 F600 X1.52 Y-8.8 E320.33035
G0 F12000 X0.819 Y-8.25
G1 F600 X-11.892 Y-8.25 E321.20231
G0 F12000 X-11.892 Y-7.699
G1 F600 X0.219 Y-7.7 E322.03311
G0 F12000 X-0.275 Y-7.15
G1 F600 X-11.892 Y-7.149 E322.83003
G0 F12000 X-11.892 Y-6.599
G1 F600 X-0.72 Y-6.6 E323.59642
G0 F12000 X-1.12 Y-6.05
G1 F600 X-11.892 Y-6.049 E324.33537
G0 F12000 X-11.892 Y-5.499
G1 F600 X-1.446 Y-5.5 E325.05195
G0 F12000 X-1.751 Y-4.95
G1 F600 X-11.892 Y-4.949 E325.74762
G0 F12000 X-11.892 Y-4.399
G1 F600 X-2.003 Y-4.4 E326.42599
G0 F12000 X-2.224 Y-3.85
G1 F600 X-11.892 Y-3.849 E327.08921
G0 F12000 X-11.892 Y-3.299
G1 F600 X-2.413 Y-3.3 E327.73946
G0 F12000 X-2.563 Y-2.75
G1 F600 X-11.892 Y-2.749 E328.37942
G0 F12000 X-11.892 Y-2.199
G1 F600 X-2.692 Y-2.2 E329.01053
G0 F12000 X-2.779 Y-1.649
G1 F600 X-11.892 Y-1.649 E329.63567
G0 F12000 X-11.892 Y-1.099
G1 F600 X-2.852 Y-1.099 E330.25581
G0 F12000 X-2.878 Y-0.549
G1 F600 X-11.892 Y-0.549 E330.87416
G0 F12000 X-11.892 Y0
G1 F600 X-2.898 Y0 E331.49114
G0 F12000 X-2.864 Y0.55
G1 F600 X-11.892 Y0.55 E332.11045
G0 F12000 X-11.892 Y1.1
G1 F600 X-2.826 Y1.1 E332.73237
G0 F12000 X-2.735 Y1.65
G1 F600 X-11.892 Y1.65 E333.36053
G0 F12000 X-11.892 Y2.2
G1 F600 X-2.639 Y2.2 E333.99528
G0 F12000 X-2.489 Y2.75
G1 F600 X-11.892 Y2.75 E334.64031
G0 F12000 X-11.892 Y3.3
G1 F600 X-2.326 Y3.3 E335.29653
G0 F12000 X-2.115 Y3.85
G1 F600 X-11.892 Y3.85 E335.96722
G0 F12000 X-11.892 Y4.4
G1 F600 X-1.88 Y4.4 E336.65404
G0 F12000 X-1.605 Y4.95
G1 F600 X-11.892 Y4.95 E337.35972
G0 F12000 X-11.892 Y5.5
G1 F600 X-1.283 Y5.5 E338.08748
G0 F12000 X-0.934 Y6.05
G1 F600 X-11.892 Y6.05 E338.83919
G0 F12000 X-11.892 Y6.6
G1 F600 X-1.074 Y6.6 E339.5813
G0 F12000 X-1.386 Y7.15
G1 F600 X-11.892 Y7.15 E340.302
G0 F12000 X-11.892 Y7.7
G1 F600 X-1.577 Y7.7 E341.0096
G0 F12000 X-1.644 Y8.25
G1 F600 X-11.892 Y8.25 E341.7126
G0 F12000 X-11.892 Y8.8
G1 F600 X-1.606 Y8.8 E342.41821
G0 F12000 X-1.48 Y9.35
G1 F600 X-11.892 Y9.35 E343.13246
G0 F12000 X-11.892 Y9.9
G1 F600 X-1.251 Y9.9 E343.86242
G0 F12000 X-0.848 Y10.45
G1 F600 X-11.892 Y10.45 E344.62003
G0 F12000 X-11.892 Y11
G1 F600 X-0.186 Y11 E345.42305
G0 F12000 X-8.615 Y15.95
G1 F600 X-10.165 Y15.95 E345.52938
G0 F12000 X-10.165 Y16.5
G1 F600 X-8.615 Y16.5 E345.63571
G0 F12000 X-8.615 Y17.05
G1 F600 X-10.165 Y17.05 E345.74204
G0 F12000 X-10.165 Y17.6
G1 F600 X-8.615 Y17.6 E345.84837
G0 F12000 X-8.615 Y18.15
G1 F600 X-10.165 Y18.15 E345.95469
G0 F12000 X-10.165 Y18.7
G1 F600 X-8.615 Y18.7 E346.06102
G0 F12000 X-8.615 Y19.25
G1 F600 X-10.165 Y19.25 E346.16735
G0 F12000 X-10.165 Y19.8
G1 F600 X-8.615 Y19.8 E346.27368
G0 F12000 X-8.615 Y20.35
G1 F600 X-10.165 Y20.35 E346.38001
G0 F12000 X-10.165 Y20.9
G1 F600 X-8.615 Y20.9 E346.48634
G0 F12000 X-8.615 Y21.45
G1 F600 X-10.165 Y21.45 E346.59266
G0 F12000 X-10.165 Y22
G1 F600 X-8.615 Y22 E346.69899
G0 F12000 X-8.615 Y22.55
G1 F600 X-10.165 Y22.55 E346.80532
G0 F12000 X-11.066 Y16.675
G0 X-11.892 Y14.3
G1 F600 X21.382 Y14.299 E349.08789
G0 F12000 X21.382 Y13.749
G1 F600 X-11.892 Y13.75 E351.37045
G0 F12000 X-11.892 Y13.2
G1 F600 X21.382 Y13.199 E353.65301
G0 F12000 X21.382 Y12.649
G1 F600 X-11.892 Y12.65 E355.93558
G0 F12000 X-11.892 Y12.1
G1 F600 X21.382 Y12.099 E358.21814
G0 F12000 X21.382 Y11.549
G1 F600 X-11.892 Y11.55 E360.50071
G0 F12000 X-12.792 Y13.524
G0 X-22.346 Y14.85
G1 F600 X21.382 Y14.849 E363.5004
G0 F12000 X22.382 Y15.399
G1 F600 X-22.346 Y15.4 E366.5687
G1 F6600 E362.5687
G1 Z0.65
G0 F12000 X-12.792 Y13.524
G0 X-12.792 Y-13.324
G0 X-22.346 Y-14.299
G1 Z0.35
G1 F6600 E366.6687
G1 F600 X21.382 Y-14.3 E369.6684
G0 F12000 X21.382 Y-14.85
G1 F600 X-22.346 Y-14.849 E372.6681
G0 F12000 X-22.346 Y-15.399
G1 F600 X22.382 Y-15.4 E375.7364
G0 F12000 X-8.615 Y-15.95
G1 F600 X-10.165 Y-15.95 E375.84272
G0 F12000 X-10.165 Y-16.5
G1 F600 X-8.615 Y-16.5 E375.94905
G0 F12000 X-8.615 Y-17.05
G1 F600 X-10.165 Y-17.05 E376.05538
G0 F12000 X-10.165 Y-17.6
G1 F600 X-8.615 Y-17.6 E376.16171
G0 F12000 X-8.615 Y-18.15
G1 F600 X-10.165 Y-18.15 E376.26804
G0 F12000 X-10.165 Y-18.7
G1 F600 X-8.615 Y-18.7 E376.37437
G0 F12000 X-8.615 Y-19.25
G1 F600 X-10.165 Y-19.25 E376.4807
G0 F12000 X-10.165 Y-19.8
G1 F600 X-8.615 Y-19.8 E376.58702
G0 F12000 X-8.615 Y-20.35
G1 F600 X-10.165 Y-20.35 E376.69335
G0 F12000 X-10.165 Y-20.9
G1 F600 X-8.615 Y-20.9 E376.79968
G0 F12000 X-8.615 Y-21.45
G1 F600 X-10.165 Y-21.45 E376.90601
G0 F12000 X-10.165 Y-22
G1 F600 X-8.615 Y-22 E377.01234
G0 F12000 X-8.615 Y-22.55
G1 F600 X-10.165 Y-22.55 E377.11867
; Layer Change GCode
; LAYER:1
G1 F6600 E373.11867
G1 Z0.65
G0 F12000 X-10.165 Y-22.55 Z0.85
G0 X-0.613 Y8.893
G0 X-0.42 Y9.384
G0 X-0.109 Y9.811
G0 X0.298 Y10.148
G0 X0.776 Y10.373
G0 X1.234 Y10.459
G0 X1.326 Y9.968
G0 X1.234 Y10.459
G0 X1.295 Y10.471
G0 X1.821 Y10.439
G0 X3.538 Y9.904
; TYPE:WALL-INNER
G1 Z0.55
G1 F6600 E377.21867
G1 F3600 X3.862 Y9.302 E377.24709
G1 X4.446 Y9.539 E377.27329
G1 X5.421 Y9.825 E377.31554
G1 X6.42 Y10.016 E377.35782
G1 X7.433 Y10.105 E377.4001
G1 X8.45 Y10.093 E377.44238
G1 X9.462 Y9.98 E377.48472
G1 X10.456 Y9.769 E377.52697
G1 X11.426 Y9.459 E377.5693
G1 X12.358 Y9.054 E377.61155
G1 X13.248 Y8.56 E377.65387
G1 X14.083 Y7.981 E377.69612
G1 X14.857 Y7.321 E377.73841
G1 X15.562 Y6.587 E377.78072
G1 X16.19 Y5.787 E377.823
G1 X16.736 Y4.928 E377.86532
G1 X17.195 Y4.02 E377.90762
G1 X17.561 Y3.072 E377.94987
G1 X17.831 Y2.09 E377.99221
G1 X18.003 Y1.088 E378.03448
G1 X18.074 Y0.073 E378.07678
G1 X18.045 Y-0.941 E378.11895
G1 X17.915 Y-1.95 E378.16125
G1 X17.686 Y-2.942 E378.20358
G1 X17.359 Y-3.904 E378.24582
G1 X16.939 Y-4.831 E378.28813
G1 X16.428 Y-5.711 E378.33044
G1 X15.859 Y-6.503 E378.37098
G0 F12000 X15.851 Y-6.513
G1 F3600 X15.951 Y-6.569 E378.37575
G0 F12000 X16.044 Y-6.635
G1 F3600 X16.492 Y-7.112 E378.40295
G1 X16.808 Y-7.685 E378.43016
G1 X16.97 Y-8.319 E378.45737
G1 X16.97 Y-8.974 E378.4846
G1 X16.808 Y-9.606 E378.51172
G1 X16.493 Y-10.18 E378.53894
G1 X16.044 Y-10.658 E378.56621
G1 X15.49 Y-11.009 E378.59347
G1 X14.869 Y-11.209 E378.6206
G1 X14.217 Y-11.252 E378.64776
G1 X13.573 Y-11.128 E378.67503
G1 X12.982 Y-10.85 E378.70218
G1 X12.478 Y-10.433 E378.72938
G1 X12.093 Y-9.904 E378.75658
G1 X11.941 Y-9.519 E378.77379
G1 X10.887 Y-9.919 E378.82066
G1 X9.901 Y-10.175 E378.86301
G1 X8.895 Y-10.331 E378.90534
G1 X7.879 Y-10.387 E378.94764
G1 X6.863 Y-10.341 E378.98993
G1 X5.855 Y-10.196 E379.03226
G1 X4.868 Y-9.95 E379.07455
G1 X3.91 Y-9.61 E379.11682
G1 X2.99 Y-9.175 E379.15913
G1 X2.117 Y-8.65 E379.20148
G1 X1.302 Y-8.042 E379.24375
G1 X0.549 Y-7.357 E379.28608
G1 X-0.132 Y-6.598 E379.32847
G1 X-0.733 Y-5.777 E379.37077
G1 X-1.249 Y-4.901 E379.41304
G1 X-1.676 Y-3.977 E379.45536
G1 X-2.009 Y-3.017 E379.4976
G1 X-2.247 Y-2.027 E379.53994
G1 X-2.384 Y-1.018 E379.58227
G1 X-2.421 Y-0.003 E379.6245
G1 X-2.358 Y1.013 E379.66682
G1 X-2.192 Y2.017 E379.70913
G1 X-1.929 Y3 E379.75143
G1 X-1.57 Y3.951 E379.79369
G1 X-1.119 Y4.862 E379.83596
G1 X-0.581 Y5.725 E379.87824
G1 X-0.134 Y6.3 E379.90852
G1 X-0.476 Y6.583 E379.92697
G1 X-0.861 Y7.112 E379.95417
G1 X-1.101 Y7.721 E379.98139
G1 X-1.184 Y8.37 E380.00859
G1 X-1.101 Y9.018 E380.03575
G1 X-0.862 Y9.626 E380.06291
G1 X-0.477 Y10.156 E380.09015
G1 X0.028 Y10.574 E380.1174
G1 X0.621 Y10.853 E380.14465
G1 X1.263 Y10.974 E380.17181
G1 X1.915 Y10.934 E380.19897
G1 X2.537 Y10.731 E380.22617
G1 X3.09 Y10.381 E380.25338
G1 X3.538 Y9.904 E380.28058
G0 F12000 X3.385 Y9.145
G1 F3600 X3.503 Y8.652 E380.30166
G0 F12000 X3.51 Y8.653
G0 X3.516 Y8.634
G0 X3.516 Y8.598
G1 F3600 X3.608 Y8.677 E380.3067
G0 F12000 X3.714 Y8.702
G1 F3600 X4.611 Y9.066 E380.34695
G1 X5.539 Y9.339 E380.38716
G1 X6.489 Y9.52 E380.42737
G1 X7.452 Y9.604 E380.46756
G1 X8.42 Y9.594 E380.50781
G1 X9.382 Y9.486 E380.54805
G1 X10.328 Y9.285 E380.58826
G1 X11.25 Y8.99 E380.62851
G1 X12.137 Y8.605 E380.66871
G1 X12.983 Y8.135 E380.70895
G1 X13.777 Y7.584 E380.74913
G1 X14.514 Y6.957 E380.78936
G1 X15.184 Y6.258 E380.82961
G1 X15.781 Y5.498 E380.86979
G1 X16.301 Y4.68 E380.91009
G1 X16.737 Y3.817 E380.95029
G1 X17.085 Y2.915 E380.99048
G1 X17.342 Y1.981 E381.03076
G1 X17.506 Y1.028 E381.07096
G1 X17.574 Y0.063 E381.11118
G1 X17.546 Y-0.902 E381.15132
G1 X17.422 Y-1.862 E381.19156
G1 X17.204 Y-2.805 E381.2318
G1 X16.893 Y-3.72 E381.27198
G1 X16.494 Y-4.602 E381.31223
G1 X16.008 Y-5.438 E381.35243
G1 X15.443 Y-6.224 E381.39267
G1 X15.114 Y-6.596 E381.41332
G0 F12000 X15.051 Y-6.667
G1 F3600 X15.195 Y-6.668 E381.41931
G0 F12000 X15.277 Y-6.741
G1 F3600 X15.723 Y-7.023 E381.44125
G1 X16.084 Y-7.408 E381.46319
G1 X16.339 Y-7.871 E381.48516
G1 X16.47 Y-8.382 E381.50709
G1 X16.47 Y-8.911 E381.52909
G1 X16.339 Y-9.421 E381.55098
G1 X16.085 Y-9.884 E381.57294
G1 X15.723 Y-10.27 E381.59494
G1 X15.276 Y-10.553 E381.61693
G1 X14.775 Y-10.714 E381.63881
G1 X14.249 Y-10.749 E381.66073
G1 X13.729 Y-10.649 E381.68274
G1 X13.252 Y-10.424 E381.70467
G1 X12.845 Y-10.088 E381.72661
G1 X12.534 Y-9.661 E381.74857
G1 X12.341 Y-9.17 E381.77051
G0 F12000 X12.263 Y-9.008
G1 F3600 X12.293 Y-8.794 E381.77949
G0 F12000 X12.185 Y-8.846
G1 F3600 X11.644 Y-9.107 E381.80446
G1 X10.737 Y-9.442 E381.84466
G1 X9.8 Y-9.684 E381.8849
G1 X8.843 Y-9.833 E381.92516
G1 X7.877 Y-9.886 E381.96539
G1 X6.91 Y-9.843 E382.00563
G1 X5.952 Y-9.705 E382.04587
G1 X5.012 Y-9.471 E382.08614
G1 X4.101 Y-9.147 E382.12634
G1 X3.226 Y-8.733 E382.16659
G1 X2.396 Y-8.235 E382.20683
G1 X1.62 Y-7.656 E382.24708
G1 X0.904 Y-7.004 E382.28734
G1 X0.257 Y-6.283 E382.32762
G1 X-0.314 Y-5.502 E382.36784
G1 X-0.805 Y-4.669 E382.40804
G1 X-1.211 Y-3.79 E382.4483
G1 X-1.529 Y-2.876 E382.48853
G1 X-1.755 Y-1.934 E382.5288
G1 X-1.885 Y-0.975 E382.56904
G1 X-1.921 Y-0.009 E382.60923
G1 X-1.86 Y0.957 E382.64947
G1 X-1.703 Y1.911 E382.68967
G1 X-1.453 Y2.846 E382.72991
G1 X-1.111 Y3.751 E382.77013
G1 X-0.682 Y4.619 E382.81038
G1 X-0.17 Y5.438 E382.85054
G1 X0.424 Y6.205 E382.89087
G0 F12000 X0.488 Y6.338
G1 F3600 X0.575 Y6.398 E382.89585
G1 X0.638 Y6.431 E382.8988
G0 F12000 X0.552 Y6.472
G1 F3600 X0.298 Y6.592 E382.91048
G1 X-0.109 Y6.928 E382.93242
G1 X-0.42 Y7.355 E382.95439
G1 X-0.613 Y7.846 E382.97632
G1 X-0.68 Y8.37 E382.99828
G1 X-0.613 Y8.893 E383.0202
G1 X-0.42 Y9.384 E383.04214
G1 X-0.109 Y9.811 E383.0641
G1 X0.298 Y10.148 E383.08607
G1 X0.776 Y10.373 E383.10803
G1 X1.295 Y10.471 E383.12999
G1 X1.821 Y10.439 E383.1519
G1 X2.323 Y10.275 E383.17386
G1 X2.769 Y9.993 E383.1958
G1 X3.13 Y9.608 E383.21774
G1 X3.385 Y9.145 E383.23971
G0 F12000 X3.516 Y8.634
G0 X3.516 Y8.598
G0 X3.016 Y8.168
; TYPE:WALL-OUTER
G1 F2700 X3.016 Y8.571 E383.25647
G1 X2.916 Y8.96 E383.27317
G1 X2.723 Y9.311 E383.28982
G1 X2.448 Y9.604 E383.30653
G1 X2.108 Y9.819 E383.32325
G1 X1.726 Y9.944 E383.33996
G1 X1.326 Y9.968 E383.35662
G1 X0.931 Y9.894 E383.37333
G1 X0.568 Y9.723 E383.39001
G1 X0.258 Y9.466 E383.40675
G1 X0.022 Y9.141 E383.42345
G1 X-0.125 Y8.768 E383.44012
G1 X-0.176 Y8.37 E383.4568
G1 X-0.125 Y7.971 E383.47353
G1 X0.022 Y7.598 E383.49019
G1 X0.258 Y7.273 E383.50689
G1 X0.568 Y7.017 E383.52361
G1 X0.931 Y6.846 E383.54029
G1 X1.326 Y6.77 E383.55701
G1 X1.455 Y6.779 E383.56239
G0 F12000 X1.466 Y6.684
G1 F2700 X1.663 Y6.745 E383.57412
G1 X1.462 Y6.68 E383.58636
G0 F12000 X1.469 Y6.582
G1 F2700 X0.804 Y5.879 E383.62659
G1 X0.241 Y5.152 E383.66482
G1 X-0.245 Y4.375 E383.70293
G1 X-0.652 Y3.552 E383.7411
G1 X-0.976 Y2.693 E383.77927
G1 X-1.214 Y1.806 E383.81745
G1 X-1.363 Y0.9 E383.85562
G1 X-1.42 Y-0.016 E383.89378
G1 X-1.386 Y-0.932 E383.93189
G1 X-1.263 Y-1.842 E383.97006
G1 X-1.048 Y-2.735 E384.00825
G1 X-0.747 Y-3.603 E384.04645
G1 X-0.362 Y-4.436 E384.0846
G1 X0.104 Y-5.227 E384.12277
G1 X0.646 Y-5.968 E384.16094
G1 X1.259 Y-6.651 E384.19909
G1 X1.939 Y-7.27 E384.23732
G1 X2.675 Y-7.819 E384.2755
G1 X3.462 Y-8.292 E384.31367
G1 X4.292 Y-8.684 E384.35183
G1 X5.157 Y-8.992 E384.39001
G1 X6.048 Y-9.214 E384.42818
G1 X6.957 Y-9.344 E384.46636
G1 X7.874 Y-9.385 E384.50452
G1 X8.791 Y-9.335 E384.5427
G1 X9.699 Y-9.194 E384.58091
G1 X10.588 Y-8.964 E384.61908
G1 X11.449 Y-8.646 E384.65724
G1 X12.254 Y-8.258 E384.6944
G1 X12.678 Y-7.999 E384.71505
G1 X12.951 Y-7.832 E384.72836
G0 F12000 X12.963 Y-7.853
G1 F2700 X13.019 Y-7.804 E384.73258
G1 X12.89 Y-8.04 E384.74622
G0 F12000 X12.829 Y-8.248
G1 F2700 X12.778 Y-8.646 E384.7629
G1 X12.829 Y-9.045 E384.77962
G1 X12.976 Y-9.418 E384.79629
G1 X13.212 Y-9.743 E384.81299
G1 X13.522 Y-9.999 E384.82971
G1 X13.885 Y-10.17 E384.84639
G1 X14.28 Y-10.246 E384.86311
G1 X14.68 Y-10.219 E384.87978
G1 X15.062 Y-10.096 E384.89647
G1 X15.402 Y-9.881 E384.91319
G1 X15.677 Y-9.588 E384.9299
G1 X15.87 Y-9.236 E384.94659
G1 X15.97 Y-8.848 E384.96324
G1 X15.97 Y-8.445 E384.98
G1 X15.87 Y-8.056 E384.9967
G1 X15.677 Y-7.705 E385.01335
G1 X15.402 Y-7.412 E385.03006
G1 X15.062 Y-7.197 E385.04678
G1 X14.68 Y-7.072 E385.06349
G1 X14.417 Y-7.056 E385.07445
G1 X14.28 Y-7.048 E385.08015
G0 F12000 X14.206 Y-6.969
G1 F2700 X13.947 Y-7.064 E385.09495
G1 X14.362 Y-6.823 E385.12843
G0 F12000 X14.444 Y-6.599
G1 F2700 X15.052 Y-5.911 E385.1666
G1 X15.588 Y-5.166 E385.20476
G1 X16.049 Y-4.373 E385.24289
G1 X16.428 Y-3.536 E385.28109
G1 X16.723 Y-2.668 E385.31921
G1 X16.929 Y-1.773 E385.35739
G1 X17.047 Y-0.863 E385.39554
G1 X17.073 Y0.052 E385.4336
G1 X17.009 Y0.968 E385.47177
G1 X16.853 Y1.872 E385.50991
G1 X16.61 Y2.758 E385.54811
G1 X16.28 Y3.614 E385.58625
G1 X15.866 Y4.433 E385.6244
G1 X15.372 Y5.209 E385.66265
G1 X14.806 Y5.93 E385.70076
G1 X14.171 Y6.592 E385.73889
G1 X13.472 Y7.187 E385.77706
G1 X12.718 Y7.71 E385.81521
G1 X11.916 Y8.156 E385.85336
G1 X11.074 Y8.521 E385.89151
G1 X10.199 Y8.801 E385.92971
G1 X9.302 Y8.992 E385.96784
G1 X8.389 Y9.094 E386.00603
G1 X7.471 Y9.104 E386.0442
G1 X6.558 Y9.024 E386.0823
G1 X5.656 Y8.852 E386.12048
G1 X4.776 Y8.593 E386.15862
G1 X3.925 Y8.248 E386.1968
G1 X3.179 Y7.855 E386.23185
G1 X3.108 Y7.818 E386.23518
G1 X2.958 Y7.717 E386.2427
G0 F12000 X2.937 Y7.748
G1 F2700 X2.856 Y7.672 E386.24893
G1 X2.917 Y7.769 E386.2534
G1 X2.987 Y7.942 E386.26499
G0 F12000 X3.516 Y8.598
G0 X3.516 Y8.634
G0 X3.385 Y9.145
G0 X3.13 Y9.608
G0 X2.769 Y9.993
G0 X2.323 Y10.275
G0 X-11.141 Y17.25
G0 X-11.641 Y17.25
G0 X-11.141 Y17.25
G0 X-10.641 Y16.25
; TYPE:WALL-INNER
G1 F3600 X-22.763 Y16.25 E386.76897
G1 X-22.763 Y13.949 E386.86463
G1 X-12.313 Y13.949 E387.29909
G1 X-12.313 Y-13.749 E388.45064
G1 X-22.763 Y-13.749 E388.8851
G1 X-22.763 Y-16.249 E388.98904
G1 X-10.641 Y-16.249 E389.49301
G1 X-10.641 Y-23.249 E389.78404
G1 X-8.141 Y-23.249 E389.88798
G1 X-8.141 Y-16.249 E390.179
G1 X22.857 Y-16.249 E391.46775
G1 X22.857 Y-14.749 E391.53011
G1 X21.857 Y-14.749 E391.57169
G1 X21.857 Y14.75 E392.79811
G1 X22.857 Y14.75 E392.83969
G1 X22.857 Y16.25 E392.90205
G1 X-8.141 Y16.25 E394.1908
G1 X-8.141 Y23.25 E394.48183
G1 X-10.641 Y23.25 E394.58576
G1 X-10.641 Y16.25 E394.87679
G0 F12000 X-11.141 Y16.75
G1 F3600 X-23.263 Y16.75 E395.38076
G1 X-23.263 Y13.449 E395.518
G1 X-12.813 Y13.449 E395.95246
G1 X-12.813 Y-13.249 E397.06244
G1 X-23.263 Y-13.249 E397.4969
G1 X-23.263 Y-16.749 E397.64241
G1 X-11.141 Y-16.749 E398.14639
G1 X-11.141 Y-23.749 E398.43741
G1 X-7.641 Y-23.749 E398.58293
G1 X-7.641 Y-16.749 E398.87395
G1 X23.357 Y-16.749 E400.1627
G1 X23.357 Y-14.249 E400.26664
G1 X22.357 Y-14.249 E400.30821
G1 X22.357 Y14.25 E401.49306
G1 X23.357 Y14.25 E401.53464
G1 X23.357 Y16.75 E401.63858
G1 X-7.641 Y16.75 E402.92732
G1 X-7.641 Y23.75 E403.21835
G1 X-11.141 Y23.75 E403.36386
G1 X-11.141 Y16.75 E403.65489
G0 F12000 X-11.141 Y17.25
G0 X-11.641 Y17.25
; TYPE:WALL-OUTER
G1 F2700 X-23.763 Y17.25 E404.15886
G1 X-23.763 Y12.949 E404.33768
G1 X-13.313 Y12.949 E404.77214
G1 X-13.313 Y-12.749 E405.84054
G1 X-23.763 Y-12.749 E406.275
G1 X-23.763 Y-17.249 E406.46209
G1 X-11.641 Y-17.249 E406.96606
G1 X-11.641 Y-24.249 E407.25709
G1 X-7.141 Y-24.249 E407.44417
G1 X-7.141 Y-17.249 E407.7352
G1 X23.857 Y-17.249 E409.02395
G1 X23.857 Y-13.749 E409.16946
G1 X22.857 Y-13.749 E409.21104
G1 X22.857 Y13.75 E410.35431
G1 X23.857 Y13.75 E410.39589
G1 X23.857 Y17.25 E410.5414
G1 X-7.141 Y17.25 E411.83015
G1 X-7.141 Y24.25 E412.12117
G1 X-11.641 Y24.25 E412.30826
G1 X-11.641 Y17.25 E412.59929
G0 F12000 X-11.141 Y17.25
G0 X-11.141 Y16.75
G0 X-11.499 Y15.949
; TYPE:FILL
G1 F3600 X-11.5 Y-15.948 E413.92541
G0 F12000 X-11 Y-15.948
G1 F3600 X-10.999 Y15.949 E415.25153
G0 F12000 X-10.499 Y15.949
G1 F3600 X-10.5 Y-15.948 E416.57766
G0 F12000 X-12 Y-15.948
G1 F3600 X-11.999 Y15.949 E417.90378
G0 F12000 X-12.499 Y15.949
G1 F3600 X-12.499 Y14.248 E417.9745
G0 F12000 X-12.999 Y14.248
G1 F3600 X-12.999 Y15.949 E418.04522
G0 F12000 X-13.499 Y15.949
G1 F3600 X-13.499 Y14.248 E418.11594
G0 F12000 X-13.999 Y14.248
G1 F3600 X-13.999 Y15.949 E418.18666
G0 F12000 X-14.499 Y15.949
G1 F3600 X-14.499 Y14.248 E418.25738
G0 F12000 X-14.999 Y14.248
G1 F3600 X-14.999 Y15.949 E418.3281
G0 F12000 X-15.499 Y15.949
G1 F3600 X-15.499 Y14.248 E418.39882
G0 F12000 X-15.999 Y14.248
G1 F3600 X-15.999 Y15.949 E418.46953
G0 F12000 X-16.499 Y15.949
G1 F3600 X-16.5 Y14.248 E418.54025
G0 F12000 X-17 Y14.248
G1 F3600 X-16.999 Y15.949 E418.61097
G0 F12000 X-17.499 Y15.949
G1 F3600 X-17.5 Y14.248 E418.68169
G0 F12000 X-18 Y14.248
G1 F3600 X-17.999 Y15.949 E418.75241
G0 F12000 X-18.499 Y15.949
G1 F3600 X-18.5 Y14.248 E418.82313
G0 F12000 X-19 Y14.248
G1 F3600 X-18.999 Y15.949 E418.89385
G0 F12000 X-19.499 Y15.949
G1 F3600 X-19.5 Y14.248 E418.96457
G0 F12000 X-20 Y14.248
G1 F3600 X-19.999 Y15.949 E419.03529
G0 F12000 X-20.499 Y15.949
G1 F3600 X-20.5 Y14.248 E419.10601
G0 F12000 X-21 Y14.248
G1 F3600 X-20.999 Y15.949 E419.17673
G0 F12000 X-21.499 Y15.949
G1 F3600 X-21.5 Y14.248 E419.24745
G0 F12000 X-22 Y14.248
G1 F3600 X-21.999 Y15.949 E419.31817
G0 F12000 X-11.141 Y16.75
G0 X-9.999 Y22.95
G1 F3600 X-10 Y-22.949 E421.22643
G0 F12000 X-9.5 Y-22.949
G1 F3600 X-9.499 Y22.95 E423.13468
G0 F12000 X-8.999 Y22.95
G1 F3600 X-9 Y-22.949 E425.04294
G0 F12000 X-8.5 Y-22.949
G1 F3600 X-8.499 Y22.95 E426.9512
G0 F12000 X-7.999 Y15.949
G1 F3600 X-8 Y-15.948 E428.27732
G0 F12000 X-7.5 Y-15.948
G1 F3600 X-7.499 Y15.949 E429.60345
G0 F12000 X-6.999 Y15.949
G1 F3600 X-7 Y-15.949 E430.92961
G0 F12000 X-6.5 Y-15.949
G1 F3600 X-6.499 Y15.949 E432.25578
G0 F12000 X-5.999 Y15.949
G1 F3600 X-6 Y-15.949 E433.58194
G0 F12000 X-5.5 Y-15.949
G1 F3600 X-5.499 Y15.949 E434.90811
G0 F12000 X-4.999 Y15.949
G1 F3600 X-5 Y-15.949 E436.23427
G0 F12000 X-4.5 Y-15.949
G1 F3600 X-4.499 Y15.949 E437.56044
G0 F12000 X-3.999 Y15.949
G1 F3600 X-4 Y-15.949 E438.8866
G0 F12000 X-3.5 Y-15.949
G1 F3600 X-3.499 Y15.949 E440.21277
G0 F12000 X-2.999 Y15.949
G1 F3600 X-3 Y-15.949 E441.53893
G0 F12000 X-2.5 Y-15.949
G1 F3600 X-2.5 Y-2.254 E442.1083
G0 F12000 X-2 Y-3.952
G1 F3600 X-2 Y-15.949 E442.60708
G0 F12000 X-1.5 Y-15.949
G1 F3600 X-1.5 Y-5.064 E443.05963
G0 F12000 X-1 Y-5.914
G1 F3600 X-1 Y-15.949 E443.47683
G0 F12000 X-0.5 Y-15.949
G1 F3600 X-0.5 Y-6.603 E443.86539
G0 F12000 X0 Y-7.193
G1 F3600 X0 Y-15.949 E444.22943
G0 F12000 X0.499 Y-15.949
G1 F3600 X0.499 Y-7.717 E444.57167
G0 F12000 X0.999 Y-8.172
G1 F3600 X0.999 Y-15.949 E444.895
G0 F12000 X1.499 Y-15.949
G1 F3600 X1.499 Y-8.564 E445.20204
G0 F12000 X1.999 Y-8.93
G1 F3600 X1.999 Y-15.949 E445.49385
G0 F12000 X2.499 Y-15.949
G1 F3600 X2.499 Y-9.231 E445.77315
G0 F12000 X2.999 Y-9.511
G1 F3600 X2.999 Y-15.949 E446.04081
G0 F12000 X3.499 Y-15.949
G1 F3600 X3.499 Y-9.748 E446.29862
G0 F12000 X3.999 Y-9.96
G1 F3600 X3.999 Y-15.949 E446.54762
G0 F12000 X4.499 Y-15.949
G1 F3600 X4.499 Y-10.137 E446.78925
G0 F12000 X4.999 Y-10.292
G1 F3600 X4.999 Y-15.949 E447.02444
G0 F12000 X5.499 Y-15.949
G1 F3600 X5.499 Y-10.416 E447.25448
G0 F12000 X5.999 Y-10.519
G1 F3600 X5.999 Y-15.949 E447.48023
G0 F12000 X6.499 Y-15.949
G1 F3600 X6.499 Y-10.591 E447.70299
G0 F12000 X6.999 Y-10.647
G1 F3600 X6.999 Y-15.949 E447.92342
G0 F12000 X7.499 Y-15.948
G1 F3600 X7.499 Y-10.669 E448.1429
G0 F12000 X7.999 Y-10.679
G1 F3600 X7.999 Y-15.948 E448.36196
G0 F12000 X8.499 Y-15.948
G1 F3600 X8.499 Y-10.652 E448.58214
G0 F12000 X8.999 Y-10.617
G1 F3600 X8.999 Y-15.948 E448.80378
G0 F12000 X9.499 Y-15.948
G1 F3600 X9.499 Y-10.539 E449.02866
G0 F12000 X9.999 Y-10.457
G1 F3600 X9.999 Y-15.948 E449.25694
G0 F12000 X10.499 Y-15.948
G1 F3600 X10.499 Y-10.328 E449.4906
G0 F12000 X10.999 Y-10.196
G1 F3600 X10.999 Y-15.948 E449.72974
G0 F12000 X11.499 Y-15.948
G1 F3600 X11.499 Y-10.006 E449.97678
G0 F12000 X11.999 Y-10.285
G1 F3600 X11.999 Y-15.948 E450.21222
G0 F12000 X12.499 Y-15.948
G1 F3600 X12.499 Y-10.839 E450.42463
G0 F12000 X12.999 Y-11.189
G1 F3600 X12.999 Y-15.948 E450.62248
G0 F12000 X13.499 Y-15.948
G1 F3600 X13.499 Y-11.419 E450.81078
G0 F12000 X13.999 Y-11.515
G1 F3600 X13.999 Y-15.948 E450.99508
G0 F12000 X14.499 Y-15.948
G1 F3600 X14.499 Y-11.533 E451.17863
G0 F12000 X14.999 Y-11.481
G1 F3600 X14.999 Y-15.948 E451.36435
G0 F12000 X15.499 Y-15.948
G1 F3600 X15.499 Y-11.32 E451.55676
G0 F12000 X15.999 Y-11.039
G1 F3600 X15.999 Y-15.948 E451.76085
G0 F12000 X16.499 Y-15.948
G1 F3600 X16.5 Y-10.609 E451.98282
G0 F12000 X17 Y-9.879
G1 F3600 X16.999 Y-15.948 E452.23514
G0 F12000 X17.499 Y-15.948
G1 F3600 X17.5 Y-4.319 E452.71862
G0 F12000 X17 Y-5.322
G1 F3600 X17 Y-7.411 E452.80547
G0 F12000 X16.5 Y-6.682
G1 F3600 X16.5 Y-6.124 E452.82867
G0 F12000 X15.051 Y-6.667
G0 X13.697 Y-7.24
G1 F3600 X13.535 Y-7.343 E452.83665
G1 X13.269 Y-7.553 E452.85074
G1 X13.092 Y-7.719 E452.86083
G0 F12000 X12.553 Y-8.432
G1 F3600 X12.463 Y-8.52 E452.86694
G1 X12.486 Y-8.409 E452.86855
G0 F12000 X12.293 Y-8.794
G0 X12.341 Y-9.17
G0 X12.534 Y-9.661
G0 X12.845 Y-10.088
G0 X13.252 Y-10.424
G0 X13.729 Y-10.649
G0 X14.249 Y-10.749
G0 X14.775 Y-10.714
G0 X15.276 Y-10.553
G0 X15.723 Y-10.27
G0 X16.085 Y-9.884
G0 X16.339 Y-9.421
G0 X16.47 Y-8.911
G0 X18 Y-2.916
G1 F3600 X17.999 Y-15.948 E453.41036
G0 F12000 X18.499 Y-15.948
G1 F3600 X18.5 Y15.949 E454.73648
G0 F12000 X18 Y15.949
G1 F3600 X18 Y2.605 E455.29126
G0 F12000 X17.5 Y4.061
G1 F3600 X17.5 Y15.949 E455.78551
G0 F12000 X17 Y15.949
G1 F3600 X17 Y5.068 E456.23789
G0 F12000 X16.5 Y5.858
G1 F3600 X16.5 Y15.949 E456.65742
G0 F12000 X16 Y15.949
G1 F3600 X16 Y6.514 E457.04968
G0 F12000 X15.5 Y7.083
G1 F3600 X15.5 Y15.949 E457.41829
G0 F12000 X15 Y15.949
G1 F3600 X15 Y7.591 E457.76577
G0 F12000 X14.5 Y8.018
G1 F3600 X14.5 Y15.949 E458.09551
G0 F12000 X14 Y15.949
G1 F3600 X14 Y8.402 E458.40927
G0 F12000 X13.5 Y8.748
G1 F3600 X13.5 Y15.949 E458.70866
G0 F12000 X13 Y15.949
G1 F3600 X13 Y9.039 E458.99594
G0 F12000 X12.5 Y9.316
G1 F3600 X12.5 Y15.949 E459.27171
G0 F12000 X12 Y15.949
G1 F3600 X12 Y9.536 E459.53833
G0 F12000 X11.5 Y9.749
G1 F3600 X11.5 Y15.949 E459.7961
G0 F12000 X11 Y15.949
G1 F3600 X11 Y9.909 E460.04721
G0 F12000 X10.5 Y10.065
G1 F3600 X10.5 Y15.949 E460.29184
G0 F12000 X10 Y15.949
G1 F3600 X10 Y10.171 E460.53206
G0 F12000 X9.5 Y10.276
G1 F3600 X9.5 Y15.949 E460.76792
G0 F12000 X9 Y15.949
G1 F3600 X9 Y10.332 E461.00144
G0 F12000 X8.5 Y10.388
G1 F3600 X8.5 Y15.949 E461.23264
G0 F12000 X8 Y15.949
G1 F3600 X8 Y10.397 E461.46347
G0 F12000 X7.5 Y10.403
G1 F3600 X7.5 Y15.949 E461.69405
G0 F12000 X7 Y15.949
G1 F3600 X7 Y10.369 E461.92603
G0 F12000 X6.5 Y10.325
G1 F3600 X6.5 Y15.949 E462.15985
G0 F12000 X6 Y15.949
G1 F3600 X6 Y10.242 E462.39712
G0 F12000 X5.5 Y10.147
G1 F3600 X5.5 Y15.949 E462.63834
G0 F12000 X5 Y15.949
G1 F3600 X5 Y10.015 E462.88505
G0 F12000 X4.5 Y9.868
G1 F3600 X4.5 Y15.949 E463.13787
G0 F12000 X4 Y15.949
G1 F3600 X4 Y9.682 E463.39842
G0 F12000 X3.5 Y10.382
G1 F3600 X3.5 Y15.949 E463.62987
G0 F12000 X3 Y15.949
G1 F3600 X3 Y10.793 E463.84423
G0 F12000 X2.5 Y11.059
G1 F3600 X2.5 Y15.949 E464.04753
G0 F12000 X2 Y15.949
G1 F3600 X2 Y11.221 E464.2441
G0 F12000 X1.5 Y11.259
G1 F3600 X1.5 Y15.949 E464.43909
G0 F12000 X1 Y15.949
G1 F3600 X1 Y11.229 E464.63532
G0 F12000 X0.5 Y11.128
G1 F3600 X0.5 Y15.949 E464.83576
G0 F12000 X0 Y15.949
G1 F3600 X0 Y10.893 E465.04596
G0 F12000 X-0.499 Y10.526
G1 F3600 X-0.499 Y15.949 E465.27142
G0 F12000 X-0.999 Y15.949
G1 F3600 X-0.999 Y9.945 E465.52104
G0 F12000 X-0.999 Y6.796
G1 F3600 X-0.999 Y5.619 E465.56997
G0 F12000 X-1.499 Y4.769
G1 F3600 X-1.499 Y15.949 E466.03478
G0 F12000 X-1.999 Y15.949
G1 F3600 X-1.999 Y3.661 E466.54566
G0 F12000 X-2.499 Y1.993
G1 F3600 X-2.499 Y15.949 E467.12588
G0 F12000 X3.13 Y9.608
G0 X3.385 Y9.145
G0 X3.516 Y8.634
G0 X3.516 Y8.598
G0 X2.624 Y7.419
G1 F3600 X2.371 Y7.203 E467.13971
G0 F12000 X2.339 Y7.179
G1 F3600 X2.223 Y7.088 E467.14584
G1 X1.99 Y6.916 E467.15788
G0 F12000 X2.11 Y7.017
G1 F3600 X1.829 Y6.864 E467.17119
G1 F6600 E463.17119
G1 Z0.85
G0 F12000 X0.638 Y6.431
G0 X0.298 Y6.592
G0 X-0.109 Y6.928
G0 X-0.42 Y7.355
G0 X-0.613 Y7.846
G0 X-0.68 Y8.37
G0 X-0.613 Y8.893
G0 X-0.42 Y9.384
G0 X-0.109 Y9.811
G0 X0.298 Y10.148
G0 X0.776 Y10.373
G0 X19 Y15.949
G1 Z0.55
G1 F6600 E467.27119
G1 F3600 X18.999 Y-15.948 E468.59731
G0 F12000 X19.499 Y-15.948
G1 F3600 X19.5 Y15.949 E469.92343
G0 F12000 X20 Y15.949
G1 F3600 X19.999 Y-15.948 E471.24956
G0 F12000 X20.499 Y-15.948
G1 F3600 X20.5 Y15.949 E472.57568
G0 F12000 X21 Y15.949
G1 F3600 X20.999 Y-15.948 E473.9018
G0 F12000 X21.499 Y-15.948
G1 F3600 X21.5 Y15.949 E475.22792
G0 F12000 X22 Y15.949
G1 F3600 X22 Y15.049 E475.26534
G0 F12000 X22.5 Y15.049
G1 F3600 X22.5 Y15.949 E475.30276
G1 F6600 E471.30276
G1 Z0.85
G0 F12000 X22.357 Y14.25
G0 X22.357 Y-14.249
G0 X22.499 Y-15.048
G1 Z0.55
G1 F6600 E475.40276
G1 F3600 X22.499 Y-15.948 E475.44018
G0 F12000 X21.999 Y-15.948
G1 F3600 X21.999 Y-15.048 E475.4776
G0 F12000 X-12.5 Y-15.948
G1 F3600 X-12.5 Y-14.048 E475.55659
G0 F12000 X-13 Y-14.048
G1 F3600 X-13 Y-15.948 E475.63558
G0 F12000 X-13.5 Y-15.948
G1 F3600 X-13.5 Y-14.048 E475.71457
G0 F12000 X-14 Y-14.048
G1 F3600 X-14 Y-15.948 E475.79357
G0 F12000 X-14.5 Y-15.948
G1 F3600 X-14.5 Y-14.048 E475.87256
G0 F12000 X-15 Y-14.048
G1 F3600 X-15 Y-15.948 E475.95155
G0 F12000 X-15.5 Y-15.948
G1 F3600 X-15.5 Y-14.048 E476.03054
G0 F12000 X-16 Y-14.048
G1 F3600 X-16 Y-15.948 E476.10954
G0 F12000 X-16.5 Y-15.948
G1 F3600 X-16.5 Y-14.048 E476.18853
G0 F12000 X-17 Y-14.048
G1 F3600 X-17 Y-15.948 E476.26752
G0 F12000 X-17.5 Y-15.948
G1 F3600 X-17.5 Y-14.048 E476.34652
G0 F12000 X-18 Y-14.048
G1 F3600 X-18 Y-15.948 E476.42551
G0 F12000 X-18.5 Y-15.948
G1 F3600 X-18.5 Y-14.048 E476.5045
G0 F12000 X-19 Y-14.048
G1 F3600 X-19 Y-15.948 E476.58349
G0 F12000 X-19.5 Y-15.948
G1 F3600 X-19.5 Y-14.048 E476.66249
G0 F12000 X-20 Y-14.048
G1 F3600 X-20 Y-15.948 E476.74148
G0 F12000 X-20.5 Y-15.948
G1 F3600 X-20.5 Y-14.048 E476.82047
G0 F12000 X-21 Y-14.048
G1 F3600 X-21 Y-15.948 E476.89947
G0 F12000 X-21.5 Y-15.948
G1 F3600 X-21.5 Y-14.048 E476.97846
G0 F12000 X-22 Y-14.048
G1 F3600 X-22 Y-15.948 E477.05745
; Layer Change GCode
; LAYER:2
M400
M106 S153
G1 F6600 E473.05745
G1 Z0.85
G0 F12000 X-22 Y-15.948 Z1.05
G0 X-12.771 Y-13.249
G0 X-11.141 Y16.75
G0 X-11.141 Y17.25
G0 X-11.641 Y17.25
G0 X-11.141 Y17.25
G0 X-10.641 Y16.25
; TYPE:WALL-INNER
G1 Z0.75
G1 F6600 E477.15745
G1 F3600 X-22.717 Y16.25 E477.65951
G1 X-22.717 Y13.949 E477.75518
G1 X-12.271 Y13.949 E478.18947
G1 X-12.271 Y-13.749 E479.34102
G1 X-22.717 Y-13.749 E479.77532
G1 X-22.717 Y-16.249 E479.87925
G1 X-10.641 Y-16.249 E480.38131
G1 X-10.641 Y-23.249 E480.67234
G1 X-8.141 Y-23.249 E480.77628
G1 X-8.141 Y-16.249 E481.06731
G1 X22.857 Y-16.249 E482.35605
G1 X22.857 Y-14.749 E482.41842
G1 X21.857 Y-14.749 E482.45999
G1 X21.857 Y14.75 E483.68642
G1 X22.857 Y14.75 E483.72799
G1 X22.857 Y16.25 E483.79035
G1 X-8.141 Y16.25 E485.0791
G1 X-8.141 Y23.25 E485.37013
G1 X-10.641 Y23.25 E485.47407
G1 X-10.641 Y16.25 E485.76509
G0 F12000 X-11.141 Y16.75
G1 F3600 X-23.217 Y16.75 E486.26715
G1 X-23.217 Y13.449 E486.40439
G1 X-12.771 Y13.449 E486.83869
G1 X-12.771 Y-13.249 E487.94866
G1 X-23.217 Y-13.249 E488.38296
G1 X-23.217 Y-16.749 E488.52847
G1 X-11.141 Y-16.749 E489.03053
G1 X-11.141 Y-23.749 E489.32156
G1 X-7.641 Y-23.749 E489.46707
G1 X-7.641 Y-16.749 E489.7581
G1 X23.357 Y-16.749 E491.04684
G1 X23.357 Y-14.249 E491.15078
G1 X22.357 Y-14.249 E491.19236
G1 X22.357 Y14.25 E492.37721
G1 X23.357 Y14.25 E492.41878
G1 X23.357 Y16.75 E492.52272
G1 X-7.641 Y16.75 E493.81147
G1 X-7.641 Y23.75 E494.10249
G1 X-11.141 Y23.75 E494.24801
G1 X-11.141 Y16.75 E494.53903
G0 F12000 X-11.141 Y17.25
G0 X-11.641 Y17.25
; TYPE:WALL-OUTER
G1 F2700 X-23.717 Y17.25 E495.04109
G1 X-23.717 Y12.949 E495.21991
G1 X-13.271 Y12.949 E495.6542
G1 X-13.271 Y-12.749 E496.7226
G1 X-23.717 Y-12.749 E497.1569
G1 X-23.717 Y-17.249 E497.34398
G1 X-11.641 Y-17.249 E497.84605
G1 X-11.641 Y-24.249 E498.13707
G1 X-7.141 Y-24.249 E498.32416
G1 X-7.141 Y-17.249 E498.61519
G1 X23.857 Y-17.249 E499.90393
G1 X23.857 Y-13.749 E500.04945
G1 X22.857 Y-13.749 E500.09102
G1 X22.857 Y13.75 E501.2343
G1 X23.857 Y13.75 E501.27587
G1 X23.857 Y17.25 E501.42139
G1 X-7.141 Y17.25 E502.71013
G1 X-7.141 Y24.25 E503.00116
G1 X-11.641 Y24.25 E503.18825
G1 X-11.641 Y17.25 E503.47927
G0 F12000 X-11.141 Y17.25
G0 X1.234 Y10.459
G0 X1.326 Y9.968
G0 X1.234 Y10.459
G0 X1.295 Y10.471
G0 X1.821 Y10.439
G0 X3.538 Y9.904
; TYPE:WALL-INNER
G1 F3600 X3.862 Y9.301 E503.50773
G1 X4.437 Y9.536 E503.53356
G1 X5.413 Y9.824 E503.57586
G1 X6.411 Y10.015 E503.61811
G1 X7.425 Y10.105 E503.66043
G1 X8.442 Y10.093 E503.70272
G1 X9.451 Y9.982 E503.74492
G1 X10.446 Y9.772 E503.7872
G1 X11.416 Y9.463 E503.82952
G1 X12.349 Y9.06 E503.87178
G1 X13.238 Y8.567 E503.91404
G1 X14.074 Y7.987 E503.95634
G1 X14.848 Y7.329 E503.99858
G1 X15.554 Y6.596 E504.04089
G1 X16.183 Y5.797 E504.08317
G1 X16.729 Y4.94 E504.12541
G1 X17.189 Y4.033 E504.16769
G1 X17.556 Y3.085 E504.20996
G1 X17.827 Y2.105 E504.25223
G1 X18.001 Y1.103 E504.29451
G1 X18.074 Y0.088 E504.33682
G1 X18.046 Y-0.926 E504.37899
G1 X17.917 Y-1.935 E504.42128
G1 X17.689 Y-2.925 E504.46352
G1 X17.366 Y-3.888 E504.50575
G1 X16.947 Y-4.815 E504.54804
G1 X16.439 Y-5.696 E504.59033
G1 X15.859 Y-6.502 E504.63161
G0 F12000 X15.851 Y-6.513
G1 F3600 X15.951 Y-6.568 E504.63635
G0 F12000 X16.044 Y-6.635
G1 F3600 X16.492 Y-7.112 E504.66356
G1 X16.808 Y-7.685 E504.69077
G1 X16.97 Y-8.319 E504.71797
G1 X16.97 Y-8.974 E504.7452
G1 X16.808 Y-9.606 E504.77233
G1 X16.493 Y-10.18 E504.79955
G1 X16.044 Y-10.658 E504.82681
G1 X15.49 Y-11.009 E504.85408
G1 X14.869 Y-11.209 E504.88121
G1 X14.217 Y-11.252 E504.90837
G1 X13.573 Y-11.128 E504.93564
G1 X12.982 Y-10.85 E504.96279
G1 X12.478 Y-10.433 E504.98999
G1 X12.093 Y-9.904 E505.01719
G1 X11.942 Y-9.52 E505.03434
G1 X10.916 Y-9.909 E505.07996
G1 X9.932 Y-10.167 E505.12226
G1 X8.928 Y-10.326 E505.16452
G1 X7.912 Y-10.386 E505.20683
G1 X6.894 Y-10.343 E505.24919
G1 X5.888 Y-10.201 E505.29143
G1 X4.899 Y-9.96 E505.33375
G1 X3.939 Y-9.621 E505.37608
G1 X3.018 Y-9.188 E505.41839
G1 X2.144 Y-8.668 E505.46067
G1 X1.326 Y-8.062 E505.503
G1 X0.572 Y-7.378 E505.54532
G1 X-0.11 Y-6.623 E505.58762
G1 X-0.714 Y-5.804 E505.62993
G1 X-1.233 Y-4.928 E505.67226
G1 X-1.662 Y-4.007 E505.7145
G1 X-1.999 Y-3.048 E505.75676
G1 X-2.239 Y-2.059 E505.79907
G1 X-2.381 Y-1.051 E505.8414
G1 X-2.42 Y-0.035 E505.88367
G1 X-2.36 Y0.98 E505.92594
G1 X-2.198 Y1.984 E505.96822
G1 X-1.939 Y2.969 E506.01056
G1 X-1.582 Y3.921 E506.05284
G1 X-1.134 Y4.833 E506.09508
G1 X-0.598 Y5.697 E506.13735
G1 X-0.134 Y6.3 E506.16898
G1 X-0.476 Y6.583 E506.18744
G1 X-0.861 Y7.112 E506.21464
G1 X-1.101 Y7.721 E506.24186
G1 X-1.184 Y8.37 E506.26906
G1 X-1.101 Y9.018 E506.29622
G1 X-0.862 Y9.626 E506.32338
G1 X-0.477 Y10.156 E506.35061
G1 X0.028 Y10.574 E506.37787
G1 X0.621 Y10.853 E506.40512
G1 X1.263 Y10.974 E506.43228
G1 X1.915 Y10.934 E506.45943
G1 X2.537 Y10.731 E506.48664
G1 X3.09 Y10.381 E506.51385
G1 X3.538 Y9.904 E506.54105
G0 F12000 X3.385 Y9.145
G1 F3600 X3.503 Y8.65 E506.56221
G0 F12000 X3.51 Y8.651
G0 X3.516 Y8.634
G0 X3.516 Y8.598
G1 F3600 X3.605 Y8.674 E506.56707
G0 F12000 X3.707 Y8.699
G1 F3600 X4.603 Y9.064 E506.6073
G1 X5.531 Y9.338 E506.64753
G1 X6.48 Y9.519 E506.68769
G1 X7.444 Y9.604 E506.72793
G1 X8.411 Y9.594 E506.76813
G1 X9.372 Y9.487 E506.80833
G1 X10.319 Y9.288 E506.84856
G1 X11.24 Y8.994 E506.88876
G1 X12.128 Y8.611 E506.92896
G1 X12.974 Y8.142 E506.96918
G1 X13.769 Y7.59 E507.00942
G1 X14.505 Y6.964 E507.04959
G1 X15.176 Y6.267 E507.08981
G1 X15.774 Y5.508 E507.12999
G1 X16.294 Y4.692 E507.17021
G1 X16.732 Y3.829 E507.21045
G1 X17.081 Y2.928 E507.25062
G1 X17.339 Y1.996 E507.29083
G1 X17.504 Y1.042 E507.33108
G1 X17.574 Y0.077 E507.3713
G1 X17.547 Y-0.887 E507.4114
G1 X17.424 Y-1.847 E507.45164
G1 X17.208 Y-2.789 E507.49182
G1 X16.9 Y-3.705 E507.53199
G1 X16.501 Y-4.587 E507.57224
G1 X16.018 Y-5.424 E507.61242
G1 X15.453 Y-6.21 E507.65266
G1 X15.113 Y-6.597 E507.67408
G0 F12000 X15.051 Y-6.667
G1 F3600 X15.195 Y-6.669 E507.68007
G0 F12000 X15.277 Y-6.741
G1 F3600 X15.723 Y-7.023 E507.70201
G1 X16.084 Y-7.408 E507.72395
G1 X16.339 Y-7.871 E507.74592
G1 X16.47 Y-8.382 E507.76786
G1 X16.47 Y-8.911 E507.78985
G1 X16.339 Y-9.421 E507.81174
G1 X16.085 Y-9.884 E507.8337
G1 X15.723 Y-10.27 E507.8557
G1 X15.276 Y-10.553 E507.87769
G1 X14.775 Y-10.714 E507.89957
G1 X14.249 Y-10.749 E507.92149
G1 X13.729 Y-10.649 E507.9435
G1 X13.252 Y-10.424 E507.96543
G1 X12.845 Y-10.088 E507.98737
G1 X12.534 Y-9.661 E508.00933
G1 X12.341 Y-9.17 E508.03127
G0 F12000 X12.263 Y-9.007
G1 F3600 X12.293 Y-8.793 E508.04025
G0 F12000 X12.185 Y-8.845
G1 F3600 X11.672 Y-9.094 E508.06396
G1 X10.765 Y-9.432 E508.1042
G1 X9.829 Y-9.677 E508.14443
G1 X8.874 Y-9.829 E508.18463
G1 X7.907 Y-9.885 E508.2249
G1 X6.94 Y-9.845 E508.26514
G1 X5.982 Y-9.709 E508.30537
G1 X5.042 Y-9.48 E508.34559
G1 X4.129 Y-9.158 E508.38584
G1 X3.253 Y-8.746 E508.42609
G1 X2.422 Y-8.251 E508.4663
G1 X1.644 Y-7.675 E508.50655
G1 X0.927 Y-7.025 E508.54678
G1 X0.278 Y-6.306 E508.58705
G1 X-0.297 Y-5.528 E508.62727
G1 X-0.79 Y-4.694 E508.66755
G1 X-1.198 Y-3.818 E508.70773
G1 X-1.519 Y-2.905 E508.74796
G1 X-1.748 Y-1.965 E508.78819
G1 X-1.882 Y-1.006 E508.82845
G1 X-1.92 Y-0.04 E508.86864
G1 X-1.862 Y0.925 E508.90883
G1 X-1.709 Y1.881 E508.94908
G1 X-1.462 Y2.817 E508.98933
G1 X-1.122 Y3.723 E509.02956
G1 X-0.696 Y4.591 E509.06976
G1 X-0.186 Y5.412 E509.10994
G1 X0.404 Y6.18 E509.15021
G0 F12000 X0.474 Y6.328
G1 F3600 X0.575 Y6.399 E509.15596
G1 X0.64 Y6.431 E509.15897
G0 F12000 X0.545 Y6.476
G1 F3600 X0.298 Y6.592 E509.17031
G1 X-0.109 Y6.928 E509.19225
G1 X-0.42 Y7.355 E509.21422
G1 X-0.613 Y7.846 E509.23615
G1 X-0.68 Y8.37 E509.25811
G1 X-0.613 Y8.893 E509.28004
G1 X-0.42 Y9.384 E509.30197
G1 X-0.109 Y9.811 E509.32393
G1 X0.298 Y10.148 E509.3459
G1 X0.776 Y10.373 E509.36786
G1 X1.295 Y10.471 E509.38982
G1 X1.821 Y10.439 E509.41173
G1 X2.323 Y10.275 E509.43369
G1 X2.769 Y9.993 E509.45563
G1 X3.13 Y9.608 E509.47757
G1 X3.385 Y9.145 E509.49954
G0 F12000 X3.516 Y8.634
G0 X3.516 Y8.598
G0 X3.016 Y8.168
; TYPE:WALL-OUTER
G1 F2700 X3.016 Y8.571 E509.5163
G1 X2.916 Y8.96 E509.533
G1 X2.723 Y9.311 E509.54965
G1 X2.448 Y9.604 E509.56636
G1 X2.108 Y9.819 E509.58308
G1 X1.726 Y9.944 E509.59979
G1 X1.326 Y9.968 E509.61645
G1 X0.931 Y9.894 E509.63316
G1 X0.568 Y9.723 E509.64984
G1 X0.258 Y9.466 E509.66658
G1 X0.022 Y9.141 E509.68328
G1 X-0.125 Y8.768 E509.69995
G1 X-0.176 Y8.37 E509.71663
G1 X-0.125 Y7.971 E509.73336
G1 X0.022 Y7.598 E509.75003
G1 X0.258 Y7.273 E509.76672
G1 X0.568 Y7.017 E509.78344
G1 X0.931 Y6.846 E509.80012
G1 X1.326 Y6.77 E509.81684
G1 X1.452 Y6.779 E509.8221
G0 F12000 X1.465 Y6.683
G1 F2700 X1.664 Y6.744 E509.83395
G1 X1.459 Y6.678 E509.84651
G0 F12000 X1.466 Y6.578
G1 F2700 X0.785 Y5.855 E509.8878
G1 X0.225 Y5.127 E509.92598
G1 X-0.258 Y4.348 E509.96409
G1 X-0.663 Y3.524 E510.00226
G1 X-0.985 Y2.665 E510.0404
G1 X-1.219 Y1.777 E510.07858
G1 X-1.365 Y0.87 E510.11678
G1 X-1.419 Y-0.045 E510.15488
G1 X-1.383 Y-0.961 E510.193
G1 X-1.256 Y-1.871 E510.2312
G1 X-1.039 Y-2.763 E510.26936
G1 X-0.735 Y-3.629 E510.30752
G1 X-0.347 Y-4.461 E510.34569
G1 X0.12 Y-5.251 E510.38384
G1 X0.665 Y-5.989 E510.42198
G1 X1.281 Y-6.671 E510.46019
G1 X1.961 Y-7.288 E510.49837
G1 X2.699 Y-7.834 E510.53653
G1 X3.488 Y-8.304 E510.57471
G1 X4.319 Y-8.695 E510.6129
G1 X5.185 Y-9 E510.65107
G1 X6.077 Y-9.218 E510.68925
G1 X6.985 Y-9.346 E510.72737
G1 X7.903 Y-9.384 E510.76557
G1 X8.82 Y-9.331 E510.80376
G1 X9.726 Y-9.187 E510.8419
G1 X10.614 Y-8.955 E510.88005
G1 X11.475 Y-8.634 E510.91826
G1 X12.267 Y-8.25 E510.95485
G1 X12.677 Y-7.999 E510.97484
G1 X12.95 Y-7.832 E510.98814
G0 F12000 X12.963 Y-7.853
G1 F2700 X13.028 Y-7.798 E510.99293
G1 X12.889 Y-8.04 E511.00738
G0 F12000 X12.829 Y-8.248
G1 F2700 X12.778 Y-8.646 E511.02407
G1 X12.829 Y-9.045 E511.04079
G1 X12.976 Y-9.418 E511.05746
G1 X13.212 Y-9.743 E511.07416
G1 X13.522 Y-9.999 E511.09087
G1 X13.885 Y-10.17 E511.10755
G1 X14.28 Y-10.246 E511.12428
G1 X14.68 Y-10.219 E511.14095
G1 X15.062 Y-10.096 E511.15763
G1 X15.402 Y-9.881 E511.17436
G1 X15.677 Y-9.588 E511.19106
G1 X15.87 Y-9.236 E511.20775
G1 X15.97 Y-8.848 E511.22441
G1 X15.97 Y-8.445 E511.24116
G1 X15.87 Y-8.056 E511.25786
G1 X15.677 Y-7.705 E511.27452
G1 X15.402 Y-7.412 E511.29122
G1 X15.062 Y-7.197 E511.30795
G1 X14.68 Y-7.072 E511.32466
G1 X14.427 Y-7.056 E511.3352
G1 X14.28 Y-7.048 E511.34132
G0 F12000 X14.206 Y-6.969
G1 F2700 X13.946 Y-7.064 E511.35612
G1 X14.367 Y-6.817 E511.39013
G0 F12000 X14.455 Y-6.587
G1 F2700 X15.062 Y-5.898 E511.42831
G1 X15.597 Y-5.153 E511.46644
G1 X16.056 Y-4.358 E511.5046
G1 X16.434 Y-3.522 E511.54275
G1 X16.726 Y-2.653 E511.58086
G1 X16.931 Y-1.759 E511.619
G1 X17.048 Y-0.848 E511.65718
G1 X17.073 Y0.066 E511.6952
G1 X17.007 Y0.981 E511.73334
G1 X16.85 Y1.886 E511.77152
G1 X16.606 Y2.771 E511.80969
G1 X16.275 Y3.625 E511.84777
G1 X15.859 Y4.444 E511.88596
G1 X15.366 Y5.218 E511.92411
G1 X14.799 Y5.938 E511.96221
G1 X14.162 Y6.599 E512.00038
G1 X13.464 Y7.193 E512.03848
G1 X12.709 Y7.717 E512.07669
G1 X11.907 Y8.162 E512.11482
G1 X11.065 Y8.525 E512.15295
G1 X10.191 Y8.804 E512.19109
G1 X9.293 Y8.993 E512.22924
G1 X8.381 Y9.094 E512.26739
G1 X7.463 Y9.104 E512.30556
G1 X6.549 Y9.023 E512.34371
G1 X5.649 Y8.851 E512.3818
G1 X4.768 Y8.591 E512.41999
G1 X3.918 Y8.245 E512.45815
G1 X3.18 Y7.855 E512.49285
G1 X3.1 Y7.813 E512.49661
G1 X2.957 Y7.717 E512.50377
G0 F12000 X2.936 Y7.748
G1 F2700 X2.857 Y7.672 E512.50995
G1 X2.916 Y7.766 E512.5143
G1 X2.805 Y7.68 E512.52343
G1 X2.37 Y7.203 E512.55027
G0 F12000 X2.34 Y7.18
; TYPE:FILL
G1 F3600 X2.225 Y7.089 E512.55637
G1 X1.991 Y6.916 E512.56847
G0 F12000 X2.111 Y7.017
G1 F3600 X1.83 Y6.864 E512.58177
G0 F12000 X0.64 Y6.431
G0 X-0.78 Y6.5
G1 F3600 X-11.971 Y6.5 E513.04704
G0 F12000 X-11.971 Y6
G1 F3600 X-0.743 Y6 E513.51384
G0 F12000 X-1.073 Y5.5
G1 F3600 X-11.971 Y5.5 E513.96693
G0 F12000 X-11.971 Y5
G1 F3600 X-1.383 Y5 E514.40713
G0 F12000 X-1.631 Y4.5
G1 F3600 X-11.971 Y4.5 E514.83701
G0 F12000 X-11.971 Y4
G1 F3600 X-1.873 Y4 E515.25684
G0 F12000 X-2.061 Y3.5
G1 F3600 X-11.971 Y3.5 E515.66885
G0 F12000 X-11.971 Y3
G1 F3600 X-2.242 Y3 E516.07334
G0 F12000 X-2.373 Y2.5
G1 F3600 X-11.971 Y2.5 E516.47237
G0 F12000 X-11.971 Y2
G1 F3600 X-2.5 Y2 E516.86613
G0 F12000 X-2.581 Y1.5
G1 F3600 X-11.971 Y1.5 E517.25652
G0 F12000 X-11.971 Y1
G1 F3600 X-2.659 Y1 E517.64367
G0 F12000 X-2.689 Y0.5
G1 F3600 X-11.971 Y0.5 E518.02957
G0 F12000 X-11.971 Y0
G1 F3600 X-2.719 Y0 E518.41423
G0 F12000 X-2.703 Y-0.499
G1 F3600 X-11.971 Y-0.499 E518.79954
G0 F12000 X-11.971 Y-0.999
G1 F3600 X-2.683 Y-0.999 E519.18569
G0 F12000 X-2.621 Y-1.499
G1 F3600 X-11.971 Y-1.499 E519.57442
G0 F12000 X-11.971 Y-1.999
G1 F3600 X-2.551 Y-1.999 E519.96606
G0 F12000 X-2.441 Y-2.5
G1 F3600 X-11.971 Y-2.499 E520.36227
G0 F12000 X-11.971 Y-2.999
G1 F3600 X-2.32 Y-3 E520.76351
G0 F12000 X-2.158 Y-3.5
G1 F3600 X-11.971 Y-3.499 E521.17149
G0 F12000 X-11.971 Y-3.999
G1 F3600 X-1.982 Y-4 E521.58678
G0 F12000 X-1.763 Y-4.5
G1 F3600 X-11.971 Y-4.499 E522.01118
G0 F12000 X-11.971 Y-4.999
G1 F3600 X-1.53 Y-5 E522.44527
G0 F12000 X-1.242 Y-5.5
G1 F3600 X-11.971 Y-5.499 E522.89133
G0 F12000 X-11.971 Y-5.999
G1 F3600 X-0.94 Y-6 E523.34995
G0 F12000 X-0.572 Y-6.5
G1 F3600 X-11.971 Y-6.499 E523.82386
G0 F12000 X-11.971 Y-6.999
G1 F3600 X-0.174 Y-7 E524.31432
G0 F12000 X0.276 Y-7.5
G1 F3600 X-11.971 Y-7.499 E524.82349
G0 F12000 X-11.971 Y-7.999
G1 F3600 X0.809 Y-8 E525.35483
G0 F12000 X1.413 Y-8.5
G1 F3600 X-11.971 Y-8.5 E525.91127
G0 F12000 X-11.971 Y-9
G1 F3600 X2.115 Y-9 E526.4969
G0 F12000 X2.976 Y-9.5
G1 F3600 X-11.971 Y-9.5 E527.11832
G0 F12000 X-11.971 Y-10
G1 F3600 X4.113 Y-10 E527.78701
G0 F12000 X5.855 Y-10.5
G1 F3600 X-11.971 Y-10.5 E528.52813
G0 F12000 X-11.971 Y-11
G1 F3600 X12.693 Y-11 E529.55354
G0 F12000 X12.157 Y-10.5
G1 F3600 X9.745 Y-10.5 E529.65382
G0 F12000 X11.523 Y-10
G1 F3600 X11.791 Y-10 E529.66496
G0 F12000 X12.293 Y-8.793
G0 X12.468 Y-8.55
G1 F3600 X12.519 Y-8.417 E529.67122
G1 X12.466 Y-8.479 E529.6723
G0 F12000 X13.102 Y-7.71
G1 F3600 X13.268 Y-7.554 E529.68177
G1 X13.534 Y-7.343 E529.69588
G1 X13.707 Y-7.233 E529.70441
G0 F12000 X15.051 Y-6.667
G0 X16.33 Y-6.5
G1 F3600 X21.557 Y-6.5 E529.92172
G0 F12000 X21.557 Y-7
G1 F3600 X16.773 Y-7 E530.12062
G0 F12000 X17.049 Y-7.5
G1 F3600 X21.557 Y-7.5 E530.30804
G0 F12000 X21.557 Y-8
G1 F3600 X17.198 Y-8 E530.48926
G0 F12000 X17.27 Y-8.5
G1 F3600 X21.557 Y-8.5 E530.6675
G0 F12000 X21.557 Y-9
G1 F3600 X17.27 Y-9 E530.84573
G0 F12000 X17.144 Y-9.5
G1 F3600 X21.557 Y-9.5 E531.0292
G0 F12000 X21.557 Y-10
G1 F3600 X16.934 Y-10 E531.2214
G0 F12000 X16.603 Y-10.5
G1 F3600 X21.557 Y-10.5 E531.42736
G0 F12000 X21.557 Y-11
G1 F3600 X16.062 Y-11 E531.65582
G0 F12000 X14.942 Y-11.5
G1 F3600 X21.557 Y-11.5 E531.93084
G0 F12000 X21.557 Y-12
G1 F3600 X-11.971 Y-12 E533.32477
G0 F12000 X-11.971 Y-12.5
G1 F3600 X21.557 Y-12.5 E534.7187
G0 F12000 X21.557 Y-13
G1 F3600 X-11.971 Y-13 E536.11264
G0 F12000 X-11.971 Y-13.5
G1 F3600 X21.557 Y-13.5 E537.50657
G0 F12000 X21.557 Y-14
G1 F3600 X-11.971 Y-14 E538.9005
G0 F12000 X-11.971 Y-11.5
G1 F3600 X13.916 Y-11.5 E539.97676
G0 F12000 X15.723 Y-10.27
G0 X16.085 Y-9.884
G0 X16.339 Y-9.421
G0 X16.47 Y-8.911
G0 X16.591 Y-6
G1 F3600 X21.557 Y-6 E540.18322
G0 F12000 X21.557 Y-5.5
G1 F3600 X16.898 Y-5.5 E540.37692
G0 F12000 X17.186 Y-5
G1 F3600 X21.557 Y-5 E540.55864
G0 F12000 X21.557 Y-4.5
G1 F3600 X17.418 Y-4.5 E540.73072
G0 F12000 X17.644 Y-4
G1 F3600 X21.557 Y-4 E540.89341
G0 F12000 X21.557 Y-3.5
G1 F3600 X17.812 Y-3.5 E541.04911
G0 F12000 X17.979 Y-3
G1 F3600 X21.557 Y-3 E541.19786
G0 F12000 X21.557 Y-2.5
G1 F3600 X18.095 Y-2.5 E541.3418
G0 F12000 X18.21 Y-2
G1 F3600 X21.557 Y-2 E541.48095
G0 F12000 X21.557 Y-1.5
G1 F3600 X18.276 Y-1.5 E541.61736
G0 F12000 X18.339 Y-1
G1 F3600 X21.557 Y-1 E541.75114
G0 F12000 X21.557 Y-0.5
G1 F3600 X18.357 Y-0.5 E541.88418
G0 F12000 X18.371 Y0
G1 F3600 X21.557 Y0 E542.01664
G0 F12000 X21.557 Y0.499
G1 F3600 X18.346 Y0.499 E542.15014
G0 F12000 X18.31 Y0.999
G1 F3600 X21.557 Y0.999 E542.28514
G0 F12000 X21.557 Y1.499
G1 F3600 X18.237 Y1.499 E542.42317
G0 F12000 X18.149 Y1.999
G1 F3600 X21.557 Y1.999 E542.56485
G0 F12000 X21.557 Y2.499
G1 F3600 X18.028 Y2.499 E542.71157
G0 F12000 X17.89 Y2.999
G1 F3600 X21.557 Y2.999 E542.86403
G0 F12000 X21.557 Y3.499
G1 F3600 X17.716 Y3.499 E543.02372
G0 F12000 X17.522 Y3.999
G1 F3600 X21.557 Y3.999 E543.19147
G0 F12000 X21.557 Y4.499
G1 F3600 X17.289 Y4.499 E543.36892
G0 F12000 X17.036 Y4.999
G1 F3600 X21.557 Y4.999 E543.55688
G0 F12000 X21.557 Y5.499
G1 F3600 X16.728 Y5.499 E543.75765
G0 F12000 X16.405 Y5.999
G1 F3600 X21.557 Y5.999 E543.97184
G0 F12000 X21.557 Y6.499
G1 F3600 X16.011 Y6.499 E544.20242
G0 F12000 X15.581 Y6.999
G1 F3600 X21.557 Y6.999 E544.45087
G0 F12000 X21.557 Y7.499
G1 F3600 X15.1 Y7.499 E544.71932
G0 F12000 X14.522 Y7.999
G1 F3600 X21.557 Y7.999 E545.0118
G0 F12000 X21.557 Y8.499
G1 F3600 X13.861 Y8.5 E545.33176
G0 F12000 X13.074 Y9
G1 F3600 X21.557 Y8.999 E545.68445
G0 F12000 X21.557 Y9.499
G1 F3600 X12.085 Y9.5 E546.07825
G0 F12000 X10.717 Y10
G1 F3600 X21.557 Y9.999 E546.52892
G0 F12000 X21.557 Y10.499
G1 F3600 X3.389 Y10.5 E547.28426
G0 F12000 X3.826 Y10
G1 F3600 X4.951 Y10 E547.33103
G0 F12000 X2.673 Y11
G1 F3600 X21.557 Y10.999 E548.11614
G0 F12000 X21.557 Y11.499
G1 F3600 X-11.971 Y11.5 E549.51007
G0 F12000 X-11.971 Y11
G1 F3600 X0.228 Y11 E550.01724
G0 F12000 X-0.53 Y10.5
G1 F3600 X-11.971 Y10.5 E550.49291
G0 F12000 X-11.971 Y10
G1 F3600 X-0.959 Y10 E550.95073
G0 F12000 X-1.233 Y9.5
G1 F3600 X-11.971 Y9.5 E551.39717
G0 F12000 X-11.971 Y9
G1 F3600 X-1.405 Y9 E551.83645
G0 F12000 X-1.469 Y8.5
G1 F3600 X-11.971 Y8.5 E552.27307
G0 F12000 X-11.971 Y8
G1 F3600 X-1.438 Y8 E552.71098
G0 F12000 X-1.335 Y7.5
G1 F3600 X-11.971 Y7.5 E553.15318
G0 F12000 X-11.971 Y7
G1 F3600 X-1.139 Y7 E553.60352
G0 F12000 X-8.44 Y16
G1 F3600 X-10.34 Y16 E553.68251
G0 F12000 X-10.34 Y16.5
G1 F3600 X-8.44 Y16.5 E553.7615
G0 F12000 X-8.44 Y17
G1 F3600 X-10.34 Y17 E553.8405
G0 F12000 X-10.34 Y17.5
G1 F3600 X-8.44 Y17.5 E553.91949
G0 F12000 X-8.44 Y18
G1 F3600 X-10.34 Y18 E553.99848
G0 F12000 X-10.34 Y18.5
G1 F3600 X-8.44 Y18.5 E554.07748
G0 F12000 X-8.44 Y19
G1 F3600 X-10.34 Y19 E554.15647
G0 F12000 X-10.34 Y19.5
G1 F3600 X-8.44 Y19.5 E554.23546
G0 F12000 X-8.44 Y20
G1 F3600 X-10.34 Y20 E554.31445
G0 F12000 X-10.34 Y20.5
G1 F3600 X-8.44 Y20.5 E554.39345
G0 F12000 X-8.44 Y21
G1 F3600 X-10.34 Y21 E554.47244
G0 F12000 X-10.34 Y21.5
G1 F3600 X-8.44 Y21.5 E554.55143
G0 F12000 X-8.44 Y22
G1 F3600 X-10.34 Y22 E554.63042
G0 F12000 X-10.34 Y22.5
G1 F3600 X-8.44 Y22.5 E554.70942
G0 F12000 X-11.971 Y14
G1 F3600 X21.557 Y13.999 E556.10335
G0 F12000 X21.557 Y13.499
G1 F3600 X-11.971 Y13.5 E557.49728
G0 F12000 X-11.971 Y13
G1 F3600 X21.557 Y12.999 E558.89121
G0 F12000 X21.557 Y12.499
G1 F3600 X-11.971 Y12.5 E560.28515
G0 F12000 X-11.971 Y12
G1 F3600 X21.557 Y11.999 E561.67908
G0 F12000 X21.557 Y14.499
G1 F3600 X-22.417 Y14.5 E563.50731
G0 F12000 X-22.417 Y15
G1 F3600 X21.557 Y14.999 E565.33553
G0 F12000 X22.557 Y15.499
G1 F3600 X-22.417 Y15.5 E567.20533
G1 F6600 E563.20533
G1 Z1.05
G0 F12000 X-12.771 Y13.449
G0 X-12.771 Y-13.249
G0 X-22.417 Y-14.499
G1 Z0.75
G1 F6600 E567.30533
G1 F3600 X21.557 Y-14.5 E569.13356
G0 F12000 X21.557 Y-15
G1 F3600 X-22.417 Y-14.999 E570.96179
G0 F12000 X-22.417 Y-15.499
G1 F3600 X22.557 Y-15.5 E572.83159
G0 F12000 X-8.44 Y-16
G1 F3600 X-10.34 Y-16 E572.91058
G0 F12000 X-10.34 Y-16.5
G1 F3600 X-8.44 Y-16.5 E572.98957
G0 F12000 X-8.44 Y-17
G1 F3600 X-10.34 Y-17 E573.06857
G0 F12000 X-10.34 Y-17.5
G1 F3600 X-8.44 Y-17.5 E573.14756
G0 F12000 X-8.44 Y-18
G1 F3600 X-10.34 Y-18 E573.22655
G0 F12000 X-10.34 Y-18.5
G1 F3600 X-8.44 Y-18.5 E573.30555
G0 F12000 X-8.44 Y-19
G1 F3600 X-10.34 Y-19 E573.38454
G0 F12000 X-10.34 Y-19.5
G1 F3600 X-8.44 Y-19.5 E573.46353
G0 F12000 X-8.44 Y-20
G1 F3600 X-10.34 Y-20 E573.54252
G0 F12000 X-10.34 Y-20.5
G1 F3600 X-8.44 Y-20.5 E573.62152
G0 F12000 X-8.44 Y-21
G1 F3600 X-10.34 Y-21 E573.70051
G0 F12000 X-10.34 Y-21.5
G1 F3600 X-8.44 Y-21.5 E573.7795
G0 F12000 X-8.44 Y-22
G1 F3600 X-10.34 Y-22 E573.85849
G0 F12000 X-10.34 Y-22.5
G1 F3600 X-8.44 Y-22.5 E573.93749
; Layer Change GCode
; LAYER:3
G1 F6600 E569.93749
G1 Z1.05
G0 F12000 X-8.44 Y-22.5 Z1.25
G0 X-7.641 Y-16.749
G0 X-0.613 Y8.893
G0 X-0.42 Y9.384
G0 X-0.109 Y9.811
G0 X0.298 Y10.148
G0 X0.776 Y10.373
G0 X1.234 Y10.459
G0 X1.326 Y9.968
G0 X1.234 Y10.459
G0 X1.295 Y10.471
G0 X1.821 Y10.439
G0 X3.538 Y9.904
; TYPE:WALL-INNER
G1 Z0.95
G1 F6600 E574.03749
G1 F3600 X3.861 Y9.302 E574.06589
G1 X4.431 Y9.534 E574.09148
G1 X5.404 Y9.822 E574.13366
G1 X6.404 Y10.014 E574.176
G1 X7.415 Y10.103 E574.21819
G1 X8.433 Y10.094 E574.26052
G1 X9.441 Y9.983 E574.30268
G1 X10.436 Y9.774 E574.34495
G1 X11.405 Y9.467 E574.38721
G1 X12.339 Y9.065 E574.42949
G1 X13.228 Y8.572 E574.47175
G1 X14.065 Y7.994 E574.51404
G1 X14.839 Y7.337 E574.55625
G1 X15.545 Y6.605 E574.59853
G1 X16.174 Y5.808 E574.64074
G1 X16.722 Y4.952 E574.683
G1 X17.183 Y4.045 E574.7253
G1 X17.552 Y3.098 E574.76755
G1 X17.824 Y2.119 E574.80979
G1 X17.999 Y1.118 E574.85204
G1 X18.073 Y0.103 E574.89435
G1 X18.047 Y-0.91 E574.93648
G1 X17.919 Y-1.919 E574.97877
G1 X17.694 Y-2.909 E575.02098
G1 X17.372 Y-3.872 E575.06319
G1 X16.955 Y-4.799 E575.10545
G1 X16.448 Y-5.681 E575.14775
G1 X15.86 Y-6.503 E575.18977
G0 F12000 X15.857 Y-6.507
G1 F3600 X15.952 Y-6.569 E575.19448
G0 F12000 X16.044 Y-6.635
G1 F3600 X16.492 Y-7.112 E575.22169
G1 X16.808 Y-7.685 E575.2489
G1 X16.97 Y-8.319 E575.2761
G1 X16.97 Y-8.974 E575.30333
G1 X16.808 Y-9.606 E575.33046
G1 X16.493 Y-10.18 E575.35768
G1 X16.044 Y-10.658 E575.38494
G1 X15.49 Y-11.009 E575.41221
G1 X14.869 Y-11.209 E575.43934
G1 X14.217 Y-11.252 E575.4665
G1 X13.573 Y-11.128 E575.49377
G1 X12.982 Y-10.85 E575.52092
G1 X12.478 Y-10.433 E575.54812
G1 X12.093 Y-9.904 E575.57532
G1 X11.942 Y-9.52 E575.59247
G1 X10.946 Y-9.898 E575.63676
G1 X9.964 Y-10.16 E575.67902
G1 X8.959 Y-10.323 E575.72135
G1 X7.943 Y-10.384 E575.76366
G1 X6.927 Y-10.346 E575.80593
G1 X5.919 Y-10.207 E575.84824
G1 X4.931 Y-9.968 E575.8905
G1 X3.969 Y-9.633 E575.93285
G1 X3.046 Y-9.203 E575.97518
G1 X2.169 Y-8.683 E576.01757
G1 X1.231 Y-7.987 E576.06613
G1 X0.591 Y-7.395 E576.10238
G1 X-0.089 Y-6.648 E576.14438
G1 X-0.695 Y-5.831 E576.18667
G1 X-1.217 Y-4.957 E576.22899
G1 X-1.65 Y-4.037 E576.27127
G1 X-1.989 Y-3.079 E576.31351
G1 X-2.233 Y-2.09 E576.35587
G1 X-2.376 Y-1.084 E576.39811
G1 X-2.421 Y-0.069 E576.44035
G1 X-2.362 Y0.95 E576.48279
G1 X-2.176 Y2.103 E576.53134
G1 X-1.944 Y2.947 E576.56773
G1 X-1.536 Y4.034 E576.616
G1 X-1.075 Y4.945 E576.65845
G1 X-0.611 Y5.677 E576.69448
G1 X-0.134 Y6.3 E576.72711
G1 X-0.476 Y6.583 E576.74556
G1 X-0.861 Y7.112 E576.77276
G1 X-1.101 Y7.721 E576.79998
G1 X-1.184 Y8.37 E576.82718
G1 X-1.101 Y9.018 E576.85434
G1 X-0.862 Y9.626 E576.8815
G1 X-0.477 Y10.156 E576.90874
G1 X0.028 Y10.574 E576.93599
G1 X0.621 Y10.853 E576.96324
G1 X1.263 Y10.974 E576.9904
G1 X1.915 Y10.934 E577.01756
G1 X2.537 Y10.731 E577.04476
G1 X3.09 Y10.381 E577.07197
G1 X3.538 Y9.904 E577.09917
G0 F12000 X3.385 Y9.145
G1 F3600 X3.503 Y8.649 E577.12037
G0 F12000 X3.51 Y8.65
G0 X3.516 Y8.634
G0 X3.516 Y8.598
G1 F3600 X3.601 Y8.672 E577.12506
G0 F12000 X3.7 Y8.696
G1 F3600 X4.596 Y9.062 E577.1653
G1 X5.523 Y9.336 E577.20548
G1 X6.473 Y9.518 E577.2457
G1 X7.435 Y9.603 E577.28585
G1 X8.403 Y9.595 E577.3261
G1 X9.362 Y9.488 E577.36621
G1 X10.309 Y9.29 E577.40644
G1 X11.23 Y8.998 E577.44661
G1 X12.119 Y8.615 E577.48685
G1 X12.964 Y8.147 E577.52701
G1 X13.76 Y7.597 E577.56724
G1 X14.497 Y6.972 E577.60741
G1 X15.168 Y6.276 E577.6476
G1 X15.767 Y5.518 E577.68777
G1 X16.288 Y4.703 E577.72799
G1 X16.726 Y3.841 E577.76819
G1 X17.077 Y2.94 E577.80839
G1 X17.335 Y2.009 E577.84855
G1 X17.502 Y1.056 E577.88878
G1 X17.573 Y0.092 E577.92896
G1 X17.548 Y-0.872 E577.96906
G1 X17.426 Y-1.832 E578.00929
G1 X17.212 Y-2.774 E578.04945
G1 X16.905 Y-3.69 E578.08962
G1 X16.509 Y-4.572 E578.12981
G1 X16.027 Y-5.41 E578.17
G1 X15.464 Y-6.196 E578.2102
G1 X15.113 Y-6.597 E578.23236
G0 F12000 X15.051 Y-6.667
G1 F3600 X15.195 Y-6.669 E578.23834
G0 F12000 X15.277 Y-6.741
G1 F3600 X15.723 Y-7.023 E578.26028
G1 X16.084 Y-7.408 E578.28222
G1 X16.339 Y-7.871 E578.3042
G1 X16.47 Y-8.382 E578.32613
G1 X16.47 Y-8.911 E578.34812
G1 X16.339 Y-9.421 E578.37002
G1 X16.085 Y-9.884 E578.39197
G1 X15.723 Y-10.27 E578.41397
G1 X15.276 Y-10.553 E578.43597
G1 X14.775 Y-10.714 E578.45785
G1 X14.249 Y-10.749 E578.47976
G1 X13.729 Y-10.649 E578.50178
G1 X13.252 Y-10.424 E578.52371
G1 X12.845 Y-10.088 E578.54565
G1 X12.534 Y-9.661 E578.56761
G1 X12.341 Y-9.17 E578.58954
G0 F12000 X12.262 Y-9.007
G1 F3600 X12.293 Y-8.792 E578.59857
G0 F12000 X12.184 Y-8.845
G1 F3600 X11.699 Y-9.082 E578.62102
G1 X10.794 Y-9.421 E578.6612
G1 X9.859 Y-9.67 E578.70142
G1 X8.904 Y-9.825 E578.74165
G1 X7.937 Y-9.884 E578.78193
G1 X6.97 Y-9.847 E578.82216
G1 X6.012 Y-9.715 E578.86236
G1 X5.072 Y-9.487 E578.90258
G1 X4.158 Y-9.169 E578.94281
G1 X3.28 Y-8.76 E578.98308
G1 X2.446 Y-8.266 E579.02338
G1 X1.551 Y-7.601 E579.06974
G1 X0.946 Y-7.043 E579.10395
G1 X0.298 Y-6.33 E579.14401
G1 X-0.279 Y-5.553 E579.18425
G1 X-0.775 Y-4.722 E579.22448
G1 X-1.187 Y-3.847 E579.26469
G1 X-1.509 Y-2.936 E579.30486
G1 X-1.741 Y-1.995 E579.34516
G1 X-1.878 Y-1.037 E579.38539
G1 X-1.92 Y-0.072 E579.42555
G1 X-1.865 Y0.895 E579.46582
G1 X-1.687 Y1.997 E579.51223
G1 X-1.468 Y2.793 E579.54655
G1 X-1.078 Y3.833 E579.59273
G1 X-0.64 Y4.698 E579.63304
G1 X-0.201 Y5.39 E579.66711
G1 X0.384 Y6.155 E579.70715
G0 F12000 X0.46 Y6.317
G1 F3600 X0.601 Y6.386 E579.71522
G0 F12000 X0.549 Y6.411
G1 F3600 X0.642 Y6.43 E579.71916
G0 F12000 X0.537 Y6.479
G1 F3600 X0.298 Y6.592 E579.73015
G1 X-0.109 Y6.928 E579.7521
G1 X-0.42 Y7.355 E579.77406
G1 X-0.613 Y7.846 E579.79599
G1 X-0.68 Y8.37 E579.81795
G1 X-0.613 Y8.893 E579.83988
G1 X-0.42 Y9.384 E579.86181
G1 X-0.109 Y9.811 E579.88377
G1 X0.298 Y10.148 E579.90574
G1 X0.776 Y10.373 E579.9277
G1 X1.295 Y10.471 E579.94966
G1 X1.821 Y10.439 E579.97157
G1 X2.323 Y10.275 E579.99353
G1 X2.769 Y9.993 E580.01547
G1 X3.13 Y9.608 E580.03741
G1 X3.385 Y9.145 E580.05938
G0 F12000 X3.516 Y8.634
G0 X3.516 Y8.598
G0 X3.016 Y8.168
; TYPE:WALL-OUTER
G1 F2700 X3.016 Y8.571 E580.07614
G1 X2.916 Y8.96 E580.09284
G1 X2.723 Y9.311 E580.10949
G1 X2.448 Y9.604 E580.1262
G1 X2.108 Y9.819 E580.14292
G1 X1.726 Y9.944 E580.15963
G1 X1.326 Y9.968 E580.17629
G1 X0.931 Y9.894 E580.193
G1 X0.568 Y9.723 E580.20968
G1 X0.258 Y9.466 E580.22643
G1 X0.022 Y9.141 E580.24312
G1 X-0.125 Y8.768 E580.25979
G1 X-0.176 Y8.37 E580.27647
G1 X-0.125 Y7.971 E580.2932
G1 X0.022 Y7.598 E580.30987
G1 X0.258 Y7.273 E580.32656
G1 X0.568 Y7.017 E580.34328
G1 X0.931 Y6.846 E580.35996
G1 X1.326 Y6.77 E580.37669
G1 X1.449 Y6.779 E580.38181
G0 F12000 X1.463 Y6.683
G1 F2700 X1.664 Y6.744 E580.39374
G1 X1.456 Y6.677 E580.40653
G0 F12000 X1.463 Y6.575
G1 F2700 X0.766 Y5.832 E580.44889
G1 X0.21 Y5.104 E580.48697
G1 X-0.205 Y4.451 E580.51914
G1 X-0.619 Y3.632 E580.55729
G1 X-0.992 Y2.638 E580.60143
G1 X-1.198 Y1.89 E580.63369
G1 X-1.367 Y0.841 E580.67786
G1 X-1.419 Y-0.075 E580.71601
G1 X-1.379 Y-0.991 E580.75413
G1 X-1.25 Y-1.9 E580.7923
G1 X-1.03 Y-2.792 E580.83049
G1 X-0.724 Y-3.656 E580.8686
G1 X-0.333 Y-4.487 E580.90678
G1 X0.138 Y-5.275 E580.94495
G1 X0.685 Y-6.012 E580.98311
G1 X1.301 Y-6.69 E581.02119
G1 X1.87 Y-7.216 E581.05341
G1 X2.723 Y-7.849 E581.09757
G1 X3.513 Y-8.317 E581.13575
G1 X4.346 Y-8.705 E581.17395
G1 X5.213 Y-9.007 E581.21212
G1 X6.105 Y-9.223 E581.25028
G1 X7.014 Y-9.348 E581.28843
G1 X7.932 Y-9.383 E581.32662
G1 X8.849 Y-9.328 E581.36481
G1 X9.754 Y-9.181 E581.40293
G1 X10.641 Y-8.944 E581.4411
G1 X11.501 Y-8.622 E581.47928
G1 X12.282 Y-8.241 E581.51541
G1 X12.676 Y-7.999 E581.53463
G1 X12.95 Y-7.83 E581.54802
G0 F12000 X12.963 Y-7.852
G1 F2700 X13.035 Y-7.793 E581.55322
G1 X12.889 Y-8.039 E581.5683
G0 F12000 X12.829 Y-8.248
G1 F2700 X12.778 Y-8.646 E581.58498
G1 X12.829 Y-9.045 E581.6017
G1 X12.976 Y-9.418 E581.61837
G1 X13.212 Y-9.743 E581.63507
G1 X13.522 Y-9.999 E581.65179
G1 X13.885 Y-10.17 E581.66847
G1 X14.28 Y-10.246 E581.68519
G1 X14.68 Y-10.219 E581.70186
G1 X15.062 Y-10.096 E581.71854
G1 X15.402 Y-9.881 E581.73527
G1 X15.677 Y-9.588 E581.75197
G1 X15.87 Y-9.236 E581.76866
G1 X15.97 Y-8.848 E581.78532
G1 X15.97 Y-8.445 E581.80208
G1 X15.87 Y-8.056 E581.81878
G1 X15.677 Y-7.705 E581.83543
G1 X15.402 Y-7.412 E581.85214
G1 X15.062 Y-7.197 E581.86886
G1 X14.68 Y-7.072 E581.88557
G1 X14.439 Y-7.057 E581.89561
G0 F12000 X14.453 Y-6.815
G1 F2700 X14.206 Y-6.968 E581.90769
G1 X13.885 Y-7.122 E581.92249
G0 F12000 X14.468 Y-6.574
G1 F2700 X15.072 Y-5.885 E581.96059
G1 X15.606 Y-5.139 E581.99873
G1 X16.063 Y-4.344 E582.03685
G1 X16.439 Y-3.507 E582.075
G1 X16.73 Y-2.639 E582.11306
G1 X16.933 Y-1.745 E582.15118
G1 X17.049 Y-0.834 E582.18936
G1 X17.072 Y0.08 E582.22737
G1 X17.005 Y0.995 E582.26551
G1 X16.847 Y1.898 E582.30362
G1 X16.602 Y2.782 E582.34176
G1 X16.269 Y3.636 E582.37987
G1 X15.853 Y4.454 E582.41802
G1 X15.359 Y5.227 E582.45616
G1 X14.791 Y5.947 E582.49429
G1 X14.154 Y6.607 E582.53243
G1 X13.455 Y7.2 E582.57054
G1 X12.7 Y7.722 E582.6087
G1 X11.898 Y8.166 E582.64681
G1 X11.055 Y8.529 E582.68497
G1 X10.182 Y8.806 E582.72305
G1 X9.283 Y8.994 E582.76123
G1 X8.373 Y9.095 E582.7993
G1 X7.455 Y9.103 E582.83747
G1 X6.542 Y9.022 E582.87557
G1 X5.641 Y8.849 E582.91372
G1 X4.762 Y8.589 E582.95183
G1 X3.912 Y8.243 E582.98998
G1 X3.181 Y7.855 E583.02439
G1 X3.092 Y7.808 E583.02857
G1 X2.957 Y7.717 E583.03534
G0 F12000 X2.936 Y7.748
G1 F2700 X2.857 Y7.672 E583.04152
G1 X2.915 Y7.762 E583.04568
G1 X2.986 Y7.942 E583.05744
G0 F12000 X3.516 Y8.598
G0 X3.516 Y8.634
G0 X3.385 Y9.145
G0 X3.13 Y9.608
G0 X2.769 Y9.993
G0 X2.323 Y10.275
G0 X-11.141 Y17.25
G0 X-11.641 Y17.25
G0 X-11.141 Y17.25
G0 X-10.641 Y16.25
; TYPE:WALL-INNER
G1 F3600 X-22.67 Y16.25 E583.55755
G1 X-22.67 Y13.949 E583.65321
G1 X-12.228 Y13.949 E584.08734
G1 X-12.228 Y-13.749 E585.23889
G1 X-22.67 Y-13.749 E585.67302
G1 X-22.67 Y-16.249 E585.77695
G1 X-10.641 Y-16.249 E586.27706
G1 X-10.641 Y-23.249 E586.56809
G1 X-8.141 Y-23.249 E586.67203
G1 X-8.141 Y-16.249 E586.96305
G1 X22.857 Y-16.249 E588.2518
G1 X22.857 Y-14.749 E588.31416
G1 X21.857 Y-14.749 E588.35574
G1 X21.857 Y14.75 E589.58216
G1 X22.857 Y14.75 E589.62374
G1 X22.857 Y16.25 E589.6861
G1 X-8.141 Y16.25 E590.97485
G1 X-8.141 Y23.25 E591.26587
G1 X-10.641 Y23.25 E591.36981
G1 X-10.641 Y16.25 E591.66084
G0 F12000 X-11.141 Y16.75
G1 F3600 X-23.17 Y16.75 E592.16095
G1 X-23.17 Y13.449 E592.29819
G1 X-12.728 Y13.449 E592.73231
G1 X-12.728 Y-13.249 E593.84229
G1 X-23.17 Y-13.249 E594.27642
G1 X-23.17 Y-16.749 E594.42193
G1 X-11.141 Y-16.749 E594.92204
G1 X-11.141 Y-23.749 E595.21306
G1 X-7.641 Y-23.749 E595.35858
G1 X-7.641 Y-16.749 E595.6496
G1 X23.357 Y-16.749 E596.93835
G1 X23.357 Y-14.249 E597.04229
G1 X22.357 Y-14.249 E597.08386
G1 X22.357 Y14.25 E598.26871
G1 X23.357 Y14.25 E598.31029
G1 X23.357 Y16.75 E598.41423
G1 X-7.641 Y16.75 E599.70297
G1 X-7.641 Y23.75 E599.994
G1 X-11.141 Y23.75 E600.13951
G1 X-11.141 Y16.75 E600.43054
G0 F12000 X-11.141 Y17.25
G0 X-11.641 Y17.25
; TYPE:WALL-OUTER
G1 F2700 X-23.67 Y17.25 E600.93065
G1 X-23.67 Y12.949 E601.10946
G1 X-13.228 Y12.949 E601.54359
G1 X-13.228 Y-12.749 E602.61199
G1 X-23.67 Y-12.749 E603.04612
G1 X-23.67 Y-17.249 E603.2332
G1 X-11.641 Y-17.249 E603.73331
G1 X-11.641 Y-24.249 E604.02434
G1 X-7.141 Y-24.249 E604.21143
G1 X-7.141 Y-17.249 E604.50245
G1 X23.857 Y-17.249 E605.7912
G1 X23.857 Y-13.749 E605.93671
G1 X22.857 Y-13.749 E605.97829
G1 X22.857 Y13.75 E607.12156
G1 X23.857 Y13.75 E607.16314
G1 X23.857 Y17.25 E607.30865
G1 X-7.141 Y17.25 E608.5974
G1 X-7.141 Y24.25 E608.88842
G1 X-11.641 Y24.25 E609.07551
G1 X-11.641 Y17.25 E609.36654
G0 F12000 X-11.141 Y17.25
G0 X-11.141 Y16.75
G0 X-11.499 Y15.949
; TYPE:FILL
G1 F3600 X-11.5 Y-15.948 E610.69266
G0 F12000 X-11 Y-15.948
G1 F3600 X-10.999 Y15.949 E612.01879
G0 F12000 X-10.499 Y15.949
G1 F3600 X-10.5 Y-15.948 E613.34491
G0 F12000 X-12 Y-15.948
G1 F3600 X-12 Y-14.048 E613.4239
G0 F12000 X-12.5 Y-14.048
G1 F3600 X-12.5 Y-15.948 E613.50289
G0 F12000 X-13 Y-15.948
G1 F3600 X-13 Y-14.048 E613.58189
G0 F12000 X-13.5 Y-14.048
G1 F3600 X-13.5 Y-15.948 E613.66088
G0 F12000 X-14 Y-15.948
G1 F3600 X-14 Y-14.048 E613.73987
G0 F12000 X-14.5 Y-14.048
G1 F3600 X-14.5 Y-15.948 E613.81887
G0 F12000 X-15 Y-15.948
G1 F3600 X-15 Y-14.048 E613.89786
G0 F12000 X-15.5 Y-14.048
G1 F3600 X-15.5 Y-15.948 E613.97685
G0 F12000 X-16 Y-15.948
G1 F3600 X-16 Y-14.048 E614.05584
G0 F12000 X-16.5 Y-14.048
G1 F3600 X-16.5 Y-15.948 E614.13484
G0 F12000 X-17 Y-15.948
G1 F3600 X-17 Y-14.048 E614.21383
G0 F12000 X-17.5 Y-14.048
G1 F3600 X-17.5 Y-15.948 E614.29282
G0 F12000 X-18 Y-15.948
G1 F3600 X-18 Y-14.048 E614.37182
G0 F12000 X-18.5 Y-14.048
G1 F3600 X-18.5 Y-15.948 E614.45081
G0 F12000 X-19 Y-15.948
G1 F3600 X-19 Y-14.048 E614.5298
G0 F12000 X-19.5 Y-14.048
G1 F3600 X-19.5 Y-15.948 E614.60879
G0 F12000 X-20 Y-15.948
G1 F3600 X-20 Y-14.048 E614.68779
G0 F12000 X-20.5 Y-14.048
G1 F3600 X-20.5 Y-15.948 E614.76678
G0 F12000 X-21 Y-15.948
G1 F3600 X-21 Y-14.048 E614.84577
G0 F12000 X-21.5 Y-14.048
G1 F3600 X-21.5 Y-15.948 E614.92477
G0 F12000 X-22 Y-15.948
G1 F3600 X-22 Y-14.048 E615.00376
G0 F12000 X-8 Y-15.948
G1 F3600 X-7.999 Y15.949 E616.32988
G0 F12000 X-7.499 Y15.949
G1 F3600 X-7.5 Y-15.948 E617.656
G0 F12000 X-7 Y-15.949
G1 F3600 X-6.999 Y15.949 E618.98217
G0 F12000 X-6.499 Y15.949
G1 F3600 X-6.5 Y-15.949 E620.30833
G0 F12000 X-6 Y-15.949
G1 F3600 X-5.999 Y15.949 E621.6345
G0 F12000 X-5.499 Y15.949
G1 F3600 X-5.5 Y-15.949 E622.96066
G0 F12000 X-5 Y-15.949
G1 F3600 X-4.999 Y15.949 E624.28683
G0 F12000 X-4.499 Y15.949
G1 F3600 X-4.5 Y-15.949 E625.61299
G0 F12000 X-4 Y-15.949
G1 F3600 X-3.999 Y15.949 E626.93916
G0 F12000 X-3.499 Y15.949
G1 F3600 X-3.5 Y-15.949 E628.26532
G0 F12000 X-3 Y-15.949
G1 F3600 X-2.999 Y15.949 E629.59149
G0 F12000 X-2.499 Y15.949
G1 F3600 X-2.499 Y1.98 E630.17225
G0 F12000 X-1.999 Y3.65
G1 F3600 X-1.999 Y15.949 E630.68358
G0 F12000 X-1.499 Y15.949
G1 F3600 X-1.499 Y4.77 E631.14835
G0 F12000 X-0.999 Y5.622
G1 F3600 X-0.999 Y6.797 E631.1972
G0 F12000 X0.642 Y6.43
G0 X1.83 Y6.864
G1 F3600 X2.111 Y7.017 E631.21051
G0 F12000 X1.991 Y6.916
G1 F3600 X2.226 Y7.09 E631.22266
G1 X2.341 Y7.181 E631.22876
G0 F12000 X2.37 Y7.203
G1 F3600 X2.624 Y7.419 E631.24262
G0 F12000 X3.516 Y8.598
G0 X4 Y9.682
G1 F3600 X4 Y15.949 E631.50317
G0 F12000 X3.5 Y15.949
G1 F3600 X3.5 Y10.382 E631.73462
G0 F12000 X3 Y10.793
G1 F3600 X3 Y15.949 E631.94898
G0 F12000 X2.5 Y15.949
G1 F3600 X2.5 Y11.059 E632.15229
G0 F12000 X2 Y11.221
G1 F3600 X2 Y15.949 E632.34885
G0 F12000 X1.5 Y15.949
G1 F3600 X1.5 Y11.259 E632.54384
G0 F12000 X1 Y11.229
G1 F3600 X1 Y15.949 E632.74008
G0 F12000 X0.5 Y15.949
G1 F3600 X0.5 Y11.128 E632.94051
G0 F12000 X0 Y10.893
G1 F3600 X0 Y15.949 E633.15071
G0 F12000 X-0.499 Y15.949
G1 F3600 X-0.499 Y10.526 E633.37618
G0 F12000 X-0.999 Y9.945
G1 F3600 X-0.999 Y15.949 E633.62579
G0 F12000 X4.5 Y15.949
G1 F3600 X4.5 Y9.867 E633.87865
G0 F12000 X5 Y10.015
G1 F3600 X5 Y15.949 E634.12536
G0 F12000 X5.5 Y15.949
G1 F3600 X5.5 Y10.146 E634.36662
G0 F12000 X6 Y10.242
G1 F3600 X6 Y15.949 E634.60389
G0 F12000 X6.5 Y15.949
G1 F3600 X6.5 Y10.324 E634.83775
G0 F12000 X7 Y10.368
G1 F3600 X7 Y15.949 E635.06978
G0 F12000 X7.5 Y15.949
G1 F3600 X7.5 Y10.401 E635.30044
G0 F12000 X8 Y10.397
G1 F3600 X8 Y15.949 E635.53127
G0 F12000 X8.5 Y15.949
G1 F3600 X8.5 Y10.387 E635.76251
G0 F12000 X9 Y10.332
G1 F3600 X9 Y15.949 E635.99603
G0 F12000 X9.5 Y15.949
G1 F3600 X9.5 Y10.275 E636.23193
G0 F12000 X10 Y10.17
G1 F3600 X10 Y15.949 E636.4722
G0 F12000 X10.5 Y15.949
G1 F3600 X10.5 Y10.065 E636.71682
G0 F12000 X11 Y9.908
G1 F3600 X11 Y15.949 E636.96798
G0 F12000 X11.5 Y15.949
G1 F3600 X11.5 Y9.75 E637.2257
G0 F12000 X12 Y9.535
G1 F3600 X12 Y15.949 E637.49237
G0 F12000 X12.5 Y15.949
G1 F3600 X12.5 Y9.316 E637.76813
G0 F12000 X13 Y9.039
G1 F3600 X13 Y15.949 E638.05542
G0 F12000 X13.5 Y15.949
G1 F3600 X13.5 Y8.746 E638.35489
G0 F12000 X14 Y8.401
G1 F3600 X14 Y15.949 E638.66869
G0 F12000 X14.5 Y15.949
G1 F3600 X14.5 Y8.017 E638.99847
G0 F12000 X15 Y7.593
G1 F3600 X15 Y15.949 E639.34587
G0 F12000 X15.5 Y15.949
G1 F3600 X15.5 Y7.083 E639.71448
G0 F12000 X16 Y6.512
G1 F3600 X16 Y15.949 E640.10682
G0 F12000 X16.5 Y15.949
G1 F3600 X16.5 Y5.855 E640.52648
G0 F12000 X17 Y5.066
G1 F3600 X17 Y15.949 E640.97894
G0 F12000 X17.5 Y15.949
G1 F3600 X17.5 Y4.059 E641.47327
G0 F12000 X18 Y2.604
G1 F3600 X18 Y15.949 E642.02809
G0 F12000 X18.5 Y15.949
G1 F3600 X18.499 Y-15.948 E643.35422
G0 F12000 X17.999 Y-15.948
G1 F3600 X18 Y-2.916 E643.89602
G0 F12000 X17.5 Y-4.319
G1 F3600 X17.499 Y-15.948 E644.3795
G0 F12000 X16.999 Y-15.948
G1 F3600 X17 Y-9.879 E644.63182
G0 F12000 X16.5 Y-10.609
G1 F3600 X16.499 Y-15.948 E644.85379
G0 F12000 X15.999 Y-15.948
G1 F3600 X15.999 Y-11.039 E645.05788
G0 F12000 X15.499 Y-11.32
G1 F3600 X15.499 Y-15.948 E645.25029
G0 F12000 X14.999 Y-15.948
G1 F3600 X14.999 Y-11.481 E645.43601
G0 F12000 X14.499 Y-11.533
G1 F3600 X14.499 Y-15.948 E645.61956
G0 F12000 X13.999 Y-15.948
G1 F3600 X13.999 Y-11.515 E645.80387
G0 F12000 X13.499 Y-11.419
G1 F3600 X13.499 Y-15.948 E645.99216
G0 F12000 X12.999 Y-15.948
G1 F3600 X12.999 Y-11.189 E646.19002
G0 F12000 X12.499 Y-10.839
G1 F3600 X12.499 Y-15.948 E646.40242
G0 F12000 X11.999 Y-15.948
G1 F3600 X11.999 Y-10.284 E646.63791
G0 F12000 X11.499 Y-10.008
G1 F3600 X11.499 Y-15.948 E646.88486
G0 F12000 X10.999 Y-15.948
G1 F3600 X10.999 Y-10.194 E647.12409
G0 F12000 X10.499 Y-10.327
G1 F3600 X10.499 Y-15.948 E647.35778
G0 F12000 X9.999 Y-15.948
G1 F3600 X9.999 Y-10.458 E647.58603
G0 F12000 X9.499 Y-10.539
G1 F3600 X9.499 Y-15.948 E647.81091
G0 F12000 X8.999 Y-15.948
G1 F3600 X8.999 Y-10.62 E648.03242
G0 F12000 X8.499 Y-10.65
G1 F3600 X8.499 Y-15.948 E648.25269
G0 F12000 X7.999 Y-15.948
G1 F3600 X7.999 Y-10.681 E648.47166
G0 F12000 X7.499 Y-10.667
G1 F3600 X7.499 Y-15.948 E648.69122
G0 F12000 X6.999 Y-15.949
G1 F3600 X6.999 Y-10.649 E648.91157
G0 F12000 X6.499 Y-10.59
G1 F3600 X6.499 Y-15.949 E649.13437
G0 F12000 X5.999 Y-15.949
G1 F3600 X5.999 Y-10.521 E649.36004
G0 F12000 X5.499 Y-10.415
G1 F3600 X5.499 Y-15.949 E649.59012
G0 F12000 X4.999 Y-15.949
G1 F3600 X4.999 Y-10.294 E649.82522
G0 F12000 X4.499 Y-10.135
G1 F3600 X4.499 Y-15.949 E650.06694
G0 F12000 X3.999 Y-15.949
G1 F3600 X3.999 Y-9.961 E650.3159
G0 F12000 X3.499 Y-9.746
G1 F3600 X3.499 Y-15.949 E650.57379
G0 F12000 X2.999 Y-15.949
G1 F3600 X2.999 Y-9.513 E650.84136
G0 F12000 X2.499 Y-9.228
G1 F3600 X2.499 Y-15.949 E651.12079
G0 F12000 X1.999 Y-15.949
G1 F3600 X1.999 Y-8.93 E651.41261
G0 F12000 X1.499 Y-8.56
G1 F3600 X1.499 Y-15.949 E651.71981
G0 F12000 X0.999 Y-15.949
G1 F3600 X0.999 Y-8.182 E652.04272
G0 F12000 X0.499 Y-7.718
G1 F3600 X0.499 Y-15.949 E652.38492
G0 F12000 X0 Y-15.949
G1 F3600 X0 Y-7.19 E652.74908
G0 F12000 X-0.5 Y-6.596
G1 F3600 X-0.5 Y-15.949 E653.13793
G0 F12000 X-1 Y-15.949
G1 F3600 X-1 Y-5.903 E653.5556
G0 F12000 X-1.5 Y-5.059
G1 F3600 X-1.5 Y-15.949 E654.00835
G0 F12000 X-2 Y-15.949
G1 F3600 X-2 Y-3.942 E654.50755
G0 F12000 X-2.5 Y-2.253
G1 F3600 X-2.5 Y-15.949 E655.07696
G0 F12000 X-7.641 Y-16.749
G0 X-8.5 Y-22.949
G1 F3600 X-8.499 Y22.95 E656.98522
G0 F12000 X-8.999 Y22.95
G1 F3600 X-9 Y-22.949 E658.89348
G0 F12000 X-9.5 Y-22.949
G1 F3600 X-9.499 Y22.95 E660.80173
G0 F12000 X-9.999 Y22.95
G1 F3600 X-10 Y-22.949 E662.70999
G1 F6600 E658.70999
G1 Z1.25
G0 F12000 X-7.641 Y-16.749
G0 X-0.237 Y-16.749
G0 X12.293 Y-8.792
G0 X12.467 Y-8.551
G1 Z0.95
G1 F6600 E662.80999
G1 F3600 X12.519 Y-8.415 E662.81649
G1 X12.474 Y-8.47 E662.81736
G0 F12000 X13.112 Y-7.7
G1 F3600 X13.269 Y-7.554 E662.82627
G1 X13.534 Y-7.343 E662.84035
G1 X13.717 Y-7.226 E662.84938
G0 F12000 X15.051 Y-6.667
G0 X16.5 Y-6.682
G1 F3600 X16.5 Y-6.123 E662.87262
G0 F12000 X17 Y-5.323
G1 F3600 X17 Y-7.411 E662.95943
G0 F12000 X18.999 Y-15.948
G1 F3600 X19 Y15.949 E664.28556
G0 F12000 X19.5 Y15.949
G1 F3600 X19.499 Y-15.948 E665.61168
G0 F12000 X19.999 Y-15.948
G1 F3600 X20 Y15.949 E666.9378
G0 F12000 X20.5 Y15.949
G1 F3600 X20.499 Y-15.948 E668.26393
G0 F12000 X20.999 Y-15.948
G1 F3600 X21 Y15.949 E669.59005
G0 F12000 X21.5 Y15.949
G1 F3600 X21.499 Y-15.948 E670.91617
G0 F12000 X21.999 Y-15.948
G1 F3600 X21.999 Y-15.048 E670.95359
G0 F12000 X22.499 Y-15.048
G1 F3600 X22.499 Y-15.948 E670.99101
G1 F6600 E666.99101
G1 Z1.25
G0 F12000 X22.357 Y-14.249
G0 X22.357 Y14.25
G0 X22.5 Y15.049
G1 Z0.95
G1 F6600 E671.09101
G1 F3600 X22.5 Y15.949 E671.12843
G0 F12000 X22 Y15.949
G1 F3600 X22 Y15.049 E671.16584
G0 F12000 X-11.999 Y14.248
G1 F3600 X-11.999 Y15.949 E671.23656
G0 F12000 X-12.499 Y15.949
G1 F3600 X-12.499 Y14.248 E671.30728
G0 F12000 X-12.999 Y14.248
G1 F3600 X-12.999 Y15.949 E671.378
G0 F12000 X-13.499 Y15.949
G1 F3600 X-13.499 Y14.248 E671.44872
G0 F12000 X-13.999 Y14.248
G1 F3600 X-13.999 Y15.949 E671.51944
G0 F12000 X-14.499 Y15.949
G1 F3600 X-14.499 Y14.248 E671.59016
G0 F12000 X-14.999 Y14.248
G1 F3600 X-14.999 Y15.949 E671.66088
G0 F12000 X-15.499 Y15.949
G1 F3600 X-15.499 Y14.248 E671.7316
G0 F12000 X-15.999 Y14.248
G1 F3600 X-15.999 Y15.949 E671.80232
G0 F12000 X-16.499 Y15.949
G1 F3600 X-16.5 Y14.248 E671.87304
G0 F12000 X-17 Y14.248
G1 F3600 X-16.999 Y15.949 E671.94376
G0 F12000 X-17.499 Y15.949
G1 F3600 X-17.5 Y14.248 E672.01448
G0 F12000 X-18 Y14.248
G1 F3600 X-17.999 Y15.949 E672.0852
G0 F12000 X-18.499 Y15.949
G1 F3600 X-18.5 Y14.248 E672.15591
G0 F12000 X-19 Y14.248
G1 F3600 X-18.999 Y15.949 E672.22663
G0 F12000 X-19.499 Y15.949
G1 F3600 X-19.5 Y14.248 E672.29735
G0 F12000 X-20 Y14.248
G1 F3600 X-19.999 Y15.949 E672.36807
G0 F12000 X-20.499 Y15.949
G1 F3600 X-20.5 Y14.248 E672.43879
G0 F12000 X-21 Y14.248
G1 F3600 X-20.999 Y15.949 E672.50951
G0 F12000 X-21.499 Y15.949
G1 F3600 X-21.5 Y14.248 E672.58023
G0 F12000 X-22 Y14.248
G1 F3600 X-21.999 Y15.949 E672.65095
; Layer Change GCode
; LAYER:4
G0 F12000 X-21.999 Y15.949 Z1.15
G0 X-11.141 Y16.75
G0 X-11.141 Y17.25
G0 X-11.641 Y17.25
G0 X-11.141 Y17.25
G0 X-10.641 Y16.25
; TYPE:WALL-INNER
G1 F3600 X-22.624 Y16.25 E673.14915
G1 X-22.624 Y13.949 E673.24481
G1 X-12.185 Y13.949 E673.67881
G1 X-12.185 Y-13.749 E674.83036
G1 X-22.624 Y-13.749 E675.26437
G1 X-22.624 Y-16.249 E675.3683
G1 X-10.641 Y-16.249 E675.8665
G1 X-10.641 Y-23.249 E676.15752
G1 X-8.141 Y-23.249 E676.26146
G1 X-8.141 Y-16.249 E676.55249
G1 X22.857 Y-16.249 E677.84124
G1 X22.857 Y-14.749 E677.9036
G1 X21.857 Y-14.749 E677.94517
G1 X21.857 Y14.75 E679.1716
G1 X22.857 Y14.75 E679.21317
G1 X22.857 Y16.25 E679.27554
G1 X-8.141 Y16.25 E680.56428
G1 X-8.141 Y23.25 E680.85531
G1 X-10.641 Y23.25 E680.95925
G1 X-10.641 Y16.25 E681.25028
G0 F12000 X-11.141 Y16.75
G1 F3600 X-23.124 Y16.75 E681.74847
G1 X-23.124 Y13.449 E681.88571
G1 X-12.685 Y13.449 E682.31971
G1 X-12.685 Y-13.249 E683.42969
G1 X-23.124 Y-13.249 E683.86369
G1 X-23.124 Y-16.749 E684.0092
G1 X-11.141 Y-16.749 E684.5074
G1 X-11.141 Y-23.749 E684.79842
G1 X-7.641 Y-23.749 E684.94394
G1 X-7.641 Y-16.749 E685.23496
G1 X23.357 Y-16.749 E686.52371
G1 X23.357 Y-14.249 E686.62765
G1 X22.357 Y-14.249 E686.66922
G1 X22.357 Y14.25 E687.85407
G1 X23.357 Y14.25 E687.89565
G1 X23.357 Y16.75 E687.99959
G1 X-7.641 Y16.75 E689.28834
G1 X-7.641 Y23.75 E689.57936
G1 X-11.141 Y23.75 E689.72487
G1 X-11.141 Y16.75 E690.0159
G0 F12000 X-11.141 Y17.25
G0 X-11.641 Y17.25
; TYPE:WALL-OUTER
G1 F2700 X-23.624 Y17.25 E690.5141
G1 X-23.624 Y12.949 E690.69291
G1 X-13.185 Y12.949 E691.12691
G1 X-13.185 Y-12.749 E692.19531
G1 X-23.624 Y-12.749 E692.62932
G1 X-23.624 Y-17.249 E692.8164
G1 X-11.641 Y-17.249 E693.3146
G1 X-11.641 Y-24.249 E693.60563
G1 X-7.141 Y-24.249 E693.79271
G1 X-7.141 Y-17.249 E694.08374
G1 X23.857 Y-17.249 E695.37249
G1 X23.857 Y-13.749 E695.518
G1 X22.857 Y-13.749 E695.55958
G1 X22.857 Y13.75 E696.70285
G1 X23.857 Y13.75 E696.74443
G1 X23.857 Y17.25 E696.88994
G1 X-7.141 Y17.25 E698.17869
G1 X-7.141 Y24.25 E698.46971
G1 X-11.641 Y24.25 E698.6568
G1 X-11.641 Y17.25 E698.94783
G1 F6600 E694.94783
G1 Z1.45
G0 F12000 X-11.141 Y17.25
G0 X1.234 Y10.459
G0 X1.326 Y9.968
G0 X1.234 Y10.459
G0 X1.295 Y10.471
G0 X1.821 Y10.439
G0 X9.354 Y9.491
G0 X10.299 Y9.292
G0 X11.222 Y9.001
G0 X12.109 Y8.619
G0 X12.955 Y8.152
G0 X13.75 Y7.603
G0 X14.488 Y6.98
G0 X15.16 Y6.286
G0 X15.759 Y5.527
G0 X16.281 Y4.714
G0 X16.72 Y3.853
G0 X17.072 Y2.953
G0 X17.332 Y2.022
G0 X17.5 Y1.071
G0 X17.573 Y0.107
G0 X17.548 Y-0.858
G0 X17.43 Y-1.816
G0 X17.216 Y-2.758
G0 X16.457 Y-5.666
; TYPE:WALL-INNER
G1 Z1.15
G1 F6600 E699.04783
G1 F3600 X15.859 Y-6.502 E699.09056
G0 F12000 X15.851 Y-6.513
G1 F3600 X15.951 Y-6.568 E699.0953
G0 F12000 X16.044 Y-6.635
G1 F3600 X16.492 Y-7.112 E699.12251
G1 X16.808 Y-7.685 E699.14972
G1 X16.97 Y-8.319 E699.17692
G1 X16.97 Y-8.974 E699.20415
G1 X16.808 Y-9.606 E699.23128
G1 X16.493 Y-10.18 E699.2585
G1 X16.044 Y-10.658 E699.28577
G1 X15.49 Y-11.009 E699.31303
G1 X14.869 Y-11.209 E699.34016
G1 X14.217 Y-11.252 E699.36732
G1 X13.573 Y-11.128 E699.39459
G1 X12.982 Y-10.85 E699.42174
G1 X12.478 Y-10.433 E699.44894
G1 X12.093 Y-9.904 E699.47614
G0 F12000 X12.003 Y-9.716
G1 F3600 X11.943 Y-9.523 E699.48481
G0 F12000 X11.94 Y-9.516
G1 F3600 X11.929 Y-9.53 E699.48555
G0 F12000 X11.913 Y-9.529
G1 F3600 X11.747 Y-9.609 E699.49321
G1 X10.783 Y-9.952 E699.53575
G1 X9.797 Y-10.197 E699.57799
G1 X8.789 Y-10.343 E699.62034
G1 X7.772 Y-10.389 E699.66266
G1 X6.755 Y-10.333 E699.70501
G1 X5.75 Y-10.177 E699.74729
G1 X4.765 Y-9.92 E699.78961
G1 X3.811 Y-9.57 E699.83186
G1 X2.894 Y-9.125 E699.87424
G1 X2.027 Y-8.592 E699.91655
G1 X1.218 Y-7.974 E699.95888
G1 X0.473 Y-7.281 E700.00118
G1 X-0.199 Y-6.517 E700.04348
G1 X-0.793 Y-5.689 E700.08585
G1 X-1.299 Y-4.807 E700.12812
G1 X-1.716 Y-3.881 E700.17034
G1 X-2.04 Y-2.916 E700.21266
G1 X-2.267 Y-1.923 E700.25501
G1 X-2.394 Y-0.914 E700.29729
G1 X-2.421 Y0.101 E700.33951
G1 X-2.347 Y1.116 E700.38182
G1 X-2.172 Y2.12 E700.42419
G1 X-1.898 Y3.1 E700.4665
G1 X-1.53 Y4.048 E700.50877
G1 X-1.07 Y4.954 E700.55102
G1 X-0.521 Y5.811 E700.59333
G1 X-0.135 Y6.301 E700.61927
G1 X-0.476 Y6.583 E700.63766
G1 X-0.861 Y7.112 E700.66486
G1 X-1.101 Y7.721 E700.69208
G1 X-1.184 Y8.37 E700.71928
G1 X-1.101 Y9.018 E700.74644
G1 X-0.862 Y9.626 E700.7736
G1 X-0.477 Y10.156 E700.80084
G1 X0.028 Y10.574 E700.82809
G1 X0.621 Y10.853 E700.85534
G1 X1.263 Y10.974 E700.8825
G1 X1.915 Y10.934 E700.90966
G1 X2.537 Y10.731 E700.93686
G1 X3.09 Y10.381 E700.96407
G1 X3.538 Y9.904 E700.99127
G1 X3.861 Y9.302 E701.01968
G1 X4.423 Y9.531 E701.04491
G1 X5.397 Y9.82 E701.08715
G1 X6.394 Y10.011 E701.12935
G1 X7.406 Y10.104 E701.1716
G1 X8.422 Y10.094 E701.21385
G1 X9.432 Y9.985 E701.25608
G1 X10.426 Y9.777 E701.2983
G1 X11.396 Y9.47 E701.3406
G1 X12.329 Y9.069 E701.38282
G1 X13.219 Y8.578 E701.42508
G1 X14.055 Y8.001 E701.46731
G1 X14.83 Y7.345 E701.50953
G1 X15.537 Y6.615 E701.55178
G1 X16.167 Y5.818 E701.59401
G1 X16.716 Y4.963 E701.63626
G1 X17.177 Y4.058 E701.67848
G1 X17.547 Y3.112 E701.72072
G1 X17.82 Y2.133 E701.76297
G1 X17.997 Y1.133 E701.80519
G1 X18.073 Y0.119 E701.84747
G1 X18.047 Y-0.895 E701.88964
G1 X17.923 Y-1.902 E701.93182
G1 X17.698 Y-2.893 E701.97407
G1 X17.377 Y-3.856 E702.01627
G1 X16.963 Y-4.783 E702.05848
G1 X16.457 Y-5.666 E702.10079
G0 F12000 X15.277 Y-6.741
G1 F3600 X15.723 Y-7.023 E702.12273
G1 X16.084 Y-7.408 E702.14467
G1 X16.339 Y-7.871 E702.16665
G1 X16.47 Y-8.382 E702.18858
G1 X16.47 Y-8.911 E702.21057
G1 X16.339 Y-9.421 E702.23247
G1 X16.085 Y-9.884 E702.25442
G1 X15.723 Y-10.27 E702.27642
G1 X15.276 Y-10.553 E702.29842
G1 X14.775 Y-10.714 E702.3203
G1 X14.249 Y-10.749 E702.34221
G1 X13.729 Y-10.649 E702.36423
G1 X13.252 Y-10.424 E702.38616
G1 X12.845 Y-10.088 E702.4081
G1 X12.534 Y-9.661 E702.43006
G1 X12.341 Y-9.17 E702.45199
G0 F12000 X12.262 Y-9.006
G1 F3600 X12.293 Y-8.791 E702.46102
G0 F12000 X12.184 Y-8.843
G1 F3600 X11.554 Y-9.147 E702.49011
G1 X10.639 Y-9.473 E702.53049
G1 X9.7 Y-9.706 E702.57071
G1 X8.742 Y-9.845 E702.61096
G1 X7.774 Y-9.888 E702.65124
G1 X6.808 Y-9.835 E702.69147
G1 X5.852 Y-9.686 E702.73169
G1 X4.915 Y-9.443 E702.77194
G1 X4.006 Y-9.109 E702.8122
G1 X3.135 Y-8.686 E702.85246
G1 X2.31 Y-8.179 E702.89271
G1 X1.541 Y-7.592 E702.93294
G1 X0.832 Y-6.932 E702.97321
G1 X0.193 Y-6.205 E703.01345
G1 X-0.372 Y-5.418 E703.05373
G1 X-0.853 Y-4.58 E703.0939
G1 X-1.25 Y-3.698 E703.13411
G1 X-1.558 Y-2.781 E703.17433
G1 X-1.774 Y-1.836 E703.21463
G1 X-1.895 Y-0.876 E703.25486
G1 X-1.921 Y0.089 E703.29499
G1 X-1.85 Y1.055 E703.33526
G1 X-1.683 Y2.01 E703.37557
G1 X-1.423 Y2.941 E703.41576
G1 X-1.073 Y3.843 E703.45598
G1 X-0.635 Y4.706 E703.49622
G1 X-0.114 Y5.521 E703.53643
G1 X0.486 Y6.279 E703.57662
G0 F12000 X0.529 Y6.37
G1 F3600 X0.593 Y6.391 E703.58009
G0 F12000 X0.562 Y6.405
G1 F3600 X0.634 Y6.434 E703.58331
G0 F12000 X0.573 Y6.462
G1 F3600 X0.298 Y6.592 E703.59596
G1 X-0.109 Y6.928 E703.6179
G1 X-0.42 Y7.355 E703.63986
G1 X-0.613 Y7.846 E703.6618
G1 X-0.68 Y8.37 E703.68376
G1 X-0.613 Y8.893 E703.70568
G1 X-0.42 Y9.384 E703.72762
G1 X-0.109 Y9.811 E703.74958
G1 X0.298 Y10.148 E703.77155
