; Generated with MatterSlice 1.0
; filamentDiameter = 1.75
; extrusionWidth = 0.5
; firstLayerExtrusionWidth = 0.5
; layerThickness = 0.2
; firstLayerThickness = 0.3
; automatic settings before start_gcode
G21 ; set units to millimeters
M107 ; fan off
T0 ; set the active extruder to 0
; settings from start_gcode
M104 S215
M190 S60
M109 S215
G28
; automatic settings after start_gcode
T0 ; set the active extruder to 0
G90 ; use absolute coordinates
G92 E0 ; reset the expected extruder position
M82 ; use absolute distance for extrusion
; Layer count: 50
; Layer Change GCode
; LAYER:0
M400
M107
G0 F12000 X113.339 Y-77.322 Z0.7
; TYPE:SKIRT
G1 Z0.4
G1 F6600 E0
G1 F600 X113.339 Y77.321 E9.64396
G1 X77.323 Y113.339 E12.82046
G1 X-77.321 Y113.339 E22.46448
G1 X-113.338 Y77.322 E25.64097
G1 X-113.338 Y-77.322 E35.285
G1 X-77.32 Y-113.338 E38.46149
G1 X77.323 Y-113.338 E48.10545
G1 X113.339 Y-77.322 E51.28186
G0 F12000 X112.839 Y-77.114
G1 F600 X112.839 Y77.114 E60.89994
G1 X77.115 Y112.839 E64.05064
G1 X-77.113 Y112.839 E73.66872
G1 X-112.838 Y77.114 E76.81946
G1 X-112.838 Y-77.114 E86.43754
G1 X-77.113 Y-112.838 E89.58824
G1 X77.115 Y-112.838 E99.20632
G1 X112.839 Y-77.114 E102.35697
G0 F12000 X112.339 Y-76.907
G1 F600 X112.339 Y76.907 E111.94924
G1 X76.908 Y112.339 E115.07409
G1 X-76.906 Y112.339 E124.66636
G1 X-112.338 Y76.907 E127.79125
G1 X-112.338 Y-76.907 E137.38352
G1 X-76.906 Y-112.338 E140.50837
G1 X76.908 Y-112.338 E150.10064
G1 X112.339 Y-76.907 E153.22545
G0 F12000 X111.839 Y-76.7
G1 F600 X111.839 Y76.7 E162.79189
G1 X76.701 Y111.839 E165.89091
G1 X-76.699 Y111.839 E175.45735
G1 X-111.838 Y76.7 E178.55641
G1 X-111.838 Y-76.7 E188.12286
G1 X-76.699 Y-111.838 E191.22187
G1 X76.701 Y-111.838 E200.78832
G1 X111.839 Y-76.7 E203.88729
G0 F12000 X111.339 Y-76.493
G1 F600 X111.339 Y76.493 E213.42792
G1 X76.494 Y111.339 E216.50109
G1 X-76.492 Y111.339 E226.04172
G1 X-111.338 Y76.493 E229.11493
G1 X-111.338 Y-76.493 E238.65556
G1 X-76.492 Y-111.338 E241.72874
G1 X76.494 Y-111.338 E251.26936
G1 X111.339 Y-76.493 E254.34249
G0 F12000 X110.839 Y-76.286
G1 F600 X110.839 Y76.286 E263.8573
G1 X76.287 Y110.839 E266.90463
G1 X-76.285 Y110.839 E276.41944
G1 X-110.838 Y76.286 E279.46682
G1 X-110.838 Y-76.286 E288.98163
G1 X-76.285 Y-110.838 E292.02896
G1 X76.287 Y-110.838 E301.54377
G1 X110.839 Y-76.286 E304.59106
G0 F12000 X110.339 Y-76.079
G1 F600 X110.339 Y76.079 E314.08005
G1 X76.08 Y110.339 E317.10154
G1 X-76.078 Y110.339 E326.59053
G1 X-110.338 Y76.079 E329.61207
G1 X-110.338 Y-76.079 E339.10106
G1 X-76.078 Y-110.338 E342.12255
G1 X76.08 Y-110.338 E351.61154
G1 X110.339 Y-76.079 E354.63299
G0 F12000 X109.839 Y-75.872
G1 F600 X109.839 Y75.872 E364.09616
G1 X75.873 Y109.839 E367.09181
G1 X-75.871 Y109.839 E376.55499
G1 X-109.838 Y75.872 E379.55068
G1 X-109.838 Y-75.872 E389.01386
G1 X-75.871 Y-109.838 E392.00951
G1 X75.873 Y-109.838 E401.47268
G1 X109.839 Y-75.872 E404.46829
G0 F12000 X109.339 Y-75.665
G1 F600 X109.339 Y75.665 E413.90564
G1 X75.666 Y109.339 E416.87545
G1 X-75.664 Y109.339 E426.31281
G1 X-109.338 Y75.665 E429.28266
G1 X-109.338 Y-75.665 E438.72001
G1 X-75.664 Y-109.338 E441.68982
G1 X75.666 Y-109.338 E451.12718
G1 X109.339 Y-75.665 E454.09694
G0 F12000 X108.839 Y-75.458
G1 F600 X108.839 Y75.458 E463.50848
G1 X75.459 Y108.839 E466.45245
G1 X-75.457 Y108.839 E475.86399
G1 X-108.838 Y75.458 E478.808
G1 X-108.838 Y-75.458 E488.21954
G1 X-75.457 Y-108.838 E491.1635
G1 X75.459 Y-108.838 E500.57504
G1 X108.839 Y-75.458 E503.51897
G1 F6600 E496.71897
G1 Z0.7
G0 F12000 X108.589 Y-75.354
G0 X107.529 Y-75.354
G0 X-72.621 Y40.449
G0 X-72.63 Y40.455
G0 X-72.982 Y40.103
; TYPE:WALL-OUTER
G1 Z0.4
G1 F6600 E503.61897
G1 F600 X-72.982 Y-40.103 E508.62083
G1 X-108.234 Y-75.354 E511.72981
G1 X-75.249 Y-108.338 E514.63886
G1 X75.251 Y-108.338 E524.02445
G1 X108.235 Y-75.354 E526.93345
G1 X72.984 Y-40.103 E530.04238
G1 X72.984 Y40.103 E535.04425
G1 X108.235 Y75.354 E538.15319
G1 X75.251 Y108.339 E541.06223
G1 X-75.249 Y108.339 E550.44782
G1 X-108.234 Y75.354 E553.35691
G1 X-72.982 Y40.103 E556.46589
G0 F12000 X-72.63 Y40.455
G0 X-72.482 Y40.31
; TYPE:WALL-INNER
G1 F600 X-72.482 Y-40.31 E561.49358
G1 X-107.528 Y-75.354 E564.58434
G1 X-75.043 Y-107.838 E567.44929
G1 X75.045 Y-107.838 E576.80919
G1 X107.529 Y-75.354 E579.67409
G1 X72.484 Y-40.31 E582.76482
G1 X72.484 Y40.31 E587.7925
G1 X107.529 Y75.354 E590.88323
G1 X75.045 Y107.839 E593.74817
G1 X-75.043 Y107.839 E603.10807
G1 X-107.528 Y75.354 E605.97306
G1 X-72.482 Y40.31 E609.06383
G0 F12000 X-71.982 Y40.517
G1 F600 X-71.982 Y-40.517 E614.11733
G1 X-106.82 Y-75.354 E617.1898
G1 X-74.835 Y-107.338 E620.01065
G1 X74.837 Y-107.338 E629.34461
G1 X106.821 Y-75.354 E632.16541
G1 X71.984 Y-40.517 E635.23784
G1 X71.984 Y40.517 E640.29134
G1 X106.821 Y75.354 E643.36376
G1 X74.837 Y107.339 E646.18461
G1 X-74.835 Y107.339 E655.51857
G1 X-106.82 Y75.354 E658.33946
G1 X-71.982 Y40.517 E661.41193
G0 F12000 X-70.473 Y47.038
G0 X-70.375 Y47.777
G0 X-70.473 Y48.517
G0 X-70.759 Y49.205
G0 X-71.212 Y49.797
G0 X-71.804 Y50.251
G0 X-72.494 Y50.537
G0 X-73.232 Y50.633
G0 X-73.296 Y50.623
G0 X-73.232 Y50.129
; TYPE:WALL-OUTER
G1 F600 X-72.624 Y50.05 E661.45017
G1 X-72.056 Y49.814 E661.48852
G1 X-71.569 Y49.44 E661.52682
G1 X-71.196 Y48.953 E661.56507
G1 X-70.96 Y48.386 E661.60337
G1 X-70.88 Y47.777 E661.64168
G1 X-70.96 Y47.169 E661.67992
G1 X-71.196 Y46.601 E661.71828
G1 X-71.569 Y46.114 E661.75653
G1 X-72.056 Y45.741 E661.79479
G1 X-72.624 Y45.505 E661.83315
G1 X-73.232 Y45.425 E661.87139
G1 X-73.841 Y45.505 E661.9097
G1 X-74.408 Y45.741 E661.948
G1 X-74.895 Y46.114 E661.98625
G1 X-75.269 Y46.601 E662.02454
G1 X-75.505 Y47.169 E662.0629
G1 X-75.584 Y47.777 E662.10114
G1 X-75.505 Y48.386 E662.13943
G1 X-75.269 Y48.953 E662.17774
G1 X-74.895 Y49.44 E662.21603
G1 X-74.408 Y49.814 E662.25432
G1 X-73.841 Y50.05 E662.29262
G1 X-73.232 Y50.129 E662.33092
G0 F12000 X-73.296 Y50.623
G0 X-73.232 Y50.633
; TYPE:WALL-INNER
G1 F600 X-72.494 Y50.537 E662.37733
G1 X-71.804 Y50.251 E662.42391
G1 X-71.212 Y49.797 E662.47044
G1 X-70.759 Y49.205 E662.51692
G1 X-70.473 Y48.517 E662.56339
G1 X-70.375 Y47.777 E662.60994
G1 X-70.473 Y47.038 E662.65643
G1 X-70.759 Y46.349 E662.70295
G1 X-71.212 Y45.757 E662.74944
G1 X-71.804 Y45.304 E662.79593
G1 X-72.493 Y45.018 E662.84245
G1 X-73.232 Y44.92 E662.88894
G1 X-73.972 Y45.018 E662.93549
G1 X-74.66 Y45.304 E662.98196
G1 X-75.252 Y45.757 E663.02844
G1 X-75.706 Y46.349 E663.07497
G1 X-75.992 Y47.039 E663.12155
G1 X-76.088 Y47.777 E663.16796
G1 X-75.992 Y48.517 E663.21449
G1 X-75.706 Y49.206 E663.26102
G1 X-75.252 Y49.797 E663.30749
G1 X-74.661 Y50.251 E663.35397
G1 X-73.972 Y50.537 E663.40049
G1 X-73.232 Y50.633 E663.44703
G0 F12000 X-73.232 Y51.138
G1 F600 X-72.363 Y51.024 E663.50168
G1 X-71.551 Y50.688 E663.55649
G1 X-70.855 Y50.153 E663.61123
G1 X-70.322 Y49.457 E663.6659
G1 X-69.986 Y48.648 E663.72053
G1 X-69.871 Y47.777 E663.77532
G1 X-69.986 Y46.907 E663.83005
G1 X-70.322 Y46.097 E663.88474
G1 X-70.855 Y45.4 E663.93946
G1 X-71.552 Y44.867 E663.99418
G1 X-72.362 Y44.531 E664.04886
G1 X-73.232 Y44.416 E664.10359
G1 X-74.103 Y44.531 E664.15838
G1 X-74.912 Y44.867 E664.21301
G1 X-75.608 Y45.4 E664.26768
G1 X-76.143 Y46.096 E664.32243
G1 X-76.479 Y46.908 E664.37723
G1 X-76.593 Y47.777 E664.43189
G1 X-76.479 Y48.647 E664.48661
G1 X-76.143 Y49.458 E664.54135
G1 X-75.608 Y50.153 E664.59605
G1 X-74.913 Y50.688 E664.65074
G1 X-74.102 Y51.024 E664.70549
G1 X-73.232 Y51.138 E664.76021
G1 F6600 E657.96021
G1 Z0.7
G0 F12000 X-49.796 Y75.253
G0 X-49.205 Y75.707
G0 X-48.516 Y75.993
G0 X-47.84 Y76.079
G0 X-47.776 Y75.585
; TYPE:WALL-OUTER
G1 Z0.4
G1 F6600 E664.86021
G1 F600 X-47.168 Y75.506 E664.89844
G1 X-46.6 Y75.27 E664.9368
G1 X-46.113 Y74.896 E664.97509
G1 X-45.74 Y74.409 E665.01335
G1 X-45.504 Y73.842 E665.05165
G1 X-45.424 Y73.233 E665.08996
G1 X-45.504 Y72.625 E665.1282
G1 X-45.74 Y72.057 E665.16656
G1 X-46.113 Y71.57 E665.20481
G1 X-46.6 Y71.197 E665.24307
G1 X-47.168 Y70.961 E665.28142
G1 X-47.776 Y70.881 E665.31967
G1 X-48.385 Y70.961 E665.35797
G1 X-48.952 Y71.197 E665.39627
G1 X-49.439 Y71.57 E665.43453
G1 X-49.813 Y72.057 E665.47282
G1 X-50.049 Y72.625 E665.51118
G1 X-50.128 Y73.233 E665.54942
G1 X-50.049 Y73.842 E665.58771
G1 X-49.813 Y74.409 E665.62601
G1 X-49.439 Y74.896 E665.66431
G1 X-48.952 Y75.27 E665.7026
G1 X-48.385 Y75.506 E665.7409
G1 X-47.776 Y75.585 E665.7792
G0 F12000 X-47.84 Y76.079
G0 X-47.776 Y76.089
; TYPE:WALL-INNER
G1 F600 X-47.038 Y75.993 E665.82561
G1 X-46.348 Y75.707 E665.87219
G1 X-45.756 Y75.253 E665.91871
G1 X-45.303 Y74.661 E665.9652
G1 X-45.017 Y73.973 E666.01167
G1 X-44.919 Y73.233 E666.05822
G1 X-45.017 Y72.494 E666.10471
G1 X-45.303 Y71.805 E666.15123
G1 X-45.756 Y71.213 E666.19772
G1 X-46.348 Y70.76 E666.2442
G1 X-47.037 Y70.474 E666.29073
G1 X-47.776 Y70.376 E666.33722
G1 X-48.516 Y70.474 E666.38377
G1 X-49.204 Y70.76 E666.43023
G1 X-49.796 Y71.213 E666.47672
G1 X-50.25 Y71.805 E666.52325
G1 X-50.536 Y72.495 E666.56983
G1 X-50.632 Y73.233 E666.61624
G1 X-50.536 Y73.973 E666.66277
G1 X-50.25 Y74.662 E666.7093
G1 X-49.796 Y75.253 E666.75577
G1 X-49.205 Y75.707 E666.80225
G1 X-48.516 Y75.993 E666.84877
G1 X-47.776 Y76.089 E666.8953
G0 F12000 X-47.776 Y76.594
G1 F600 X-46.907 Y76.48 E666.94996
G1 X-46.095 Y76.144 E667.00476
G1 X-45.399 Y75.609 E667.05951
G1 X-44.866 Y74.913 E667.11418
G1 X-44.53 Y74.104 E667.16881
G1 X-44.415 Y73.233 E667.2236
G1 X-44.53 Y72.363 E667.27833
G1 X-44.866 Y71.553 E667.33301
G1 X-45.399 Y70.856 E667.38773
G1 X-46.096 Y70.323 E667.44245
G1 X-46.906 Y69.987 E667.49714
G1 X-47.776 Y69.872 E667.55187
G1 X-48.647 Y69.987 E667.60666
G1 X-49.456 Y70.323 E667.66129
G1 X-50.152 Y70.856 E667.71596
G1 X-50.687 Y71.552 E667.7707
G1 X-51.023 Y72.364 E667.82551
G1 X-51.137 Y73.233 E667.88016
G1 X-51.023 Y74.103 E667.93488
G1 X-50.687 Y74.914 E667.98963
G1 X-50.152 Y75.609 E668.04432
G1 X-49.457 Y76.144 E668.09902
G1 X-48.646 Y76.48 E668.15377
G1 X-47.776 Y76.594 E668.20849
G1 F6600 E661.40849
G1 Z0.7
G0 F12000 X-18.127 Y91.364
G0 X-17.582 Y91.59
G0 X-17.061 Y91.657
G0 X-16.997 Y91.162
; TYPE:WALL-OUTER
G1 Z0.4
G1 F6600 E668.30849
G1 F600 X-16.525 Y91.095 E668.33822
G1 X-16.123 Y90.927 E668.36539
G1 X-15.76 Y90.648 E668.39394
G1 X-15.482 Y90.286 E668.4224
G1 X-15.306 Y89.863 E668.45097
G1 X-15.247 Y89.41 E668.47946
G1 X-15.306 Y88.957 E668.50795
G1 X-15.482 Y88.534 E668.53652
G1 X-15.76 Y88.171 E668.56504
G1 X-16.123 Y87.893 E668.59355
G1 X-16.545 Y87.717 E668.62207
G1 X-16.998 Y87.658 E668.65055
G1 X-17.451 Y87.717 E668.67904
G1 X-17.874 Y87.893 E668.70762
G1 X-18.237 Y88.171 E668.73613
G1 X-18.515 Y88.534 E668.76464
G1 X-18.691 Y88.957 E668.79321
G1 X-18.75 Y89.41 E668.8217
G1 X-18.691 Y89.863 E668.85019
G1 X-18.515 Y90.286 E668.87876
G1 X-18.237 Y90.648 E668.90723
G1 X-17.874 Y90.927 E668.93578
G1 X-17.451 Y91.103 E668.96435
G1 X-16.997 Y91.162 E668.9929
G0 F12000 X-17.061 Y91.657
G0 X-16.994 Y91.667
; TYPE:WALL-INNER
G1 F600 X-16.391 Y91.581 E669.03089
G1 X-15.87 Y91.363 E669.06611
G1 X-15.403 Y91.005 E669.1028
G1 X-15.045 Y90.538 E669.1395
G1 X-14.819 Y89.994 E669.17624
G1 X-14.743 Y89.41 E669.21296
G1 X-14.819 Y88.826 E669.24969
G1 X-15.045 Y88.282 E669.28643
G1 X-15.403 Y87.814 E669.32317
G1 X-15.871 Y87.456 E669.35992
G1 X-16.414 Y87.23 E669.3966
G1 X-16.998 Y87.154 E669.43333
G1 X-17.582 Y87.23 E669.47005
G1 X-18.126 Y87.456 E669.50679
G1 X-18.594 Y87.814 E669.54353
G1 X-18.952 Y88.282 E669.58028
G1 X-19.178 Y88.826 E669.61702
G1 X-19.254 Y89.41 E669.65374
G1 X-19.178 Y89.994 E669.69047
G1 X-18.952 Y90.538 E669.72721
G1 X-18.594 Y91.005 E669.7639
G1 X-18.127 Y91.364 E669.80064
G1 X-17.582 Y91.59 E669.83743
G1 X-16.994 Y91.667 E669.87441
G0 F12000 X-16.991 Y92.172
G1 F600 X-16.258 Y92.067 E669.92059
G1 X-15.617 Y91.8 E669.9639
G1 X-15.046 Y91.361 E670.00881
G1 X-14.608 Y90.791 E670.05364
G1 X-14.332 Y90.124 E670.09866
G1 X-14.238 Y89.41 E670.14357
G1 X-14.332 Y88.696 E670.18848
G1 X-14.608 Y88.03 E670.23344
G1 X-15.046 Y87.457 E670.27842
G1 X-15.619 Y87.019 E670.3234
G1 X-16.283 Y86.743 E670.36824
G1 X-16.998 Y86.649 E670.41321
G1 X-17.712 Y86.743 E670.45812
G1 X-18.378 Y87.019 E670.50308
G1 X-18.951 Y87.457 E670.54806
G1 X-19.389 Y88.03 E670.59304
G1 X-19.665 Y88.696 E670.638
G1 X-19.759 Y89.41 E670.68291
G1 X-19.665 Y90.124 E670.72782
G1 X-19.389 Y90.791 E670.77284
G1 X-18.951 Y91.361 E670.81767
G1 X-18.379 Y91.801 E670.86267
G1 X-17.712 Y92.077 E670.90769
G1 X-16.991 Y92.172 E670.95304
G1 F6600 E664.15304
G1 Z0.7
G0 F12000 X-15.87 Y91.363
G0 X-15.403 Y91.005
G0 X-15.045 Y90.538
G0 X-14.819 Y89.994
G0 X-14.743 Y89.41
G0 X-14.819 Y88.826
G0 X-15.045 Y88.282
G0 X-15.403 Y87.814
G0 X-15.871 Y87.456
G0 X-16.414 Y87.23
G0 X-16.998 Y87.154
G0 X-17.061 Y51.657
G0 X-16.997 Y51.162
; TYPE:WALL-OUTER
G1 Z0.4
G1 F6600 E671.05304
G1 F600 X-16.525 Y51.095 E671.08277
G1 X-16.123 Y50.927 E671.10994
G1 X-15.76 Y50.648 E671.13849
G1 X-15.482 Y50.286 E671.16696
G1 X-15.306 Y49.863 E671.19553
G1 X-15.247 Y49.41 E671.22402
G1 X-15.306 Y48.957 E671.25251
G1 X-15.482 Y48.534 E671.28108
G1 X-15.76 Y48.171 E671.30959
G1 X-16.123 Y47.893 E671.3381
G1 X-16.545 Y47.717 E671.36662
G1 X-16.998 Y47.658 E671.39511
G1 X-17.451 Y47.717 E671.4236
G1 X-17.874 Y47.893 E671.45217
G1 X-18.237 Y48.171 E671.48068
G1 X-18.515 Y48.534 E671.5092
G1 X-18.691 Y48.957 E671.53777
G1 X-18.75 Y49.41 E671.56626
G1 X-18.691 Y49.863 E671.59475
G1 X-18.515 Y50.286 E671.62332
G1 X-18.237 Y50.648 E671.65178
G1 X-17.874 Y50.927 E671.68033
G1 X-17.451 Y51.103 E671.7089
G1 X-16.997 Y51.162 E671.73746
G0 F12000 X-17.061 Y51.657
G0 X-16.994 Y51.667
; TYPE:WALL-INNER
G1 F600 X-16.391 Y51.581 E671.77544
G1 X-15.87 Y51.363 E671.81066
G1 X-15.403 Y51.005 E671.84736
G1 X-15.045 Y50.538 E671.88405
G1 X-14.819 Y49.994 E671.92079
G1 X-14.743 Y49.41 E671.95752
G1 X-14.819 Y48.826 E671.99424
G1 X-15.045 Y48.282 E672.03098
G1 X-15.403 Y47.814 E672.06773
G1 X-15.871 Y47.456 E672.10447
G1 X-16.414 Y47.23 E672.14115
G1 X-16.998 Y47.154 E672.17788
G1 X-17.582 Y47.23 E672.21461
G1 X-18.126 Y47.456 E672.25134
G1 X-18.594 Y47.814 E672.28809
G1 X-18.952 Y48.282 E672.32483
G1 X-19.178 Y48.826 E672.36157
G1 X-19.254 Y49.41 E672.3983
G1 X-19.178 Y49.994 E672.43502
G1 X-18.952 Y50.538 E672.47176
G1 X-18.594 Y51.005 E672.50846
G1 X-18.127 Y51.364 E672.54519
G1 X-17.582 Y51.59 E672.58198
G1 X-16.994 Y51.667 E672.61897
G0 F12000 X-16.991 Y52.172
G1 F600 X-16.258 Y52.067 E672.66515
G1 X-15.617 Y51.8 E672.70845
G1 X-15.046 Y51.361 E672.75337
G1 X-14.608 Y50.791 E672.7982
G1 X-14.332 Y50.124 E672.84321
G1 X-14.238 Y49.41 E672.88812
G1 X-14.332 Y48.696 E672.93303
G1 X-14.608 Y48.03 E672.97799
G1 X-15.046 Y47.457 E673.02297
G1 X-15.619 Y47.019 E673.06795
G1 X-16.283 Y46.743 E673.11279
G1 X-16.998 Y46.649 E673.15777
G1 X-17.712 Y46.743 E673.20268
G1 X-18.378 Y47.019 E673.24764
G1 X-18.951 Y47.457 E673.29261
G1 X-19.389 Y48.03 E673.33759
G1 X-19.665 Y48.696 E673.38255
G1 X-19.759 Y49.41 E673.42746
G1 X-19.665 Y50.124 E673.47237
G1 X-19.389 Y50.791 E673.51739
G1 X-18.951 Y51.361 E673.56222
G1 X-18.379 Y51.801 E673.60722
G1 X-17.712 Y52.077 E673.65224
G1 X-16.991 Y52.172 E673.69759
G1 F6600 E666.89759
G1 Z0.7
G0 F12000 X47.04 Y75.993
G0 X47.714 Y76.079
G0 X47.778 Y75.585
; TYPE:WALL-OUTER
G1 Z0.4
G1 F6600 E673.79759
G1 F600 X48.387 Y75.506 E673.83589
G1 X48.954 Y75.27 E673.87419
G1 X49.441 Y74.896 E673.91248
G1 X49.815 Y74.409 E673.95078
G1 X50.05 Y73.842 E673.98905
G1 X50.13 Y73.233 E674.02736
G1 X50.05 Y72.625 E674.0656
G1 X49.815 Y72.057 E674.10393
G1 X49.441 Y71.57 E674.14223
G1 X48.954 Y71.197 E674.18048
G1 X48.387 Y70.961 E674.21878
G1 X47.778 Y70.881 E674.25709
G1 X47.17 Y70.961 E674.29533
G1 X46.602 Y71.197 E674.33369
G1 X46.115 Y71.57 E674.37195
G1 X45.741 Y72.057 E674.41024
G1 X45.506 Y72.625 E674.44857
G1 X45.426 Y73.233 E674.48682
G1 X45.506 Y73.842 E674.52512
G1 X45.741 Y74.409 E674.5634
G1 X46.115 Y74.896 E674.60169
G1 X46.602 Y75.27 E674.63998
G1 X47.17 Y75.506 E674.67834
G1 X47.778 Y75.585 E674.71658
G0 F12000 X47.714 Y76.079
G0 X47.778 Y76.089
; TYPE:WALL-INNER
G1 F600 X48.518 Y75.993 E674.76311
G1 X49.207 Y75.707 E674.80963
G1 X49.798 Y75.253 E674.85611
G1 X50.252 Y74.661 E674.90264
G1 X50.537 Y73.973 E674.94908
G1 X50.635 Y73.233 E674.99563
G1 X50.537 Y72.495 E675.04206
G1 X50.252 Y71.805 E675.08861
G1 X49.798 Y71.213 E675.13514
G1 X49.206 Y70.76 E675.18163
G1 X48.518 Y70.474 E675.22809
G1 X47.778 Y70.376 E675.27464
G1 X47.039 Y70.474 E675.32113
G1 X46.35 Y70.76 E675.36765
G1 X45.758 Y71.213 E675.41414
G1 X45.304 Y71.805 E675.46067
G1 X45.019 Y72.495 E675.50722
G1 X44.921 Y73.233 E675.55365
G1 X45.019 Y73.973 E675.6002
G1 X45.304 Y74.661 E675.64664
G1 X45.758 Y75.253 E675.69317
G1 X46.35 Y75.707 E675.73969
G1 X47.04 Y75.993 E675.78627
G1 X47.778 Y76.089 E675.83269
G0 F12000 X47.778 Y76.594
G1 F600 X48.648 Y76.48 E675.8874
G1 X49.459 Y76.144 E675.94215
G1 X50.154 Y75.609 E675.99685
G1 X50.689 Y74.913 E676.05159
G1 X51.024 Y74.103 E676.10626
G1 X51.139 Y73.233 E676.16098
G1 X51.024 Y72.364 E676.21565
G1 X50.689 Y71.553 E676.27037
G1 X50.154 Y70.856 E676.32517
G1 X49.458 Y70.323 E676.37984
G1 X48.649 Y69.987 E676.43447
G1 X47.778 Y69.872 E676.48925
G1 X46.908 Y69.987 E676.54398
G1 X46.098 Y70.323 E676.59867
G1 X45.402 Y70.856 E676.65334
G1 X44.867 Y71.553 E676.70813
G1 X44.532 Y72.364 E676.76286
G1 X44.417 Y73.233 E676.81752
G1 X44.532 Y74.103 E676.87225
G1 X44.867 Y74.913 E676.92691
G1 X45.402 Y75.609 E676.98166
G1 X46.097 Y76.144 E677.03635
G1 X46.909 Y76.48 E677.09116
G1 X47.778 Y76.594 E677.14582
G1 F6600 E670.34582
G1 Z0.7
G0 F12000 X50.82 Y97.994
G0 X51.046 Y98.538
G0 X51.404 Y99.005
G0 X51.871 Y99.364
G0 X52.416 Y99.59
G0 X52.937 Y99.657
G0 X53.001 Y99.162
; TYPE:WALL-OUTER
G1 Z0.4
G1 F6600 E677.24582
G1 F600 X53.473 Y99.095 E677.27555
G1 X53.876 Y98.927 E677.30277
G1 X54.239 Y98.648 E677.33133
G1 X54.517 Y98.286 E677.35979
G1 X54.693 Y97.863 E677.38836
G1 X54.752 Y97.41 E677.41685
G1 X54.693 Y96.957 E677.44534
G1 X54.517 Y96.534 E677.47391
G1 X54.239 Y96.171 E677.50242
G1 X53.876 Y95.893 E677.53094
G1 X53.453 Y95.717 E677.55951
G1 X53 Y95.658 E677.588
G1 X52.547 Y95.717 E677.61649
G1 X52.124 Y95.893 E677.64506
G1 X51.761 Y96.171 E677.67357
G1 X51.483 Y96.534 E677.70209
G1 X51.307 Y96.957 E677.73066
G1 X51.248 Y97.41 E677.75915
G1 X51.307 Y97.863 E677.78764
G1 X51.483 Y98.286 E677.81621
G1 X51.761 Y98.648 E677.84467
G1 X52.124 Y98.927 E677.87322
G1 X52.547 Y99.103 E677.9018
G1 X53.001 Y99.162 E677.93035
G0 F12000 X52.937 Y99.657
G0 X53.004 Y99.667
; TYPE:WALL-INNER
G1 F600 X53.606 Y99.581 E677.96827
G1 X54.129 Y99.364 E678.00358
G1 X54.596 Y99.005 E678.04032
G1 X54.954 Y98.538 E678.07701
G1 X55.18 Y97.994 E678.11375
G1 X55.256 Y97.41 E678.15048
G1 X55.18 Y96.826 E678.1872
G1 X54.954 Y96.282 E678.22394
G1 X54.596 Y95.814 E678.26069
G1 X54.128 Y95.456 E678.29743
G1 X53.584 Y95.23 E678.33417
G1 X53 Y95.154 E678.37089
G1 X52.416 Y95.23 E678.40762
G1 X51.872 Y95.456 E678.44436
G1 X51.404 Y95.814 E678.4811
G1 X51.046 Y96.282 E678.51785
G1 X50.82 Y96.826 E678.55459
G1 X50.744 Y97.41 E678.59131
G1 X50.82 Y97.994 E678.62804
G1 X51.046 Y98.538 E678.66478
G1 X51.404 Y99.005 E678.70147
G1 X51.871 Y99.364 E678.73821
G1 X52.416 Y99.59 E678.775
G1 X53.004 Y99.667 E678.81198
G0 F12000 X53.007 Y100.172
G1 F600 X53.74 Y100.067 E678.85816
G1 X54.381 Y99.8 E678.90147
G1 X54.953 Y99.361 E678.94643
G1 X55.391 Y98.791 E678.99126
G1 X55.667 Y98.124 E679.03628
G1 X55.761 Y97.41 E679.08119
G1 X55.667 Y96.696 E679.1261
G1 X55.391 Y96.03 E679.17106
G1 X54.953 Y95.457 E679.21604
G1 X54.38 Y95.019 E679.26102
G1 X53.714 Y94.743 E679.30597
G1 X53 Y94.649 E679.35089
G1 X52.286 Y94.743 E679.3958
G1 X51.62 Y95.019 E679.44076
G1 X51.047 Y95.457 E679.48573
G1 X50.609 Y96.03 E679.53071
G1 X50.333 Y96.696 E679.57567
G1 X50.239 Y97.41 E679.62058
G1 X50.333 Y98.124 E679.66549
G1 X50.609 Y98.791 E679.71051
G1 X51.047 Y99.361 E679.75534
G1 X51.619 Y99.801 E679.80034
G1 X52.286 Y100.077 E679.84536
G1 X53.007 Y100.172 E679.89071
G1 F6600 E673.09071
G1 Z0.7
G0 F12000 X74.617 Y103.57
G0 X75.291 Y103.656
G0 X75.355 Y103.162
; TYPE:WALL-OUTER
G1 Z0.4
G1 F6600 E679.99071
G1 F600 X75.964 Y103.083 E680.02901
G1 X76.531 Y102.847 E680.06731
G1 X77.018 Y102.473 E680.1056
G1 X77.392 Y101.986 E680.14389
G1 X77.628 Y101.419 E680.1822
G1 X77.707 Y100.81 E680.22049
G1 X77.628 Y100.202 E680.25873
G1 X77.392 Y99.634 E680.29709
G1 X77.018 Y99.147 E680.33538
G1 X76.531 Y98.774 E680.37363
G1 X75.964 Y98.538 E680.41193
G1 X75.355 Y98.458 E680.45024
G1 X74.747 Y98.538 E680.48848
G1 X74.179 Y98.774 E680.52684
G1 X73.692 Y99.147 E680.5651
G1 X73.319 Y99.634 E680.60335
G1 X73.083 Y100.202 E680.64171
G1 X73.003 Y100.81 E680.67995
G1 X73.083 Y101.419 E680.71826
G1 X73.319 Y101.986 E680.75656
G1 X73.692 Y102.473 E680.79481
G1 X74.179 Y102.847 E680.83311
G1 X74.747 Y103.083 E680.87146
G1 X75.355 Y103.162 E680.9097
G0 F12000 X75.291 Y103.656
G0 X75.355 Y103.666
; TYPE:WALL-INNER
G1 F600 X76.095 Y103.57 E680.95624
G1 X76.784 Y103.284 E681.00276
G1 X77.375 Y102.83 E681.04923
G1 X77.829 Y102.239 E681.09571
G1 X78.115 Y101.55 E681.14223
G1 X78.211 Y100.81 E681.18877
G1 X78.115 Y100.072 E681.23518
G1 X77.829 Y99.382 E681.28176
G1 X77.375 Y98.79 E681.32828
G1 X76.783 Y98.337 E681.37477
G1 X76.095 Y98.051 E681.42124
G1 X75.355 Y97.953 E681.46779
G1 X74.616 Y98.051 E681.51428
G1 X73.927 Y98.337 E681.5608
G1 X73.335 Y98.79 E681.60729
G1 X72.882 Y99.382 E681.65377
G1 X72.596 Y100.071 E681.7003
G1 X72.498 Y100.81 E681.74679
G1 X72.596 Y101.55 E681.79334
G1 X72.882 Y102.238 E681.8398
G1 X73.335 Y102.83 E681.88629
G1 X73.927 Y103.284 E681.93282
G1 X74.617 Y103.57 E681.9794
G1 X75.355 Y103.666 E682.02581
G0 F12000 X75.355 Y104.171
G1 F600 X76.225 Y104.057 E682.08053
G1 X77.036 Y103.721 E682.13527
G1 X77.731 Y103.186 E682.18997
G1 X78.266 Y102.491 E682.24467
G1 X78.602 Y101.68 E682.29941
G1 X78.716 Y100.81 E682.35413
G1 X78.602 Y99.941 E682.40879
G1 X78.266 Y99.129 E682.46359
G1 X77.731 Y98.433 E682.51834
G1 X77.035 Y97.9 E682.57301
G1 X76.226 Y97.564 E682.62764
G1 X75.355 Y97.449 E682.68242
G1 X74.485 Y97.564 E682.73715
G1 X73.675 Y97.9 E682.79184
G1 X72.978 Y98.433 E682.84656
G1 X72.445 Y99.13 E682.90128
G1 X72.109 Y99.94 E682.95597
G1 X71.994 Y100.81 E683.01069
G1 X72.109 Y101.681 E683.06548
G1 X72.445 Y102.49 E683.12011
G1 X72.978 Y103.186 E683.17478
G1 X73.674 Y103.721 E683.22953
G1 X74.486 Y104.057 E683.28433
G1 X75.355 Y104.171 E683.33899
G1 F6600 E676.53899
G1 Z0.7
G0 F12000 X76.784 Y103.284
G0 X77.375 Y102.83
G0 X77.829 Y102.239
G0 X78.115 Y101.55
G0 X78.145 Y101.318
G0 X100.747 Y78.2
G0 X100.811 Y77.706
; TYPE:WALL-OUTER
G1 Z0.4
G1 F6600 E683.43899
G1 F600 X101.42 Y77.627 E683.47729
G1 X101.987 Y77.391 E683.51559
G1 X102.474 Y77.017 E683.55388
G1 X102.848 Y76.53 E683.59217
G1 X103.083 Y75.963 E683.63045
G1 X103.163 Y75.354 E683.66875
G1 X103.083 Y74.746 E683.707
G1 X102.848 Y74.178 E683.74533
G1 X102.474 Y73.692 E683.78358
G1 X101.987 Y73.318 E683.82187
G1 X101.42 Y73.082 E683.86017
G1 X100.811 Y73.002 E683.89847
G1 X100.203 Y73.082 E683.93672
G1 X99.635 Y73.318 E683.97508
G1 X99.148 Y73.692 E684.01337
G1 X98.774 Y74.178 E684.05161
G1 X98.539 Y74.746 E684.08995
G1 X98.459 Y75.354 E684.12819
G1 X98.539 Y75.963 E684.1665
G1 X98.774 Y76.53 E684.20477
G1 X99.148 Y77.017 E684.24306
G1 X99.635 Y77.391 E684.28136
G1 X100.203 Y77.627 E684.31972
G1 X100.811 Y77.706 E684.35795
G0 F12000 X100.747 Y78.2
G0 X100.811 Y78.21
; TYPE:WALL-INNER
G1 F600 X101.551 Y78.114 E684.40449
G1 X102.24 Y77.828 E684.45101
G1 X102.831 Y77.374 E684.49748
G1 X103.285 Y76.782 E684.54401
G1 X103.57 Y76.094 E684.59045
G1 X103.668 Y75.354 E684.637
G1 X103.57 Y74.616 E684.68343
G1 X103.285 Y73.926 E684.72999
G1 X102.831 Y73.335 E684.77646
G1 X102.24 Y72.881 E684.82294
G1 X101.551 Y72.595 E684.86946
G1 X100.811 Y72.497 E684.91601
G1 X100.072 Y72.595 E684.9625
G1 X99.383 Y72.881 E685.00902
G1 X98.791 Y73.335 E685.05555
G1 X98.337 Y73.926 E685.10203
G1 X98.052 Y74.616 E685.14858
G1 X97.954 Y75.354 E685.19501
G1 X98.052 Y76.094 E685.24156
G1 X98.337 Y76.782 E685.288
G1 X98.791 Y77.374 E685.33453
G1 X99.383 Y77.828 E685.38105
G1 X100.073 Y78.114 E685.42763
G1 X100.811 Y78.21 E685.47404
G0 F12000 X100.811 Y78.715
G1 F600 X101.681 Y78.601 E685.52876
G1 X102.492 Y78.265 E685.58351
G1 X103.187 Y77.73 E685.63821
G1 X103.722 Y77.034 E685.69295
G1 X104.057 Y76.224 E685.74761
G1 X104.172 Y75.354 E685.80234
G1 X104.057 Y74.485 E685.85701
G1 X103.722 Y73.674 E685.91173
G1 X103.187 Y72.978 E685.96648
G1 X102.492 Y72.444 E686.02113
G1 X101.682 Y72.108 E686.07582
G1 X100.811 Y71.993 E686.13061
G1 X99.941 Y72.108 E686.18534
G1 X99.13 Y72.444 E686.24008
G1 X98.435 Y72.978 E686.29474
G1 X97.9 Y73.674 E686.34949
G1 X97.565 Y74.485 E686.40421
G1 X97.45 Y75.354 E686.45887
G1 X97.565 Y76.224 E686.5136
G1 X97.9 Y77.034 E686.56827
G1 X98.435 Y77.73 E686.62301
G1 X99.13 Y78.265 E686.67771
G1 X99.942 Y78.601 E686.73251
G1 X100.811 Y78.715 E686.78717
G1 F6600 E679.98717
G1 Z0.7
G0 F12000 X99.383 Y77.828
G0 X98.791 Y77.374
G0 X98.337 Y76.782
G0 X98.052 Y76.094
G0 X98.024 Y75.883
G0 X73.17 Y50.623
G0 X73.234 Y50.129
; TYPE:WALL-OUTER
G1 Z0.4
G1 F6600 E686.88717
G1 F600 X73.842 Y50.05 E686.9254
G1 X74.41 Y49.814 E686.96376
G1 X74.897 Y49.44 E687.00205
G1 X75.271 Y48.953 E687.04035
G1 X75.506 Y48.386 E687.07862
G1 X75.586 Y47.777 E687.11693
G1 X75.506 Y47.169 E687.15517
G1 X75.271 Y46.601 E687.19351
G1 X74.897 Y46.114 E687.2318
G1 X74.41 Y45.741 E687.27005
G1 X73.842 Y45.505 E687.30841
G1 X73.234 Y45.425 E687.34666
G1 X72.625 Y45.505 E687.38496
G1 X72.058 Y45.741 E687.42326
G1 X71.571 Y46.114 E687.46152
G1 X71.197 Y46.601 E687.49981
G1 X70.961 Y47.169 E687.53817
G1 X70.882 Y47.777 E687.5764
G1 X70.961 Y48.386 E687.6147
G1 X71.197 Y48.953 E687.653
G1 X71.571 Y49.44 E687.69129
G1 X72.058 Y49.814 E687.72959
G1 X72.625 Y50.05 E687.76789
G1 X73.234 Y50.129 E687.80618
G0 F12000 X73.17 Y50.623
G0 X73.234 Y50.633
; TYPE:WALL-INNER
G1 F600 X73.972 Y50.537 E687.8526
G1 X74.662 Y50.251 E687.89918
G1 X75.254 Y49.797 E687.9457
G1 X75.708 Y49.205 E687.99223
G1 X75.993 Y48.517 E688.03867
G1 X76.091 Y47.777 E688.08522
G1 X75.993 Y47.039 E688.13165
G1 X75.708 Y46.349 E688.1782
G1 X75.254 Y45.757 E688.22473
G1 X74.662 Y45.304 E688.27122
G1 X73.973 Y45.018 E688.31774
G1 X73.234 Y44.92 E688.36423
G1 X72.494 Y45.018 E688.41078
G1 X71.806 Y45.304 E688.45724
G1 X71.214 Y45.757 E688.50373
G1 X70.76 Y46.349 E688.55026
G1 X70.474 Y47.039 E688.59684
G1 X70.378 Y47.777 E688.64325
G1 X70.474 Y48.517 E688.68978
G1 X70.76 Y49.206 E688.73631
G1 X71.214 Y49.797 E688.78278
G1 X71.805 Y50.251 E688.82926
G1 X72.494 Y50.537 E688.87578
G1 X73.234 Y50.633 E688.92232
G0 F12000 X73.234 Y51.138
G1 F600 X74.103 Y51.024 E688.97697
G1 X74.915 Y50.688 E689.03178
G1 X75.61 Y50.153 E689.08647
G1 X76.145 Y49.457 E689.14122
G1 X76.48 Y48.647 E689.19588
G1 X76.595 Y47.777 E689.25061
G1 X76.48 Y46.908 E689.30528
G1 X76.145 Y46.097 E689.36
G1 X75.61 Y45.4 E689.41479
G1 X74.914 Y44.867 E689.46946
G1 X74.104 Y44.531 E689.52415
G1 X73.234 Y44.416 E689.57888
G1 X72.363 Y44.531 E689.63367
G1 X71.554 Y44.867 E689.6883
G1 X70.858 Y45.4 E689.74297
G1 X70.323 Y46.096 E689.79771
G1 X69.987 Y46.908 E689.85251
G1 X69.873 Y47.777 E689.90717
G1 X69.987 Y48.647 E689.96189
G1 X70.323 Y49.458 E690.01664
G1 X70.858 Y50.153 E690.07133
G1 X71.553 Y50.688 E690.12603
G1 X72.364 Y51.024 E690.18077
G1 X73.234 Y51.138 E690.23549
G1 F6600 E683.43549
G1 Z0.7
G0 F12000 X52.937 Y43.657
G0 X53.001 Y43.162
; TYPE:WALL-OUTER
G1 Z0.4
G1 F6600 E690.33549
G1 F600 X53.473 Y43.095 E690.36522
G1 X53.876 Y42.927 E690.39245
G1 X54.239 Y42.648 E690.421
G1 X54.517 Y42.286 E690.44947
G1 X54.693 Y41.863 E690.47804
G1 X54.752 Y41.41 E690.50653
G1 X54.693 Y40.957 E690.53502
G1 X54.517 Y40.534 E690.56359
G1 X54.239 Y40.171 E690.5921
G1 X53.876 Y39.893 E690.62062
G1 X53.453 Y39.717 E690.64919
G1 X53 Y39.658 E690.67768
G1 X52.547 Y39.717 E690.70617
G1 X52.124 Y39.893 E690.73474
G1 X51.761 Y40.171 E690.76325
G1 X51.483 Y40.534 E690.79177
G1 X51.307 Y40.957 E690.82034
G1 X51.248 Y41.41 E690.84883
G1 X51.307 Y41.863 E690.87732
G1 X51.483 Y42.286 E690.90589
G1 X51.761 Y42.648 E690.93435
G1 X52.124 Y42.927 E690.9629
G1 X52.547 Y43.103 E690.99148
G1 X53.001 Y43.162 E691.02003
G0 F12000 X52.937 Y43.657
G0 X53.004 Y43.667
; TYPE:WALL-INNER
G1 F600 X53.606 Y43.581 E691.05795
G1 X54.129 Y43.364 E691.09326
G1 X54.596 Y43.005 E691.13
G1 X54.954 Y42.538 E691.16669
G1 X55.18 Y41.994 E691.20343
G1 X55.256 Y41.41 E691.24016
G1 X55.18 Y40.826 E691.27688
G1 X54.954 Y40.282 E691.31362
G1 X54.596 Y39.814 E691.35036
G1 X54.128 Y39.456 E691.38711
G1 X53.584 Y39.23 E691.42385
G1 X53 Y39.154 E691.46057
G1 X52.416 Y39.23 E691.4973
G1 X51.872 Y39.456 E691.53404
G1 X51.404 Y39.814 E691.57078
G1 X51.046 Y40.282 E691.60753
G1 X50.82 Y40.826 E691.64427
G1 X50.744 Y41.41 E691.68099
G1 X50.82 Y41.994 E691.71772
G1 X51.046 Y42.538 E691.75446
G1 X51.404 Y43.005 E691.79115
G1 X51.871 Y43.364 E691.82789
G1 X52.416 Y43.59 E691.86468
G1 X53.004 Y43.667 E691.90166
G0 F12000 X53.007 Y44.172
G1 F600 X53.74 Y44.067 E691.94784
G1 X54.381 Y43.8 E691.99114
G1 X54.953 Y43.361 E692.03611
G1 X55.391 Y42.791 E692.08094
G1 X55.667 Y42.124 E692.12596
G1 X55.761 Y41.41 E692.17087
G1 X55.667 Y40.696 E692.21578
G1 X55.391 Y40.03 E692.26074
G1 X54.953 Y39.457 E692.30572
G1 X54.38 Y39.019 E692.35069
G1 X53.714 Y38.743 E692.39565
G1 X53 Y38.649 E692.44056
G1 X52.286 Y38.743 E692.48548
G1 X51.62 Y39.019 E692.53043
G1 X51.047 Y39.457 E692.57541
G1 X50.609 Y40.03 E692.62039
G1 X50.333 Y40.696 E692.66535
G1 X50.239 Y41.41 E692.71026
G1 X50.333 Y42.124 E692.75517
G1 X50.609 Y42.791 E692.80019
G1 X51.047 Y43.361 E692.84502
G1 X51.619 Y43.801 E692.89002
G1 X52.286 Y44.077 E692.93504
G1 X53.007 Y44.172 E692.98039
G1 F6600 E686.18039
G1 Z0.7
G0 F12000 X54.129 Y43.364
G0 X54.596 Y43.005
G0 X54.954 Y42.538
G0 X55.18 Y41.994
G0 X55.256 Y41.41
G0 X55.18 Y40.826
G0 X54.954 Y40.282
G0 X54.596 Y39.814
G0 X54.128 Y39.456
G0 X54.078 Y39.436
G0 X73.169 Y-44.93
G0 X73.234 Y-45.425
; TYPE:WALL-OUTER
G1 Z0.4
G1 F6600 E693.08039
G1 F600 X73.842 Y-45.505 E693.11863
G1 X74.41 Y-45.74 E693.15697
G1 X74.897 Y-46.114 E693.19526
G1 X75.271 Y-46.601 E693.23355
G1 X75.506 Y-47.169 E693.27189
G1 X75.586 Y-47.777 E693.31013
G1 X75.506 Y-48.386 E693.34844
G1 X75.271 Y-48.953 E693.38671
G1 X74.897 Y-49.44 E693.42501
G1 X74.41 Y-49.814 E693.4633
G1 X73.842 Y-50.049 E693.50163
G1 X73.234 Y-50.129 E693.53988
G1 X72.625 Y-50.049 E693.57818
G1 X72.058 Y-49.814 E693.61646
G1 X71.571 Y-49.44 E693.65475
G1 X71.197 Y-48.953 E693.69304
G1 X70.961 Y-48.386 E693.73134
G1 X70.882 Y-47.777 E693.76964
G1 X70.961 Y-47.169 E693.80788
G1 X71.197 Y-46.601 E693.84624
G1 X71.571 Y-46.114 E693.88453
G1 X72.058 Y-45.74 E693.92282
G1 X72.625 Y-45.505 E693.9611
G1 X73.234 Y-45.425 E693.9994
G0 F12000 X73.169 Y-44.93
G0 X73.234 Y-44.92
; TYPE:WALL-INNER
G1 F600 X73.972 Y-45.018 E694.04583
G1 X74.662 Y-45.303 E694.09239
G1 X75.254 Y-45.757 E694.13891
G1 X75.708 Y-46.349 E694.18544
G1 X75.993 Y-47.039 E694.23199
G1 X76.091 Y-47.777 E694.27842
G1 X75.993 Y-48.517 E694.32497
G1 X75.708 Y-49.205 E694.37141
G1 X75.254 Y-49.797 E694.41794
G1 X74.662 Y-50.251 E694.46447
G1 X73.972 Y-50.536 E694.51102
G1 X73.234 Y-50.634 E694.55745
G1 X72.494 Y-50.536 E694.604
G1 X71.806 Y-50.251 E694.65044
G1 X71.214 Y-49.797 E694.69697
G1 X70.76 Y-49.206 E694.74344
G1 X70.474 Y-48.517 E694.78997
G1 X70.378 Y-47.777 E694.8365
G1 X70.474 Y-47.039 E694.88291
G1 X70.76 Y-46.349 E694.92949
G1 X71.214 Y-45.757 E694.97602
G1 X71.806 Y-45.303 E695.02254
G1 X72.494 Y-45.018 E695.06898
G1 X73.234 Y-44.92 E695.11554
G0 F12000 X73.234 Y-44.416
G1 F600 X74.103 Y-44.531 E695.1702
G1 X74.914 Y-44.866 E695.22492
G1 X75.61 Y-45.401 E695.27967
G1 X76.145 Y-46.097 E695.33441
G1 X76.48 Y-46.908 E695.38914
G1 X76.595 Y-47.777 E695.4438
G1 X76.48 Y-48.647 E695.49853
G1 X76.145 Y-49.457 E695.55319
G1 X75.61 Y-50.153 E695.60794
G1 X74.914 Y-50.688 E695.66268
G1 X74.103 Y-51.023 E695.71741
G1 X73.234 Y-51.138 E695.77207
G1 X72.364 Y-51.023 E695.8268
G1 X71.554 Y-50.688 E695.88146
G1 X70.858 Y-50.153 E695.93621
G1 X70.323 Y-49.458 E695.9909
G1 X69.987 Y-48.647 E696.04565
G1 X69.873 Y-47.777 E696.10037
G1 X69.987 Y-46.908 E696.15503
G1 X70.323 Y-46.096 E696.20983
G1 X70.858 Y-45.401 E696.26453
G1 X71.554 Y-44.866 E696.31927
G1 X72.364 Y-44.531 E696.37393
G1 X73.234 Y-44.416 E696.42866
G1 F6600 E689.62866
G1 Z0.7
G0 F12000 X71.806 Y-45.303
G0 X71.214 Y-45.757
G0 X70.76 Y-46.349
G0 X70.474 Y-47.039
G0 X70.447 Y-47.253
G0 X47.714 Y-70.387
G0 X47.778 Y-70.881
; TYPE:WALL-OUTER
G1 Z0.4
G1 F6600 E696.52866
G1 F600 X48.387 Y-70.96 E696.56696
G1 X48.954 Y-71.196 E696.60526
G1 X49.441 Y-71.57 E696.64355
G1 X49.815 Y-72.057 E696.68185
G1 X50.05 Y-72.624 E696.72012
G1 X50.13 Y-73.233 E696.75843
G1 X50.05 Y-73.841 E696.79667
G1 X49.815 Y-74.409 E696.83501
G1 X49.441 Y-74.896 E696.8733
G1 X48.954 Y-75.27 E696.91159
G1 X48.387 Y-75.505 E696.94987
G1 X47.778 Y-75.585 E696.98817
G1 X47.17 Y-75.505 E697.02642
G1 X46.602 Y-75.27 E697.06475
G1 X46.115 Y-74.896 E697.10304
G1 X45.741 Y-74.409 E697.14134
G1 X45.506 Y-73.841 E697.17967
G1 X45.426 Y-73.233 E697.21791
G1 X45.506 Y-72.624 E697.25622
G1 X45.741 Y-72.057 E697.2945
G1 X46.115 Y-71.57 E697.33279
G1 X46.602 Y-71.196 E697.37108
G1 X47.17 Y-70.96 E697.40944
G1 X47.778 Y-70.881 E697.44768
G0 F12000 X47.714 Y-70.387
G0 X47.778 Y-70.377
; TYPE:WALL-INNER
G1 F600 X48.518 Y-70.473 E697.49421
G1 X49.207 Y-70.759 E697.54073
G1 X49.798 Y-71.213 E697.58721
G1 X50.252 Y-71.805 E697.63373
G1 X50.537 Y-72.493 E697.68018
G1 X50.635 Y-73.233 E697.72673
G1 X50.537 Y-73.971 E697.77315
G1 X50.252 Y-74.661 E697.81971
G1 X49.798 Y-75.253 E697.86624
G1 X49.206 Y-75.707 E697.91276
G1 X48.518 Y-75.992 E697.9592
G1 X47.778 Y-76.09 E698.00575
G1 X47.04 Y-75.992 E698.05218
G1 X46.35 Y-75.707 E698.09874
G1 X45.758 Y-75.253 E698.14526
G1 X45.304 Y-74.661 E698.19179
G1 X45.019 Y-73.971 E698.23835
G1 X44.921 Y-73.233 E698.28477
G1 X45.019 Y-72.493 E698.33132
G1 X45.304 Y-71.805 E698.37777
G1 X45.758 Y-71.213 E698.42429
G1 X46.35 Y-70.759 E698.47082
G1 X47.04 Y-70.473 E698.5174
G1 X47.778 Y-70.377 E698.56381
G0 F12000 X47.778 Y-69.872
G1 F600 X48.648 Y-69.986 E698.61853
G1 X49.459 Y-70.322 E698.67327
G1 X50.154 Y-70.857 E698.72797
G1 X50.689 Y-71.553 E698.78271
G1 X51.024 Y-72.363 E698.83738
G1 X51.139 Y-73.233 E698.89211
G1 X51.024 Y-74.102 E698.94677
G1 X50.689 Y-74.913 E699.00149
G1 X50.154 Y-75.609 E699.05624
G1 X49.458 Y-76.144 E699.11098
G1 X48.648 Y-76.479 E699.16565
G1 X47.778 Y-76.594 E699.22038
G1 X46.909 Y-76.479 E699.27504
G1 X46.098 Y-76.144 E699.32976
G1 X45.402 Y-75.609 E699.38451
G1 X44.867 Y-74.913 E699.43925
G1 X44.532 Y-74.102 E699.49398
G1 X44.417 Y-73.233 E699.54864
G1 X44.532 Y-72.363 E699.60337
G1 X44.867 Y-71.553 E699.65803
G1 X45.402 Y-70.857 E699.71278
G1 X46.097 Y-70.322 E699.76747
G1 X46.909 Y-69.986 E699.82228
G1 X47.778 Y-69.872 E699.87693
G1 F6600 E693.07693
G1 Z0.7
G0 F12000 X49.207 Y-70.759
G0 X49.798 Y-71.213
G0 X50.252 Y-71.805
G0 X50.537 Y-72.493
G0 X50.567 Y-72.719
G0 X75.29 Y-97.963
G0 X75.355 Y-98.458
; TYPE:WALL-OUTER
G1 Z0.4
G1 F6600 E699.97693
G1 F600 X75.964 Y-98.538 E700.01524
G1 X76.531 Y-98.773 E700.05352
G1 X77.018 Y-99.147 E700.09181
G1 X77.392 Y-99.634 E700.1301
G1 X77.628 Y-100.202 E700.16846
G1 X77.707 Y-100.81 E700.2067
G1 X77.628 Y-101.419 E700.24499
G1 X77.392 Y-101.986 E700.28329
G1 X77.018 Y-102.473 E700.32159
G1 X76.531 Y-102.847 E700.35988
G1 X75.964 Y-103.082 E700.39816
G1 X75.355 Y-103.162 E700.43646
G1 X74.747 Y-103.082 E700.4747
G1 X74.179 Y-102.847 E700.51304
G1 X73.692 Y-102.473 E700.55133
G1 X73.319 Y-101.986 E700.58959
G1 X73.083 Y-101.419 E700.62789
G1 X73.003 Y-100.81 E700.66619
G1 X73.083 Y-100.202 E700.70444
G1 X73.319 Y-99.634 E700.74279
G1 X73.692 Y-99.147 E700.78105
G1 X74.179 Y-98.773 E700.81934
G1 X74.747 Y-98.538 E700.85768
G1 X75.355 Y-98.458 E700.89592
G0 F12000 X75.29 Y-97.963
G0 X75.355 Y-97.953
; TYPE:WALL-INNER
G1 F600 X76.095 Y-98.051 E700.94247
G1 X76.783 Y-98.336 E700.98891
G1 X77.375 Y-98.79 E701.03544
G1 X77.829 Y-99.382 E701.08196
G1 X78.115 Y-100.072 E701.12854
G1 X78.211 Y-100.81 E701.17495
G1 X78.115 Y-101.55 E701.22149
G1 X77.829 Y-102.239 E701.26801
G1 X77.375 Y-102.83 E701.31449
G1 X76.783 Y-103.284 E701.36101
G1 X76.095 Y-103.569 E701.40745
G1 X75.355 Y-103.667 E701.45401
G1 X74.617 Y-103.569 E701.50043
G1 X73.927 Y-103.284 E701.54699
G1 X73.335 Y-102.83 E701.59352
G1 X72.882 Y-102.238 E701.64
G1 X72.596 Y-101.55 E701.68647
G1 X72.498 Y-100.81 E701.73302
G1 X72.596 Y-100.071 E701.77951
G1 X72.882 Y-99.382 E701.82603
G1 X73.335 Y-98.79 E701.87252
G1 X73.927 Y-98.336 E701.91904
G1 X74.617 Y-98.051 E701.9656
G1 X75.355 Y-97.953 E702.01203
G0 F12000 X75.355 Y-97.449
G1 F600 X76.225 Y-97.564 E702.06676
G1 X77.035 Y-97.899 E702.12142
G1 X77.731 Y-98.434 E702.17617
G1 X78.266 Y-99.129 E702.23086
G1 X78.602 Y-99.941 E702.28566
G1 X78.716 Y-100.81 E702.34032
G1 X78.602 Y-101.68 E702.39504
G1 X78.266 Y-102.491 E702.44979
G1 X77.731 Y-103.186 E702.50448
G1 X77.035 Y-103.721 E702.55923
G1 X76.225 Y-104.056 E702.61389
G1 X75.355 Y-104.171 E702.66862
G1 X74.486 Y-104.056 E702.72329
G1 X73.675 Y-103.721 E702.77801
G1 X72.978 Y-103.186 E702.8328
G1 X72.445 Y-102.49 E702.88747
G1 X72.109 Y-101.681 E702.9421
G1 X71.994 Y-100.81 E702.99689
G1 X72.109 Y-99.94 E703.05162
G1 X72.445 Y-99.13 E703.10631
G1 X72.978 Y-98.434 E703.16098
G1 X73.675 Y-97.899 E703.21577
G1 X74.486 Y-97.564 E703.27049
G1 X75.355 Y-97.449 E703.32516
G1 F6600 E696.52516
G1 Z0.7
G0 F12000 X98.791 Y-73.334
G0 X99.383 Y-72.881
G0 X100.072 Y-72.595
G0 X100.746 Y-72.507
G0 X100.811 Y-73.002
; TYPE:WALL-OUTER
G1 Z0.4
G1 F6600 E703.42516
G1 F600 X101.42 Y-73.082 E703.46346
G1 X101.987 Y-73.318 E703.50176
G1 X102.474 Y-73.691 E703.54002
G1 X102.848 Y-74.178 E703.57831
G1 X103.083 Y-74.746 E703.61665
G1 X103.163 Y-75.354 E703.65489
G1 X103.083 Y-75.963 E703.69319
G1 X102.848 Y-76.53 E703.73147
G1 X102.474 Y-77.017 E703.76976
G1 X101.987 Y-77.391 E703.80806
G1 X101.42 Y-77.627 E703.84636
G1 X100.811 Y-77.706 E703.88466
G1 X100.203 Y-77.627 E703.92289
G1 X99.635 Y-77.391 E703.96125
G1 X99.148 Y-77.017 E703.99954
G1 X98.774 Y-76.53 E704.03783
G1 X98.539 Y-75.963 E704.07611
G1 X98.459 Y-75.354 E704.11442
G1 X98.539 Y-74.746 E704.15266
G1 X98.774 Y-74.178 E704.19099
G1 X99.148 Y-73.691 E704.22929
G1 X99.635 Y-73.318 E704.26754
G1 X100.203 Y-73.082 E704.3059
G1 X100.811 Y-73.002 E704.34414
G0 F12000 X100.746 Y-72.507
G0 X100.811 Y-72.497
; TYPE:WALL-INNER
G1 F600 X101.551 Y-72.595 E704.39069
G1 X102.239 Y-72.881 E704.43716
G1 X102.831 Y-73.334 E704.48365
G1 X103.285 Y-73.926 E704.53017
G1 X103.57 Y-74.616 E704.57673
G1 X103.668 Y-75.354 E704.62316
G1 X103.57 Y-76.094 E704.66971
G1 X103.285 Y-76.782 E704.71615
G1 X102.831 Y-77.374 E704.76267
G1 X102.24 Y-77.828 E704.80915
G1 X101.551 Y-78.114 E704.85567
G1 X100.811 Y-78.21 E704.90221
G1 X100.073 Y-78.114 E704.94862
G1 X99.383 Y-77.828 E704.9952
G1 X98.791 Y-77.374 E705.04173
G1 X98.337 Y-76.782 E705.08825
G1 X98.052 Y-76.094 E705.13469
G1 X97.954 Y-75.354 E705.18124
G1 X98.052 Y-74.616 E705.22767
G1 X98.337 Y-73.926 E705.27423
G1 X98.791 Y-73.334 E705.32075
G1 X99.383 Y-72.881 E705.36724
G1 X100.072 Y-72.595 E705.41376
G1 X100.811 Y-72.497 E705.46025
G0 F12000 X100.811 Y-71.993
G1 F600 X101.682 Y-72.108 E705.51504
G1 X102.491 Y-72.444 E705.56967
G1 X103.187 Y-72.977 E705.62434
G1 X103.722 Y-73.674 E705.67914
G1 X104.057 Y-74.485 E705.73386
G1 X104.172 Y-75.354 E705.78852
G1 X104.057 Y-76.224 E705.84325
G1 X103.722 Y-77.034 E705.89791
G1 X103.187 Y-77.73 E705.95266
G1 X102.492 Y-78.265 E706.00736
G1 X101.681 Y-78.601 E706.0621
G1 X100.811 Y-78.715 E706.11682
G1 X99.942 Y-78.601 E706.17148
G1 X99.13 Y-78.265 E706.22628
G1 X98.435 Y-77.73 E706.28098
G1 X97.9 Y-77.034 E706.33572
G1 X97.565 Y-76.224 E706.39039
G1 X97.45 Y-75.354 E706.44511
G1 X97.565 Y-74.485 E706.49978
G1 X97.9 Y-73.674 E706.5545
G1 X98.435 Y-72.977 E706.6093
G1 X99.131 Y-72.444 E706.66397
G1 X99.941 Y-72.108 E706.71865
G1 X100.811 Y-71.993 E706.77338
G1 F6600 E699.97338
G1 Z0.7
G0 F12000 X47.778 Y-70.377
G0 X-47.776 Y-70.377
G0 X-47.84 Y-70.387
G0 X-47.776 Y-70.881
; TYPE:WALL-OUTER
G1 Z0.4
G1 F6600 E706.87338
G1 F600 X-47.168 Y-70.96 E706.91162
G1 X-46.6 Y-71.196 E706.94997
G1 X-46.113 Y-71.57 E706.98827
G1 X-45.74 Y-72.057 E707.02652
G1 X-45.504 Y-72.624 E707.06482
G1 X-45.424 Y-73.233 E707.10313
G1 X-45.504 Y-73.841 E707.14137
G1 X-45.74 Y-74.409 E707.17973
G1 X-46.113 Y-74.896 E707.21799
G1 X-46.6 Y-75.27 E707.25628
G1 X-47.168 Y-75.505 E707.29461
G1 X-47.776 Y-75.585 E707.33286
G1 X-48.385 Y-75.505 E707.37116
G1 X-48.952 Y-75.27 E707.40944
G1 X-49.439 Y-74.896 E707.44773
G1 X-49.813 Y-74.409 E707.48602
G1 X-50.049 Y-73.841 E707.52438
G1 X-50.128 Y-73.233 E707.56262
G1 X-50.049 Y-72.624 E707.60091
G1 X-49.813 Y-72.057 E707.63921
G1 X-49.439 Y-71.57 E707.67751
G1 X-48.952 Y-71.196 E707.7158
G1 X-48.385 Y-70.96 E707.7541
G1 X-47.776 Y-70.881 E707.7924
G0 F12000 X-47.84 Y-70.387
G0 X-47.776 Y-70.377
; TYPE:WALL-INNER
G1 F600 X-47.038 Y-70.473 E707.83881
G1 X-46.348 Y-70.759 E707.88539
G1 X-45.756 Y-71.213 E707.93192
G1 X-45.303 Y-71.805 E707.9784
G1 X-45.017 Y-72.493 E708.02487
G1 X-44.919 Y-73.233 E708.07142
G1 X-45.017 Y-73.972 E708.11791
G1 X-45.303 Y-74.661 E708.16443
G1 X-45.756 Y-75.253 E708.21092
G1 X-46.348 Y-75.707 E708.25744
G1 X-47.038 Y-75.992 E708.304
G1 X-47.776 Y-76.09 E708.35043
G1 X-48.516 Y-75.992 E708.39698
G1 X-49.204 Y-75.707 E708.44342
G1 X-49.796 Y-75.253 E708.48995
G1 X-50.25 Y-74.661 E708.53647
G1 X-50.536 Y-73.971 E708.58305
G1 X-50.632 Y-73.233 E708.62946
G1 X-50.536 Y-72.493 E708.676
G1 X-50.25 Y-71.804 E708.72252
G1 X-49.796 Y-71.213 E708.769
G1 X-49.205 Y-70.759 E708.81547
G1 X-48.516 Y-70.473 E708.862
G1 X-47.776 Y-70.377 E708.90853
G0 F12000 X-47.776 Y-69.872
G1 F600 X-46.907 Y-69.986 E708.96319
G1 X-46.095 Y-70.322 E709.01799
G1 X-45.399 Y-70.857 E709.07274
G1 X-44.866 Y-71.553 E709.12741
G1 X-44.53 Y-72.362 E709.18204
G1 X-44.415 Y-73.233 E709.23683
G1 X-44.53 Y-74.103 E709.29155
G1 X-44.866 Y-74.913 E709.34624
G1 X-45.399 Y-75.609 E709.40091
G1 X-46.096 Y-76.144 E709.45571
G1 X-46.907 Y-76.479 E709.51043
G1 X-47.776 Y-76.594 E709.56509
G1 X-48.646 Y-76.479 E709.61982
G1 X-49.456 Y-76.144 E709.67448
G1 X-50.152 Y-75.609 E709.72923
G1 X-50.687 Y-74.914 E709.78393
G1 X-51.023 Y-74.102 E709.83873
G1 X-51.137 Y-73.233 E709.89339
G1 X-51.023 Y-72.363 E709.94811
G1 X-50.687 Y-71.552 E710.00285
G1 X-50.152 Y-70.857 E710.05755
G1 X-49.457 Y-70.322 E710.11224
G1 X-48.646 Y-69.986 E710.16699
G1 X-47.776 Y-69.872 E710.22171
G1 F6600 E703.42171
G1 Z0.7
G0 F12000 X-71.212 Y-45.757
G0 X-71.804 Y-45.303
G0 X-72.494 Y-45.018
G0 X-73.232 Y-44.92
G0 X-73.297 Y-44.93
G0 X-73.232 Y-45.425
; TYPE:WALL-OUTER
G1 Z0.4
G1 F6600 E710.32171
G1 F600 X-72.624 Y-45.505 E710.35995
G1 X-72.056 Y-45.74 E710.39829
G1 X-71.569 Y-46.114 E710.43658
G1 X-71.196 Y-46.601 E710.47483
G1 X-70.96 Y-47.169 E710.51319
G1 X-70.88 Y-47.777 E710.55144
G1 X-70.96 Y-48.386 E710.58974
G1 X-71.196 Y-48.953 E710.62804
G1 X-71.569 Y-49.44 E710.6663
G1 X-72.056 Y-49.814 E710.70459
G1 X-72.624 Y-50.049 E710.74292
G1 X-73.232 Y-50.129 E710.78117
G1 X-73.841 Y-50.049 E710.81947
G1 X-74.408 Y-49.814 E710.85775
G1 X-74.895 Y-49.44 E710.89604
G1 X-75.269 Y-48.953 E710.93433
G1 X-75.505 Y-48.386 E710.97263
G1 X-75.584 Y-47.777 E711.01093
G1 X-75.505 Y-47.169 E711.04917
G1 X-75.269 Y-46.601 E711.08753
G1 X-74.895 Y-46.114 E711.12582
G1 X-74.408 Y-45.74 E711.16411
G1 X-73.841 Y-45.505 E711.20239
G1 X-73.232 Y-45.425 E711.24069
G0 F12000 X-73.297 Y-44.93
G0 X-73.232 Y-44.92
; TYPE:WALL-INNER
G1 F600 X-72.494 Y-45.018 E711.28712
G1 X-71.804 Y-45.303 E711.33368
G1 X-71.212 Y-45.757 E711.3802
G1 X-70.759 Y-46.349 E711.42669
G1 X-70.473 Y-47.038 E711.47321
G1 X-70.375 Y-47.777 E711.5197
G1 X-70.473 Y-48.517 E711.56625
G1 X-70.759 Y-49.205 E711.61272
G1 X-71.212 Y-49.797 E711.65921
G1 X-71.804 Y-50.251 E711.70573
G1 X-72.494 Y-50.536 E711.75229
G1 X-73.232 Y-50.634 E711.79872
G1 X-73.972 Y-50.536 E711.84527
G1 X-74.66 Y-50.251 E711.89171
G1 X-75.252 Y-49.797 E711.93823
G1 X-75.706 Y-49.206 E711.98471
G1 X-75.992 Y-48.517 E712.03123
G1 X-76.088 Y-47.777 E712.07777
G1 X-75.992 Y-47.039 E712.12418
G1 X-75.706 Y-46.349 E712.17076
G1 X-75.252 Y-45.757 E712.21728
G1 X-74.66 Y-45.303 E712.26381
G1 X-73.972 Y-45.018 E712.31025
G1 X-73.232 Y-44.92 E712.3568
G0 F12000 X-73.232 Y-44.416
G1 F600 X-72.363 Y-44.531 E712.41147
G1 X-71.552 Y-44.866 E712.46619
G1 X-70.855 Y-45.401 E712.52098
G1 X-70.322 Y-46.097 E712.57565
G1 X-69.986 Y-46.907 E712.63034
G1 X-69.871 Y-47.777 E712.68507
G1 X-69.986 Y-48.648 E712.73986
G1 X-70.322 Y-49.457 E712.79449
G1 X-70.855 Y-50.153 E712.84916
G1 X-71.552 Y-50.688 E712.90395
G1 X-72.363 Y-51.023 E712.95867
G1 X-73.232 Y-51.138 E713.01334
G1 X-74.102 Y-51.023 E713.06807
G1 X-74.912 Y-50.688 E713.12273
G1 X-75.608 Y-50.153 E713.17748
G1 X-76.143 Y-49.458 E713.23217
G1 X-76.479 Y-48.647 E713.28692
G1 X-76.593 Y-47.777 E713.34164
G1 X-76.479 Y-46.908 E713.3963
G1 X-76.143 Y-46.096 E713.4511
G1 X-75.608 Y-45.401 E713.50579
G1 X-74.912 Y-44.866 E713.56054
G1 X-74.102 Y-44.531 E713.6152
G1 X-73.232 Y-44.416 E713.66993
G1 F6600 E706.86993
G1 Z0.7
G0 F12000 X-74.66 Y-45.303
G0 X-75.252 Y-45.757
G0 X-75.706 Y-46.349
G0 X-75.992 Y-47.039
G0 X-76.019 Y-47.248
G0 X-100.874 Y-72.507
G0 X-100.809 Y-73.002
; TYPE:WALL-OUTER
G1 Z0.4
G1 F6600 E713.76993
G1 F600 X-100.201 Y-73.082 E713.80817
G1 X-99.633 Y-73.318 E713.84653
G1 X-99.146 Y-73.691 E713.88479
G1 X-98.773 Y-74.178 E713.92304
G1 X-98.537 Y-74.746 E713.9614
G1 X-98.457 Y-75.354 E713.99964
G1 X-98.537 Y-75.963 E714.03795
G1 X-98.773 Y-76.53 E714.07625
G1 X-99.146 Y-77.017 E714.11451
G1 X-99.633 Y-77.391 E714.1528
G1 X-100.201 Y-77.627 E714.19116
G1 X-100.809 Y-77.706 E714.22939
G1 X-101.418 Y-77.627 E714.26769
G1 X-101.985 Y-77.391 E714.30599
G1 X-102.472 Y-77.017 E714.34428
G1 X-102.846 Y-76.53 E714.38258
G1 X-103.082 Y-75.963 E714.42088
G1 X-103.161 Y-75.354 E714.45917
G1 X-103.082 Y-74.746 E714.49741
G1 X-102.846 Y-74.178 E714.53577
G1 X-102.472 Y-73.691 E714.57406
G1 X-101.985 Y-73.318 E714.61231
G1 X-101.418 Y-73.082 E714.65062
G1 X-100.809 Y-73.002 E714.68892
G0 F12000 X-100.874 Y-72.507
G0 X-100.809 Y-72.497
; TYPE:WALL-INNER
G1 F600 X-100.07 Y-72.595 E714.73541
G1 X-99.381 Y-72.881 E714.78193
G1 X-98.789 Y-73.334 E714.82842
G1 X-98.336 Y-73.926 E714.87491
G1 X-98.05 Y-74.615 E714.92143
G1 X-97.952 Y-75.354 E714.96792
G1 X-98.05 Y-76.094 E715.01447
G1 X-98.336 Y-76.782 E715.06094
G1 X-98.789 Y-77.374 E715.10742
G1 X-99.381 Y-77.828 E715.15395
G1 X-100.071 Y-78.114 E715.20053
G1 X-100.809 Y-78.21 E715.24694
G1 X-101.549 Y-78.114 E715.29348
G1 X-102.238 Y-77.828 E715.34
G1 X-102.829 Y-77.374 E715.38647
G1 X-103.283 Y-76.783 E715.43295
G1 X-103.569 Y-76.094 E715.47947
G1 X-103.665 Y-75.354 E715.52601
G1 X-103.569 Y-74.616 E715.57242
G1 X-103.283 Y-73.926 E715.619
G1 X-102.829 Y-73.334 E715.66552
G1 X-102.237 Y-72.881 E715.71201
G1 X-101.549 Y-72.595 E715.75848
G1 X-100.809 Y-72.497 E715.80503
G0 F12000 X-100.809 Y-71.993
G1 F600 X-99.939 Y-72.108 E715.85976
G1 X-99.129 Y-72.444 E715.91444
G1 X-98.432 Y-72.977 E715.96916
G1 X-97.899 Y-73.674 E716.02388
G1 X-97.563 Y-74.484 E716.07857
G1 X-97.448 Y-75.354 E716.1333
G1 X-97.563 Y-76.225 E716.18809
G1 X-97.899 Y-77.034 E716.24272
G1 X-98.432 Y-77.73 E716.29739
G1 X-99.128 Y-78.265 E716.35213
G1 X-99.94 Y-78.601 E716.40693
G1 X-100.809 Y-78.715 E716.46159
G1 X-101.679 Y-78.601 E716.51631
G1 X-102.49 Y-78.265 E716.57106
G1 X-103.185 Y-77.73 E716.62575
G1 X-103.72 Y-77.035 E716.68045
G1 X-104.056 Y-76.224 E716.73519
G1 X-104.17 Y-75.354 E716.78991
G1 X-104.056 Y-74.485 E716.84457
G1 X-103.72 Y-73.673 E716.89937
G1 X-103.185 Y-72.977 E716.95412
G1 X-102.489 Y-72.444 E717.00879
G1 X-101.68 Y-72.108 E717.06342
G1 X-100.809 Y-71.993 E717.11821
G1 F6600 E710.31821
G1 Z0.7
G0 F12000 X-99.381 Y-72.881
G0 X-98.789 Y-73.334
G0 X-98.336 Y-73.926
G0 X-98.05 Y-74.615
G0 X-98.02 Y-74.846
G0 X-75.418 Y-97.963
G0 X-75.353 Y-98.458
; TYPE:WALL-OUTER
G1 Z0.4
G1 F6600 E717.21821
G1 F600 X-74.745 Y-98.538 E717.25645
G1 X-74.177 Y-98.773 E717.29479
G1 X-73.691 Y-99.147 E717.33303
G1 X-73.317 Y-99.634 E717.37132
G1 X-73.081 Y-100.202 E717.40968
G1 X-73.001 Y-100.81 E717.44792
G1 X-73.081 Y-101.419 E717.48623
G1 X-73.317 Y-101.986 E717.52453
G1 X-73.691 Y-102.473 E717.56282
G1 X-74.177 Y-102.847 E717.60107
G1 X-74.745 Y-103.082 E717.6394
G1 X-75.353 Y-103.162 E717.67764
G1 X-75.962 Y-103.082 E717.71595
G1 X-76.529 Y-102.847 E717.75423
G1 X-77.016 Y-102.473 E717.79252
G1 X-77.39 Y-101.986 E717.83081
G1 X-77.626 Y-101.419 E717.86911
G1 X-77.705 Y-100.81 E717.90741
G1 X-77.626 Y-100.202 E717.94565
G1 X-77.39 Y-99.634 E717.984
G1 X-77.016 Y-99.147 E718.0223
G1 X-76.529 Y-98.773 E718.06059
G1 X-75.962 Y-98.538 E718.09887
G1 X-75.353 Y-98.458 E718.13717
G0 F12000 X-75.418 Y-97.963
G0 X-75.353 Y-97.953
; TYPE:WALL-INNER
G1 F600 X-74.615 Y-98.051 E718.1836
G1 X-73.925 Y-98.336 E718.23016
G1 X-73.334 Y-98.79 E718.27663
G1 X-72.88 Y-99.382 E718.32316
G1 X-72.594 Y-100.071 E718.36968
G1 X-72.496 Y-100.81 E718.41617
G1 X-72.594 Y-101.55 E718.46272
G1 X-72.88 Y-102.239 E718.50924
G1 X-73.334 Y-102.83 E718.55572
G1 X-73.925 Y-103.284 E718.60219
G1 X-74.615 Y-103.569 E718.64875
G1 X-75.353 Y-103.667 E718.69518
G1 X-76.093 Y-103.569 E718.74173
G1 X-76.781 Y-103.284 E718.78817
G1 X-77.373 Y-102.83 E718.8347
G1 X-77.827 Y-102.239 E718.88117
G1 X-78.113 Y-101.55 E718.9277
G1 X-78.209 Y-100.81 E718.97423
G1 X-78.113 Y-100.072 E719.02064
G1 X-77.827 Y-99.382 E719.06722
G1 X-77.373 Y-98.79 E719.11375
G1 X-76.781 Y-98.336 E719.16027
G1 X-76.093 Y-98.051 E719.20671
G1 X-75.353 Y-97.953 E719.25327
G0 F12000 X-75.353 Y-97.449
G1 F600 X-74.484 Y-97.564 E719.30793
G1 X-73.673 Y-97.899 E719.36265
G1 X-72.977 Y-98.434 E719.4174
G1 X-72.443 Y-99.129 E719.47206
G1 X-72.107 Y-99.94 E719.5268
G1 X-71.992 Y-100.81 E719.58153
G1 X-72.107 Y-101.681 E719.63632
G1 X-72.443 Y-102.491 E719.69101
G1 X-72.977 Y-103.186 E719.74566
G1 X-73.673 Y-103.721 E719.80041
G1 X-74.484 Y-104.056 E719.85513
G1 X-75.353 Y-104.171 E719.9098
G1 X-76.223 Y-104.056 E719.96452
G1 X-77.033 Y-103.721 E720.01919
G1 X-77.729 Y-103.186 E720.07393
G1 X-78.264 Y-102.491 E720.12863
G1 X-78.6 Y-101.68 E720.18338
G1 X-78.714 Y-100.81 E720.23809
G1 X-78.6 Y-99.941 E720.29275
G1 X-78.264 Y-99.129 E720.34755
G1 X-77.729 Y-98.434 E720.40225
G1 X-77.033 Y-97.899 E720.457
G1 X-76.223 Y-97.564 E720.51166
G1 X-75.353 Y-97.449 E720.56639
G1 F6600 E713.76639
G1 Z0.7
G0 F12000 X-82.237 Y-50.065
G0 X-72.482 Y-40.31
G0 X-72.482 Y40.31
G0 X-98.336 Y76.782
G0 X-98.789 Y77.374
G0 X-99.381 Y77.828
G0 X-100.071 Y78.114
G0 X-100.809 Y78.21
G0 X-100.873 Y78.2
G0 X-100.809 Y77.706
; TYPE:WALL-OUTER
G1 Z0.4
G1 F6600 E720.66639
G1 F600 X-100.201 Y77.627 E720.70462
G1 X-99.633 Y77.391 E720.74298
G1 X-99.146 Y77.017 E720.78127
G1 X-98.773 Y76.53 E720.81953
G1 X-98.537 Y75.963 E720.85783
G1 X-98.457 Y75.354 E720.89614
G1 X-98.537 Y74.746 E720.93438
G1 X-98.773 Y74.178 E720.97274
G1 X-99.146 Y73.692 E721.01094
G1 X-99.633 Y73.318 E721.04924
G1 X-100.201 Y73.082 E721.08759
G1 X-100.809 Y73.002 E721.12584
G1 X-101.418 Y73.082 E721.16414
G1 X-101.985 Y73.318 E721.20244
G1 X-102.472 Y73.692 E721.24074
G1 X-102.846 Y74.178 E721.27898
G1 X-103.082 Y74.746 E721.31734
G1 X-103.161 Y75.354 E721.35557
G1 X-103.082 Y75.963 E721.39387
G1 X-102.846 Y76.53 E721.43217
G1 X-102.472 Y77.017 E721.47046
G1 X-101.985 Y77.391 E721.50876
G1 X-101.418 Y77.627 E721.54706
G1 X-100.809 Y77.706 E721.58535
G0 F12000 X-100.873 Y78.2
G0 X-100.809 Y78.21
; TYPE:WALL-INNER
G1 F600 X-100.071 Y78.114 E721.63177
G1 X-99.381 Y77.828 E721.67835
G1 X-98.789 Y77.374 E721.72487
G1 X-98.336 Y76.782 E721.77136
G1 X-98.05 Y76.094 E721.81782
G1 X-97.952 Y75.354 E721.86437
G1 X-98.05 Y74.615 E721.91086
G1 X-98.336 Y73.926 E721.95739
G1 X-98.789 Y73.335 E722.00382
G1 X-99.381 Y72.881 E722.05035
G1 X-100.07 Y72.595 E722.09687
G1 X-100.809 Y72.497 E722.14336
G1 X-101.549 Y72.595 E722.18991
G1 X-102.238 Y72.881 E722.23644
G1 X-102.829 Y73.335 E722.28291
G1 X-103.283 Y73.925 E722.32934
G1 X-103.569 Y74.616 E722.37598
G1 X-103.665 Y75.354 E722.42239
G1 X-103.569 Y76.094 E722.46892
G1 X-103.283 Y76.783 E722.51545
G1 X-102.829 Y77.374 E722.56192
G1 X-102.238 Y77.828 E722.6084
G1 X-101.549 Y78.114 E722.65492
G1 X-100.809 Y78.21 E722.70146
G0 F12000 X-100.809 Y78.715
G1 F600 X-99.94 Y78.601 E722.75611
G1 X-99.128 Y78.265 E722.81092
G1 X-98.432 Y77.73 E722.86566
G1 X-97.899 Y77.034 E722.92033
G1 X-97.563 Y76.225 E722.97496
G1 X-97.448 Y75.354 E723.02975
G1 X-97.563 Y74.484 E723.08448
G1 X-97.899 Y73.674 E723.13917
G1 X-98.432 Y72.979 E723.19379
G1 X-99.128 Y72.444 E723.24853
G1 X-99.939 Y72.108 E723.30328
G1 X-100.809 Y71.993 E723.358
G1 X-101.68 Y72.108 E723.41279
G1 X-102.49 Y72.444 E723.46748
G1 X-103.185 Y72.978 E723.52214
G1 X-103.72 Y73.673 E723.57684
G1 X-104.056 Y74.485 E723.63164
G1 X-104.17 Y75.354 E723.6863
G1 X-104.056 Y76.224 E723.74102
G1 X-103.72 Y77.035 E723.79576
G1 X-103.185 Y77.73 E723.85046
G1 X-102.49 Y78.265 E723.90515
G1 X-101.679 Y78.601 E723.9599
G1 X-100.809 Y78.715 E724.01462
G1 F6600 E717.21462
G1 Z0.7
G0 F12000 X-77.373 Y102.83
G0 X-76.782 Y103.284
G0 X-76.093 Y103.57
G0 X-75.417 Y103.656
G0 X-75.353 Y103.162
; TYPE:WALL-OUTER
G1 Z0.4
G1 F6600 E724.11462
G1 F600 X-74.745 Y103.083 E724.15285
G1 X-74.177 Y102.847 E724.19121
G1 X-73.691 Y102.473 E724.22945
G1 X-73.317 Y101.986 E724.26775
G1 X-73.081 Y101.419 E724.30605
G1 X-73.001 Y100.81 E724.34435
G1 X-73.081 Y100.202 E724.3826
G1 X-73.317 Y99.634 E724.42095
G1 X-73.691 Y99.147 E724.45925
G1 X-74.177 Y98.774 E724.49745
G1 X-74.745 Y98.538 E724.53581
G1 X-75.353 Y98.458 E724.57405
G1 X-75.962 Y98.538 E724.61236
G1 X-76.529 Y98.774 E724.65066
G1 X-77.016 Y99.147 E724.68892
G1 X-77.39 Y99.634 E724.72721
G1 X-77.626 Y100.202 E724.76557
G1 X-77.705 Y100.81 E724.8038
G1 X-77.626 Y101.419 E724.8421
G1 X-77.39 Y101.986 E724.8804
G1 X-77.016 Y102.473 E724.91869
G1 X-76.529 Y102.847 E724.95699
G1 X-75.962 Y103.083 E724.99529
G1 X-75.353 Y103.162 E725.03358
G0 F12000 X-75.417 Y103.656
G0 X-75.353 Y103.666
; TYPE:WALL-INNER
G1 F600 X-74.615 Y103.57 E725.07999
G1 X-73.924 Y103.284 E725.12663
G1 X-73.334 Y102.83 E725.17306
G1 X-72.88 Y102.239 E725.21954
G1 X-72.594 Y101.55 E725.26606
G1 X-72.496 Y100.81 E725.31261
G1 X-72.594 Y100.071 E725.3591
G1 X-72.88 Y99.382 E725.40562
G1 X-73.334 Y98.79 E725.45215
G1 X-73.925 Y98.337 E725.49858
G1 X-74.614 Y98.051 E725.54511
G1 X-75.353 Y97.953 E725.5916
G1 X-76.093 Y98.051 E725.63815
G1 X-76.781 Y98.337 E725.68461
G1 X-77.373 Y98.79 E725.7311
G1 X-77.827 Y99.382 E725.77763
G1 X-78.113 Y100.072 E725.82421
G1 X-78.209 Y100.81 E725.87062
G1 X-78.113 Y101.55 E725.91715
G1 X-77.827 Y102.239 E725.96368
G1 X-77.373 Y102.83 E726.01015
G1 X-76.782 Y103.284 E726.05663
G1 X-76.093 Y103.57 E726.10315
G1 X-75.353 Y103.666 E726.14968
G0 F12000 X-75.353 Y104.171
G1 F600 X-74.484 Y104.057 E726.20434
G1 X-73.672 Y103.721 E726.25914
G1 X-72.977 Y103.186 E726.31384
G1 X-72.443 Y102.491 E726.3685
G1 X-72.107 Y101.681 E726.42319
G1 X-71.992 Y100.81 E726.47798
G1 X-72.107 Y99.94 E726.5327
G1 X-72.443 Y99.129 E726.58745
G1 X-72.978 Y98.433 E726.64219
G1 X-73.673 Y97.9 E726.69682
G1 X-74.483 Y97.564 E726.7515
G1 X-75.353 Y97.449 E726.80623
G1 X-76.224 Y97.564 E726.86102
G1 X-77.033 Y97.9 E726.91565
G1 X-77.729 Y98.433 E726.97032
G1 X-78.264 Y99.129 E727.02507
G1 X-78.6 Y99.941 E727.07987
G1 X-78.714 Y100.81 E727.13453
G1 X-78.6 Y101.68 E727.18924
G1 X-78.264 Y102.491 E727.24399
G1 X-77.729 Y103.186 E727.29869
G1 X-77.034 Y103.721 E727.35338
G1 X-76.223 Y104.057 E727.40813
G1 X-75.353 Y104.171 E727.46285
G0 F12000 X-76.249 Y105.5
; TYPE:BOTTOM-FILL
G1 F600 X76.251 Y105.5 E736.97317
G0 F12000 X75.751 Y106
G1 F600 X-75.749 Y106 E746.42112
G0 F12000 X-75.249 Y106.5
G1 F600 X75.251 Y106.5 E755.80672
G0 F12000 X74.751 Y107
G1 F600 X-74.749 Y107 E765.12995
G0 F12000 X-76.749 Y105
G1 F600 X76.751 Y105 E774.70263
G0 F12000 X77.251 Y104.5
G1 F600 X-77.249 Y104.5 E784.33768
G0 F12000 X-77.146 Y104
G1 F600 X-77.567 Y104 E784.36393
G0 F12000 X-78.516 Y103
G1 F600 X-78.667 Y102.75 E784.37843
G1 X-79.021 Y102.25 E784.41977
G1 X-79.749 Y102 E784.46777
G0 F12000 X-80.249 Y101.5
G1 F600 X-78.927 Y101.5 E784.55022
G0 F12000 X-78.992 Y101
G1 F600 X-80.749 Y101 E784.65979
G0 F12000 X-81.249 Y100.5
G1 F600 X-78.976 Y100.5 E784.80154
G0 F12000 X-78.911 Y100
G1 F600 X-81.749 Y100 E784.97852
G0 F12000 X-82.249 Y99.5
G1 F600 X-78.742 Y99.5 E785.19723
G0 F12000 X-78.536 Y99
G1 F600 X-82.749 Y99 E785.45996
G0 F12000 X-83.249 Y98.5
G1 F600 X-78.158 Y98.5 E785.77745
G0 F12000 X-77.656 Y98
G1 F600 X-83.749 Y98 E786.15743
G0 F12000 X-84.249 Y97.5
G1 F600 X-76.852 Y97.5 E786.61873
G0 F12000 X-73.855 Y97.5
G1 F600 X49.947 Y97.5 E794.33936
G0 F12000 X49.989 Y97
G1 F600 X-84.749 Y97 E802.74199
G0 F12000 X-85.249 Y96.5
G1 F600 X50.089 Y96.5 E811.18204
G0 F12000 X50.296 Y96
G1 F600 X-85.749 Y96 E819.66618
G0 F12000 X-86.249 Y95.5
G1 F600 X50.635 Y95.5 E828.20265
G0 F12000 X51.15 Y95
G1 F600 X-86.749 Y95 E836.80241
G0 F12000 X-87.249 Y94.5
G1 F600 X52.088 Y94.5 E845.49185
G0 F12000 X53.91 Y94.5
G1 F600 X87.251 Y94.5 E847.57108
G0 F12000 X86.751 Y95
G1 F600 X54.848 Y95 E849.56064
G0 F12000 X55.363 Y95.5
G1 F600 X86.251 Y95.5 E851.4869
G0 F12000 X85.751 Y96
G1 F600 X55.702 Y96 E853.36084
G0 F12000 X55.909 Y96.5
G1 F600 X85.251 Y96.5 E855.19069
G0 F12000 X84.751 Y97
G1 F600 X56.009 Y97 E856.98312
G0 F12000 X56.051 Y97.5
G1 F600 X73.857 Y97.5 E858.09355
G0 F12000 X73.05 Y98
G1 F600 X55.985 Y98 E859.15777
G0 F12000 X55.835 Y98.5
G1 F600 X72.549 Y98.5 E860.2001
G0 F12000 X72.174 Y99
G1 F600 X55.608 Y99 E861.2332
G0 F12000 X55.223 Y99.5
G1 F600 X71.967 Y99.5 E862.2774
G0 F12000 X71.798 Y100
G1 F600 X54.611 Y100 E863.34923
G0 F12000 X51.384 Y100
G1 F600 X-71.796 Y100 E871.03108
G0 F12000 X-71.73 Y100.5
G1 F600 X71.732 Y100.5 E879.97776
G0 F12000 X71.716 Y101
G1 F600 X-71.714 Y101 E888.92245
G0 F12000 X-71.78 Y101.5
G1 F600 X71.782 Y101.5 E897.87537
G0 F12000 X71.917 Y102
G1 F600 X-71.915 Y102 E906.84513
G0 F12000 X-72.122 Y102.5
G1 F600 X72.124 Y102.5 E915.84071
G0 F12000 X72.458 Y103
G1 F600 X-72.456 Y103 E924.87795
G0 F12000 X-72.892 Y103.5
G1 F600 X72.895 Y103.5 E933.96963
G0 F12000 X73.563 Y104
G1 F600 X-73.561 Y104 E943.14468
G0 F12000 X-72.594 Y101.55
G0 X-71.965 Y99.5
G1 F600 X50.775 Y99.5 E950.79909
G0 F12000 X50.39 Y99
G1 F600 X-72.172 Y99 E958.44239
G0 F12000 X-72.549 Y98.5
G1 F600 X50.163 Y98.5 E966.09505
G0 F12000 X50.013 Y98
G1 F600 X-73.05 Y98 E973.7696
G0 F12000 X-87.749 Y94
G1 F600 X87.751 Y94 E984.71426
G0 F12000 X88.251 Y93.5
G1 F600 X-88.249 Y93.5 E995.72129
G0 F12000 X-88.749 Y93
G1 F600 X88.751 Y93 E1006.79068
G0 F12000 X89.251 Y92.5
G1 F600 X-89.249 Y92.5 E1017.92243
G0 F12000 X-89.749 Y92
G1 F600 X-18.612 Y92 E1022.35873
G0 F12000 X-19.221 Y91.5
G1 F600 X-90.249 Y91.5 E1026.78823
G0 F12000 X-90.749 Y91
G1 F600 X-19.606 Y91 E1031.2249
G0 F12000 X-19.833 Y90.5
G1 F600 X-91.249 Y90.5 E1035.6786
G0 F12000 X-91.749 Y90
G1 F600 X-19.983 Y90 E1040.15412
G0 F12000 X-20.049 Y89.5
G1 F600 X-92.249 Y89.5 E1044.65672
G0 F12000 X-92.749 Y89
G1 F600 X-20.007 Y89 E1049.19311
G0 F12000 X-19.907 Y88.5
G1 F600 X-93.249 Y88.5 E1053.76692
G0 F12000 X-93.749 Y88
G1 F600 X-19.7 Y88 E1058.38482
G0 F12000 X-19.361 Y87.5
G1 F600 X-94.249 Y87.5 E1063.05504
G0 F12000 X-94.749 Y87
G1 F600 X-18.846 Y87 E1067.78856
G0 F12000 X-17.908 Y86.5
G1 F600 X-95.249 Y86.5 E1072.61175
G0 F12000 X-95.749 Y86
G1 F600 X95.75 Y86 E1084.55416
G0 F12000 X95.25 Y86.5
G1 F600 X-16.086 Y86.5 E1091.49738
G0 F12000 X-15.149 Y87
G1 F600 X94.75 Y87 E1098.35098
G0 F12000 X94.25 Y87.5
G1 F600 X-14.634 Y87.5 E1105.14129
G0 F12000 X-14.295 Y88
G1 F600 X93.75 Y88 E1111.87927
G0 F12000 X93.25 Y88.5
G1 F600 X-14.088 Y88.5 E1118.57317
G0 F12000 X-13.988 Y89
G1 F600 X92.75 Y89 E1125.22964
G0 F12000 X92.25 Y89.5
G1 F600 X-13.946 Y89.5 E1131.85232
G0 F12000 X-14.012 Y90
G1 F600 X91.75 Y90 E1138.44793
G0 F12000 X91.25 Y90.5
G1 F600 X-14.162 Y90.5 E1145.02171
G0 F12000 X-14.389 Y91
G1 F600 X90.751 Y91 E1151.57853
G0 F12000 X90.251 Y91.5
G1 F600 X-14.773 Y91.5 E1158.12811
G0 F12000 X-15.385 Y92
G1 F600 X89.751 Y92 E1164.68468
G0 F12000 X84.251 Y97.5
G1 F600 X76.854 Y97.5 E1165.14598
G0 F12000 X77.658 Y98
G1 F600 X83.751 Y98 E1165.52596
G0 F12000 X83.251 Y98.5
G1 F600 X78.16 Y98.5 E1165.84345
G0 F12000 X78.538 Y99
G1 F600 X82.751 Y99 E1166.10618
G0 F12000 X82.251 Y99.5
G1 F600 X78.744 Y99.5 E1166.32489
G0 F12000 X78.913 Y100
G1 F600 X81.751 Y100 E1166.50187
G0 F12000 X81.251 Y100.5
G1 F600 X78.978 Y100.5 E1166.64362
G0 F12000 X78.994 Y101
G1 F600 X80.751 Y101 E1166.75319
G0 F12000 X80.251 Y101.5
G1 F600 X78.929 Y101.5 E1166.83564
G0 F12000 X78.795 Y102
G1 F600 X79.751 Y102 E1166.89526
G0 F12000 X79.251 Y102.5
G1 F600 X78.553 Y102.75 E1166.93659
G1 X78.751 Y103 E1166.95648
G0 F12000 X77.569 Y104
G1 F600 X77.148 Y104 E1166.98274
G0 F12000 X96.25 Y85.5
G1 F600 X-96.249 Y85.5 E1178.9875
G0 F12000 X-96.749 Y85
G1 F600 X96.75 Y85 E1191.05463
G0 F12000 X97.25 Y84.5
G1 F600 X-97.249 Y84.5 E1203.18413
G0 F12000 X-97.749 Y84
G1 F600 X97.75 Y84 E1215.37598
G0 F12000 X98.25 Y83.5
G1 F600 X-98.249 Y83.5 E1227.6302
G0 F12000 X-98.749 Y83
G1 F600 X98.75 Y83 E1239.94678
G0 F12000 X99.25 Y82.5
G1 F600 X-99.249 Y82.5 E1252.32573
G0 F12000 X-99.749 Y82
G1 F600 X99.75 Y82 E1264.76703
G0 F12000 X100.25 Y81.5
G1 F600 X-100.249 Y81.5 E1277.2707
G0 F12000 X-100.749 Y81
G1 F600 X100.75 Y81 E1289.83674
G0 F12000 X101.25 Y80.5
G1 F600 X-101.249 Y80.5 E1302.46513
G0 F12000 X-101.749 Y80
G1 F600 X101.75 Y80 E1315.15589
G0 F12000 X102.25 Y79.5
G1 F600 X-102.249 Y79.5 E1327.90901
G0 F12000 X-102.749 Y79
G1 F600 X-100.946 Y79 E1328.02145
G0 F12000 X-100.672 Y79
G1 F600 X100.674 Y79 E1340.57794
G0 F12000 X100.948 Y79
G1 F600 X102.75 Y79 E1340.69032
G0 F12000 X102.68 Y78.5
G1 F600 X102.981 Y78.5 E1340.70909
G0 F12000 X103.918 Y77.5
G1 F600 X104.155 Y77.25 E1340.7298
G1 X104.509 Y76.75 E1340.77274
G1 X105.25 Y76.5 E1340.82151
G0 F12000 X105.75 Y76
G1 F600 X104.39 Y76 E1340.90633
G0 F12000 X104.456 Y75.5
G1 F600 X106.25 Y75.5 E1341.0182
G0 F12000 X106.042 Y75
G1 F600 X104.428 Y75 E1341.11886
G0 F12000 X104.362 Y74.5
G1 F600 X105.542 Y74.5 E1341.19245
G0 F12000 X105.042 Y74
G1 F600 X104.074 Y73.75 E1341.24607
G1 X104.542 Y73.5 E1341.27915
G0 F12000 X103.042 Y72
G1 F600 X102.204 Y72 E1341.33141
G0 F12000 X102.542 Y71.5
G1 F600 X50.991 Y71.5 E1344.54628
G0 F12000 X51.197 Y72
G1 F600 X99.418 Y72 E1347.55347
G0 F12000 X98.565 Y72.5
G1 F600 X51.344 Y72.5 E1350.4983
G0 F12000 X51.41 Y73
G1 F600 X98.04 Y73 E1353.40628
G0 F12000 X97.655 Y73.5
G1 F600 X51.406 Y73.5 E1356.29049
G0 F12000 X51.34 Y74
G1 F600 X97.44 Y74 E1359.16542
G0 F12000 X97.26 Y74.5
G1 F600 X51.184 Y74.5 E1362.03884
G0 F12000 X50.977 Y75
G1 F600 X97.194 Y75 E1364.92106
G0 F12000 X97.166 Y75.5
G1 F600 X50.615 Y75.5 E1367.82411
G0 F12000 X50.138 Y76
G1 F600 X97.232 Y76 E1370.76102
G0 F12000 X97.354 Y76.5
G1 F600 X49.384 Y76.5 E1373.75256
G0 F12000 X46.171 Y76.5
G1 F600 X-46.169 Y76.5 E1379.51114
G0 F12000 X-45.415 Y76
G1 F600 X45.416 Y76 E1385.17561
G0 F12000 X44.939 Y75.5
G1 F600 X-44.937 Y75.5 E1390.78052
G0 F12000 X-44.576 Y75
G1 F600 X44.577 Y75 E1396.34035
G0 F12000 X44.37 Y74.5
G1 F600 X-44.369 Y74.5 E1401.87436
G0 F12000 X-44.212 Y74
G1 F600 X44.214 Y74 E1407.38885
G0 F12000 X44.148 Y73.5
G1 F600 X-44.146 Y73.5 E1412.89511
G0 F12000 X-44.142 Y73
G1 F600 X44.144 Y73 E1418.40086
G0 F12000 X44.21 Y72.5
G1 F600 X-44.208 Y72.5 E1423.91485
G0 F12000 X-44.355 Y72
G1 F600 X44.357 Y72 E1429.44718
G0 F12000 X44.563 Y71.5
G1 F600 X-44.563 Y71.5 E1435.00532
G0 F12000 X-44.91 Y71
G1 F600 X44.913 Y71 E1440.60693
G0 F12000 X45.373 Y70.5
G1 F600 X-45.37 Y70.5 E1446.26591
G0 F12000 X-46.091 Y70
G1 F600 X46.093 Y70 E1452.01476
G0 F12000 X49.461 Y70
G1 F600 X101.042 Y70 E1455.23149
G0 F12000 X101.542 Y70.5
G1 F600 X50.181 Y70.5 E1458.43451
G0 F12000 X50.641 Y71
G1 F600 X102.042 Y71 E1461.64002
G0 F12000 X100.542 Y69.5
G1 F600 X-100.541 Y69.5 E1474.18011
G0 F12000 X-101.041 Y70
G1 F600 X-49.459 Y70 E1477.3969
G0 F12000 X-50.179 Y70.5
G1 F600 X-101.541 Y70.5 E1480.59998
G0 F12000 X-102.041 Y71
G1 F600 X-50.64 Y71 E1483.80548
G0 F12000 X-50.99 Y71.5
G1 F600 X-102.541 Y71.5 E1487.02035
G0 F12000 X-102.202 Y72
G1 F600 X-103.041 Y72 E1487.07267
G0 F12000 X-103.966 Y73.5
G1 F600 X-104.36 Y73.75 E1487.10852
G1 X-105.041 Y74 E1487.15376
G0 F12000 X-105.541 Y74.5
G1 F600 X-104.361 Y74.5 E1487.22735
G0 F12000 X-104.427 Y75
G1 F600 X-106.041 Y75 E1487.328
G0 F12000 X-106.249 Y75.5
G1 F600 X-104.454 Y75.5 E1487.43994
G0 F12000 X-104.388 Y76
G1 F600 X-105.749 Y76 E1487.52482
G0 F12000 X-105.249 Y76.5
G1 F600 X-104.267 Y76.5 E1487.58606
G0 F12000 X-104.06 Y77
G1 F600 X-104.499 Y77.25 E1487.62903
G1 X-103.921 Y77.5 E1487.66831
G0 F12000 X-102.985 Y78.5
G1 F600 X-102.677 Y78.5 E1487.68751
G0 F12000 X-98.942 Y78.5
G1 F600 X98.943 Y78.5 E1500.02817
G0 F12000 X98.293 Y78
G1 F600 X-98.292 Y78 E1512.28775
G0 F12000 X-97.878 Y77.5
G1 F600 X97.88 Y77.5 E1524.49576
G0 F12000 X97.561 Y77
G1 F600 X-97.56 Y77 E1536.66404
G0 F12000 X-97.353 Y76.5
G1 F600 X-49.382 Y76.5 E1539.65564
G0 F12000 X-50.137 Y76
G1 F600 X-97.23 Y76 E1542.59249
G0 F12000 X-97.164 Y75.5
G1 F600 X-50.615 Y75.5 E1545.49542
G0 F12000 X-50.976 Y75
G1 F600 X-97.192 Y75 E1548.37757
G0 F12000 X-97.258 Y74.5
G1 F600 X-51.183 Y74.5 E1551.25094
G0 F12000 X-51.339 Y74
G1 F600 X-97.439 Y74 E1554.12586
G0 F12000 X-97.655 Y73.5
G1 F600 X-51.404 Y73.5 E1557.0102
G0 F12000 X-51.408 Y73
G1 F600 X-98.038 Y73 E1559.91817
G0 F12000 X-98.564 Y72.5
G1 F600 X-51.343 Y72.5 E1562.86301
G0 F12000 X-51.196 Y72
G1 F600 X-99.416 Y72 E1565.87014
G0 F12000 X-100.041 Y69
G1 F600 X100.042 Y69 E1578.34786
G0 F12000 X99.542 Y68.5
G1 F600 X-99.541 Y68.5 E1590.76323
G0 F12000 X-99.041 Y68
G1 F600 X99.042 Y68 E1603.11623
G0 F12000 X98.542 Y67.5
G1 F600 X-98.541 Y67.5 E1615.40687
G0 F12000 X-98.041 Y67
G1 F600 X98.042 Y67 E1627.63514
G0 F12000 X97.542 Y66.5
G1 F600 X-97.541 Y66.5 E1639.80106
G0 F12000 X-97.041 Y66
G1 F600 X97.042 Y66 E1651.90461
G0 F12000 X96.542 Y65.499
G1 F600 X-96.541 Y65.5 E1663.94579
G0 F12000 X-96.041 Y65
G1 F600 X96.042 Y64.999 E1675.92462
G0 F12000 X95.542 Y64.499
G1 F600 X-95.541 Y64.5 E1687.84108
G0 F12000 X-95.041 Y64
G1 F600 X95.042 Y63.999 E1699.69518
G0 F12000 X94.542 Y63.499
G1 F600 X-94.541 Y63.5 E1711.48692
G0 F12000 X-94.041 Y63
G1 F600 X94.042 Y62.999 E1723.21629
G0 F12000 X93.542 Y62.499
G1 F600 X-93.541 Y62.5 E1734.8833
G0 F12000 X-93.041 Y62
G1 F600 X93.042 Y61.999 E1746.48795
G0 F12000 X92.542 Y61.499
G1 F600 X-92.541 Y61.5 E1758.03024
G0 F12000 X-92.041 Y61
G1 F600 X92.042 Y60.999 E1769.51016
G0 F12000 X91.542 Y60.499
G1 F600 X-91.541 Y60.5 E1780.92772
G0 F12000 X-91.041 Y60
G1 F600 X91.042 Y59.999 E1792.28292
G0 F12000 X90.542 Y59.499
G1 F600 X-90.541 Y59.5 E1803.57575
G0 F12000 X-90.041 Y59
G1 F600 X90.042 Y58.999 E1814.80622
G0 F12000 X89.543 Y58.499
G1 F600 X-89.542 Y58.5 E1825.97445
G0 F12000 X-89.042 Y58
G1 F600 X89.043 Y57.999 E1837.08033
G0 F12000 X88.543 Y57.499
G1 F600 X-88.542 Y57.5 E1848.12383
G0 F12000 X-88.042 Y57
G1 F600 X88.043 Y56.999 E1859.10498
G0 F12000 X87.543 Y56.499
G1 F600 X-87.542 Y56.5 E1870.02376
G0 F12000 X-87.042 Y56
G1 F600 X87.043 Y55.999 E1880.88018
G0 F12000 X86.543 Y55.499
G1 F600 X-86.542 Y55.5 E1891.67424
G0 F12000 X-86.042 Y55
G1 F600 X86.043 Y54.999 E1902.40593
G0 F12000 X85.543 Y54.499
G1 F600 X-85.542 Y54.5 E1913.07527
G0 F12000 X-85.042 Y54
G1 F600 X85.043 Y53.999 E1923.68223
G0 F12000 X84.543 Y53.499
G1 F600 X-84.542 Y53.5 E1934.22684
G0 F12000 X-84.042 Y53
G1 F600 X84.043 Y52.999 E1944.70908
G0 F12000 X83.543 Y52.499
G1 F600 X-83.542 Y52.5 E1955.12896
G0 F12000 X-83.042 Y52
G1 F600 X-18.612 Y52 E1959.147
G0 F12000 X-19.221 Y51.5
G1 F600 X-82.542 Y51.5 E1963.09587
G0 F12000 X-82.042 Y51
G1 F600 X-74.943 Y51 E1963.53858
G0 F12000 X-75.65 Y50.5
G1 F600 X-81.542 Y50.5 E1963.90602
G0 F12000 X-81.042 Y50
G1 F600 X-76.105 Y50 E1964.21391
G0 F12000 X-76.451 Y49.5
G1 F600 X-80.542 Y49.5 E1964.46903
G0 F12000 X-80.042 Y49
G1 F600 X-76.657 Y49 E1964.68013
G0 F12000 X-76.801 Y48.5
G1 F600 X-79.542 Y48.5 E1964.85107
G0 F12000 X-79.042 Y48
G1 F600 X-76.867 Y48 E1964.98671
G0 F12000 X-76.86 Y47.5
G1 F600 X-78.542 Y47.5 E1965.0916
G0 F12000 X-78.042 Y47
G1 F600 X-76.794 Y47 E1965.16943
G0 F12000 X-76.636 Y46.5
G1 F600 X-77.292 Y46.25 E1965.22591
G1 X-76.457 Y45.75 E1965.26414
G1 X-76.542 Y45.5 E1965.28061
G0 F12000 X-75.54 Y44.5
G1 F600 X-74.812 Y44.5 E1965.32601
G0 F12000 X-75.042 Y44
G1 F600 X51.385 Y44 E1973.21035
G0 F12000 X50.776 Y43.5
G1 F600 X-74.542 Y43.5 E1981.02552
G0 F12000 X-74.042 Y43
G1 F600 X50.391 Y43 E1988.78551
G0 F12000 X50.164 Y42.5
G1 F600 X-73.541 Y42.5 E1996.50009
G0 F12000 X-73.041 Y42
G1 F600 X50.014 Y42 E2004.17414
G0 F12000 X49.948 Y41.5
G1 F600 X-72.541 Y41.5 E2011.81289
G0 F12000 X-72.041 Y41
G1 F600 X49.99 Y41 E2019.42308
G0 F12000 X50.09 Y40.5
G1 F600 X-71.682 Y40.5 E2027.01712
G0 F12000 X-71.682 Y40
G1 F600 X50.297 Y40 E2034.62406
G0 F12000 X50.636 Y39.5
G1 F600 X-71.682 Y39.5 E2042.25215
G0 F12000 X-71.682 Y39
G1 F600 X51.151 Y39 E2049.91236
G0 F12000 X52.089 Y38.5
G1 F600 X-71.682 Y38.5 E2057.63106
G0 F12000 X-71.682 Y38
G1 F600 X71.684 Y37.999 E2066.57175
G0 F12000 X71.684 Y38.499
G1 F600 X53.911 Y38.5 E2067.68013
G0 F12000 X54.849 Y39
G1 F600 X71.684 Y38.999 E2068.73
G0 F12000 X71.684 Y39.499
G1 F600 X55.364 Y39.5 E2069.74776
G0 F12000 X55.703 Y40
G1 F600 X71.684 Y39.999 E2070.74438
G0 F12000 X71.684 Y40.499
G1 F600 X55.91 Y40.5 E2071.72809
G0 F12000 X56.01 Y41
G1 F600 X72.042 Y40.999 E2072.72789
G0 F12000 X72.542 Y41.499
G1 F600 X56.052 Y41.5 E2073.75625
G0 F12000 X55.986 Y42
G1 F600 X73.042 Y41.999 E2074.81991
G0 F12000 X73.542 Y42.499
G1 F600 X55.836 Y42.5 E2075.92411
G0 F12000 X55.609 Y43
G1 F600 X74.043 Y42.999 E2077.0737
G0 F12000 X74.543 Y43.499
G1 F600 X55.224 Y43.5 E2078.27849
G0 F12000 X54.612 Y44
G1 F600 X75.043 Y43.999 E2079.55262
G0 F12000 X74.812 Y44.499
G1 F600 X75.541 Y44.499 E2079.59809
G0 F12000 X76.483 Y45.499
G1 F600 X76.486 Y45.749 E2079.60183
G1 X76.839 Y46.249 E2079.64
G1 X77.543 Y46.499 E2079.68659
G0 F12000 X78.043 Y46.999
G1 F600 X76.795 Y46.999 E2079.76442
G0 F12000 X76.861 Y47.499
G1 F600 X78.543 Y47.499 E2079.86931
G0 F12000 X79.043 Y47.999
G1 F600 X76.869 Y47.999 E2080.00489
G0 F12000 X76.803 Y48.499
G1 F600 X79.543 Y48.499 E2080.17576
G0 F12000 X80.043 Y48.999
G1 F600 X76.659 Y48.999 E2080.3868
G0 F12000 X76.452 Y49.499
G1 F600 X80.543 Y49.499 E2080.64192
G0 F12000 X81.043 Y49.999
G1 F600 X76.106 Y49.999 E2080.94981
G0 F12000 X75.652 Y50.499
G1 F600 X81.543 Y50.499 E2081.31719
G0 F12000 X82.043 Y50.999
G1 F600 X74.946 Y50.999 E2081.75977
G0 F12000 X71.521 Y50.999
G1 F600 X-14.39 Y51 E2087.11742
G0 F12000 X-14.162 Y50.5
G1 F600 X70.815 Y50.499 E2092.41682
G0 F12000 X70.36 Y49.999
G1 F600 X-14.012 Y50 E2097.67849
G0 F12000 X-13.946 Y49.5
G1 F600 X70.015 Y49.499 E2102.91453
G0 F12000 X69.808 Y48.999
G1 F600 X-13.988 Y49 E2108.14028
G0 F12000 X-14.088 Y48.5
G1 F600 X69.665 Y48.499 E2113.36335
G0 F12000 X69.599 Y47.999
G1 F600 X-14.295 Y48 E2118.59521
G0 F12000 X-14.634 Y47.5
G1 F600 X69.606 Y47.499 E2123.84865
G0 F12000 X69.672 Y46.999
G1 F600 X-15.149 Y47 E2129.13832
G0 F12000 X-16.086 Y46.5
G1 F600 X69.831 Y46.499 E2134.49634
G0 F12000 X70.038 Y45.999
G1 F600 X-70.037 Y46 E2143.2318
G0 F12000 X-69.83 Y46.5
G1 F600 X-17.908 Y46.5 E2146.4698
G0 F12000 X-18.846 Y47
G1 F600 X-69.671 Y47 E2149.63939
G0 F12000 X-69.604 Y47.5
G1 F600 X-19.361 Y47.5 E2152.77268
G0 F12000 X-19.7 Y48
G1 F600 X-69.598 Y48 E2155.88445
G0 F12000 X-69.664 Y48.5
G1 F600 X-19.907 Y48.5 E2158.98744
G0 F12000 X-20.007 Y49
G1 F600 X-69.808 Y49 E2162.09317
G0 F12000 X-70.016 Y49.5
G1 F600 X-20.049 Y49.5 E2165.20924
G0 F12000 X-19.983 Y50
G1 F600 X-70.361 Y50 E2168.35096
G0 F12000 X-70.816 Y50.5
G1 F600 X-19.833 Y50.5 E2171.5304
G0 F12000 X-19.605 Y51
G1 F600 X-71.522 Y51 E2174.76808
G0 F12000 X-70.759 Y49.205
G0 X-70.473 Y48.517
G0 X-70.375 Y47.777
G0 X-70.4 Y45.5
G1 F600 X70.403 Y45.499 E2183.54895
G0 F12000 X70.888 Y44.999
G1 F600 X-70.883 Y45 E2192.39018
G0 F12000 X-71.652 Y44.5
G1 F600 X71.656 Y44.499 E2201.32726
G0 F12000 X71.684 Y37.499
G1 F600 X-71.682 Y37.5 E2210.26796
G0 F12000 X-71.682 Y37
G1 F600 X71.684 Y36.999 E2219.20865
G0 F12000 X71.684 Y36.499
G1 F600 X-71.682 Y36.5 E2228.14935
G0 F12000 X-71.682 Y36
G1 F600 X71.684 Y35.999 E2237.09005
G0 F12000 X71.684 Y35.499
G1 F600 X-71.682 Y35.5 E2246.03075
G0 F12000 X-71.682 Y35
G1 F600 X71.684 Y34.999 E2254.97145
G0 F12000 X71.684 Y34.499
G1 F600 X-71.682 Y34.5 E2263.91215
G0 F12000 X-71.682 Y34
G1 F600 X71.684 Y33.999 E2272.85284
G0 F12000 X71.684 Y33.499
G1 F600 X-71.682 Y33.5 E2281.79354
G0 F12000 X-71.682 Y33
G1 F600 X71.684 Y32.999 E2290.73424
G0 F12000 X71.684 Y32.499
G1 F600 X-71.682 Y32.5 E2299.67494
G0 F12000 X-71.682 Y32
G1 F600 X71.684 Y31.999 E2308.61564
G0 F12000 X71.684 Y31.499
G1 F600 X-71.682 Y31.5 E2317.55634
G0 F12000 X-71.682 Y31
G1 F600 X71.684 Y30.999 E2326.49704
G0 F12000 X71.684 Y30.499
G1 F600 X-71.682 Y30.5 E2335.43773
G0 F12000 X-71.682 Y30
G1 F600 X71.684 Y29.999 E2344.37843
G0 F12000 X71.684 Y29.499
G1 F600 X-71.682 Y29.5 E2353.31913
G0 F12000 X-71.682 Y29
G1 F600 X71.684 Y28.999 E2362.25983
G0 F12000 X71.684 Y28.499
G1 F600 X-71.682 Y28.5 E2371.20053
G0 F12000 X-71.682 Y28
G1 F600 X71.684 Y27.999 E2380.14123
G0 F12000 X71.684 Y27.499
G1 F600 X-71.682 Y27.5 E2389.08193
G0 F12000 X-71.682 Y27
G1 F600 X71.684 Y26.999 E2398.02262
G0 F12000 X71.684 Y26.499
G1 F600 X-71.682 Y26.5 E2406.96332
G0 F12000 X-71.682 Y26
G1 F600 X71.684 Y25.999 E2415.90402
G0 F12000 X71.684 Y25.499
G1 F600 X-71.682 Y25.5 E2424.84472
G0 F12000 X-71.682 Y25
G1 F600 X71.684 Y24.999 E2433.78542
G0 F12000 X71.684 Y24.499
G1 F600 X-71.682 Y24.5 E2442.72612
G0 F12000 X-71.682 Y24
G1 F600 X71.684 Y23.999 E2451.66681
G0 F12000 X71.684 Y23.499
G1 F600 X-71.682 Y23.5 E2460.60751
G0 F12000 X-71.682 Y23
G1 F600 X71.684 Y22.999 E2469.54821
G0 F12000 X71.684 Y22.499
G1 F600 X-71.682 Y22.5 E2478.48891
G0 F12000 X-71.682 Y22
G1 F600 X71.684 Y21.999 E2487.42961
G0 F12000 X71.684 Y21.499
G1 F600 X-71.682 Y21.5 E2496.37031
G0 F12000 X-71.682 Y21
G1 F600 X71.684 Y20.999 E2505.31101
G0 F12000 X71.684 Y20.499
G1 F600 X-71.682 Y20.5 E2514.2517
G0 F12000 X-71.682 Y20
G1 F600 X71.684 Y19.999 E2523.1924
G0 F12000 X71.684 Y19.499
G1 F600 X-71.682 Y19.5 E2532.1331
G0 F12000 X-71.682 Y19
G1 F600 X71.684 Y18.999 E2541.0738
G0 F12000 X71.684 Y18.499
G1 F600 X-71.682 Y18.5 E2550.0145
G0 F12000 X-71.682 Y18
G1 F600 X71.684 Y17.999 E2558.9552
G0 F12000 X71.684 Y17.499
G1 F600 X-71.682 Y17.5 E2567.89589
G0 F12000 X-71.682 Y17
G1 F600 X71.684 Y16.999 E2576.83659
G0 F12000 X71.684 Y16.499
G1 F600 X-71.682 Y16.5 E2585.77729
G0 F12000 X-71.682 Y16
G1 F600 X71.684 Y15.999 E2594.71799
G0 F12000 X71.684 Y15.499
G1 F600 X-71.682 Y15.5 E2603.65869
G0 F12000 X-71.682 Y15
G1 F600 X71.684 Y14.999 E2612.59939
G0 F12000 X71.684 Y14.499
G1 F600 X-71.682 Y14.5 E2621.54009
G0 F12000 X-71.682 Y14
G1 F600 X71.684 Y13.999 E2630.48078
G0 F12000 X71.684 Y13.499
G1 F600 X-71.682 Y13.5 E2639.42148
G0 F12000 X-71.682 Y13
G1 F600 X71.684 Y12.999 E2648.36218
G0 F12000 X71.684 Y12.499
G1 F600 X-71.682 Y12.5 E2657.30288
G0 F12000 X-71.682 Y12
G1 F600 X71.684 Y11.999 E2666.24358
G0 F12000 X71.684 Y11.499
G1 F600 X-71.682 Y11.5 E2675.18428
G0 F12000 X-71.682 Y11
G1 F600 X71.684 Y10.999 E2684.12497
G0 F12000 X71.684 Y10.499
G1 F600 X-71.682 Y10.5 E2693.06567
G0 F12000 X-71.682 Y10
G1 F600 X71.684 Y9.999 E2702.00637
G0 F12000 X71.684 Y9.499
G1 F600 X-71.682 Y9.5 E2710.94707
G0 F12000 X-71.682 Y9
G1 F600 X71.684 Y8.999 E2719.88777
G0 F12000 X71.684 Y8.499
G1 F600 X-71.682 Y8.5 E2728.82847
G0 F12000 X-71.682 Y8
G1 F600 X71.684 Y7.999 E2737.76917
G0 F12000 X71.684 Y7.499
G1 F600 X-71.682 Y7.5 E2746.70986
G0 F12000 X-71.682 Y7
G1 F600 X71.684 Y6.999 E2755.65056
G0 F12000 X71.684 Y6.499
G1 F600 X-71.682 Y6.5 E2764.59126
G0 F12000 X-71.682 Y6
G1 F600 X71.684 Y5.999 E2773.53196
G0 F12000 X71.684 Y5.499
G1 F600 X-71.682 Y5.5 E2782.47266
G0 F12000 X-71.682 Y5
G1 F600 X71.684 Y4.999 E2791.41336
G0 F12000 X71.684 Y4.499
G1 F600 X-71.682 Y4.5 E2800.35405
G0 F12000 X-71.682 Y4
G1 F600 X71.684 Y3.999 E2809.29475
G0 F12000 X71.684 Y3.499
G1 F600 X-71.682 Y3.5 E2818.23545
G0 F12000 X-71.682 Y3
G1 F600 X71.684 Y2.999 E2827.17615
G0 F12000 X71.684 Y2.499
G1 F600 X-71.682 Y2.5 E2836.11685
G0 F12000 X-71.682 Y2
G1 F600 X71.684 Y1.999 E2845.05755
G0 F12000 X71.684 Y1.499
G1 F600 X-71.682 Y1.5 E2853.99825
G0 F12000 X-71.682 Y1
G1 F600 X71.684 Y0.999 E2862.93894
G0 F12000 X71.684 Y0.499
G1 F600 X-71.682 Y0.5 E2871.87964
G0 F12000 X-71.682 Y0
G1 F600 X71.684 Y0 E2880.82034
G0 F12000 X71.684 Y-0.5
G1 F600 X-71.682 Y-0.499 E2889.76104
G0 F12000 X-71.682 Y-0.999
G1 F600 X71.684 Y-1 E2898.70174
G0 F12000 X71.684 Y-1.5
G1 F600 X-71.682 Y-1.499 E2907.64244
G0 F12000 X-71.682 Y-1.999
G1 F600 X71.684 Y-2 E2916.58314
G0 F12000 X71.684 Y-2.5
G1 F600 X-71.682 Y-2.499 E2925.52383
G0 F12000 X-71.682 Y-2.999
G1 F600 X71.684 Y-3 E2934.46453
G0 F12000 X71.684 Y-3.5
G1 F600 X-71.682 Y-3.499 E2943.40523
G0 F12000 X-71.682 Y-3.999
G1 F600 X71.684 Y-4 E2952.34593
G0 F12000 X71.684 Y-4.5
G1 F600 X-71.682 Y-4.499 E2961.28663
G0 F12000 X-71.682 Y-4.999
G1 F600 X71.684 Y-5 E2970.22733
G0 F12000 X71.684 Y-5.5
G1 F600 X-71.682 Y-5.499 E2979.16802
G0 F12000 X-71.682 Y-5.999
G1 F600 X71.684 Y-6 E2988.10872
G0 F12000 X71.684 Y-6.5
G1 F600 X-71.682 Y-6.499 E2997.04942
G0 F12000 X-71.682 Y-6.999
G1 F600 X71.684 Y-7 E3005.99012
G0 F12000 X71.684 Y-7.5
G1 F600 X-71.682 Y-7.499 E3014.93082
G0 F12000 X-71.682 Y-7.999
G1 F600 X71.684 Y-8 E3023.87152
G0 F12000 X71.684 Y-8.5
G1 F600 X-71.682 Y-8.499 E3032.81222
G0 F12000 X-71.682 Y-8.999
G1 F600 X71.684 Y-9 E3041.75291
G0 F12000 X71.684 Y-9.5
G1 F600 X-71.682 Y-9.499 E3050.69361
G0 F12000 X-71.682 Y-9.999
G1 F600 X71.684 Y-10 E3059.63431
G0 F12000 X71.684 Y-10.5
G1 F600 X-71.682 Y-10.499 E3068.57501
G0 F12000 X-71.682 Y-10.999
G1 F600 X71.684 Y-11 E3077.51571
G0 F12000 X71.684 Y-11.5
G1 F600 X-71.682 Y-11.499 E3086.45641
G0 F12000 X-71.682 Y-11.999
G1 F600 X71.684 Y-12 E3095.3971
G0 F12000 X71.684 Y-12.5
G1 F600 X-71.682 Y-12.499 E3104.3378
G0 F12000 X-71.682 Y-12.999
G1 F600 X71.684 Y-13 E3113.2785
G0 F12000 X71.684 Y-13.5
G1 F600 X-71.682 Y-13.499 E3122.2192
G0 F12000 X-71.682 Y-13.999
G1 F600 X71.684 Y-14 E3131.1599
G0 F12000 X71.684 Y-14.5
G1 F600 X-71.682 Y-14.499 E3140.1006
G0 F12000 X-71.682 Y-14.999
G1 F600 X71.684 Y-15 E3149.0413
G0 F12000 X71.684 Y-15.5
G1 F600 X-71.682 Y-15.499 E3157.98199
G0 F12000 X-71.682 Y-15.999
G1 F600 X71.684 Y-16 E3166.92269
G0 F12000 X71.684 Y-16.5
G1 F600 X-71.682 Y-16.499 E3175.86339
G0 F12000 X-71.682 Y-16.999
G1 F600 X71.684 Y-17 E3184.80409
G0 F12000 X71.684 Y-17.5
G1 F600 X-71.682 Y-17.499 E3193.74479
G0 F12000 X-71.682 Y-17.999
G1 F600 X71.684 Y-18 E3202.68549
G0 F12000 X71.684 Y-18.5
G1 F600 X-71.682 Y-18.499 E3211.62618
G0 F12000 X-71.682 Y-18.999
G1 F600 X71.684 Y-19 E3220.56688
G0 F12000 X71.684 Y-19.5
G1 F600 X-71.682 Y-19.499 E3229.50758
G0 F12000 X-71.682 Y-19.999
G1 F600 X71.684 Y-20 E3238.44828
G0 F12000 X71.684 Y-20.5
G1 F600 X-71.682 Y-20.499 E3247.38898
G0 F12000 X-71.682 Y-20.999
G1 F600 X71.684 Y-21 E3256.32968
G0 F12000 X71.684 Y-21.5
G1 F600 X-71.682 Y-21.499 E3265.27038
G0 F12000 X-71.682 Y-21.999
G1 F600 X71.684 Y-22 E3274.21107
G0 F12000 X71.684 Y-22.5
G1 F600 X-71.682 Y-22.499 E3283.15177
G0 F12000 X-71.682 Y-22.999
G1 F600 X71.684 Y-23 E3292.09247
G0 F12000 X71.684 Y-23.5
G1 F600 X-71.682 Y-23.499 E3301.03317
G0 F12000 X-71.682 Y-23.999
G1 F600 X71.684 Y-24 E3309.97387
G0 F12000 X71.684 Y-24.5
G1 F600 X-71.682 Y-24.499 E3318.91457
G0 F12000 X-71.682 Y-24.999
G1 F600 X71.684 Y-25 E3327.85527
G0 F12000 X71.684 Y-25.5
G1 F600 X-71.682 Y-25.499 E3336.79596
G0 F12000 X-71.682 Y-25.999
G1 F600 X71.684 Y-26 E3345.73666
G0 F12000 X71.684 Y-26.5
G1 F600 X-71.682 Y-26.499 E3354.67736
G0 F12000 X-71.682 Y-26.999
G1 F600 X71.684 Y-27 E3363.61806
G0 F12000 X71.684 Y-27.5
G1 F600 X-71.682 Y-27.499 E3372.55876
G0 F12000 X-71.682 Y-27.999
G1 F600 X71.684 Y-28 E3381.49946
G0 F12000 X71.684 Y-28.5
G1 F600 X-71.682 Y-28.499 E3390.44015
G0 F12000 X-71.682 Y-28.999
G1 F600 X71.684 Y-29 E3399.38085
G0 F12000 X71.684 Y-29.5
G1 F600 X-71.682 Y-29.499 E3408.32155
G0 F12000 X-71.682 Y-29.999
G1 F600 X71.684 Y-30 E3417.26225
G0 F12000 X71.684 Y-30.5
G1 F600 X-71.682 Y-30.499 E3426.20295
G0 F12000 X-71.682 Y-30.999
G1 F600 X71.684 Y-31 E3435.14365
G0 F12000 X71.684 Y-31.5
G1 F600 X-71.682 Y-31.499 E3444.08435
G0 F12000 X-71.682 Y-31.999
G1 F600 X71.684 Y-32 E3453.02504
G0 F12000 X71.684 Y-32.5
G1 F600 X-71.682 Y-32.499 E3461.96574
G0 F12000 X-71.682 Y-32.999
G1 F600 X71.684 Y-33 E3470.90644
G0 F12000 X71.684 Y-33.5
G1 F600 X-71.682 Y-33.499 E3479.84714
G0 F12000 X-71.682 Y-33.999
G1 F600 X71.684 Y-34 E3488.78784
G0 F12000 X71.684 Y-34.5
G1 F600 X-71.682 Y-34.499 E3497.72854
G0 F12000 X-71.682 Y-34.999
G1 F600 X71.684 Y-35 E3506.66923
G0 F12000 X71.684 Y-35.5
G1 F600 X-71.682 Y-35.499 E3515.60993
G0 F12000 X-71.682 Y-35.999
G1 F600 X71.684 Y-36 E3524.55063
G0 F12000 X71.684 Y-36.5
G1 F600 X-71.682 Y-36.499 E3533.49133
G0 F12000 X-71.682 Y-36.999
G1 F600 X71.684 Y-37 E3542.43203
G0 F12000 X71.684 Y-37.5
G1 F600 X-71.682 Y-37.499 E3551.37273
G0 F12000 X-71.682 Y-37.999
G1 F600 X71.684 Y-38 E3560.31343
G0 F12000 X71.684 Y-38.5
G1 F600 X-71.682 Y-38.499 E3569.25412
G0 F12000 X-71.682 Y-38.999
G1 F600 X71.684 Y-39 E3578.19482
G0 F12000 X71.684 Y-39.5
G1 F600 X-71.682 Y-39.499 E3587.13552
G0 F12000 X-71.682 Y-39.999
G1 F600 X71.684 Y-40 E3596.07622
G0 F12000 X71.684 Y-40.5
G1 F600 X-71.682 Y-40.499 E3605.01692
G0 F12000 X-72.04 Y-40.999
G1 F600 X72.043 Y-41 E3614.00233
G0 F12000 X72.543 Y-41.5
G1 F600 X-72.54 Y-41.499 E3623.05011
G0 F12000 X-73.04 Y-41.999
G1 F600 X73.043 Y-42 E3632.16024
G0 F12000 X73.543 Y-42.5
G1 F600 X-73.54 Y-42.499 E3641.33274
G0 F12000 X-74.041 Y-42.999
G1 F600 X74.044 Y-43 E3650.56773
G0 F12000 X74.544 Y-43.5
G1 F600 X-74.541 Y-43.499 E3659.86508
G0 F12000 X-75.041 Y-43.999
G1 F600 X75.044 Y-44 E3669.2248
G0 F12000 X74.817 Y-44.5
G1 F600 X75.535 Y-44.5 E3669.26957
G0 F12000 X76.483 Y-45.5
G1 F600 X76.486 Y-45.75 E3669.27332
G1 X76.84 Y-46.25 E3669.31152
G1 X77.543 Y-46.5 E3669.35805
G0 F12000 X78.043 Y-47
G1 F600 X76.795 Y-47 E3669.43588
G0 F12000 X76.862 Y-47.5
G1 F600 X78.543 Y-47.5 E3669.54071
G0 F12000 X79.043 Y-48
G1 F600 X76.868 Y-48 E3669.67635
G0 F12000 X76.803 Y-48.5
G1 F600 X79.543 Y-48.5 E3669.84723
G0 F12000 X80.043 Y-49
G1 F600 X76.659 Y-49 E3670.05826
G0 F12000 X76.452 Y-49.5
G1 F600 X80.543 Y-49.5 E3670.31339
G0 F12000 X81.043 Y-50
G1 F600 X76.105 Y-50 E3670.62133
G0 F12000 X75.65 Y-50.5
G1 F600 X81.543 Y-50.5 E3670.98884
G0 F12000 X82.043 Y-51
G1 F600 X74.943 Y-51 E3671.43161
G0 F12000 X71.525 Y-51
G1 F600 X-71.521 Y-50.999 E3680.35236
G0 F12000 X-70.815 Y-50.499
G1 F600 X70.819 Y-50.5 E3689.18504
G0 F12000 X70.362 Y-50
G1 F600 X-70.36 Y-49.999 E3697.96085
G0 F12000 X-70.015 Y-49.499
G1 F600 X70.015 Y-49.5 E3706.69351
G0 F12000 X69.809 Y-49
G1 F600 X-69.808 Y-48.999 E3715.40041
G0 F12000 X-69.663 Y-48.499
G1 F600 X69.665 Y-48.5 E3724.08929
G0 F12000 X69.599 Y-48
G1 F600 X-69.597 Y-47.999 E3732.76993
G0 F12000 X-69.605 Y-47.499
G1 F600 X69.606 Y-47.5 E3741.45152
G0 F12000 X69.672 Y-47
G1 F600 X-69.671 Y-46.999 E3750.14133
G0 F12000 X-69.83 Y-46.499
G1 F600 X69.831 Y-46.5 E3758.85097
G0 F12000 X70.037 Y-46
G1 F600 X-70.038 Y-45.999 E3767.58644
G0 F12000 X-70.402 Y-45.499
G1 F600 X70.402 Y-45.5 E3776.36736
G0 F12000 X70.886 Y-45
G1 F600 X-70.886 Y-44.999 E3785.20865
G0 F12000 X-71.651 Y-44.499
G1 F600 X71.65 Y-44.5 E3794.1453
G0 F12000 X73.972 Y-45.018
G0 X74.662 Y-45.303
G0 X75.254 Y-45.757
G0 X82.543 Y-51.5
G1 F600 X-82.541 Y-51.499 E3804.44039
G0 F12000 X-83.041 Y-51.999
G1 F600 X83.043 Y-52 E3814.79785
G0 F12000 X83.543 Y-52.5
G1 F600 X-83.541 Y-52.499 E3825.21766
G0 F12000 X-84.041 Y-52.999
G1 F600 X84.043 Y-53 E3835.69985
G0 F12000 X84.543 Y-53.5
G1 F600 X-84.541 Y-53.499 E3846.24439
G0 F12000 X-85.041 Y-53.999
G1 F600 X85.043 Y-54 E3856.8513
G0 F12000 X85.543 Y-54.5
G1 F600 X-85.541 Y-54.499 E3867.52057
G0 F12000 X-86.041 Y-54.999
G1 F600 X86.043 Y-55 E3878.2522
G0 F12000 X86.543 Y-55.5
G1 F600 X-86.541 Y-55.499 E3889.04619
G0 F12000 X-87.041 Y-55.999
G1 F600 X87.043 Y-56 E3899.90255
G0 F12000 X87.543 Y-56.5
G1 F600 X-87.541 Y-56.499 E3910.82127
G0 F12000 X-88.041 Y-56.999
G1 F600 X88.043 Y-57 E3921.80235
G0 F12000 X88.543 Y-57.5
G1 F600 X-88.541 Y-57.499 E3932.8458
G0 F12000 X-89.041 Y-57.999
G1 F600 X89.043 Y-58 E3943.95161
G0 F12000 X89.543 Y-58.5
G1 F600 X-89.541 Y-58.499 E3955.11978
G0 F12000 X-90.041 Y-58.999
G1 F600 X90.042 Y-59 E3966.35025
G0 F12000 X90.542 Y-59.5
G1 F600 X-90.541 Y-59.499 E3977.64308
G0 F12000 X-91.041 Y-59.999
G1 F600 X91.042 Y-60 E3988.99828
G0 F12000 X91.542 Y-60.5
G1 F600 X-91.541 Y-60.499 E4000.41584
G0 F12000 X-92.041 Y-60.999
G1 F600 X92.042 Y-61 E4011.89576
G0 F12000 X92.542 Y-61.5
G1 F600 X-92.541 Y-61.499 E4023.43805
G0 F12000 X-93.041 Y-61.999
G1 F600 X93.042 Y-62 E4035.0427
G0 F12000 X93.542 Y-62.5
G1 F600 X-93.541 Y-62.499 E4046.70971
G0 F12000 X-94.041 Y-62.999
G1 F600 X94.042 Y-63 E4058.43908
G0 F12000 X94.542 Y-63.5
G1 F600 X-94.541 Y-63.499 E4070.23082
G0 F12000 X-95.041 Y-63.999
G1 F600 X95.042 Y-64 E4082.08492
G0 F12000 X95.542 Y-64.5
G1 F600 X-95.541 Y-64.499 E4094.00138
G0 F12000 X-96.041 Y-64.999
G1 F600 X96.042 Y-65 E4105.9802
G0 F12000 X96.542 Y-65.5
G1 F600 X-96.541 Y-65.499 E4118.02139
G0 F12000 X-97.041 Y-66
G1 F600 X97.042 Y-66 E4130.12494
G0 F12000 X97.542 Y-66.5
G1 F600 X-97.541 Y-66.5 E4142.29086
G0 F12000 X-98.041 Y-67
G1 F600 X98.042 Y-67 E4154.51913
G0 F12000 X98.542 Y-67.5
G1 F600 X-98.541 Y-67.5 E4166.80977
G0 F12000 X-99.041 Y-68
G1 F600 X99.042 Y-68 E4179.16277
G0 F12000 X99.542 Y-68.5
G1 F600 X-99.541 Y-68.5 E4191.57814
G0 F12000 X-100.041 Y-69
G1 F600 X100.042 Y-69 E4204.05586
G0 F12000 X100.542 Y-69.5
G1 F600 X-100.541 Y-69.5 E4216.59595
G0 F12000 X-101.041 Y-70
G1 F600 X-49.464 Y-70 E4219.81244
G0 F12000 X-50.181 Y-70.5
G1 F600 X-101.541 Y-70.5 E4223.01539
G0 F12000 X-102.041 Y-71
G1 F600 X-50.641 Y-71 E4226.22083
G0 F12000 X-50.99 Y-71.5
G1 F600 X-102.541 Y-71.5 E4229.43569
G0 F12000 X-102.202 Y-72
G1 F600 X-103.041 Y-72 E4229.48802
G0 F12000 X-103.965 Y-73.5
G1 F600 X-104.36 Y-73.75 E4229.52393
G1 X-105.041 Y-74 E4229.56917
G0 F12000 X-105.541 Y-74.5
G1 F600 X-104.361 Y-74.5 E4229.64276
G0 F12000 X-104.427 Y-75
G1 F600 X-106.041 Y-75 E4229.74341
G0 F12000 X-106.249 Y-75.5
G1 F600 X-104.454 Y-75.5 E4229.85536
G0 F12000 X-104.388 Y-76
G1 F600 X-105.749 Y-76 E4229.94023
G0 F12000 X-105.249 Y-76.5
G1 F600 X-104.267 Y-76.5 E4230.00147
G0 F12000 X-104.06 Y-77
G1 F600 X-104.499 Y-77.25 E4230.04444
G1 X-103.921 Y-77.5 E4230.08372
G0 F12000 X-102.985 Y-78.5
G1 F600 X-102.677 Y-78.5 E4230.10292
G0 F12000 X-102.749 Y-79
G1 F600 X-100.946 Y-79 E4230.21536
G0 F12000 X-100.672 Y-79
G1 F600 X100.674 Y-79 E4242.77186
G0 F12000 X100.948 Y-79
G1 F600 X102.75 Y-79 E4242.88423
G0 F12000 X102.68 Y-78.5
G1 F600 X102.98 Y-78.5 E4242.90294
G0 F12000 X102.25 Y-79.5
G1 F600 X-102.249 Y-79.5 E4255.65606
G0 F12000 X-101.749 Y-80
G1 F600 X101.75 Y-80 E4268.34682
G0 F12000 X101.25 Y-80.5
G1 F600 X-101.249 Y-80.5 E4280.97522
G0 F12000 X-100.749 Y-81
G1 F600 X100.75 Y-81 E4293.54125
G0 F12000 X100.25 Y-81.5
G1 F600 X-100.249 Y-81.5 E4306.04492
G0 F12000 X-99.749 Y-82
G1 F600 X99.75 Y-82 E4318.48623
G0 F12000 X99.25 Y-82.5
G1 F600 X-99.249 Y-82.5 E4330.86517
G0 F12000 X-98.749 Y-83
G1 F600 X98.75 Y-83 E4343.18175
G0 F12000 X98.25 Y-83.5
G1 F600 X-98.249 Y-83.5 E4355.43597
G0 F12000 X-97.749 Y-84
G1 F600 X97.75 Y-84 E4367.62783
G0 F12000 X97.25 Y-84.5
G1 F600 X-97.249 Y-84.5 E4379.75732
G0 F12000 X-96.749 Y-85
G1 F600 X96.75 Y-85 E4391.82445
G0 F12000 X96.25 Y-85.5
G1 F600 X-96.249 Y-85.5 E4403.82922
G0 F12000 X-95.749 Y-86
G1 F600 X95.75 Y-86 E4415.77162
G0 F12000 X95.25 Y-86.5
G1 F600 X-95.249 Y-86.5 E4427.65166
G0 F12000 X-94.749 Y-87
G1 F600 X94.75 Y-87 E4439.46934
G0 F12000 X94.25 Y-87.5
G1 F600 X-94.249 Y-87.5 E4451.22466
G0 F12000 X-93.749 Y-88
G1 F600 X93.75 Y-88 E4462.91761
G0 F12000 X93.25 Y-88.5
G1 F600 X-93.249 Y-88.5 E4474.5482
G0 F12000 X-92.749 Y-89
G1 F600 X92.75 Y-89 E4486.11643
G0 F12000 X92.25 Y-89.5
G1 F600 X-92.249 Y-89.5 E4497.6223
G0 F12000 X-91.749 Y-90
G1 F600 X91.75 Y-90 E4509.0658
G0 F12000 X91.25 Y-90.5
G1 F600 X-91.249 Y-90.5 E4520.44694
G0 F12000 X-90.748 Y-91
G1 F600 X90.75 Y-91 E4531.76566
G0 F12000 X90.25 Y-91.5
G1 F600 X-90.248 Y-91.5 E4543.02201
G0 F12000 X-89.748 Y-92
G1 F600 X89.75 Y-92 E4554.216
G0 F12000 X89.25 Y-92.5
G1 F600 X-89.248 Y-92.5 E4565.34762
G0 F12000 X-88.748 Y-93
G1 F600 X88.75 Y-93 E4576.41689
G0 F12000 X88.25 Y-93.5
G1 F600 X-88.248 Y-93.5 E4587.42379
G0 F12000 X-87.748 Y-94
G1 F600 X87.75 Y-94 E4598.36833
G0 F12000 X87.25 Y-94.5
G1 F600 X-87.248 Y-94.5 E4609.2505
G0 F12000 X-86.748 Y-95
G1 F600 X86.75 Y-95 E4620.07032
G0 F12000 X86.25 Y-95.5
G1 F600 X-86.248 Y-95.5 E4630.82777
G0 F12000 X-85.748 Y-96
G1 F600 X85.75 Y-96 E4641.52285
G0 F12000 X85.25 Y-96.5
G1 F600 X-85.248 Y-96.5 E4652.15558
G0 F12000 X-84.748 Y-97
G1 F600 X84.75 Y-97 E4662.72594
G0 F12000 X84.25 Y-97.5
G1 F600 X76.856 Y-97.5 E4663.18705
G0 F12000 X77.658 Y-98
G1 F600 X83.75 Y-98 E4663.56697
G0 F12000 X83.25 Y-98.5
G1 F600 X78.161 Y-98.5 E4663.88433
G0 F12000 X78.538 Y-99
G1 F600 X82.75 Y-99 E4664.147
G0 F12000 X82.25 Y-99.5
G1 F600 X78.744 Y-99.5 E4664.36565
G0 F12000 X78.913 Y-100
G1 F600 X81.75 Y-100 E4664.54257
G0 F12000 X81.25 Y-100.5
G1 F600 X78.978 Y-100.5 E4664.68426
G0 F12000 X78.994 Y-101
G1 F600 X80.75 Y-101 E4664.79377
G0 F12000 X80.25 Y-101.5
G1 F600 X78.929 Y-101.5 E4664.87615
G0 F12000 X78.794 Y-102
G1 F600 X79.75 Y-102 E4664.93577
G0 F12000 X79.25 Y-102.5
G1 F600 X78.556 Y-102.75 E4664.97708
G1 X78.75 Y-103 E4664.99681
G0 F12000 X77.574 Y-104
G1 F600 X77.146 Y-104 E4665.0235
G0 F12000 X77.25 Y-104.5
G1 F600 X-77.249 Y-104.5 E4674.65848
G0 F12000 X-77.144 Y-104
G1 F600 X-77.573 Y-104 E4674.68524
G0 F12000 X-76.749 Y-105
G1 F600 X76.75 Y-105 E4684.25786
G0 F12000 X76.25 Y-105.5
G1 F600 X-76.249 Y-105.5 E4693.76812
G0 F12000 X-75.748 Y-106
G1 F600 X75.75 Y-106 E4703.21595
G0 F12000 X75.25 Y-106.5
G1 F600 X-75.248 Y-106.5 E4712.60142
G0 F12000 X-74.748 Y-107
G1 F600 X74.75 Y-107 E4721.92452
G0 F12000 X73.564 Y-104
G1 F600 X-73.562 Y-104 E4731.09971
G0 F12000 X-72.893 Y-103.5
G1 F600 X72.895 Y-103.5 E4740.19145
G0 F12000 X72.458 Y-103
G1 F600 X-72.456 Y-103 E4749.22868
G0 F12000 X-72.122 Y-102.5
G1 F600 X72.124 Y-102.5 E4758.22426
G0 F12000 X71.917 Y-102
G1 F600 X-71.915 Y-102 E4767.19402
G0 F12000 X-71.78 Y-101.5
G1 F600 X71.782 Y-101.5 E4776.14694
G0 F12000 X71.716 Y-101
G1 F600 X-71.714 Y-101 E4785.09163
G0 F12000 X-71.73 Y-100.5
G1 F600 X71.732 Y-100.5 E4794.03832
G0 F12000 X71.798 Y-100
G1 F600 X-71.796 Y-100 E4802.99323
G0 F12000 X-71.965 Y-99.5
G1 F600 X71.967 Y-99.5 E4811.96923
G0 F12000 X72.174 Y-99
G1 F600 X-72.172 Y-99 E4820.97104
G0 F12000 X-72.548 Y-98.5
G1 F600 X72.55 Y-98.5 E4830.01976
G0 F12000 X73.051 Y-98
G1 F600 X-73.049 Y-98 E4839.13095
G0 F12000 X-73.852 Y-97.5
G1 F600 X73.854 Y-97.5 E4848.34231
G0 F12000 X97.88 Y-77.5
G1 F600 X-97.878 Y-77.5 E4860.55031
G0 F12000 X-97.56 Y-77
G1 F600 X97.561 Y-77 E4872.7186
G0 F12000 X97.354 Y-76.5
G1 F600 X49.382 Y-76.5 E4875.71026
G0 F12000 X50.137 Y-76
G1 F600 X97.232 Y-76 E4878.64724
G0 F12000 X97.166 Y-75.5
G1 F600 X50.615 Y-75.5 E4881.55029
G0 F12000 X50.977 Y-75
G1 F600 X97.194 Y-75 E4884.4325
G0 F12000 X97.26 Y-74.5
G1 F600 X51.183 Y-74.5 E4887.30599
G0 F12000 X51.34 Y-74
G1 F600 X97.44 Y-74 E4890.18092
G0 F12000 X97.655 Y-73.5
G1 F600 X51.406 Y-73.5 E4893.06513
G0 F12000 X51.41 Y-73
G1 F600 X98.04 Y-73 E4895.97311
G0 F12000 X98.565 Y-72.5
G1 F600 X51.344 Y-72.5 E4898.91794
G0 F12000 X51.198 Y-72
G1 F600 X99.419 Y-72 E4901.92513
G0 F12000 X101.042 Y-70
G1 F600 X49.466 Y-70 E4905.14155
G0 F12000 X50.182 Y-70.5
G1 F600 X101.542 Y-70.5 E4908.3445
G0 F12000 X102.042 Y-71
G1 F600 X50.641 Y-71 E4911.55001
G0 F12000 X50.991 Y-71.5
G1 F600 X102.542 Y-71.5 E4914.76487
G0 F12000 X102.204 Y-72
G1 F600 X103.042 Y-72 E4914.81713
G0 F12000 X103.967 Y-73.5
G1 F600 X104.362 Y-73.75 E4914.85299
G1 X105.042 Y-74 E4914.89817
G0 F12000 X105.542 Y-74.5
G1 F600 X104.362 Y-74.5 E4914.97176
G0 F12000 X104.428 Y-75
G1 F600 X106.042 Y-75 E4915.07242
G0 F12000 X106.25 Y-75.5
G1 F600 X104.456 Y-75.5 E4915.18429
G0 F12000 X104.39 Y-76
G1 F600 X105.75 Y-76 E4915.26911
G0 F12000 X105.25 Y-76.5
G1 F600 X104.268 Y-76.5 E4915.33035
G0 F12000 X104.061 Y-77
G1 F600 X104.5 Y-77.25 E4915.37332
G1 X103.918 Y-77.5 E4915.41282
G0 F12000 X101.551 Y-78.114
G0 X98.943 Y-78.5
G1 F600 X-98.942 Y-78.5 E4927.75348
G0 F12000 X-98.292 Y-78
G1 F600 X98.293 Y-78 E4940.01306
G0 F12000 X46.172 Y-76.5
G1 F600 X-46.17 Y-76.5 E4945.77176
G0 F12000 X-45.416 Y-76
G1 F600 X45.417 Y-76 E4951.43636
G0 F12000 X44.939 Y-75.5
G1 F600 X-44.937 Y-75.5 E4957.04127
G0 F12000 X-44.576 Y-75
G1 F600 X44.577 Y-75 E4962.6011
G0 F12000 X44.371 Y-74.5
G1 F600 X-44.369 Y-74.5 E4968.13517
G0 F12000 X-44.212 Y-74
G1 F600 X44.214 Y-74 E4973.64966
G0 F12000 X44.148 Y-73.5
G1 F600 X-44.146 Y-73.5 E4979.15591
G0 F12000 X-44.142 Y-73
G1 F600 X44.144 Y-73 E4984.66167
G0 F12000 X44.21 Y-72.5
G1 F600 X-44.208 Y-72.5 E4990.17566
G0 F12000 X-44.355 Y-72
G1 F600 X44.356 Y-72 E4995.70792
G0 F12000 X44.563 Y-71.5
G1 F600 X-44.562 Y-71.5 E5001.266
G0 F12000 X-44.911 Y-71
G1 F600 X44.913 Y-71 E5006.86768
G0 F12000 X45.372 Y-70.5
G1 F600 X-45.371 Y-70.5 E5012.52666
G0 F12000 X-46.087 Y-70
G1 F600 X46.089 Y-70 E5018.27501
G0 F12000 X-49.38 Y-76.5
G1 F600 X-97.353 Y-76.5 E5021.26674
G0 F12000 X-97.23 Y-76
G1 F600 X-50.134 Y-76 E5024.20377
G0 F12000 X-50.614 Y-75.5
G1 F600 X-97.164 Y-75.5 E5027.10676
G0 F12000 X-97.192 Y-75
G1 F600 X-50.975 Y-75 E5029.98898
G0 F12000 X-51.182 Y-74.5
G1 F600 X-97.258 Y-74.5 E5032.8624
G0 F12000 X-97.439 Y-74
G1 F600 X-51.338 Y-74 E5035.73739
G0 F12000 X-51.404 Y-73.5
G1 F600 X-97.654 Y-73.5 E5038.62167
G0 F12000 X-98.037 Y-73
G1 F600 X-51.408 Y-73 E5041.52958
G0 F12000 X-51.343 Y-72.5
G1 F600 X-98.562 Y-72.5 E5044.47429
G0 F12000 X-99.417 Y-72
G1 F600 X-51.197 Y-72 E5047.48142
G0 F12000 X-74.944 Y-50.999
G1 F600 X-82.041 Y-50.999 E5047.92401
G0 F12000 X-81.541 Y-50.499
G1 F600 X-75.648 Y-50.499 E5048.29151
G0 F12000 X-76.105 Y-49.999
G1 F600 X-81.041 Y-49.999 E5048.59933
G0 F12000 X-80.541 Y-49.499
G1 F600 X-76.451 Y-49.499 E5048.8544
G0 F12000 X-76.658 Y-48.999
G1 F600 X-80.041 Y-48.999 E5049.06537
G0 F12000 X-79.541 Y-48.499
G1 F600 X-76.801 Y-48.499 E5049.23624
G0 F12000 X-76.867 Y-47.999
G1 F600 X-79.041 Y-47.999 E5049.37182
G0 F12000 X-78.541 Y-47.499
G1 F600 X-76.86 Y-47.499 E5049.47665
G0 F12000 X-76.794 Y-46.999
G1 F600 X-78.041 Y-46.999 E5049.55442
G0 F12000 X-77.541 Y-46.499
G1 F600 X-76.531 Y-46.249 E5049.61087
G1 X-76.791 Y-45.749 E5049.64911
G1 X-76.485 Y-45.499 E5049.67375
G0 F12000 X-75.533 Y-44.499
G1 F600 X-74.813 Y-44.499 E5049.71865
G1 F6600 E5042.91865
G1 Z0.7
G0 F12000 X-75.706 Y-46.349
G0 X-75.992 Y-47.039
G0 X-76.088 Y-47.777
G0 X-76.854 Y-97.5
G1 Z0.4
G1 F6600 E5049.81865
G1 F600 X-84.248 Y-97.5 E5050.27976
G0 F12000 X-83.748 Y-98
G1 F600 X-77.656 Y-98 E5050.65968
G0 F12000 X-78.159 Y-98.5
G1 F600 X-83.248 Y-98.5 E5050.97704
G0 F12000 X-82.748 Y-99
G1 F600 X-78.536 Y-99 E5051.23971
G0 F12000 X-78.742 Y-99.5
G1 F600 X-82.248 Y-99.5 E5051.45836
G0 F12000 X-81.748 Y-100
G1 F600 X-78.911 Y-100 E5051.63528
G0 F12000 X-78.976 Y-100.5
G1 F600 X-81.248 Y-100.5 E5051.77697
G0 F12000 X-80.748 Y-101
G1 F600 X-78.992 Y-101 E5051.88648
G0 F12000 X-78.927 Y-101.5
G1 F600 X-80.248 Y-101.5 E5051.96886
G0 F12000 X-79.748 Y-102
G1 F600 X-78.792 Y-102 E5052.02848
G0 F12000 X-78.586 Y-102.5
G1 F600 X-78.998 Y-102.75 E5052.06983
G1 X-78.521 Y-103 E5052.10342
G1 F6600 E5045.30342
G1 Z0.7
G0 F12000 X-78.113 Y-100.072
G0 X-77.827 Y-99.382
G0 X-15.045 Y48.282
G0 X-14.819 Y48.826
G0 X-14.743 Y49.41
G0 X-14.773 Y51.5
G1 Z0.4
G1 F6600 E5052.20342
G1 F600 X82.543 Y51.499 E5058.27231
G0 F12000 X83.043 Y51.999
G1 F600 X-15.385 Y52 E5064.41055
; Layer Change GCode
; LAYER:1
G0 F12000 X-15.385 Y52 Z0.6
G0 X-17.062 Y51.658
G0 X-16.998 Y51.162
G0 X-17.062 Y51.658
G0 X-16.998 Y52.171
; TYPE:WALL-INNER
G1 F1500 X-16.283 Y52.077 E5064.44053
G1 X-15.618 Y51.8 E5064.47048
G1 X-15.046 Y51.361 E5064.50046
G1 X-14.608 Y50.791 E5064.53035
G1 X-14.332 Y50.124 E5064.56036
G1 X-14.238 Y49.41 E5064.5903
G1 X-14.332 Y48.696 E5064.62024
G1 X-14.608 Y48.03 E5064.65021
G1 X-15.046 Y47.457 E5064.6802
G1 X-15.619 Y47.019 E5064.71018
G1 X-16.283 Y46.743 E5064.74008
G1 X-16.998 Y46.649 E5064.77006
G1 X-17.712 Y46.743 E5064.8
G1 X-18.378 Y47.019 E5064.82997
G1 X-18.951 Y47.457 E5064.85996
G1 X-19.389 Y48.03 E5064.88994
G1 X-19.665 Y48.696 E5064.91992
G1 X-19.759 Y49.41 E5064.94986
G1 X-19.665 Y50.124 E5064.9798
G1 X-19.389 Y50.791 E5065.00981
G1 X-18.951 Y51.361 E5065.0397
G1 X-18.379 Y51.801 E5065.0697
G1 X-17.712 Y52.077 E5065.09971
G1 X-16.998 Y52.171 E5065.12965
G0 F12000 X-16.998 Y51.666
G1 F1500 X-16.414 Y51.59 E5065.15413
G1 X-15.87 Y51.364 E5065.17863
G1 X-15.403 Y51.005 E5065.20311
G1 X-15.045 Y50.538 E5065.22758
G1 X-14.819 Y49.994 E5065.25207
G1 X-14.743 Y49.41 E5065.27655
G1 X-14.819 Y48.826 E5065.30104
G1 X-15.045 Y48.282 E5065.32553
G1 X-15.403 Y47.814 E5065.35003
G1 X-15.871 Y47.456 E5065.37452
G1 X-16.414 Y47.23 E5065.39898
G1 X-16.998 Y47.154 E5065.42346
G1 X-17.582 Y47.23 E5065.44795
G1 X-18.126 Y47.456 E5065.47244
G1 X-18.594 Y47.814 E5065.49693
G1 X-18.952 Y48.282 E5065.52143
G1 X-19.178 Y48.826 E5065.54592
G1 X-19.254 Y49.41 E5065.57041
G1 X-19.178 Y49.994 E5065.59489
G1 X-18.952 Y50.538 E5065.61938
G1 X-18.594 Y51.005 E5065.64385
G1 X-18.127 Y51.364 E5065.66834
G1 X-17.582 Y51.59 E5065.69287
G1 X-16.998 Y51.666 E5065.71735
G0 F12000 X-17.062 Y51.658
G0 X-16.998 Y51.162
; TYPE:WALL-OUTER
G1 F600 X-16.545 Y51.103 E5065.73634
G1 X-16.123 Y50.927 E5065.75535
G1 X-15.76 Y50.648 E5065.77439
G1 X-15.482 Y50.286 E5065.79336
G1 X-15.306 Y49.863 E5065.81241
G1 X-15.247 Y49.41 E5065.8314
G1 X-15.306 Y48.957 E5065.8504
G1 X-15.482 Y48.534 E5065.86944
G1 X-15.76 Y48.171 E5065.88845
G1 X-16.123 Y47.893 E5065.90746
G1 X-16.545 Y47.717 E5065.92647
G1 X-16.998 Y47.658 E5065.94546
G1 X-17.451 Y47.717 E5065.96446
G1 X-17.874 Y47.893 E5065.98351
G1 X-18.237 Y48.171 E5066.00251
G1 X-18.515 Y48.534 E5066.02152
G1 X-18.691 Y48.957 E5066.04057
G1 X-18.75 Y49.41 E5066.05956
G1 X-18.691 Y49.863 E5066.07856
G1 X-18.515 Y50.286 E5066.0976
G1 X-18.237 Y50.648 E5066.11658
G1 X-17.874 Y50.927 E5066.13561
G1 X-17.451 Y51.103 E5066.15466
G1 X-16.998 Y51.162 E5066.17366
G1 F6600 E5059.37366
G1 Z0.9
G0 F12000 X-17.062 Y51.658
G0 X-45.756 Y75.253
G0 X-46.348 Y75.707
G0 X-47.038 Y75.993
G0 X-47.776 Y76.089
G0 X-47.84 Y76.079
G0 X-47.776 Y75.585
G0 X-47.84 Y76.079
G0 X-47.776 Y76.594
; TYPE:WALL-INNER
G1 Z0.6
G1 F6600 E5066.27366
G1 F1500 X-46.907 Y76.48 E5066.31009
G1 X-46.095 Y76.144 E5066.34663
G1 X-45.399 Y75.609 E5066.38313
G1 X-44.866 Y74.913 E5066.41957
G1 X-44.53 Y74.104 E5066.45599
G1 X-44.415 Y73.233 E5066.49252
G1 X-44.53 Y72.363 E5066.529
G1 X-44.866 Y71.553 E5066.56546
G1 X-45.399 Y70.856 E5066.60194
G1 X-46.096 Y70.323 E5066.63842
G1 X-46.906 Y69.987 E5066.67488
G1 X-47.776 Y69.872 E5066.71136
G1 X-48.647 Y69.987 E5066.74789
G1 X-49.456 Y70.323 E5066.78431
G1 X-50.152 Y70.856 E5066.82076
G1 X-50.687 Y71.552 E5066.85725
G1 X-51.023 Y72.364 E5066.89379
G1 X-51.137 Y73.233 E5066.93023
G1 X-51.023 Y74.103 E5066.96671
G1 X-50.687 Y74.914 E5067.0032
G1 X-50.152 Y75.609 E5067.03967
G1 X-49.457 Y76.144 E5067.07613
G1 X-48.646 Y76.48 E5067.11263
G1 X-47.776 Y76.594 E5067.14911
G0 F12000 X-47.776 Y76.089
G1 F1500 X-47.038 Y75.993 E5067.18005
G1 X-46.348 Y75.707 E5067.2111
G1 X-45.756 Y75.253 E5067.24212
G1 X-45.303 Y74.661 E5067.27311
G1 X-45.017 Y73.973 E5067.30409
G1 X-44.919 Y73.233 E5067.33512
G1 X-45.017 Y72.494 E5067.36612
G1 X-45.303 Y71.805 E5067.39713
G1 X-45.756 Y71.213 E5067.42812
G1 X-46.348 Y70.76 E5067.45911
G1 X-47.037 Y70.474 E5067.49013
G1 X-47.776 Y70.376 E5067.52112
G1 X-48.516 Y70.474 E5067.55216
G1 X-49.204 Y70.76 E5067.58313
G1 X-49.796 Y71.213 E5067.61413
G1 X-50.25 Y71.805 E5067.64514
