; Generated with MatterSlice 1.0
; filamentDiameter = 1.75
; extrusionWidth = 0.5
; firstLayerExtrusionWidth = 0.55
; layerThickness = 0.2
; firstLayerThickness = 0.3
; automatic settings before start_gcode
G21 ; set units to millimeters
M107 ; fan off
T0 ; set the active extruder to 0
; settings from start_gcode
M104 S215
M190 S60
M109 S215
G28
; automatic settings after start_gcode
T0 ; set the active extruder to 0
G90 ; use absolute coordinates
G92 E0 ; reset the expected extruder position
M82 ; use absolute distance for extrusion
; Layer count: 45
; Layer Change GCode
; LAYER:0
M400
M107
G0 F12000 X4.385 Y-118.309 Z0.7
; TYPE:SKIRT
G1 Z0.4
G1 F6600 E0
G1 F600 X8.409 Y-117.69 E0.27929
G1 X76.584 Y-103.406 E5.05758
G1 X111.064 Y-68.926 E8.40261
G1 X111.064 Y83.832 E18.88166
G1 X76.38 Y118.517 E22.24653
G1 X-76.378 Y118.517 E32.72558
G1 X-111.063 Y83.832 E36.0905
G1 X-111.063 Y-68.926 E46.56955
G1 X-76.58 Y-103.408 E49.91482
G1 X-7.888 Y-117.69 E54.7278
G1 X-3.865 Y-118.309 E55.00702
G1 X0.26 Y-118.519 E55.29036
G1 X4.385 Y-118.309 E55.5737
G0 F12000 X4.329 Y-117.762
G1 F600 X8.311 Y-117.149 E55.85008
G1 X76.311 Y-102.902 E60.61609
G1 X110.514 Y-68.698 E63.9343
G1 X110.514 Y83.604 E74.38207
G1 X76.152 Y117.967 E77.7157
G1 X-76.15 Y117.967 E88.16347
G1 X-110.513 Y83.604 E91.49715
G1 X-110.513 Y-68.698 E101.94492
G1 X-76.308 Y-102.903 E105.26327
G1 X-7.791 Y-117.149 E110.06399
G1 X-3.809 Y-117.762 E110.34037
G1 X0.26 Y-117.968 E110.61986
G1 X4.329 Y-117.762 E110.89935
G0 F12000 X4.273 Y-117.214
G1 F600 X8.213 Y-116.607 E111.17282
G1 X76.038 Y-102.397 E115.92656
G1 X109.964 Y-68.471 E119.21785
G1 X109.964 Y83.377 E129.63447
G1 X75.925 Y117.417 E132.93677
G1 X-75.923 Y117.417 E143.3534
G1 X-109.963 Y83.377 E146.65574
G1 X-109.963 Y-68.471 E157.07237
G1 X-76.035 Y-102.398 E160.3638
G1 X-7.693 Y-116.608 E165.15226
G1 X-3.753 Y-117.214 E165.42572
G1 X0.26 Y-117.418 E165.70137
G1 X4.273 Y-117.214 E165.97701
G0 F12000 X4.217 Y-116.666
G1 F600 X8.114 Y-116.066 E166.24749
G1 X75.765 Y-101.892 E170.98905
G1 X109.414 Y-68.243 E174.25346
G1 X109.414 Y83.149 E184.6388
G1 X75.697 Y116.867 E187.90986
G1 X-75.695 Y116.867 E198.29521
G1 X-109.413 Y83.149 E201.56631
G1 X-109.413 Y-68.243 E211.95166
G1 X-75.762 Y-101.893 E215.21622
G1 X-7.595 Y-116.066 E219.99241
G1 X-3.697 Y-116.666 E220.26296
G1 X0.26 Y-116.867 E220.53476
G1 X4.217 Y-116.666 E220.80655
G0 F12000 X4.161 Y-116.118
G1 F600 X8.016 Y-115.525 E221.07411
G1 X75.492 Y-101.387 E225.80341
G1 X108.864 Y-68.015 E229.04095
G1 X108.864 Y82.921 E239.39502
G1 X75.469 Y116.317 E242.63484
G1 X-75.467 Y116.317 E252.9889
G1 X-108.863 Y82.921 E256.22877
G1 X-108.863 Y-68.015 E266.58283
G1 X-75.489 Y-101.388 E269.82052
G1 X-7.497 Y-115.525 E274.58446
G1 X-3.641 Y-116.118 E274.85208
G1 X0.26 Y-116.316 E275.12003
G1 X4.161 Y-116.118 E275.38798
G1 F6600 E271.38798
G1 Z0.7
G0 F12000 X4.133 Y-115.844
G0 X4.054 Y-115.022
G0 X-29.455 Y-100.485
G0 X-29.605 Y-100.31
G0 X-29.859 Y-100.31
G0 X-29.859 Y-100.86
; TYPE:WALL-OUTER
G1 Z0.4
G1 F6600 E275.48798
G1 F600 X-27.273 Y-103.894 E275.76145
G1 X-24.485 Y-106.561 E276.02612
G1 X-21.446 Y-108.926 E276.29029
G1 X-18.187 Y-110.967 E276.55407
G1 X-14.727 Y-112.673 E276.81871
G1 X-11.115 Y-114.017 E277.08309
G1 X-7.396 Y-114.983 E277.34667
G1 X-3.586 Y-115.57 E277.61112
G1 X0.26 Y-115.765 E277.87529
G1 X4.106 Y-115.57 E278.13946
G1 X7.915 Y-114.983 E278.40384
G1 X11.634 Y-114.017 E278.66742
G1 X15.246 Y-112.673 E278.9318
G1 X18.706 Y-110.967 E279.19644
G1 X21.966 Y-108.926 E279.46028
G1 X25.004 Y-106.561 E279.72439
G1 X27.792 Y-103.894 E279.98906
G1 X30.378 Y-100.86 E280.26253
G1 X75.242 Y-100.86 E283.34016
G1 X108.314 Y-67.788 E286.5486
G1 X108.314 Y82.694 E296.87152
G1 X75.242 Y115.767 E300.08
G1 X-75.24 Y115.767 E310.40292
G1 X-108.313 Y82.694 E313.61145
G1 X-108.313 Y-67.788 E323.93437
G1 X-75.24 Y-100.86 E327.14286
G1 X-29.859 Y-100.86 E330.25595
G0 F12000 X-29.859 Y-100.31
G0 X-29.605 Y-100.31
; TYPE:WALL-INNER
G1 F600 X-26.866 Y-103.522 E330.54552
G1 X-24.129 Y-106.141 E330.80539
G1 X-21.129 Y-108.475 E331.06613
G1 X-17.917 Y-110.487 E331.32613
G1 X-14.509 Y-112.167 E331.58678
G1 X-10.951 Y-113.491 E331.84721
G1 X-7.28 Y-114.446 E332.10742
G1 X-3.534 Y-115.022 E332.36741
G1 X0.26 Y-115.215 E332.62801
G1 X4.054 Y-115.022 E332.88861
G1 X7.799 Y-114.446 E333.14854
G1 X11.47 Y-113.491 E333.40874
G1 X15.028 Y-112.167 E333.66917
G1 X18.436 Y-110.487 E333.92982
G1 X21.649 Y-108.475 E334.18988
G1 X24.648 Y-106.141 E334.45057
G1 X27.385 Y-103.522 E334.71043
G1 X30.124 Y-100.31 E335.00001
G1 X75.014 Y-100.31 E338.07942
G1 X107.764 Y-67.56 E341.25662
G1 X107.764 Y82.466 E351.54825
G1 X75.014 Y115.217 E354.7255
G1 X-75.012 Y115.217 E365.01714
G1 X-107.763 Y82.466 E368.19443
G1 X-107.763 Y-67.56 E378.48607
G1 X-75.012 Y-100.31 E381.66332
G1 X-29.605 Y-100.31 E384.77819
G0 F12000 X-29.351 Y-99.76
G1 F600 X-26.47 Y-103.14 E385.08286
G1 X-23.764 Y-105.729 E385.33976
G1 X-20.817 Y-108.022 E385.59591
G1 X-17.646 Y-110.008 E385.85258
G1 X-14.299 Y-111.658 E386.10857
G1 X-10.786 Y-112.965 E386.36569
G1 X-7.167 Y-113.906 E386.62221
G1 X-3.471 Y-114.475 E386.87874
G1 X0.26 Y-114.664 E387.13501
G1 X3.991 Y-114.475 E387.39128
G1 X7.686 Y-113.906 E387.64774
G1 X11.305 Y-112.965 E387.90425
G1 X14.818 Y-111.658 E388.16138
G1 X18.165 Y-110.008 E388.41737
G1 X21.337 Y-108.022 E388.67409
G1 X24.283 Y-105.729 E388.93019
G1 X26.989 Y-103.14 E389.18709
G1 X29.87 Y-99.76 E389.49176
G1 X74.786 Y-99.76 E392.57295
G1 X107.214 Y-67.332 E395.71891
G1 X107.214 Y82.238 E405.97927
G1 X74.786 Y114.667 E409.12528
G1 X-74.784 Y114.667 E419.38563
G1 X-107.213 Y82.238 E422.53169
G1 X-107.213 Y-67.332 E432.79205
G1 X-74.784 Y-99.76 E435.93805
G1 X-29.351 Y-99.76 E439.05471
G1 F6600 E435.05471
G1 Z0.7
G0 F12000 X-45.279 Y-86.896
G0 X-45.813 Y-86.486
G0 X-46.435 Y-86.227
G0 X-47.104 Y-86.139
G0 X-47.175 Y-86.149
G0 X-47.104 Y-86.694
; TYPE:WALL-OUTER
G1 Z0.4
G1 F6600 E439.15471
G1 F600 X-46.579 Y-86.763 E439.19104
G1 X-46.09 Y-86.966 E439.22736
G1 X-45.671 Y-87.288 E439.26361
G1 X-45.349 Y-87.707 E439.29986
G1 X-45.146 Y-88.196 E439.33618
G1 X-45.076 Y-88.723 E439.37265
G1 X-45.156 Y-89.269 E439.4105
G1 X-45.349 Y-89.735 E439.4451
G1 X-45.671 Y-90.154 E439.48135
G1 X-46.09 Y-90.477 E439.51765
G1 X-46.579 Y-90.679 E439.55394
G1 X-47.104 Y-90.748 E439.59026
G1 X-47.629 Y-90.679 E439.62659
G1 X-48.118 Y-90.477 E439.66288
G1 X-48.538 Y-90.154 E439.69923
G1 X-48.86 Y-89.735 E439.73548
G1 X-49.063 Y-89.246 E439.7718
G1 X-49.131 Y-88.721 E439.80811
G1 X-49.063 Y-88.196 E439.84443
G1 X-48.86 Y-87.707 E439.88075
G1 X-48.538 Y-87.288 E439.917
G1 X-48.118 Y-86.966 E439.95331
G1 X-47.629 Y-86.763 E439.98963
G1 X-47.104 Y-86.694 E440.02595
G0 F12000 X-47.175 Y-86.149
G0 X-47.104 Y-86.139
; TYPE:WALL-INNER
G1 F600 X-46.435 Y-86.227 E440.07224
G1 X-45.813 Y-86.486 E440.11846
G1 X-45.279 Y-86.896 E440.16464
G1 X-44.869 Y-87.43 E440.21083
G1 X-44.61 Y-88.052 E440.25705
G1 X-44.521 Y-88.726 E440.30368
G1 X-44.621 Y-89.416 E440.35151
G1 X-44.868 Y-90.012 E440.39577
G1 X-45.278 Y-90.546 E440.44195
G1 X-45.813 Y-90.958 E440.48827
G1 X-46.436 Y-91.215 E440.5345
G1 X-47.104 Y-91.303 E440.58072
G1 X-47.772 Y-91.215 E440.62694
G1 X-48.395 Y-90.958 E440.67318
G1 X-48.93 Y-90.546 E440.7195
G1 X-49.34 Y-90.012 E440.76568
G1 X-49.599 Y-89.389 E440.81196
G1 X-49.686 Y-88.721 E440.85818
G1 X-49.599 Y-88.053 E440.90439
G1 X-49.34 Y-87.43 E440.95067
G1 X-48.93 Y-86.895 E440.99691
G1 X-48.395 Y-86.485 E441.04315
G1 X-47.773 Y-86.227 E441.08934
G1 X-47.104 Y-86.139 E441.13563
G0 F12000 X-47.104 Y-85.584
G1 F600 X-46.291 Y-85.692 E441.19189
G1 X-45.535 Y-86.005 E441.24802
G1 X-44.886 Y-86.503 E441.30414
G1 X-44.388 Y-87.152 E441.36025
G1 X-44.075 Y-87.908 E441.41638
G1 X-43.966 Y-88.73 E441.47327
G1 X-44.087 Y-89.563 E441.53101
G1 X-44.388 Y-90.29 E441.58499
G1 X-44.886 Y-90.938 E441.64105
G1 X-45.535 Y-91.438 E441.69725
G1 X-46.293 Y-91.751 E441.75351
G1 X-47.104 Y-91.858 E441.80962
G1 X-47.915 Y-91.751 E441.86574
G1 X-48.672 Y-91.439 E441.92191
G1 X-49.323 Y-90.938 E441.97826
G1 X-49.821 Y-90.29 E442.03432
G1 X-50.135 Y-89.532 E442.0906
G1 X-50.241 Y-88.721 E442.14671
G1 X-50.135 Y-87.91 E442.20282
G1 X-49.821 Y-87.152 E442.2591
G1 X-49.322 Y-86.503 E442.31526
G1 X-48.672 Y-86.005 E442.37143
G1 X-47.917 Y-85.692 E442.4275
G1 X-47.104 Y-85.584 E442.48376
G1 F6600 E438.48376
G1 Z0.7
G0 F12000 X-44.844 Y-65.78
G0 X-44.944 Y-65.02
G0 X-45.237 Y-64.314
G0 X-45.702 Y-63.707
G0 X-46.31 Y-63.24
G0 X-47.018 Y-62.947
G0 X-47.776 Y-62.848
G0 X-47.847 Y-62.858
G0 X-47.776 Y-63.403
; TYPE:WALL-OUTER
G1 Z0.4
G1 F6600 E442.58376
G1 F600 X-47.161 Y-63.483 E442.6263
G1 X-46.587 Y-63.721 E442.66893
G1 X-46.095 Y-64.099 E442.71149
G1 X-45.718 Y-64.591 E442.75401
G1 X-45.48 Y-65.164 E442.79657
G1 X-45.399 Y-65.78 E442.83919
G1 X-45.48 Y-66.395 E442.88175
G1 X-45.718 Y-66.969 E442.92437
G1 X-46.095 Y-67.461 E442.96689
G1 X-46.587 Y-67.839 E443.00945
G1 X-47.161 Y-68.076 E443.05206
G1 X-47.776 Y-68.157 E443.09461
G1 X-48.392 Y-68.076 E443.13723
G1 X-48.965 Y-67.839 E443.17977
G1 X-49.457 Y-67.461 E443.22233
G1 X-49.835 Y-66.969 E443.26489
G1 X-50.073 Y-66.395 E443.30752
G1 X-50.153 Y-65.78 E443.35006
G1 X-50.073 Y-65.164 E443.39267
G1 X-49.835 Y-64.591 E443.43523
G1 X-49.457 Y-64.099 E443.4778
G1 X-48.965 Y-63.721 E443.52036
G1 X-48.392 Y-63.483 E443.56292
G1 X-47.776 Y-63.403 E443.60553
G0 F12000 X-47.847 Y-62.858
G0 X-47.776 Y-62.848
; TYPE:WALL-INNER
G1 F600 X-47.018 Y-62.947 E443.65797
G1 X-46.31 Y-63.24 E443.71054
G1 X-45.702 Y-63.707 E443.76313
G1 X-45.237 Y-64.314 E443.81558
G1 X-44.944 Y-65.02 E443.86802
G1 X-44.844 Y-65.78 E443.9206
G1 X-44.944 Y-66.539 E443.97312
G1 X-45.237 Y-67.246 E444.02562
G1 X-45.702 Y-67.853 E444.07807
G1 X-46.31 Y-68.32 E444.13066
G1 X-47.018 Y-68.612 E444.1832
G1 X-47.776 Y-68.712 E444.23565
G1 X-48.535 Y-68.612 E444.28816
G1 X-49.242 Y-68.32 E444.34064
G1 X-49.849 Y-67.853 E444.39317
G1 X-50.316 Y-67.246 E444.44571
G1 X-50.609 Y-66.538 E444.49827
G1 X-50.708 Y-65.78 E444.55071
G1 X-50.609 Y-65.021 E444.60322
G1 X-50.315 Y-64.314 E444.65575
G1 X-49.849 Y-63.707 E444.70824
G1 X-49.242 Y-63.241 E444.76074
G1 X-48.535 Y-62.947 E444.81326
G1 X-47.776 Y-62.848 E444.86577
G0 F12000 X-47.776 Y-62.293
G1 F600 X-46.875 Y-62.411 E444.92811
G1 X-46.032 Y-62.76 E444.9907
G1 X-45.31 Y-63.315 E445.05317
G1 X-44.757 Y-64.037 E445.11555
G1 X-44.409 Y-64.876 E445.17786
G1 X-44.289 Y-65.78 E445.24042
G1 X-44.409 Y-66.683 E445.30291
G1 X-44.757 Y-67.523 E445.36528
G1 X-45.31 Y-68.245 E445.42767
G1 X-46.033 Y-68.801 E445.49024
G1 X-46.875 Y-69.148 E445.55271
G1 X-47.776 Y-69.267 E445.61505
G1 X-48.679 Y-69.148 E445.67753
G1 X-49.519 Y-68.8 E445.73991
G1 X-50.242 Y-68.246 E445.80239
G1 X-50.796 Y-67.524 E445.86482
G1 X-51.145 Y-66.681 E445.92741
G1 X-51.263 Y-65.78 E445.98974
G1 X-51.145 Y-64.877 E446.05221
G1 X-50.796 Y-64.036 E446.11468
G1 X-50.242 Y-63.314 E446.17711
G1 X-49.52 Y-62.76 E446.23953
G1 X-48.679 Y-62.411 E446.302
G1 X-47.776 Y-62.293 E446.36447
G1 F6600 E442.36447
G1 Z0.7
G0 F12000 X-71.158 Y-38.251
G0 X-71.766 Y-37.784
G0 X-72.474 Y-37.492
G0 X-73.232 Y-37.392
G0 X-73.303 Y-37.402
G0 X-73.232 Y-37.947
; TYPE:WALL-OUTER
G1 Z0.4
G1 F6600 E446.46447
G1 F600 X-72.617 Y-38.028 E446.50702
G1 X-72.043 Y-38.265 E446.54962
G1 X-71.551 Y-38.643 E446.59218
G1 X-71.174 Y-39.135 E446.6347
G1 X-70.936 Y-39.709 E446.67733
G1 X-70.855 Y-40.324 E446.71988
G1 X-70.936 Y-40.94 E446.7625
G1 X-71.174 Y-41.513 E446.80507
G1 X-71.551 Y-42.005 E446.84759
G1 X-72.043 Y-42.383 E446.89015
G1 X-72.617 Y-42.62 E446.93275
G1 X-73.232 Y-42.701 E446.9753
G1 X-73.848 Y-42.62 E447.01792
G1 X-74.421 Y-42.383 E447.06046
G1 X-74.913 Y-42.005 E447.10302
G1 X-75.291 Y-41.513 E447.14558
G1 X-75.529 Y-40.94 E447.18814
G1 X-75.609 Y-40.324 E447.23076
G1 X-75.529 Y-39.709 E447.2733
G1 X-75.291 Y-39.135 E447.31593
G1 X-74.913 Y-38.643 E447.35849
G1 X-74.421 Y-38.265 E447.40105
G1 X-73.848 Y-38.028 E447.44359
G1 X-73.232 Y-37.947 E447.48621
G0 F12000 X-73.303 Y-37.402
G0 X-73.232 Y-37.392
; TYPE:WALL-INNER
G1 F600 X-72.474 Y-37.492 E447.53866
G1 X-71.766 Y-37.784 E447.59119
G1 X-71.158 Y-38.251 E447.64378
G1 X-70.693 Y-38.858 E447.69624
G1 X-70.4 Y-39.565 E447.74874
G1 X-70.3 Y-40.324 E447.80125
G1 X-70.4 Y-41.084 E447.85384
G1 X-70.693 Y-41.79 E447.90627
G1 X-71.158 Y-42.397 E447.95873
G1 X-71.766 Y-42.864 E448.01132
G1 X-72.474 Y-43.156 E448.06386
G1 X-73.232 Y-43.256 E448.11631
G1 X-73.991 Y-43.156 E448.16882
G1 X-74.698 Y-42.864 E448.2213
G1 X-75.305 Y-42.397 E448.27383
G1 X-75.771 Y-41.79 E448.32633
G1 X-76.065 Y-41.083 E448.37885
G1 X-76.164 Y-40.324 E448.43136
G1 X-76.065 Y-39.566 E448.4838
G1 X-75.772 Y-38.858 E448.53636
G1 X-75.305 Y-38.251 E448.5889
G1 X-74.698 Y-37.784 E448.64144
G1 X-73.991 Y-37.492 E448.69391
G1 X-73.232 Y-37.392 E448.74643
G0 F12000 X-73.232 Y-36.837
G1 F600 X-72.331 Y-36.956 E448.80877
G1 X-71.489 Y-37.303 E448.87124
G1 X-70.766 Y-37.859 E448.93381
G1 X-70.213 Y-38.581 E448.9962
G1 X-69.865 Y-39.421 E449.05857
G1 X-69.745 Y-40.324 E449.12106
G1 X-69.865 Y-41.228 E449.18362
G1 X-70.213 Y-42.067 E449.24593
G1 X-70.766 Y-42.789 E449.30831
G1 X-71.489 Y-43.345 E449.37088
G1 X-72.331 Y-43.692 E449.43335
G1 X-73.232 Y-43.811 E449.4957
G1 X-74.135 Y-43.692 E449.55818
G1 X-74.975 Y-43.344 E449.62055
G1 X-75.698 Y-42.79 E449.68304
G1 X-76.252 Y-42.068 E449.74546
G1 X-76.601 Y-41.227 E449.80793
G1 X-76.719 Y-40.324 E449.8704
G1 X-76.601 Y-39.423 E449.93273
G1 X-76.252 Y-38.58 E449.99532
G1 X-75.698 Y-37.858 E450.05775
G1 X-74.975 Y-37.304 E450.12023
G1 X-74.135 Y-36.956 E450.18261
G1 X-73.232 Y-36.837 E450.24509
G1 F6600 E446.24509
G1 Z0.7
G0 F12000 X-96.173 Y-37.07
G0 X-96.244 Y-37.08
G0 X-96.173 Y-37.625
; TYPE:WALL-OUTER
G1 Z0.4
G1 F6600 E450.34509
G1 F600 X-95.648 Y-37.693 E450.3814
G1 X-95.159 Y-37.896 E450.41772
G1 X-94.74 Y-38.218 E450.45397
G1 X-94.418 Y-38.638 E450.49028
G1 X-94.215 Y-39.127 E450.5266
G1 X-94.145 Y-39.654 E450.56307
G1 X-94.225 Y-40.2 E450.60092
G1 X-94.418 Y-40.666 E450.63552
G1 X-94.74 Y-41.085 E450.67177
G1 X-95.159 Y-41.407 E450.70802
G1 X-95.648 Y-41.61 E450.74434
G1 X-96.173 Y-41.679 E450.78067
G1 X-96.698 Y-41.61 E450.81699
G1 X-97.187 Y-41.407 E450.85331
G1 X-97.607 Y-41.085 E450.88962
G1 X-97.929 Y-40.666 E450.92587
G1 X-98.132 Y-40.177 E450.96219
G1 X-98.2 Y-39.652 E450.9985
G1 X-98.132 Y-39.127 E451.03482
G1 X-97.929 Y-38.638 E451.07114
G1 X-97.607 Y-38.218 E451.10744
G1 X-97.187 Y-37.896 E451.14375
G1 X-96.698 Y-37.693 E451.18007
G1 X-96.173 Y-37.625 E451.21639
G0 F12000 X-96.244 Y-37.08
G0 X-96.173 Y-37.07
; TYPE:WALL-INNER
G1 F600 X-95.505 Y-37.157 E451.2626
G1 X-94.882 Y-37.416 E451.30888
G1 X-94.347 Y-37.826 E451.35512
G1 X-93.937 Y-38.361 E451.40136
G1 X-93.679 Y-38.983 E451.44755
G1 X-93.59 Y-39.657 E451.49419
G1 X-93.69 Y-40.347 E451.54201
G1 X-93.937 Y-40.943 E451.58627
G1 X-94.348 Y-41.477 E451.6325
G1 X-94.882 Y-41.887 E451.67868
G1 X-95.504 Y-42.146 E451.7249
G1 X-96.173 Y-42.234 E451.77119
G1 X-96.842 Y-42.146 E451.81748
G1 X-97.464 Y-41.888 E451.86367
G1 X-97.999 Y-41.478 E451.90991
G1 X-98.409 Y-40.943 E451.95615
G1 X-98.668 Y-40.32 E452.00243
G1 X-98.755 Y-39.652 E452.04864
G1 X-98.668 Y-38.984 E452.09485
G1 X-98.41 Y-38.361 E452.14111
G1 X-97.999 Y-37.826 E452.18739
G1 X-97.464 Y-37.415 E452.23367
G1 X-96.841 Y-37.157 E452.27993
G1 X-96.173 Y-37.07 E452.32614
G0 F12000 X-96.173 Y-36.515
G1 F600 X-95.362 Y-36.621 E452.38225
G1 X-94.604 Y-36.935 E452.43853
G1 X-93.955 Y-37.434 E452.49469
G1 X-93.457 Y-38.084 E452.55086
G1 X-93.144 Y-38.839 E452.60693
G1 X-93.035 Y-39.661 E452.66381
G1 X-93.156 Y-40.494 E452.72155
G1 X-93.457 Y-41.221 E452.77553
G1 X-93.955 Y-41.87 E452.83164
G1 X-94.604 Y-42.368 E452.88776
G1 X-95.36 Y-42.681 E452.94389
G1 X-96.173 Y-42.789 E453.00015
G1 X-96.986 Y-42.681 E453.05641
G1 X-97.741 Y-42.368 E453.11248
G1 X-98.391 Y-41.87 E453.16865
G1 X-98.89 Y-41.221 E453.22481
G1 X-99.204 Y-40.463 E453.28109
G1 X-99.31 Y-39.652 E453.3372
G1 X-99.204 Y-38.841 E453.39331
G1 X-98.89 Y-38.084 E453.44953
G1 X-98.392 Y-37.433 E453.50575
G1 X-97.741 Y-36.935 E453.56198
G1 X-96.984 Y-36.621 E453.6182
G1 X-96.173 Y-36.515 E453.67431
G1 F6600 E449.67431
G1 Z0.7
G0 F12000 X-100.013 Y-15.462
G0 X-100.346 Y-14.658
G0 X-100.876 Y-13.968
G0 X-101.566 Y-13.438
G0 X-102.37 Y-13.105
G0 X-103.232 Y-12.992
G0 X-103.303 Y-13.002
G0 X-103.232 Y-13.547
; TYPE:WALL-OUTER
G1 Z0.4
G1 F6600 E453.77431
G1 F600 X-102.513 Y-13.641 E453.82405
G1 X-101.843 Y-13.919 E453.87381
G1 X-101.268 Y-14.36 E453.92352
G1 X-100.827 Y-14.935 E453.97323
G1 X-100.549 Y-15.605 E454.02299
G1 X-100.455 Y-16.325 E454.0728
G1 X-100.554 Y-17.054 E454.12327
G1 X-100.827 Y-17.713 E454.1722
G1 X-101.268 Y-18.288 E454.22191
G1 X-101.843 Y-18.729 E454.27162
G1 X-102.513 Y-19.007 E454.32138
G1 X-103.232 Y-19.101 E454.37112
G1 X-103.951 Y-19.007 E454.42087
G1 X-104.621 Y-18.729 E454.47063
G1 X-105.196 Y-18.288 E454.52034
G1 X-105.637 Y-17.713 E454.57005
G1 X-105.915 Y-17.043 E454.61981
G1 X-106.009 Y-16.324 E454.66955
G1 X-105.915 Y-15.605 E454.71929
G1 X-105.637 Y-14.935 E454.76905
G1 X-105.196 Y-14.36 E454.81876
G1 X-104.621 Y-13.919 E454.86847
G1 X-103.951 Y-13.641 E454.91823
G1 X-103.232 Y-13.547 E454.96798
G0 F12000 X-103.303 Y-13.002
G0 X-103.232 Y-12.992
; TYPE:WALL-INNER
G1 F600 X-102.37 Y-13.105 E455.02761
G1 X-101.566 Y-13.438 E455.08731
G1 X-100.876 Y-13.968 E455.147
G1 X-100.346 Y-14.658 E455.20668
G1 X-100.013 Y-15.462 E455.26638
G1 X-99.9 Y-16.326 E455.32615
G1 X-100.019 Y-17.199 E455.38659
G1 X-100.346 Y-17.99 E455.44531
G1 X-100.876 Y-18.68 E455.50499
G1 X-101.566 Y-19.21 E455.56468
G1 X-102.37 Y-19.543 E455.62438
G1 X-103.232 Y-19.656 E455.68401
G1 X-104.094 Y-19.543 E455.74365
G1 X-104.898 Y-19.21 E455.80335
G1 X-105.588 Y-18.68 E455.86304
G1 X-106.118 Y-17.99 E455.92272
G1 X-106.451 Y-17.186 E455.98242
G1 X-106.564 Y-16.324 E456.04206
G1 X-106.451 Y-15.462 E456.10169
G1 X-106.118 Y-14.658 E456.16139
G1 X-105.588 Y-13.968 E456.22108
G1 X-104.898 Y-13.438 E456.28076
G1 X-104.094 Y-13.105 E456.34046
G1 X-103.232 Y-12.992 E456.4001
G0 F12000 X-103.232 Y-12.437
G1 F600 X-102.226 Y-12.569 E456.4697
G1 X-101.289 Y-12.958 E456.5393
G1 X-100.483 Y-13.575 E456.60893
G1 X-99.866 Y-14.381 E456.67856
G1 X-99.477 Y-15.318 E456.74815
G1 X-99.345 Y-16.328 E456.81803
G1 X-99.484 Y-17.344 E456.88837
G1 X-99.866 Y-18.267 E456.9569
G1 X-100.483 Y-19.073 E457.02653
G1 X-101.289 Y-19.69 E457.09616
G1 X-102.226 Y-20.079 E457.16576
G1 X-103.232 Y-20.211 E457.23536
G1 X-104.238 Y-20.079 E457.30496
G1 X-105.175 Y-19.69 E457.37456
G1 X-105.981 Y-19.073 E457.44419
G1 X-106.598 Y-18.267 E457.51382
G1 X-106.987 Y-17.33 E457.58342
G1 X-107.119 Y-16.324 E457.65302
G1 X-106.987 Y-15.318 E457.72262
G1 X-106.598 Y-14.381 E457.79222
G1 X-105.981 Y-13.575 E457.86185
G1 X-105.175 Y-12.958 E457.93148
G1 X-104.238 Y-12.569 E458.00108
G1 X-103.232 Y-12.437 E458.07068
G1 F6600 E454.07068
G1 Z0.7
G0 F12000 X-101.566 Y-13.438
G0 X-100.876 Y-13.968
G0 X-100.346 Y-14.658
G0 X-100.013 Y-15.462
G0 X-99.9 Y-16.326
G0 X-100.88 Y-64.979
G0 X-100.809 Y-65.524
; TYPE:WALL-OUTER
G1 Z0.4
G1 F6600 E458.17068
G1 F600 X-100.194 Y-65.605 E458.21323
G1 X-99.62 Y-65.843 E458.25586
G1 X-99.128 Y-66.22 E458.29838
G1 X-98.751 Y-66.712 E458.3409
G1 X-98.513 Y-67.286 E458.38353
G1 X-98.432 Y-67.901 E458.42608
G1 X-98.513 Y-68.517 E458.4687
G1 X-98.751 Y-69.09 E458.51126
G1 X-99.128 Y-69.582 E458.55378
G1 X-99.62 Y-69.96 E458.59634
G1 X-100.194 Y-70.198 E458.63897
G1 X-100.809 Y-70.278 E458.68152
G1 X-101.425 Y-70.198 E458.72413
G1 X-101.998 Y-69.96 E458.76669
G1 X-102.49 Y-69.582 E458.80925
G1 X-102.868 Y-69.09 E458.85181
G1 X-103.106 Y-68.517 E458.89438
G1 X-103.186 Y-67.901 E458.93699
G1 X-103.106 Y-67.286 E458.97953
G1 X-102.868 Y-66.712 E459.02216
G1 X-102.49 Y-66.22 E459.06472
G1 X-101.998 Y-65.843 E459.10724
G1 X-101.425 Y-65.605 E459.1498
G1 X-100.809 Y-65.524 E459.19242
G0 F12000 X-100.88 Y-64.979
G0 X-100.809 Y-64.969
; TYPE:WALL-INNER
G1 F600 X-100.05 Y-65.069 E459.24494
G1 X-99.343 Y-65.362 E459.29744
G1 X-98.736 Y-65.828 E459.34994
G1 X-98.27 Y-66.435 E459.40243
G1 X-97.977 Y-67.142 E459.45493
G1 X-97.877 Y-67.901 E459.50745
G1 X-97.977 Y-68.661 E459.56003
G1 X-98.27 Y-69.367 E459.61247
G1 X-98.735 Y-69.974 E459.66492
G1 X-99.343 Y-70.441 E459.71751
G1 X-100.051 Y-70.734 E459.77008
G1 X-100.809 Y-70.833 E459.82252
G1 X-101.568 Y-70.734 E459.87502
G1 X-102.275 Y-70.44 E459.92755
G1 X-102.882 Y-69.974 E459.98004
G1 X-103.348 Y-69.367 E460.03254
G1 X-103.642 Y-68.66 E460.08507
G1 X-103.741 Y-67.901 E460.13757
G1 X-103.642 Y-67.143 E460.19001
G1 X-103.349 Y-66.435 E460.24258
G1 X-102.882 Y-65.827 E460.29517
G1 X-102.275 Y-65.362 E460.34762
G1 X-101.569 Y-65.069 E460.40006
G1 X-100.809 Y-64.969 E460.45264
G0 F12000 X-100.809 Y-64.414
G1 F600 X-99.906 Y-64.534 E460.51513
G1 X-99.066 Y-64.882 E460.5775
G1 X-98.343 Y-65.435 E460.63994
G1 X-97.79 Y-66.158 E460.70239
G1 X-97.442 Y-66.998 E460.76476
G1 X-97.322 Y-67.901 E460.82725
G1 X-97.442 Y-68.805 E460.88981
G1 X-97.79 Y-69.644 E460.95211
G1 X-98.343 Y-70.366 E461.0145
G1 X-99.065 Y-70.921 E461.07697
G1 X-99.908 Y-71.27 E461.13956
G1 X-100.809 Y-71.388 E461.2019
G1 X-101.712 Y-71.27 E461.26437
G1 X-102.553 Y-70.921 E461.32683
G1 X-103.275 Y-70.367 E461.38926
G1 X-103.829 Y-69.645 E461.45169
G1 X-104.178 Y-68.804 E461.51415
G1 X-104.296 Y-67.901 E461.57662
G1 X-104.178 Y-67 E461.63896
G1 X-103.829 Y-66.157 E461.70155
G1 X-103.274 Y-65.435 E461.76402
G1 X-102.552 Y-64.882 E461.8264
G1 X-101.713 Y-64.534 E461.88871
G1 X-100.809 Y-64.414 E461.95127
G1 F6600 E457.95127
G1 Z0.7
G0 F12000 X-99.343 Y-65.362
G0 X-98.736 Y-65.828
G0 X-75.424 Y-90.435
G0 X-75.353 Y-90.98
; TYPE:WALL-OUTER
G1 Z0.4
G1 F6600 E462.05127
G1 F600 X-74.738 Y-91.061 E462.09382
G1 X-74.164 Y-91.298 E462.13642
G1 X-73.673 Y-91.676 E462.17893
G1 X-73.295 Y-92.168 E462.22149
G1 X-73.057 Y-92.742 E462.26412
G1 X-72.976 Y-93.357 E462.30667
G1 X-73.057 Y-93.973 E462.34929
G1 X-73.295 Y-94.546 E462.39186
G1 X-73.673 Y-95.038 E462.43442
G1 X-74.164 Y-95.416 E462.47693
G1 X-74.738 Y-95.653 E462.51953
G1 X-75.353 Y-95.734 E462.56208
G1 X-75.969 Y-95.653 E462.6047
G1 X-76.542 Y-95.416 E462.64724
G1 X-77.034 Y-95.038 E462.6898
G1 X-77.412 Y-94.546 E462.73236
G1 X-77.65 Y-93.973 E462.77492
G1 X-77.73 Y-93.357 E462.81753
G1 X-77.65 Y-92.742 E462.86008
G1 X-77.412 Y-92.168 E462.9027
G1 X-77.034 Y-91.676 E462.94527
G1 X-76.542 Y-91.298 E462.98783
G1 X-75.969 Y-91.061 E463.03036
G1 X-75.353 Y-90.98 E463.07299
G0 F12000 X-75.424 Y-90.435
G0 X-75.353 Y-90.425
; TYPE:WALL-INNER
G1 F600 X-74.595 Y-90.525 E463.12543
G1 X-73.887 Y-90.817 E463.17797
G1 X-73.28 Y-91.284 E463.23051
G1 X-72.814 Y-91.891 E463.283
G1 X-72.521 Y-92.598 E463.3355
G1 X-72.421 Y-93.357 E463.38802
G1 X-72.521 Y-94.117 E463.4406
G1 X-72.815 Y-94.823 E463.49307
G1 X-73.28 Y-95.43 E463.54552
G1 X-73.887 Y-95.897 E463.59806
G1 X-74.595 Y-96.189 E463.65059
G1 X-75.353 Y-96.289 E463.70304
G1 X-76.112 Y-96.189 E463.75556
G1 X-76.819 Y-95.897 E463.80803
G1 X-77.426 Y-95.43 E463.86057
G1 X-77.892 Y-94.823 E463.91306
G1 X-78.186 Y-94.116 E463.96559
G1 X-78.285 Y-93.357 E464.0181
G1 X-78.186 Y-92.599 E464.07054
G1 X-77.893 Y-91.891 E464.1231
G1 X-77.426 Y-91.284 E464.17564
G1 X-76.819 Y-90.817 E464.22817
G1 X-76.112 Y-90.525 E464.28065
G1 X-75.353 Y-90.425 E464.33316
G0 F12000 X-75.353 Y-89.87
G1 F600 X-74.452 Y-89.989 E464.39551
G1 X-73.61 Y-90.337 E464.45801
G1 X-72.888 Y-90.892 E464.52048
G1 X-72.334 Y-91.613 E464.58285
G1 X-71.986 Y-92.454 E464.64529
G1 X-71.866 Y-93.357 E464.70778
G1 X-71.986 Y-94.261 E464.77034
G1 X-72.334 Y-95.101 E464.83271
G1 X-72.888 Y-95.822 E464.89508
G1 X-73.61 Y-96.377 E464.95755
G1 X-74.452 Y-96.725 E465.02005
G1 X-75.353 Y-96.844 E465.0824
G1 X-76.256 Y-96.725 E465.14488
G1 X-77.096 Y-96.377 E465.20725
G1 X-77.819 Y-95.823 E465.26973
G1 X-78.373 Y-95.101 E465.33216
G1 X-78.722 Y-94.26 E465.39462
G1 X-78.84 Y-93.357 E465.4571
G1 X-78.722 Y-92.456 E465.51943
G1 X-78.373 Y-91.613 E465.58202
G1 X-77.819 Y-90.891 E465.64445
G1 X-77.096 Y-90.337 E465.70693
G1 X-76.256 Y-89.989 E465.76931
G1 X-75.353 Y-89.87 E465.83179
G1 F6600 E461.83179
G1 Z0.7
G0 F12000 X0.259 Y-107.081
G0 X0.202 Y-107.628
; TYPE:WALL-OUTER
G1 Z0.4
G1 F6600 E465.93179
G1 F600 X0.792 Y-107.689 E465.97248
G1 X1.346 Y-107.902 E466.01319
G1 X1.825 Y-108.252 E466.05389
G1 X2.199 Y-108.714 E466.09466
G1 X2.44 Y-109.257 E466.13542
G1 X2.531 Y-109.843 E466.1761
G1 X2.47 Y-110.433 E466.21679
G1 X2.257 Y-110.988 E466.25757
G1 X1.907 Y-111.467 E466.29826
G1 X1.446 Y-111.841 E466.33898
G1 X0.902 Y-112.082 E466.3798
G1 X0.317 Y-112.173 E466.42041
G1 X-0.272 Y-112.111 E466.46104
G1 X-0.826 Y-111.899 E466.50173
G1 X-1.306 Y-111.549 E466.54248
G1 X-1.68 Y-111.088 E466.58321
G1 X-1.921 Y-110.544 E466.62402
G1 X-2.012 Y-109.958 E466.6647
G1 X-1.95 Y-109.367 E466.70547
G1 X-1.738 Y-108.814 E466.7461
G1 X-1.388 Y-108.334 E466.78685
G1 X-0.926 Y-107.96 E466.82762
G1 X-0.383 Y-107.719 E466.86838
G1 X0.202 Y-107.628 E466.90899
G0 F12000 X0.259 Y-107.081
G0 X0.188 Y-107.073
; TYPE:WALL-INNER
G1 F600 X0.921 Y-107.15 E466.95955
G1 X1.611 Y-107.415 E467.01025
G1 X2.208 Y-107.85 E467.06093
G1 X2.672 Y-108.425 E467.11161
G1 X2.972 Y-109.1 E467.16228
G1 X3.086 Y-109.829 E467.2129
G1 X3.009 Y-110.562 E467.26346
G1 X2.744 Y-111.253 E467.31423
G1 X2.309 Y-111.849 E467.36484
G1 X1.736 Y-112.314 E467.41547
G1 X1.059 Y-112.614 E467.46626
G1 X0.33 Y-112.728 E467.51688
G1 X-0.401 Y-112.65 E467.56731
G1 X-1.091 Y-112.386 E467.61799
G1 X-1.688 Y-111.951 E467.66866
G1 X-2.153 Y-111.378 E467.71928
G1 X-2.453 Y-110.701 E467.77008
G1 X-2.567 Y-109.971 E467.82076
G1 X-2.489 Y-109.238 E467.87133
G1 X-2.225 Y-108.549 E467.92195
G1 X-1.79 Y-107.951 E467.97267
G1 X-1.215 Y-107.487 E468.02336
G1 X-0.54 Y-107.187 E468.07403
G1 X0.188 Y-107.073 E468.12458
G0 F12000 X0.174 Y-106.519
G1 F600 X1.051 Y-106.61 E468.18506
G1 X1.876 Y-106.928 E468.24572
G1 X2.59 Y-107.448 E468.30631
G1 X3.145 Y-108.135 E468.36689
G1 X3.505 Y-108.943 E468.42758
G1 X3.64 Y-109.815 E468.48811
G1 X3.549 Y-110.691 E468.54852
G1 X3.231 Y-111.518 E468.6093
G1 X2.711 Y-112.231 E468.66984
G1 X2.025 Y-112.787 E468.73042
G1 X1.216 Y-113.147 E468.79116
G1 X0.344 Y-113.282 E468.85169
G1 X-0.53 Y-113.189 E468.91198
G1 X-1.356 Y-112.874 E468.97263
G1 X-2.07 Y-112.353 E469.03326
G1 X-2.626 Y-111.667 E469.09383
G1 X-2.986 Y-110.858 E469.15458
G1 X-3.121 Y-109.985 E469.21518
G1 X-3.028 Y-109.108 E469.27568
G1 X-2.713 Y-108.284 E469.33619
G1 X-2.192 Y-107.569 E469.39688
G1 X-1.505 Y-107.014 E469.45746
G1 X-0.697 Y-106.654 E469.51814
G1 X0.174 Y-106.519 E469.57861
G1 F6600 E465.57861
G1 Z0.7
G0 F12000 X45.815 Y-86.485
G0 X46.437 Y-86.227
G0 X47.035 Y-86.149
G0 X47.106 Y-86.694
; TYPE:WALL-OUTER
G1 Z0.4
G1 F6600 E469.67861
G1 F600 X47.631 Y-86.763 E469.71493
G1 X48.12 Y-86.966 E469.75125
G1 X48.539 Y-87.288 E469.7875
G1 X48.861 Y-87.707 E469.82375
G1 X49.064 Y-88.196 E469.86007
G1 X49.134 Y-88.723 E469.89654
G1 X49.054 Y-89.269 E469.9344
G1 X48.861 Y-89.735 E469.969
G1 X48.539 Y-90.154 E470.00525
G1 X48.12 Y-90.477 E470.04154
G1 X47.631 Y-90.679 E470.07783
G1 X47.106 Y-90.748 E470.11416
G1 X46.581 Y-90.679 E470.15048
G1 X46.092 Y-90.477 E470.18678
G1 X45.672 Y-90.154 E470.22312
G1 X45.35 Y-89.735 E470.25937
G1 X45.147 Y-89.246 E470.29569
G1 X45.079 Y-88.721 E470.33201
G1 X45.147 Y-88.196 E470.36833
G1 X45.35 Y-87.707 E470.40465
G1 X45.672 Y-87.288 E470.4409
G1 X46.092 Y-86.966 E470.4772
G1 X46.581 Y-86.763 E470.51352
G1 X47.106 Y-86.694 E470.54985
G0 F12000 X47.035 Y-86.149
G0 X47.106 Y-86.139
; TYPE:WALL-INNER
G1 F600 X47.775 Y-86.227 E470.59613
G1 X48.397 Y-86.486 E470.64235
G1 X48.931 Y-86.896 E470.68854
G1 X49.341 Y-87.43 E470.73472
G1 X49.6 Y-88.052 E470.78094
G1 X49.689 Y-88.726 E470.82758
G1 X49.589 Y-89.416 E470.87541
G1 X49.342 Y-90.012 E470.91966
G1 X48.932 Y-90.546 E470.96585
G1 X48.397 Y-90.958 E471.01217
G1 X47.774 Y-91.215 E471.0584
G1 X47.106 Y-91.303 E471.10462
G1 X46.438 Y-91.215 E471.15084
G1 X45.815 Y-90.958 E471.19707
G1 X45.28 Y-90.546 E471.24339
G1 X44.87 Y-90.012 E471.28958
G1 X44.611 Y-89.389 E471.33586
G1 X44.524 Y-88.721 E471.38207
G1 X44.611 Y-88.053 E471.42828
G1 X44.87 Y-87.43 E471.47456
G1 X45.28 Y-86.895 E471.5208
G1 X45.815 Y-86.485 E471.56704
G1 X46.437 Y-86.227 E471.61323
G1 X47.106 Y-86.139 E471.65952
G0 F12000 X47.106 Y-85.584
G1 F600 X47.919 Y-85.692 E471.71578
G1 X48.675 Y-86.005 E471.77191
G1 X49.324 Y-86.503 E471.82803
G1 X49.822 Y-87.152 E471.88415
G1 X50.135 Y-87.908 E471.94028
G1 X50.244 Y-88.73 E471.99716
G1 X50.123 Y-89.563 E472.0549
G1 X49.822 Y-90.29 E472.10888
G1 X49.324 Y-90.938 E472.16494
G1 X48.675 Y-91.438 E472.22114
G1 X47.917 Y-91.751 E472.2774
G1 X47.106 Y-91.858 E472.33352
G1 X46.295 Y-91.751 E472.38963
G1 X45.538 Y-91.439 E472.4458
G1 X44.887 Y-90.938 E472.50215
G1 X44.389 Y-90.29 E472.55821
G1 X44.075 Y-89.532 E472.6145
G1 X43.969 Y-88.721 E472.6706
G1 X44.075 Y-87.91 E472.72671
G1 X44.389 Y-87.152 E472.78299
G1 X44.888 Y-86.503 E472.83915
G1 X45.538 Y-86.005 E472.89533
G1 X46.293 Y-85.692 E472.95139
G1 X47.106 Y-85.584 E473.00765
G1 F6600 E469.00765
G1 Z0.7
G0 F12000 X44.846 Y-65.78
G0 X44.946 Y-65.021
G0 X45.238 Y-64.314
G0 X45.705 Y-63.707
G0 X46.312 Y-63.24
G0 X47.02 Y-62.947
G0 X47.707 Y-62.858
G0 X47.778 Y-63.403
; TYPE:WALL-OUTER
G1 Z0.4
G1 F6600 E473.10765
G1 F600 X48.394 Y-63.483 E473.15027
G1 X48.967 Y-63.721 E473.19283
G1 X49.459 Y-64.099 E473.23539
G1 X49.837 Y-64.591 E473.27795
G1 X50.074 Y-65.164 E473.32049
G1 X50.155 Y-65.78 E473.36311
G1 X50.074 Y-66.395 E473.40566
G1 X49.837 Y-66.969 E473.44826
G1 X49.459 Y-67.461 E473.49082
G1 X48.967 Y-67.839 E473.53339
G1 X48.394 Y-68.076 E473.57592
G1 X47.778 Y-68.157 E473.61854
G1 X47.163 Y-68.076 E473.6611
G1 X46.589 Y-67.839 E473.7037
G1 X46.097 Y-67.461 E473.74626
G1 X45.719 Y-66.969 E473.78882
G1 X45.482 Y-66.395 E473.83142
G1 X45.401 Y-65.78 E473.87397
G1 X45.482 Y-65.164 E473.91659
G1 X45.719 Y-64.591 E473.95913
G1 X46.097 Y-64.099 E474.00169
G1 X46.589 Y-63.721 E474.04425
G1 X47.163 Y-63.483 E474.08688
G1 X47.778 Y-63.403 E474.12942
G0 F12000 X47.707 Y-62.858
G0 X47.778 Y-62.848
; TYPE:WALL-INNER
G1 F600 X48.537 Y-62.947 E474.18193
G1 X49.244 Y-63.241 E474.23446
G1 X49.851 Y-63.707 E474.28695
G1 X50.318 Y-64.314 E474.33949
G1 X50.61 Y-65.021 E474.39196
G1 X50.71 Y-65.78 E474.44448
G1 X50.61 Y-66.538 E474.49693
G1 X50.318 Y-67.246 E474.54946
G1 X49.851 Y-67.853 E474.602
G1 X49.244 Y-68.32 E474.65454
G1 X48.537 Y-68.612 E474.70701
G1 X47.778 Y-68.712 E474.75953
G1 X47.02 Y-68.612 E474.81198
G1 X46.312 Y-68.32 E474.86451
G1 X45.705 Y-67.853 E474.91705
G1 X45.238 Y-67.246 E474.96959
G1 X44.946 Y-66.538 E475.02212
G1 X44.846 Y-65.78 E475.07457
G1 X44.946 Y-65.021 E475.12709
G1 X45.238 Y-64.314 E475.17956
G1 X45.705 Y-63.707 E475.2321
G1 X46.312 Y-63.24 E475.28464
G1 X47.02 Y-62.947 E475.3372
G1 X47.778 Y-62.848 E475.38964
G0 F12000 X47.778 Y-62.293
G1 F600 X48.681 Y-62.411 E475.45211
G1 X49.522 Y-62.76 E475.51457
G1 X50.244 Y-63.314 E475.577
G1 X50.798 Y-64.037 E475.63949
G1 X51.146 Y-64.877 E475.70186
G1 X51.265 Y-65.78 E475.76434
G1 X51.146 Y-66.681 E475.82668
G1 X50.799 Y-67.523 E475.88916
G1 X50.244 Y-68.246 E475.95168
G1 X49.521 Y-68.8 E476.01416
G1 X48.681 Y-69.148 E476.07654
G1 X47.778 Y-69.267 E476.13902
G1 X46.877 Y-69.148 E476.20136
G1 X46.035 Y-68.801 E476.26384
G1 X45.312 Y-68.246 E476.32636
G1 X44.757 Y-67.523 E476.38889
G1 X44.41 Y-66.681 E476.45136
G1 X44.291 Y-65.78 E476.5137
G1 X44.41 Y-64.877 E476.57618
G1 X44.758 Y-64.037 E476.63856
G1 X45.312 Y-63.314 E476.70104
G1 X46.034 Y-62.76 E476.76347
G1 X46.877 Y-62.411 E476.82606
G1 X47.778 Y-62.293 E476.88839
G0 F12000 X45.827 Y-50.02
G0 X45.748 Y-49.417
G0 X45.827 Y-48.814
G0 X46.06 Y-48.251
G0 X46.431 Y-47.768
G0 X46.914 Y-47.397
G0 X47.475 Y-47.164
G0 X48.009 Y-47.095
G0 X48.08 Y-47.64
; TYPE:WALL-OUTER
G1 F600 X48.54 Y-47.7 E476.92022
G1 X48.969 Y-47.878 E476.95208
G1 X49.336 Y-48.16 E476.98383
G1 X49.619 Y-48.528 E477.01567
G1 X49.797 Y-48.957 E477.04753
G1 X49.858 Y-49.419 E477.0795
G1 X49.789 Y-49.896 E477.11256
G1 X49.619 Y-50.306 E477.14301
G1 X49.336 Y-50.674 E477.17486
G1 X48.969 Y-50.956 E477.20661
G1 X48.54 Y-51.134 E477.23847
G1 X48.08 Y-51.194 E477.27029
G1 X47.619 Y-51.134 E477.30218
G1 X47.191 Y-50.956 E477.33398
G1 X46.823 Y-50.674 E477.36579
G1 X46.541 Y-50.306 E477.39759
G1 X46.363 Y-49.877 E477.42945
G1 X46.303 Y-49.417 E477.46127
G1 X46.363 Y-48.957 E477.4931
G1 X46.541 Y-48.528 E477.52496
G1 X46.823 Y-48.16 E477.55676
G1 X47.191 Y-47.878 E477.58857
G1 X47.619 Y-47.7 E477.62037
G1 X48.08 Y-47.64 E477.65226
G0 F12000 X48.009 Y-47.095
G0 X48.08 Y-47.085
; TYPE:WALL-INNER
G1 F600 X48.683 Y-47.164 E477.69398
G1 X49.246 Y-47.397 E477.73577
G1 X49.728 Y-47.768 E477.7775
G1 X50.099 Y-48.251 E477.81928
G1 X50.333 Y-48.814 E477.8611
G1 X50.413 Y-49.422 E477.90317
G1 X50.324 Y-50.043 E477.94621
G1 X50.099 Y-50.584 E477.9864
G1 X49.728 Y-51.066 E478.02812
G1 X49.246 Y-51.437 E478.06985
G1 X48.683 Y-51.67 E478.11165
G1 X48.08 Y-51.749 E478.15337
G1 X47.475 Y-51.67 E478.19522
G1 X46.914 Y-51.437 E478.23689
G1 X46.431 Y-51.066 E478.27867
G1 X46.06 Y-50.583 E478.32045
G1 X45.827 Y-50.02 E478.36225
G1 X45.748 Y-49.417 E478.40397
G1 X45.827 Y-48.814 E478.44569
G1 X46.06 Y-48.251 E478.48748
G1 X46.431 Y-47.768 E478.52926
G1 X46.914 Y-47.397 E478.57104
G1 X47.475 Y-47.164 E478.61272
G1 X48.08 Y-47.085 E478.65457
G0 F12000 X48.08 Y-46.53
G1 F600 X48.827 Y-46.628 E478.70625
G1 X49.524 Y-46.917 E478.75801
G1 X50.12 Y-47.375 E478.80958
G1 X50.58 Y-47.973 E478.86133
G1 X50.869 Y-48.67 E478.91309
G1 X50.968 Y-49.425 E478.96533
G1 X50.859 Y-50.19 E479.01834
G1 X50.579 Y-50.862 E479.06828
G1 X50.12 Y-51.459 E479.11993
G1 X49.524 Y-51.917 E479.1715
G1 X48.827 Y-52.206 E479.22326
G1 X48.08 Y-52.304 E479.27494
G1 X47.332 Y-52.206 E479.32669
G1 X46.637 Y-51.917 E479.37832
G1 X46.038 Y-51.459 E479.43005
G1 X45.58 Y-50.86 E479.48178
G1 X45.291 Y-50.164 E479.53347
G1 X45.193 Y-49.417 E479.58516
G1 X45.291 Y-48.67 E479.63684
G1 X45.58 Y-47.974 E479.68854
G1 X46.038 Y-47.375 E479.74026
G1 X46.637 Y-46.917 E479.79199
G1 X47.332 Y-46.628 E479.84362
G1 X48.08 Y-46.53 E479.89537
G1 F6600 E475.89537
G1 Z0.7
G0 F12000 X72.475 Y-37.492
G0 X73.163 Y-37.402
G0 X73.234 Y-37.947
; TYPE:WALL-OUTER
G1 Z0.4
G1 F6600 E479.99537
G1 F600 X73.849 Y-38.028 E480.03793
G1 X74.423 Y-38.265 E480.08053
G1 X74.915 Y-38.643 E480.12309
G1 X75.293 Y-39.135 E480.16565
G1 X75.53 Y-39.709 E480.20825
G1 X75.611 Y-40.324 E480.2508
G1 X75.53 Y-40.94 E480.29342
G1 X75.293 Y-41.513 E480.33596
G1 X74.915 Y-42.005 E480.37852
G1 X74.423 Y-42.383 E480.42108
G1 X73.849 Y-42.62 E480.46368
G1 X73.234 Y-42.701 E480.50624
G1 X72.618 Y-42.62 E480.54886
G1 X72.045 Y-42.383 E480.59139
G1 X71.553 Y-42.005 E480.63396
G1 X71.175 Y-41.513 E480.67652
G1 X70.937 Y-40.94 E480.71908
G1 X70.857 Y-40.324 E480.76169
G1 X70.937 Y-39.709 E480.80424
G1 X71.175 Y-39.135 E480.84686
G1 X71.553 Y-38.643 E480.88942
G1 X72.045 Y-38.265 E480.93199
G1 X72.618 Y-38.028 E480.97452
G1 X73.234 Y-37.947 E481.01714
G0 F12000 X73.163 Y-37.402
G0 X73.234 Y-37.392
; TYPE:WALL-INNER
G1 F600 X73.992 Y-37.492 E481.06959
G1 X74.7 Y-37.784 E481.12213
G1 X75.307 Y-38.251 E481.17467
G1 X75.774 Y-38.858 E481.2272
G1 X76.066 Y-39.566 E481.27974
G1 X76.166 Y-40.324 E481.33219
G1 X76.066 Y-41.083 E481.3847
G1 X75.774 Y-41.79 E481.43718
G1 X75.307 Y-42.397 E481.48971
G1 X74.7 Y-42.864 E481.54225
G1 X73.992 Y-43.156 E481.59479
G1 X73.234 Y-43.256 E481.64724
G1 X72.475 Y-43.156 E481.69975
G1 X71.768 Y-42.864 E481.75223
G1 X71.161 Y-42.397 E481.80476
G1 X70.695 Y-41.79 E481.85726
G1 X70.401 Y-41.083 E481.90979
G1 X70.302 Y-40.324 E481.96229
G1 X70.401 Y-39.566 E482.01473
G1 X70.694 Y-38.858 E482.0673
G1 X71.161 Y-38.251 E482.11983
G1 X71.768 Y-37.784 E482.17237
G1 X72.475 Y-37.492 E482.22484
G1 X73.234 Y-37.392 E482.27736
G0 F12000 X73.234 Y-36.837
G1 F600 X74.135 Y-36.956 E482.3397
G1 X74.977 Y-37.303 E482.40218
G1 X75.7 Y-37.858 E482.4647
G1 X76.255 Y-38.581 E482.52723
G1 X76.602 Y-39.423 E482.5897
G1 X76.721 Y-40.324 E482.65204
G1 X76.602 Y-41.227 E482.71453
G1 X76.254 Y-42.067 E482.7769
G1 X75.7 Y-42.79 E482.83938
G1 X74.977 Y-43.345 E482.90191
G1 X74.135 Y-43.692 E482.96438
G1 X73.234 Y-43.811 E483.02672
G1 X72.331 Y-43.692 E483.0892
G1 X71.491 Y-43.344 E483.15158
G1 X70.768 Y-42.79 E483.21406
G1 X70.214 Y-42.068 E483.27649
G1 X69.865 Y-41.227 E483.33895
G1 X69.747 Y-40.324 E483.40142
G1 X69.865 Y-39.423 E483.46376
G1 X70.214 Y-38.58 E483.52635
G1 X70.768 Y-37.858 E483.58878
G1 X71.491 Y-37.304 E483.65126
G1 X72.331 Y-36.956 E483.71363
G1 X73.234 Y-36.837 E483.77611
G1 F6600 E479.77611
G1 Z0.7
G0 F12000 X96.104 Y-37.08
G0 X96.175 Y-37.625
; TYPE:WALL-OUTER
G1 Z0.4
G1 F6600 E483.87611
G1 F600 X96.7 Y-37.693 E483.91243
G1 X97.189 Y-37.896 E483.94875
G1 X97.608 Y-38.218 E483.985
G1 X97.931 Y-38.638 E484.02134
G1 X98.133 Y-39.127 E484.05764
G1 X98.203 Y-39.654 E484.09411
G1 X98.123 Y-40.199 E484.1319
G1 X97.931 Y-40.666 E484.16653
G1 X97.608 Y-41.085 E484.20282
G1 X97.189 Y-41.407 E484.23908
G1 X96.7 Y-41.61 E484.2754
G1 X96.175 Y-41.679 E484.31172
G1 X95.65 Y-41.61 E484.34804
G1 X95.161 Y-41.407 E484.38436
G1 X94.742 Y-41.085 E484.42061
G1 X94.42 Y-40.666 E484.45687
G1 X94.217 Y-40.177 E484.49319
G1 X94.148 Y-39.652 E484.52951
G1 X94.217 Y-39.127 E484.56583
G1 X94.42 Y-38.638 E484.60215
G1 X94.742 Y-38.218 E484.63846
G1 X95.161 Y-37.896 E484.67471
G1 X95.65 Y-37.693 E484.71103
G1 X96.175 Y-37.625 E484.74735
G0 F12000 X96.104 Y-37.08
G0 X96.175 Y-37.07
; TYPE:WALL-INNER
G1 F600 X96.843 Y-37.157 E484.79356
G1 X97.466 Y-37.416 E484.83984
G1 X98 Y-37.826 E484.88602
G1 X98.412 Y-38.361 E484.93235
G1 X98.669 Y-38.984 E484.97858
G1 X98.758 Y-39.657 E485.02515
G1 X98.658 Y-40.346 E485.07291
G1 X98.412 Y-40.943 E485.1172
G1 X98 Y-41.478 E485.16352
G1 X97.466 Y-41.887 E485.20966
G1 X96.844 Y-42.146 E485.25588
G1 X96.175 Y-42.234 E485.30217
G1 X95.506 Y-42.146 E485.34846
G1 X94.884 Y-41.887 E485.39468
G1 X94.35 Y-41.477 E485.44086
G1 X93.94 Y-40.943 E485.48705
G1 X93.681 Y-40.321 E485.53327
G1 X93.593 Y-39.652 E485.57955
G1 X93.681 Y-38.983 E485.62584
G1 X93.939 Y-38.361 E485.67204
G1 X94.349 Y-37.826 E485.71827
G1 X94.884 Y-37.416 E485.76451
G1 X95.507 Y-37.157 E485.8108
G1 X96.175 Y-37.07 E485.85701
G0 F12000 X96.175 Y-36.515
G1 F600 X96.986 Y-36.621 E485.91311
G1 X97.744 Y-36.935 E485.9694
G1 X98.392 Y-37.433 E486.02546
G1 X98.893 Y-38.084 E486.08181
G1 X99.205 Y-38.841 E486.13798
G1 X99.313 Y-39.661 E486.19472
G1 X99.192 Y-40.492 E486.25232
G1 X98.892 Y-41.221 E486.3064
G1 X98.392 Y-41.87 E486.3626
G1 X97.744 Y-42.368 E486.41866
G1 X96.988 Y-42.681 E486.47479
G1 X96.175 Y-42.789 E486.53106
G1 X95.362 Y-42.681 E486.58732
G1 X94.606 Y-42.368 E486.64345
G1 X93.957 Y-41.87 E486.69956
G1 X93.459 Y-41.221 E486.75568
G1 X93.146 Y-40.465 E486.81181
G1 X93.038 Y-39.652 E486.86807
G1 X93.146 Y-38.839 E486.92433
G1 X93.459 Y-38.084 E486.9804
G1 X93.957 Y-37.434 E487.03657
G1 X94.606 Y-36.935 E487.09273
G1 X95.364 Y-36.621 E487.14901
G1 X96.175 Y-36.515 E487.20512
G0 F12000 X97.466 Y-37.416
G0 X98 Y-37.826
G0 X98.412 Y-38.361
G0 X104.009 Y-47.095
G0 X104.08 Y-47.64
; TYPE:WALL-OUTER
G1 F600 X104.54 Y-47.7 E487.23694
G1 X104.969 Y-47.878 E487.26881
G1 X105.336 Y-48.16 E487.30056
G1 X105.619 Y-48.528 E487.3324
G1 X105.797 Y-48.957 E487.36426
G1 X105.858 Y-49.419 E487.39623
G1 X105.789 Y-49.896 E487.42929
G1 X105.619 Y-50.306 E487.45974
G1 X105.336 Y-50.674 E487.49159
G1 X104.969 Y-50.956 E487.52334
G1 X104.54 Y-51.134 E487.5552
G1 X104.08 Y-51.194 E487.58702
G1 X103.619 Y-51.134 E487.61891
G1 X103.191 Y-50.956 E487.65071
G1 X102.823 Y-50.674 E487.68251
G1 X102.541 Y-50.306 E487.71432
G1 X102.363 Y-49.877 E487.74618
G1 X102.303 Y-49.417 E487.778
G1 X102.363 Y-48.957 E487.80983
G1 X102.541 Y-48.528 E487.84169
G1 X102.823 Y-48.16 E487.87349
G1 X103.191 Y-47.878 E487.9053
G1 X103.619 Y-47.7 E487.93709
G1 X104.08 Y-47.64 E487.96899
G0 F12000 X104.009 Y-47.095
G0 X104.08 Y-47.085
; TYPE:WALL-INNER
G1 F600 X104.683 Y-47.164 E488.0107
G1 X105.246 Y-47.397 E488.0525
G1 X105.728 Y-47.768 E488.09423
G1 X106.099 Y-48.251 E488.13601
G1 X106.333 Y-48.814 E488.17783
G1 X106.413 Y-49.422 E488.2199
G1 X106.324 Y-50.043 E488.26293
G1 X106.099 Y-50.584 E488.30313
G1 X105.728 Y-51.066 E488.34485
G1 X105.246 Y-51.437 E488.38658
G1 X104.683 Y-51.67 E488.42838
G1 X104.08 Y-51.749 E488.47009
G1 X103.475 Y-51.67 E488.51195
G1 X102.914 Y-51.437 E488.55362
G1 X102.431 Y-51.066 E488.5954
G1 X102.06 Y-50.583 E488.63718
G1 X101.827 Y-50.02 E488.67898
G1 X101.748 Y-49.417 E488.7207
G1 X101.827 Y-48.814 E488.76242
G1 X102.06 Y-48.251 E488.80421
G1 X102.431 Y-47.768 E488.84599
G1 X102.914 Y-47.397 E488.88777
G1 X103.475 Y-47.164 E488.92944
G1 X104.08 Y-47.085 E488.9713
G0 F12000 X104.08 Y-46.53
G1 F600 X104.827 Y-46.628 E489.02298
G1 X105.524 Y-46.917 E489.07474
G1 X106.12 Y-47.375 E489.1263
G1 X106.58 Y-47.973 E489.17806
G1 X106.869 Y-48.67 E489.22982
G1 X106.968 Y-49.425 E489.28206
G1 X106.859 Y-50.19 E489.33506
G1 X106.579 Y-50.862 E489.385
G1 X106.12 Y-51.459 E489.43666
G1 X105.524 Y-51.917 E489.48823
G1 X104.827 Y-52.206 E489.53999
G1 X104.08 Y-52.304 E489.59167
G1 X103.332 Y-52.206 E489.64342
G1 X102.637 Y-51.917 E489.69505
G1 X102.038 Y-51.459 E489.74678
G1 X101.58 Y-50.86 E489.7985
G1 X101.291 Y-50.164 E489.8502
G1 X101.193 Y-49.417 E489.90188
G1 X101.291 Y-48.67 E489.95357
G1 X101.58 Y-47.974 E490.00526
G1 X102.038 Y-47.375 E490.05699
G1 X102.637 Y-46.917 E490.10872
G1 X103.332 Y-46.628 E490.16035
G1 X104.08 Y-46.53 E490.2121
G1 F6600 E486.2121
G1 Z0.7
G0 F12000 X102.914 Y-47.397
G0 X102.431 Y-47.768
G0 X102.06 Y-48.251
G0 X101.827 Y-48.814
G0 X101.748 Y-49.417
G0 X100.74 Y-64.979
G0 X100.811 Y-65.524
; TYPE:WALL-OUTER
G1 Z0.4
G1 F6600 E490.3121
G1 F600 X101.427 Y-65.605 E490.35472
G1 X102 Y-65.843 E490.39728
G1 X102.492 Y-66.22 E490.4398
G1 X102.87 Y-66.712 E490.48237
G1 X103.107 Y-67.286 E490.52497
G1 X103.188 Y-67.901 E490.56752
G1 X103.107 Y-68.517 E490.61014
G1 X102.87 Y-69.09 E490.65268
G1 X102.492 Y-69.582 E490.69524
G1 X102 Y-69.96 E490.7378
G1 X101.427 Y-70.198 E490.78036
G1 X100.811 Y-70.278 E490.82298
G1 X100.196 Y-70.198 E490.86552
G1 X99.622 Y-69.96 E490.90815
G1 X99.13 Y-69.582 E490.95071
G1 X98.752 Y-69.09 E490.99327
G1 X98.515 Y-68.517 E491.03581
G1 X98.434 Y-67.901 E491.07843
G1 X98.515 Y-67.286 E491.12098
G1 X98.752 Y-66.712 E491.16358
G1 X99.13 Y-66.22 E491.20614
G1 X99.622 Y-65.843 E491.24866
G1 X100.196 Y-65.605 E491.29129
G1 X100.811 Y-65.524 E491.33384
G0 F12000 X100.74 Y-64.979
G0 X100.811 Y-64.969
; TYPE:WALL-INNER
G1 F600 X101.571 Y-65.069 E491.38643
G1 X102.277 Y-65.362 E491.43886
G1 X102.884 Y-65.827 E491.49131
G1 X103.351 Y-66.435 E491.54391
G1 X103.643 Y-67.143 E491.59644
G1 X103.743 Y-67.901 E491.64889
G1 X103.643 Y-68.66 E491.70141
G1 X103.351 Y-69.367 E491.75388
G1 X102.884 Y-69.974 E491.80642
G1 X102.277 Y-70.44 E491.85891
G1 X101.57 Y-70.734 E491.91144
G1 X100.811 Y-70.833 E491.96395
G1 X100.053 Y-70.734 E492.01639
G1 X99.345 Y-70.441 E492.06895
G1 X98.738 Y-69.974 E492.12149
G1 X98.271 Y-69.367 E492.17402
G1 X97.979 Y-68.66 E492.2265
G1 X97.879 Y-67.901 E492.27901
G1 X97.979 Y-67.143 E492.33146
G1 X98.271 Y-66.435 E492.384
G1 X98.738 Y-65.827 E492.43659
G1 X99.345 Y-65.362 E492.48904
G1 X100.052 Y-65.069 E492.54154
G1 X100.811 Y-64.969 E492.59406
G0 F12000 X100.811 Y-64.414
G1 F600 X101.715 Y-64.534 E492.65662
G1 X102.554 Y-64.882 E492.71893
G1 X103.276 Y-65.435 E492.78131
G1 X103.832 Y-66.158 E492.84388
G1 X104.179 Y-67 E492.90635
G1 X104.298 Y-67.901 E492.9687
G1 X104.179 Y-68.804 E493.03118
G1 X103.831 Y-69.644 E493.09355
G1 X103.277 Y-70.367 E493.15603
G1 X102.555 Y-70.921 E493.21846
G1 X101.714 Y-71.27 E493.28093
G1 X100.811 Y-71.388 E493.3434
G1 X99.91 Y-71.27 E493.40573
G1 X99.067 Y-70.921 E493.46832
G1 X98.345 Y-70.367 E493.53075
G1 X97.791 Y-69.644 E493.59323
G1 X97.443 Y-68.804 E493.65561
G1 X97.324 Y-67.901 E493.71809
G1 X97.443 Y-67 E493.78043
G1 X97.79 Y-66.158 E493.8429
G1 X98.346 Y-65.435 E493.90547
G1 X99.068 Y-64.882 E493.96786
G1 X99.908 Y-64.534 E494.03023
G1 X100.811 Y-64.414 E494.09272
G1 F6600 E490.09272
G1 Z0.7
G0 F12000 X99.345 Y-65.362
G0 X98.738 Y-65.827
G0 X75.284 Y-90.435
G0 X75.355 Y-90.98
; TYPE:WALL-OUTER
G1 Z0.4
G1 F6600 E494.19272
G1 F600 X75.971 Y-91.061 E494.23534
G1 X76.544 Y-91.298 E494.27788
G1 X77.036 Y-91.676 E494.32044
G1 X77.414 Y-92.168 E494.363
G1 X77.652 Y-92.742 E494.40563
G1 X77.732 Y-93.357 E494.44817
G1 X77.652 Y-93.973 E494.49078
G1 X77.414 Y-94.546 E494.53335
G1 X77.036 Y-95.038 E494.57591
G1 X76.544 Y-95.416 E494.61847
G1 X75.971 Y-95.653 E494.66101
G1 X75.355 Y-95.734 E494.70363
G1 X74.74 Y-95.653 E494.74618
G1 X74.166 Y-95.416 E494.78878
G1 X73.674 Y-95.038 E494.83134
G1 X73.297 Y-94.546 E494.87386
G1 X73.059 Y-93.973 E494.91643
G1 X72.978 Y-93.357 E494.95905
G1 X73.059 Y-92.742 E495.0016
G1 X73.297 Y-92.168 E495.04423
G1 X73.674 Y-91.676 E495.08675
G1 X74.166 Y-91.298 E495.12931
G1 X74.74 Y-91.061 E495.17191
G1 X75.355 Y-90.98 E495.21446
G0 F12000 X75.284 Y-90.435
G0 X75.355 Y-90.425
; TYPE:WALL-INNER
G1 F600 X76.114 Y-90.525 E495.26698
G1 X76.821 Y-90.817 E495.31945
G1 X77.428 Y-91.284 E495.37199
G1 X77.895 Y-91.891 E495.42452
G1 X78.188 Y-92.599 E495.47709
G1 X78.287 Y-93.357 E495.52953
G1 X78.188 Y-94.116 E495.58203
G1 X77.894 Y-94.823 E495.63456
G1 X77.428 Y-95.43 E495.68706
G1 X76.821 Y-95.897 E495.73959
G1 X76.114 Y-96.189 E495.79207
G1 X75.355 Y-96.289 E495.84458
G1 X74.597 Y-96.189 E495.89703
G1 X73.889 Y-95.897 E495.94957
G1 X73.281 Y-95.43 E496.00216
G1 X72.816 Y-94.823 E496.05461
G1 X72.523 Y-94.117 E496.10705
G1 X72.423 Y-93.357 E496.15963
G1 X72.523 Y-92.598 E496.21215
G1 X72.816 Y-91.891 E496.26465
G1 X73.281 Y-91.284 E496.3171
G1 X73.889 Y-90.817 E496.36969
G1 X74.597 Y-90.525 E496.42223
G1 X75.355 Y-90.425 E496.47468
G0 F12000 X75.355 Y-89.87
G1 F600 X76.258 Y-89.989 E496.53716
G1 X77.098 Y-90.337 E496.59953
G1 X77.821 Y-90.891 E496.66202
G1 X78.375 Y-91.613 E496.72444
G1 X78.724 Y-92.456 E496.78703
G1 X78.842 Y-93.357 E496.84937
G1 X78.724 Y-94.26 E496.91184
G1 X78.375 Y-95.101 E496.9743
G1 X77.821 Y-95.823 E497.03673
G1 X77.098 Y-96.377 E497.09921
G1 X76.258 Y-96.725 E497.16159
G1 X75.355 Y-96.844 E497.22407
G1 X74.454 Y-96.725 E497.28641
G1 X73.612 Y-96.378 E497.34889
G1 X72.889 Y-95.822 E497.41145
G1 X72.336 Y-95.1 E497.47384
G1 X71.988 Y-94.261 E497.53615
G1 X71.868 Y-93.357 E497.59871
G1 X71.988 Y-92.454 E497.6612
G1 X72.336 Y-91.614 E497.72357
G1 X72.889 Y-90.892 E497.78596
G1 X73.612 Y-90.336 E497.84852
G1 X74.454 Y-89.989 E497.911
G1 X75.355 Y-89.87 E497.97334
G1 F6600 E493.97334
G1 Z0.7
G0 F12000 X1.675 Y-43.447
G0 X0.991 Y-43.165
G0 X0.26 Y-43.068
G0 X0.188 Y-43.078
G0 X0.26 Y-43.623
; TYPE:WALL-OUTER
G1 Z0.4
G1 F6600 E498.07334
G1 F600 X0.848 Y-43.701 E498.11403
G1 X1.398 Y-43.928 E498.15485
G1 X1.869 Y-44.29 E498.1956
G1 X2.231 Y-44.761 E498.23635
G1 X2.458 Y-45.311 E498.27716
G1 X2.537 Y-45.902 E498.31807
G1 X2.447 Y-46.515 E498.36057
G1 X2.231 Y-47.038 E498.39939
G1 X1.869 Y-47.511 E498.44024
G1 X1.398 Y-47.873 E498.481
G1 X0.848 Y-48.1 E498.52181
G1 X0.26 Y-48.177 E498.56249
G1 X-0.329 Y-48.1 E498.60324
G1 X-0.877 Y-47.873 E498.64393
G1 X-1.35 Y-47.511 E498.68479
G1 X-1.711 Y-47.038 E498.72561
G1 X-1.939 Y-46.49 E498.76632
G1 X-2.016 Y-45.9 E498.80714
G1 X-1.939 Y-45.311 E498.84789
G1 X-1.711 Y-44.761 E498.88873
G1 X-1.35 Y-44.29 E498.92944
G1 X-0.877 Y-43.928 E498.9703
G1 X-0.329 Y-43.701 E499.01099
G1 X0.26 Y-43.623 E499.05175
G0 F12000 X0.188 Y-43.078
G0 X0.26 Y-43.068
; TYPE:WALL-INNER
G1 F600 X0.991 Y-43.165 E499.10233
G1 X1.675 Y-43.447 E499.15309
G1 X2.261 Y-43.898 E499.20381
G1 X2.712 Y-44.484 E499.25454
G1 X2.994 Y-45.168 E499.30529
G1 X3.092 Y-45.905 E499.35629
G1 X2.982 Y-46.662 E499.40877
G1 X2.712 Y-47.315 E499.45724
G1 X2.262 Y-47.903 E499.50804
G1 X1.675 Y-48.354 E499.55882
G1 X0.991 Y-48.636 E499.60957
G1 X0.26 Y-48.732 E499.66015
G1 X-0.472 Y-48.636 E499.71079
G1 X-1.154 Y-48.354 E499.76142
G1 X-1.743 Y-47.903 E499.81231
G1 X-2.192 Y-47.315 E499.86306
G1 X-2.475 Y-46.633 E499.91371
G1 X-2.571 Y-45.9 E499.96442
G1 X-2.475 Y-45.168 E500.01507
G1 X-2.192 Y-44.484 E500.06585
G1 X-1.743 Y-43.898 E500.11649
G1 X-1.154 Y-43.447 E500.16738
G1 X-0.473 Y-43.165 E500.21794
G1 X0.26 Y-43.068 E500.26866
G0 F12000 X0.26 Y-42.513
G1 F600 X1.135 Y-42.63 E500.32922
G1 X1.952 Y-42.966 E500.38982
G1 X2.654 Y-43.505 E500.45053
G1 X3.193 Y-44.207 E500.51125
G1 X3.529 Y-45.024 E500.57185
G1 X3.647 Y-45.908 E500.63303
G1 X3.516 Y-46.809 E500.69549
G1 X3.193 Y-47.592 E500.75359
G1 X2.654 Y-48.295 E500.81436
G1 X1.952 Y-48.835 E500.87511
G1 X1.134 Y-49.172 E500.9358
G1 X0.26 Y-49.287 E500.99628
G1 X-0.615 Y-49.172 E501.05682
G1 X-1.431 Y-48.835 E501.11738
G1 X-2.136 Y-48.295 E501.1783
G1 X-2.672 Y-47.592 E501.23894
G1 X-3.011 Y-46.777 E501.29949
G1 X-3.126 Y-45.9 E501.36017
G1 X-3.011 Y-45.024 E501.42078
G1 X-2.672 Y-44.207 E501.48146
G1 X-2.135 Y-43.505 E501.54209
G1 X-1.431 Y-42.966 E501.60291
G1 X-0.616 Y-42.63 E501.66338
G1 X0.26 Y-42.513 E501.72401
G1 F6600 E497.72401
G1 Z0.7
G0 F12000 X3.434 Y-16.324
G0 X3.547 Y-15.462
G0 X3.88 Y-14.658
G0 X4.41 Y-13.968
G0 X5.1 Y-13.438
G0 X5.904 Y-13.105
G0 X6.695 Y-13.002
G0 X6.766 Y-13.547
; TYPE:WALL-OUTER
G1 Z0.4
G1 F6600 E501.82401
G1 F600 X7.485 Y-13.641 E501.87375
G1 X8.155 Y-13.919 E501.92351
G1 X8.73 Y-14.36 E501.97322
G1 X9.171 Y-14.935 E502.02293
G1 X9.449 Y-15.605 E502.07269
G1 X9.543 Y-16.325 E502.1225
G1 X9.444 Y-17.054 E502.17297
G1 X9.171 Y-17.713 E502.2219
G1 X8.73 Y-18.288 E502.27161
G1 X8.155 Y-18.729 E502.32132
G1 X7.485 Y-19.007 E502.37108
G1 X6.766 Y-19.101 E502.42083
G1 X6.047 Y-19.007 E502.47057
G1 X5.377 Y-18.729 E502.52033
G1 X4.802 Y-18.288 E502.57004
G1 X4.361 Y-17.713 E502.61975
G1 X4.083 Y-17.043 E502.66951
G1 X3.989 Y-16.324 E502.71925
G1 X4.083 Y-15.605 E502.76899
G1 X4.361 Y-14.935 E502.81875
G1 X4.802 Y-14.36 E502.86846
G1 X5.377 Y-13.919 E502.91817
G1 X6.047 Y-13.641 E502.96794
G1 X6.766 Y-13.547 E503.01768
G0 F12000 X6.695 Y-13.002
G0 X6.766 Y-12.992
; TYPE:WALL-INNER
G1 F600 X7.628 Y-13.105 E503.07732
G1 X8.432 Y-13.438 E503.13701
G1 X9.122 Y-13.968 E503.1967
G1 X9.652 Y-14.658 E503.25638
G1 X9.985 Y-15.462 E503.31608
G1 X10.098 Y-16.326 E503.37585
G1 X9.979 Y-17.199 E503.4363
G1 X9.652 Y-17.99 E503.49501
G1 X9.122 Y-18.68 E503.5547
G1 X8.432 Y-19.21 E503.61438
G1 X7.628 Y-19.543 E503.67408
G1 X6.766 Y-19.656 E503.73372
G1 X5.904 Y-19.543 E503.79335
G1 X5.1 Y-19.21 E503.85305
G1 X4.41 Y-18.68 E503.91274
G1 X3.88 Y-17.99 E503.97242
G1 X3.547 Y-17.186 E504.03212
G1 X3.434 Y-16.324 E504.09176
G1 X3.547 Y-15.462 E504.1514
G1 X3.88 Y-14.658 E504.21109
G1 X4.41 Y-13.968 E504.27078
G1 X5.1 Y-13.438 E504.33046
G1 X5.904 Y-13.105 E504.39016
G1 X6.766 Y-12.992 E504.4498
G0 F12000 X6.766 Y-12.437
G1 F600 X7.772 Y-12.569 E504.5194
G1 X8.709 Y-12.958 E504.589
G1 X9.515 Y-13.575 E504.65863
G1 X10.132 Y-14.381 E504.72826
G1 X10.521 Y-15.318 E504.79786
G1 X10.653 Y-16.328 E504.86773
G1 X10.514 Y-17.344 E504.93808
G1 X10.132 Y-18.267 E505.0066
G1 X9.515 Y-19.073 E505.07623
G1 X8.709 Y-19.69 E505.14586
G1 X7.772 Y-20.079 E505.21546
G1 X6.766 Y-20.211 E505.28506
G1 X5.76 Y-20.079 E505.35467
G1 X4.823 Y-19.69 E505.42426
G1 X4.017 Y-19.073 E505.49389
G1 X3.4 Y-18.267 E505.56352
G1 X3.011 Y-17.33 E505.63312
G1 X2.879 Y-16.324 E505.70272
G1 X3.011 Y-15.318 E505.77233
G1 X3.4 Y-14.381 E505.84192
G1 X4.017 Y-13.575 E505.91155
G1 X4.823 Y-12.958 E505.98118
G1 X5.76 Y-12.569 E506.05078
G1 X6.766 Y-12.437 E506.12038
G1 F6600 E502.12038
G1 Z0.7
G0 F12000 X54.914 Y22.601
G0 X55.475 Y22.834
G0 X56.009 Y22.903
G0 X56.08 Y22.358
; TYPE:WALL-OUTER
G1 Z0.4
G1 F6600 E506.22038
G1 F600 X56.54 Y22.298 E506.25221
G1 X56.969 Y22.12 E506.28407
G1 X57.336 Y21.838 E506.31582
G1 X57.619 Y21.47 E506.34766
G1 X57.797 Y21.041 E506.37952
G1 X57.858 Y20.579 E506.41149
G1 X57.789 Y20.102 E506.44456
G1 X57.619 Y19.692 E506.475
G1 X57.336 Y19.324 E506.50685
G1 X56.969 Y19.042 E506.5386
G1 X56.54 Y18.864 E506.57046
G1 X56.08 Y18.804 E506.60228
G1 X55.619 Y18.864 E506.63417
G1 X55.191 Y19.042 E506.66597
G1 X54.823 Y19.324 E506.69778
G1 X54.541 Y19.692 E506.72958
G1 X54.363 Y20.121 E506.76144
G1 X54.303 Y20.581 E506.79326
G1 X54.363 Y21.041 E506.82509
G1 X54.541 Y21.47 E506.85695
G1 X54.823 Y21.838 E506.88875
G1 X55.191 Y22.12 E506.92056
G1 X55.619 Y22.298 E506.95236
G1 X56.08 Y22.358 E506.98425
G0 F12000 X56.009 Y22.903
G0 X56.08 Y22.913
; TYPE:WALL-INNER
G1 F600 X56.683 Y22.834 E507.02597
G1 X57.246 Y22.601 E507.06776
G1 X57.728 Y22.23 E507.10949
G1 X58.099 Y21.747 E507.15127
G1 X58.333 Y21.184 E507.19309
G1 X58.413 Y20.576 E507.23516
G1 X58.324 Y19.955 E507.2782
G1 X58.099 Y19.414 E507.31839
G1 X57.728 Y18.932 E507.36011
G1 X57.246 Y18.561 E507.40184
G1 X56.683 Y18.328 E507.44364
G1 X56.08 Y18.249 E507.48536
G1 X55.475 Y18.328 E507.52721
G1 X54.914 Y18.561 E507.56888
G1 X54.431 Y18.932 E507.61066
G1 X54.06 Y19.415 E507.65244
G1 X53.827 Y19.978 E507.69424
G1 X53.748 Y20.581 E507.73596
G1 X53.827 Y21.184 E507.77768
G1 X54.06 Y21.747 E507.81948
G1 X54.431 Y22.23 E507.86125
G1 X54.914 Y22.601 E507.90303
G1 X55.475 Y22.834 E507.94471
G1 X56.08 Y22.913 E507.98656
G0 F12000 X56.08 Y23.468
G1 F600 X56.827 Y23.37 E508.03824
G1 X57.524 Y23.081 E508.09
G1 X58.12 Y22.623 E508.14157
G1 X58.58 Y22.025 E508.19332
G1 X58.869 Y21.328 E508.24508
G1 X58.968 Y20.573 E508.29732
G1 X58.859 Y19.808 E508.35033
G1 X58.579 Y19.136 E508.40027
G1 X58.12 Y18.539 E508.45192
G1 X57.524 Y18.081 E508.50349
G1 X56.827 Y17.792 E508.55525
G1 X56.08 Y17.694 E508.60693
G1 X55.332 Y17.792 E508.65868
G1 X54.637 Y18.081 E508.71032
G1 X54.038 Y18.539 E508.76204
G1 X53.58 Y19.138 E508.81377
G1 X53.291 Y19.834 E508.86546
G1 X53.193 Y20.581 E508.91715
G1 X53.291 Y21.328 E508.96883
G1 X53.58 Y22.024 E509.02053
G1 X54.038 Y22.623 E509.07225
G1 X54.637 Y23.081 E509.12398
G1 X55.332 Y23.37 E509.17561
G1 X56.08 Y23.468 E509.22736
G1 F6600 E505.22736
G1 Z0.7
G0 F12000 X31.755 Y50.307
G0 X31.065 Y50.838
G0 X30.261 Y51.17
G0 X29.399 Y51.284
G0 X29.327 Y51.274
G0 X29.399 Y50.729
; TYPE:WALL-OUTER
G1 Z0.4
G1 F6600 E509.32736
G1 F600 X30.118 Y50.634 E509.37711
G1 X30.788 Y50.357 E509.42685
G1 X31.363 Y49.915 E509.4766
G1 X31.804 Y49.341 E509.52626
G1 X32.082 Y48.671 E509.57602
G1 X32.176 Y47.951 E509.62583
G1 X32.078 Y47.223 E509.67622
G1 X31.804 Y46.563 E509.72524
G1 X31.363 Y45.988 E509.77495
G1 X30.788 Y45.547 E509.82466
G1 X30.118 Y45.269 E509.87442
G1 X29.399 Y45.175 E509.92416
G1 X28.68 Y45.269 E509.9739
G1 X28.01 Y45.547 E510.02367
G1 X27.435 Y45.988 E510.07337
G1 X26.994 Y46.563 E510.12308
G1 X26.716 Y47.233 E510.17285
G1 X26.622 Y47.952 E510.22259
G1 X26.716 Y48.671 E510.27233
G1 X26.994 Y49.341 E510.32209
G1 X27.435 Y49.915 E510.37175
G1 X28.01 Y50.357 E510.4215
G1 X28.68 Y50.634 E510.47123
G1 X29.399 Y50.729 E510.52098
G0 F12000 X29.327 Y51.274
G0 X29.399 Y51.284
; TYPE:WALL-INNER
G1 F600 X30.261 Y51.17 E510.58063
G1 X31.065 Y50.838 E510.6403
G1 X31.755 Y50.307 E510.70003
G1 X32.284 Y49.618 E510.75962
G1 X32.618 Y48.814 E510.81934
G1 X32.731 Y47.95 E510.87912
G1 X32.613 Y47.078 E510.93948
G1 X32.285 Y46.286 E510.99828
G1 X31.755 Y45.596 E511.05797
G1 X31.065 Y45.066 E511.11765
G1 X30.261 Y44.733 E511.17735
G1 X29.399 Y44.62 E511.23699
G1 X28.537 Y44.733 E511.29663
G1 X27.733 Y45.066 E511.35633
G1 X27.043 Y45.596 E511.41601
G1 X26.513 Y46.286 E511.4757
G1 X26.18 Y47.09 E511.53539
G1 X26.067 Y47.952 E511.59503
G1 X26.18 Y48.814 E511.65467
G1 X26.514 Y49.618 E511.71439
G1 X27.043 Y50.307 E511.77398
G1 X27.733 Y50.838 E511.83371
G1 X28.537 Y51.17 E511.89338
G1 X29.399 Y51.284 E511.95303
G0 F12000 X29.399 Y51.839
G1 F600 X30.405 Y51.705 E512.02265
G1 X31.342 Y51.318 E512.09219
G1 X32.148 Y50.699 E512.16191
G1 X32.765 Y49.896 E512.23137
G1 X33.154 Y48.958 E512.30103
G1 X33.286 Y47.949 E512.37084
G1 X33.149 Y46.933 E512.44117
G1 X32.765 Y46.009 E512.50981
G1 X32.148 Y45.203 E512.57944
G1 X31.342 Y44.586 E512.64907
G1 X30.405 Y44.197 E512.71867
G1 X29.399 Y44.065 E512.78827
G1 X28.393 Y44.197 E512.85787
G1 X27.456 Y44.586 E512.92747
G1 X26.65 Y45.203 E512.9971
G1 X26.033 Y46.009 E513.06673
G1 X25.644 Y46.946 E513.13633
G1 X25.512 Y47.952 E513.20593
G1 X25.644 Y48.958 E513.27553
G1 X26.033 Y49.896 E513.34519
G1 X26.65 Y50.699 E513.41466
G1 X27.456 Y51.318 E513.48437
G1 X28.393 Y51.705 E513.55392
G1 X29.399 Y51.839 E513.62354
G1 F6600 E509.62354
G1 Z0.7
G0 F12000 X9.122 Y72.03
G0 X8.432 Y72.56
G0 X7.628 Y72.893
G0 X6.766 Y73.006
G0 X6.695 Y72.996
G0 X6.766 Y72.451
; TYPE:WALL-OUTER
G1 Z0.4
G1 F6600 E513.72354
G1 F600 X7.485 Y72.357 E513.77328
G1 X8.155 Y72.079 E513.82304
G1 X8.73 Y71.638 E513.87275
G1 X9.171 Y71.063 E513.92246
G1 X9.449 Y70.393 E513.97222
G1 X9.543 Y69.673 E514.02203
G1 X9.444 Y68.944 E514.0725
G1 X9.171 Y68.285 E514.12143
G1 X8.73 Y67.71 E514.17114
G1 X8.155 Y67.269 E514.22085
G1 X7.485 Y66.991 E514.27061
G1 X6.766 Y66.897 E514.32035
G1 X6.047 Y66.991 E514.3701
G1 X5.377 Y67.269 E514.41986
G1 X4.802 Y67.71 E514.46957
G1 X4.361 Y68.285 E514.51928
G1 X4.083 Y68.955 E514.56904
G1 X3.989 Y69.674 E514.61878
G1 X4.083 Y70.393 E514.66852
G1 X4.361 Y71.063 E514.71828
G1 X4.802 Y71.638 E514.76799
G1 X5.377 Y72.079 E514.8177
G1 X6.047 Y72.357 E514.86746
G1 X6.766 Y72.451 E514.91721
G0 F12000 X6.695 Y72.996
G0 X6.766 Y73.006
; TYPE:WALL-INNER
G1 F600 X7.628 Y72.893 E514.97684
G1 X8.432 Y72.56 E515.03654
G1 X9.122 Y72.03 E515.09623
G1 X9.652 Y71.34 E515.15591
G1 X9.985 Y70.536 E515.21561
G1 X10.098 Y69.672 E515.27538
G1 X9.979 Y68.799 E515.33582
G1 X9.652 Y68.008 E515.39454
G1 X9.122 Y67.318 E515.45423
G1 X8.432 Y66.788 E515.51391
G1 X7.628 Y66.455 E515.57361
G1 X6.766 Y66.342 E515.63325
G1 X5.904 Y66.455 E515.69288
G1 X5.1 Y66.788 E515.75258
G1 X4.41 Y67.318 E515.81227
G1 X3.88 Y68.008 E515.87195
G1 X3.547 Y68.812 E515.93165
G1 X3.434 Y69.674 E515.99129
G1 X3.547 Y70.536 E516.05092
G1 X3.88 Y71.34 E516.11062
G1 X4.41 Y72.03 E516.17031
G1 X5.1 Y72.56 E516.22999
G1 X5.904 Y72.893 E516.28969
G1 X6.766 Y73.006 E516.34933
G0 F12000 X6.766 Y73.561
G1 F600 X7.772 Y73.429 E516.41893
G1 X8.709 Y73.04 E516.48853
G1 X9.515 Y72.423 E516.55816
G1 X10.132 Y71.617 E516.62779
G1 X10.521 Y70.68 E516.69739
G1 X10.653 Y69.67 E516.76726
G1 X10.514 Y68.654 E516.83761
G1 X10.132 Y67.731 E516.90613
G1 X9.515 Y66.925 E516.97576
G1 X8.709 Y66.308 E517.04539
G1 X7.772 Y65.919 E517.11499
G1 X6.766 Y65.787 E517.18459
G1 X5.76 Y65.919 E517.25419
G1 X4.823 Y66.308 E517.32379
G1 X4.017 Y66.925 E517.39342
G1 X3.4 Y67.731 E517.46305
G1 X3.011 Y68.668 E517.53265
G1 X2.879 Y69.674 E517.60225
G1 X3.011 Y70.68 E517.67185
G1 X3.4 Y71.617 E517.74145
G1 X4.017 Y72.423 E517.81108
G1 X4.823 Y73.04 E517.88071
G1 X5.76 Y73.429 E517.95031
G1 X6.766 Y73.561 E518.01991
G1 F6600 E514.01991
G1 Z0.7
G0 F12000 X26.514 Y99.618
G0 X27.043 Y100.307
G0 X27.733 Y100.838
G0 X28.537 Y101.17
G0 X29.327 Y101.274
G0 X29.399 Y100.729
; TYPE:WALL-OUTER
G1 Z0.4
G1 F6600 E518.11991
G1 F600 X30.118 Y100.634 E518.16966
G1 X30.788 Y100.357 E518.2194
G1 X31.363 Y99.915 E518.26915
G1 X31.804 Y99.341 E518.3188
G1 X32.082 Y98.671 E518.36857
G1 X32.176 Y97.951 E518.41838
G1 X32.078 Y97.223 E518.46877
G1 X31.804 Y96.563 E518.51779
G1 X31.363 Y95.988 E518.5675
G1 X30.788 Y95.547 E518.61721
G1 X30.118 Y95.269 E518.66697
G1 X29.399 Y95.175 E518.71671
G1 X28.68 Y95.269 E518.76645
G1 X28.01 Y95.547 E518.81621
G1 X27.435 Y95.988 E518.86592
G1 X26.994 Y96.563 E518.91563
G1 X26.716 Y97.233 E518.96539
G1 X26.622 Y97.952 E519.01514
G1 X26.716 Y98.671 E519.06488
G1 X26.994 Y99.341 E519.11464
G1 X27.435 Y99.915 E519.1643
G1 X28.01 Y100.357 E519.21405
G1 X28.68 Y100.634 E519.26378
G1 X29.399 Y100.729 E519.31353
G0 F12000 X29.327 Y101.274
G0 X29.399 Y101.284
; TYPE:WALL-INNER
G1 F600 X30.261 Y101.17 E519.37318
G1 X31.065 Y100.838 E519.43285
G1 X31.755 Y100.307 E519.49258
G1 X32.284 Y99.618 E519.55217
G1 X32.618 Y98.814 E519.61189
G1 X32.731 Y97.95 E519.67166
G1 X32.613 Y97.078 E519.73203
G1 X32.285 Y96.286 E519.79083
G1 X31.755 Y95.596 E519.85052
G1 X31.065 Y95.066 E519.9102
G1 X30.261 Y94.733 E519.9699
G1 X29.399 Y94.62 E520.02954
G1 X28.537 Y94.733 E520.08918
G1 X27.733 Y95.066 E520.14887
G1 X27.043 Y95.596 E520.20856
G1 X26.513 Y96.286 E520.26824
G1 X26.18 Y97.09 E520.32794
G1 X26.067 Y97.952 E520.38758
G1 X26.18 Y98.814 E520.44722
G1 X26.514 Y99.618 E520.50694
G1 X27.043 Y100.307 E520.56653
G1 X27.733 Y100.838 E520.62626
G1 X28.537 Y101.17 E520.68593
G1 X29.399 Y101.284 E520.74558
G0 F12000 X29.399 Y101.839
G1 F600 X30.405 Y101.705 E520.8152
G1 X31.342 Y101.318 E520.88474
G1 X32.148 Y100.699 E520.95445
G1 X32.765 Y99.896 E521.02392
G1 X33.154 Y98.958 E521.09358
G1 X33.286 Y97.949 E521.16339
G1 X33.149 Y96.933 E521.23372
G1 X32.765 Y96.009 E521.30236
G1 X32.148 Y95.203 E521.37199
G1 X31.342 Y94.586 E521.44162
G1 X30.405 Y94.197 E521.51122
G1 X29.399 Y94.065 E521.58082
G1 X28.393 Y94.197 E521.65042
G1 X27.456 Y94.586 E521.72002
G1 X26.65 Y95.203 E521.78965
G1 X26.033 Y96.009 E521.85928
G1 X25.644 Y96.946 E521.92888
G1 X25.512 Y97.952 E521.99848
G1 X25.644 Y98.958 E522.06808
G1 X26.033 Y99.896 E522.13774
G1 X26.65 Y100.699 E522.20721
G1 X27.456 Y101.318 E522.27692
G1 X28.393 Y101.705 E522.34647
G1 X29.399 Y101.839 E522.41609
G0 F12000 X46.438 Y106.122
G0 X47.035 Y106.199
G0 X47.106 Y105.654
; TYPE:WALL-OUTER
G1 F600 X47.631 Y105.586 E522.4524
G1 X48.12 Y105.383 E522.48872
G1 X48.539 Y105.061 E522.52497
G1 X48.861 Y104.641 E522.56128
G1 X49.064 Y104.152 E522.5976
G1 X49.134 Y103.625 E522.63407
G1 X49.054 Y103.079 E522.67192
G1 X48.861 Y102.613 E522.70652
G1 X48.539 Y102.194 E522.74277
G1 X48.12 Y101.872 E522.77902
G1 X47.631 Y101.669 E522.81534
G1 X47.106 Y101.6 E522.85167
G1 X46.581 Y101.669 E522.88799
G1 X46.092 Y101.872 E522.92431
G1 X45.672 Y102.194 E522.96062
G1 X45.35 Y102.613 E522.99687
G1 X45.147 Y103.102 E523.03319
G1 X45.079 Y103.627 E523.0695
G1 X45.147 Y104.152 E523.10582
G1 X45.35 Y104.641 E523.14214
G1 X45.672 Y105.061 E523.17844
G1 X46.092 Y105.383 E523.21475
G1 X46.581 Y105.586 E523.25107
G1 X47.106 Y105.654 E523.28739
G0 F12000 X47.035 Y106.199
G0 X47.106 Y106.209
; TYPE:WALL-INNER
G1 F600 X47.774 Y106.122 E523.3336
G1 X48.397 Y105.863 E523.37988
G1 X48.932 Y105.453 E523.42612
G1 X49.342 Y104.918 E523.47236
G1 X49.6 Y104.296 E523.51855
G1 X49.689 Y103.622 E523.56519
G1 X49.589 Y102.932 E523.61301
G1 X49.342 Y102.336 E523.65727
G1 X48.931 Y101.802 E523.7035
G1 X48.397 Y101.392 E523.74968
G1 X47.775 Y101.133 E523.7959
G1 X47.106 Y101.045 E523.84219
G1 X46.437 Y101.133 E523.88848
G1 X45.815 Y101.391 E523.93467
G1 X45.28 Y101.801 E523.98091
G1 X44.87 Y102.336 E524.02715
G1 X44.611 Y102.959 E524.07343
G1 X44.524 Y103.627 E524.11964
G1 X44.611 Y104.295 E524.16585
G1 X44.869 Y104.918 E524.21211
G1 X45.28 Y105.453 E524.25839
G1 X45.815 Y105.864 E524.30467
G1 X46.438 Y106.122 E524.35093
G1 X47.106 Y106.209 E524.39714
G0 F12000 X47.106 Y106.764
G1 F600 X47.917 Y106.658 E524.45324
G1 X48.675 Y106.344 E524.50953
G1 X49.324 Y105.845 E524.56569
G1 X49.822 Y105.195 E524.62186
G1 X50.135 Y104.44 E524.67793
G1 X50.244 Y103.618 E524.73481
G1 X50.123 Y102.785 E524.79255
G1 X49.822 Y102.058 E524.84653
G1 X49.324 Y101.409 E524.90264
G1 X48.675 Y100.911 E524.95876
G1 X47.919 Y100.598 E525.01489
G1 X47.106 Y100.49 E525.07115
G1 X46.293 Y100.598 E525.12741
G1 X45.538 Y100.911 E525.18348
G1 X44.888 Y101.409 E525.23965
G1 X44.389 Y102.058 E525.29581
G1 X44.075 Y102.816 E525.35209
G1 X43.969 Y103.627 E525.4082
G1 X44.075 Y104.438 E525.46431
G1 X44.389 Y105.195 E525.52053
G1 X44.887 Y105.846 E525.57675
G1 X45.538 Y106.344 E525.63298
G1 X46.295 Y106.658 E525.6892
G1 X47.106 Y106.764 E525.74531
G1 F6600 E521.74531
G1 Z0.7
G0 F12000 X48.397 Y105.863
G0 X48.932 Y105.453
G0 X49.342 Y104.918
G0 X49.6 Y104.296
G0 X49.689 Y103.622
G0 X47.707 Y83.608
G0 X47.778 Y83.063
; TYPE:WALL-OUTER
G1 Z0.4
G1 F6600 E525.84531
G1 F600 X48.394 Y82.983 E525.88792
G1 X48.967 Y82.745 E525.93048
G1 X49.459 Y82.367 E525.97304
G1 X49.837 Y81.875 E526.01561
G1 X50.074 Y81.302 E526.05814
G1 X50.155 Y80.686 E526.10076
G1 X50.074 Y80.071 E526.14332
G1 X49.837 Y79.497 E526.18592
G1 X49.459 Y79.005 E526.22848
G1 X48.967 Y78.628 E526.271
G1 X48.394 Y78.39 E526.31356
G1 X47.778 Y78.309 E526.35618
G1 X47.163 Y78.39 E526.39873
G1 X46.589 Y78.628 E526.44136
G1 X46.097 Y79.005 E526.48388
G1 X45.719 Y79.497 E526.52644
G1 X45.482 Y80.071 E526.56904
G1 X45.401 Y80.686 E526.6116
G1 X45.482 Y81.302 E526.65422
G1 X45.719 Y81.875 E526.69675
G1 X46.097 Y82.367 E526.73931
G1 X46.589 Y82.745 E526.78188
G1 X47.163 Y82.983 E526.8245
G1 X47.778 Y83.063 E526.86705
G0 F12000 X47.707 Y83.608
G0 X47.778 Y83.618
; TYPE:WALL-INNER
G1 F600 X48.537 Y83.519 E526.91955
G1 X49.244 Y83.225 E526.97208
G1 X49.851 Y82.759 E527.02458
G1 X50.318 Y82.152 E527.07711
G1 X50.61 Y81.445 E527.12959
G1 X50.71 Y80.686 E527.1821
G1 X50.61 Y79.928 E527.23455
G1 X50.318 Y79.22 E527.28709
G1 X49.851 Y78.612 E527.33968
G1 X49.244 Y78.147 E527.39213
G1 X48.538 Y77.854 E527.44457
G1 X47.778 Y77.754 E527.49715
G1 X47.019 Y77.854 E527.54967
G1 X46.312 Y78.147 E527.60217
G1 X45.705 Y78.612 E527.65462
G1 X45.238 Y79.22 E527.70721
G1 X44.946 Y79.928 E527.75975
G1 X44.846 Y80.686 E527.8122
G1 X44.946 Y81.445 E527.86472
G1 X45.238 Y82.152 E527.91719
G1 X45.705 Y82.759 E527.96973
G1 X46.312 Y83.226 E528.02226
G1 X47.02 Y83.519 E528.07483
G1 X47.778 Y83.618 E528.12727
G0 F12000 X47.778 Y84.173
G1 F600 X48.681 Y84.055 E528.18974
G1 X49.522 Y83.706 E528.2522
G1 X50.244 Y83.152 E528.31463
G1 X50.798 Y82.429 E528.37711
G1 X51.146 Y81.589 E528.43948
G1 X51.265 Y80.686 E528.50197
G1 X51.146 Y79.785 E528.56431
G1 X50.799 Y78.943 E528.62678
G1 X50.243 Y78.22 E528.68935
G1 X49.521 Y77.667 E528.75174
G1 X48.682 Y77.319 E528.81405
G1 X47.778 Y77.199 E528.8766
G1 X46.875 Y77.319 E528.93909
G1 X46.035 Y77.667 E529.00147
G1 X45.313 Y78.22 E529.06385
G1 X44.757 Y78.943 E529.12642
G1 X44.41 Y79.785 E529.18889
G1 X44.291 Y80.686 E529.25124
G1 X44.41 Y81.589 E529.31372
G1 X44.758 Y82.429 E529.37609
G1 X45.312 Y83.152 E529.43857
G1 X46.034 Y83.706 E529.501
G1 X46.877 Y84.055 E529.56359
G1 X47.778 Y84.173 E529.62593
G1 F6600 E525.62593
G1 Z0.7
G0 F12000 X73.281 Y110.336
G0 X73.889 Y110.803
G0 X74.597 Y111.096
G0 X75.284 Y111.185
G0 X75.355 Y110.64
; TYPE:WALL-OUTER
G1 Z0.4
G1 F6600 E529.72593
G1 F600 X75.971 Y110.56 E529.76854
G1 X76.544 Y110.322 E529.8111
G1 X77.036 Y109.944 E529.85366
G1 X77.414 Y109.452 E529.89623
G1 X77.652 Y108.879 E529.93879
G1 X77.732 Y108.263 E529.9814
G1 X77.652 Y107.648 E530.02394
G1 X77.414 Y107.074 E530.06657
G1 X77.036 Y106.582 E530.10913
G1 X76.544 Y106.205 E530.15165
G1 X75.971 Y105.967 E530.19422
G1 X75.355 Y105.886 E530.23684
G1 X74.74 Y105.967 E530.27939
G1 X74.166 Y106.205 E530.32201
G1 X73.674 Y106.582 E530.36453
G1 X73.297 Y107.074 E530.40705
G1 X73.059 Y107.648 E530.44968
G1 X72.978 Y108.263 E530.49223
G1 X73.059 Y108.879 E530.53485
G1 X73.297 Y109.452 E530.57742
G1 X73.674 Y109.944 E530.61994
G1 X74.166 Y110.322 E530.6625
G1 X74.74 Y110.56 E530.70513
G1 X75.355 Y110.64 E530.74767
G0 F12000 X75.284 Y111.185
G0 X75.355 Y111.195
; TYPE:WALL-INNER
G1 F600 X76.114 Y111.096 E530.80018
G1 X76.821 Y110.802 E530.8527
G1 X77.428 Y110.336 E530.9052
G1 X77.894 Y109.729 E530.95769
G1 X78.188 Y109.022 E531.01022
G1 X78.287 Y108.263 E531.06273
G1 X78.188 Y107.505 E531.11517
G1 X77.895 Y106.797 E531.16773
G1 X77.428 Y106.189 E531.22032
G1 X76.821 Y105.724 E531.27277
G1 X76.115 Y105.431 E531.32521
G1 X75.355 Y105.331 E531.3778
G1 X74.596 Y105.431 E531.43031
G1 X73.889 Y105.724 E531.48281
G1 X73.282 Y106.19 E531.53531
G1 X72.816 Y106.797 E531.5878
G1 X72.523 Y107.504 E531.6403
G1 X72.423 Y108.263 E531.69282
G1 X72.523 Y109.023 E531.7454
G1 X72.816 Y109.729 E531.79784
G1 X73.281 Y110.336 E531.85029
G1 X73.889 Y110.803 E531.90288
G1 X74.597 Y111.096 E531.95545
G1 X75.355 Y111.195 E532.00789
G0 F12000 X75.355 Y111.75
G1 F600 X76.258 Y111.632 E532.07036
G1 X77.099 Y111.283 E532.13282
G1 X77.821 Y110.729 E532.19525
G1 X78.375 Y110.007 E532.25768
G1 X78.724 Y109.166 E532.32014
G1 X78.842 Y108.263 E532.38261
G1 X78.724 Y107.362 E532.44495
G1 X78.375 Y106.519 E532.50754
G1 X77.82 Y105.797 E532.57001
G1 X77.098 Y105.244 E532.63239
G1 X76.259 Y104.896 E532.6947
G1 X75.355 Y104.776 E532.75726
G1 X74.452 Y104.896 E532.81975
G1 X73.612 Y105.244 E532.88212
G1 X72.889 Y105.797 E532.94456
G1 X72.336 Y106.52 E533.00701
G1 X71.988 Y107.36 E533.06938
G1 X71.868 Y108.263 E533.13187
G1 X71.988 Y109.167 E533.19443
G1 X72.336 Y110.006 E533.25673
G1 X72.889 Y110.728 E533.31912
G1 X73.611 Y111.283 E533.38159
G1 X74.454 Y111.632 E533.44418
G1 X75.355 Y111.75 E533.50652
G0 F12000 X76.821 Y110.802
G0 X77.428 Y110.336
G0 X85.327 Y101.274
G0 X85.399 Y100.729
; TYPE:WALL-OUTER
G1 F600 X86.118 Y100.634 E533.55627
G1 X86.788 Y100.357 E533.606
G1 X87.363 Y99.915 E533.65575
G1 X87.804 Y99.341 E533.70541
G1 X88.082 Y98.671 E533.75517
G1 X88.176 Y97.951 E533.80498
G1 X88.078 Y97.223 E533.85537
G1 X87.804 Y96.563 E533.90439
G1 X87.363 Y95.988 E533.9541
G1 X86.788 Y95.547 E534.00381
G1 X86.118 Y95.269 E534.05357
G1 X85.399 Y95.175 E534.10332
G1 X84.68 Y95.269 E534.15306
G1 X84.01 Y95.547 E534.20282
G1 X83.435 Y95.988 E534.25253
G1 X82.994 Y96.563 E534.30224
G1 X82.716 Y97.233 E534.352
G1 X82.622 Y97.952 E534.40174
G1 X82.716 Y98.671 E534.45148
G1 X82.994 Y99.341 E534.50124
G1 X83.435 Y99.915 E534.5509
G1 X84.01 Y100.357 E534.60065
G1 X84.68 Y100.634 E534.65039
G1 X85.399 Y100.729 E534.70014
G0 F12000 X85.327 Y101.274
G0 X85.399 Y101.284
; TYPE:WALL-INNER
G1 F600 X86.261 Y101.17 E534.75978
G1 X87.065 Y100.838 E534.81946
G1 X87.755 Y100.307 E534.87918
G1 X88.284 Y99.618 E534.93877
G1 X88.618 Y98.814 E534.99849
G1 X88.731 Y97.95 E535.05827
G1 X88.613 Y97.078 E535.11863
G1 X88.285 Y96.286 E535.17744
G1 X87.755 Y95.596 E535.23712
G1 X87.065 Y95.066 E535.29681
G1 X86.261 Y94.733 E535.35651
G1 X85.399 Y94.62 E535.41614
G1 X84.537 Y94.733 E535.47578
G1 X83.733 Y95.066 E535.53548
G1 X83.043 Y95.596 E535.59516
G1 X82.513 Y96.286 E535.65485
G1 X82.18 Y97.09 E535.71455
G1 X82.067 Y97.952 E535.77418
G1 X82.18 Y98.814 E535.83382
G1 X82.514 Y99.618 E535.89355
G1 X83.043 Y100.307 E535.95314
G1 X83.733 Y100.838 E536.01286
G1 X84.537 Y101.17 E536.07253
G1 X85.399 Y101.284 E536.13218
G0 F12000 X85.399 Y101.839
G1 F600 X86.405 Y101.705 E536.2018
G1 X87.342 Y101.318 E536.27134
G1 X88.148 Y100.699 E536.34106
G1 X88.765 Y99.896 E536.41053
G1 X89.154 Y98.958 E536.48019
G1 X89.286 Y97.949 E536.54999
G1 X89.149 Y96.933 E536.62032
G1 X88.765 Y96.009 E536.68896
G1 X88.148 Y95.203 E536.75859
G1 X87.342 Y94.586 E536.82822
G1 X86.405 Y94.197 E536.89782
G1 X85.399 Y94.065 E536.96742
G1 X84.393 Y94.197 E537.03703
G1 X83.456 Y94.586 E537.10662
G1 X82.65 Y95.203 E537.17625
G1 X82.033 Y96.009 E537.24588
G1 X81.644 Y96.946 E537.31548
G1 X81.512 Y97.952 E537.38508
G1 X81.644 Y98.958 E537.45469
G1 X82.033 Y99.896 E537.52435
G1 X82.65 Y100.699 E537.59381
G1 X83.456 Y101.318 E537.66353
G1 X84.393 Y101.705 E537.73307
G1 X85.399 Y101.839 E537.80269
G1 F6600 E533.80269
G1 Z0.7
G0 F12000 X87.065 Y100.838
G0 X87.755 Y100.307
G0 X100.74 Y85.729
G0 X100.811 Y85.184
; TYPE:WALL-OUTER
G1 Z0.4
G1 F6600 E537.90269
G1 F600 X101.427 Y85.104 E537.9453
G1 X102 Y84.866 E537.98787
G1 X102.492 Y84.488 E538.03043
G1 X102.87 Y83.996 E538.07299
G1 X103.107 Y83.423 E538.11553
G1 X103.188 Y82.807 E538.15815
G1 X103.107 Y82.192 E538.2007
G1 X102.87 Y81.618 E538.2433
G1 X102.492 Y81.127 E538.28581
G1 X102 Y80.749 E538.32837
G1 X101.427 Y80.511 E538.37093
G1 X100.811 Y80.43 E538.41355
G1 X100.196 Y80.511 E538.45611
G1 X99.622 Y80.749 E538.49873
G1 X99.13 Y81.127 E538.54129
G1 X98.752 Y81.618 E538.5838
G1 X98.515 Y82.192 E538.6264
G1 X98.434 Y82.807 E538.66896
G1 X98.515 Y83.423 E538.71158
G1 X98.752 Y83.996 E538.75411
G1 X99.13 Y84.488 E538.79667
G1 X99.622 Y84.866 E538.83924
G1 X100.196 Y85.104 E538.88186
G1 X100.811 Y85.184 E538.92441
G0 F12000 X100.74 Y85.729
G0 X100.811 Y85.739
; TYPE:WALL-INNER
G1 F600 X101.57 Y85.64 E538.97691
G1 X102.277 Y85.346 E539.02944
G1 X102.884 Y84.88 E539.08194
G1 X103.351 Y84.273 E539.13447
G1 X103.643 Y83.566 E539.18695
G1 X103.743 Y82.807 E539.23946
G1 X103.643 Y82.049 E539.29191
G1 X103.351 Y81.341 E539.34445
G1 X102.884 Y80.734 E539.39698
G1 X102.277 Y80.269 E539.44944
G1 X101.571 Y79.975 E539.5019
G1 X100.811 Y79.875 E539.55448
G1 X100.052 Y79.975 E539.607
G1 X99.345 Y80.268 E539.6595
G1 X98.738 Y80.734 E539.712
G1 X98.271 Y81.341 E539.76453
G1 X97.979 Y82.049 E539.81707
G1 X97.879 Y82.807 E539.86952
G1 X97.979 Y83.566 E539.92204
G1 X98.271 Y84.273 E539.97451
G1 X98.738 Y84.88 E540.02705
G1 X99.345 Y85.347 E540.07958
G1 X100.053 Y85.64 E540.13215
G1 X100.811 Y85.739 E540.18459
G0 F12000 X100.811 Y86.294
G1 F600 X101.714 Y86.176 E540.24706
G1 X102.555 Y85.827 E540.30952
G1 X103.277 Y85.273 E540.37195
G1 X103.831 Y84.55 E540.43443
G1 X104.179 Y83.71 E540.4968
G1 X104.298 Y82.807 E540.55928
G1 X104.179 Y81.906 E540.62163
G1 X103.831 Y81.064 E540.68413
G1 X103.276 Y80.342 E540.7466
G1 X102.555 Y79.788 E540.80897
G1 X101.715 Y79.44 E540.87135
G1 X100.811 Y79.32 E540.9339
G1 X99.908 Y79.44 E540.99639
G1 X99.067 Y79.788 E541.05883
G1 X98.346 Y80.342 E541.1212
G1 X97.791 Y81.064 E541.18367
G1 X97.443 Y81.906 E541.24617
G1 X97.324 Y82.807 E541.30852
G1 X97.443 Y83.71 E541.371
G1 X97.791 Y84.55 E541.43337
G1 X98.345 Y85.273 E541.49585
G1 X99.067 Y85.827 E541.55828
G1 X99.91 Y86.176 E541.62087
G1 X100.811 Y86.294 E541.68321
G1 F6600 E537.68321
G1 Z0.7
G0 F12000 X99.345 Y85.347
G0 X98.738 Y84.88
G0 X98.271 Y84.273
G0 X97.979 Y83.566
G0 X97.879 Y82.807
G0 X96.104 Y57.13
G0 X96.175 Y56.585
; TYPE:WALL-OUTER
G1 Z0.4
G1 F6600 E541.78321
G1 F600 X96.7 Y56.517 E541.81952
G1 X97.189 Y56.314 E541.85584
G1 X97.608 Y55.992 E541.89209
G1 X97.931 Y55.572 E541.92844
G1 X98.133 Y55.083 E541.96473
G1 X98.203 Y54.556 E542.0012
G1 X98.123 Y54.011 E542.03899
G1 X97.931 Y53.544 E542.07363
G1 X97.608 Y53.125 E542.10992
G1 X97.189 Y52.803 E542.14617
G1 X96.7 Y52.6 E542.18249
G1 X96.175 Y52.531 E542.21881
G1 X95.65 Y52.6 E542.25514
G1 X95.161 Y52.803 E542.29146
G1 X94.742 Y53.125 E542.32771
G1 X94.42 Y53.544 E542.36396
G1 X94.217 Y54.033 E542.40028
G1 X94.148 Y54.558 E542.4366
G1 X94.217 Y55.083 E542.47293
G1 X94.42 Y55.572 E542.50925
G1 X94.742 Y55.992 E542.54555
G1 X95.161 Y56.314 E542.5818
G1 X95.65 Y56.517 E542.61812
G1 X96.175 Y56.585 E542.65444
G0 F12000 X96.104 Y57.13
G0 X96.175 Y57.14
; TYPE:WALL-INNER
G1 F600 X96.843 Y57.053 E542.70065
G1 X97.466 Y56.794 E542.74693
G1 X98 Y56.384 E542.79312
G1 X98.412 Y55.849 E542.83944
G1 X98.669 Y55.226 E542.88567
G1 X98.758 Y54.553 E542.93224
G1 X98.658 Y53.864 E542.98
G1 X98.412 Y53.267 E543.02429
G1 X98 Y52.732 E543.07062
G1 X97.466 Y52.323 E543.11676
G1 X96.844 Y52.064 E543.16298
G1 X96.175 Y51.976 E543.20927
G1 X95.506 Y52.064 E543.25555
G1 X94.884 Y52.323 E543.30177
G1 X94.35 Y52.733 E543.34796
G1 X93.94 Y53.267 E543.39414
G1 X93.681 Y53.889 E543.44036
G1 X93.593 Y54.558 E543.48665
G1 X93.681 Y55.227 E543.53294
G1 X93.939 Y55.849 E543.57913
G1 X94.349 Y56.384 E543.62537
G1 X94.884 Y56.794 E543.67161
G1 X95.507 Y57.053 E543.71789
G1 X96.175 Y57.14 E543.7641
G0 F12000 X96.175 Y57.695
G1 F600 X96.986 Y57.589 E543.82021
G1 X97.744 Y57.275 E543.87649
G1 X98.392 Y56.777 E543.93256
G1 X98.893 Y56.126 E543.98891
G1 X99.205 Y55.369 E544.04507
G1 X99.313 Y54.549 E544.10181
G1 X99.192 Y53.718 E544.15942
G1 X98.892 Y52.989 E544.2135
G1 X98.392 Y52.34 E544.2697
G1 X97.744 Y51.842 E544.32576
G1 X96.988 Y51.529 E544.38189
G1 X96.175 Y51.421 E544.43815
G1 X95.362 Y51.529 E544.49441
G1 X94.606 Y51.842 E544.55054
G1 X93.957 Y52.34 E544.60666
G1 X93.459 Y52.989 E544.66278
G1 X93.146 Y53.745 E544.71891
G1 X93.038 Y54.558 E544.77517
G1 X93.146 Y55.371 E544.83143
G1 X93.459 Y56.126 E544.88749
G1 X93.957 Y56.776 E544.94367
G1 X94.606 Y57.275 E544.99983
G1 X95.364 Y57.589 E545.05611
G1 X96.175 Y57.695 E545.11222
G0 F12000 X85.327 Y51.274
G0 X85.399 Y50.729
; TYPE:WALL-OUTER
G1 F600 X86.118 Y50.634 E545.16197
G1 X86.788 Y50.357 E545.2117
G1 X87.363 Y49.915 E545.26145
G1 X87.804 Y49.341 E545.31111
G1 X88.082 Y48.671 E545.36087
G1 X88.176 Y47.951 E545.41068
G1 X88.078 Y47.223 E545.46107
G1 X87.804 Y46.563 E545.51009
G1 X87.363 Y45.988 E545.5598
G1 X86.788 Y45.547 E545.60951
G1 X86.118 Y45.269 E545.65927
G1 X85.399 Y45.175 E545.70901
G1 X84.68 Y45.269 E545.75876
G1 X84.01 Y45.547 E545.80852
G1 X83.435 Y45.988 E545.85823
G1 X82.994 Y46.563 E545.90794
G1 X82.716 Y47.233 E545.9577
G1 X82.622 Y47.952 E546.00744
G1 X82.716 Y48.671 E546.05718
G1 X82.994 Y49.341 E546.10694
G1 X83.435 Y49.915 E546.1566
G1 X84.01 Y50.357 E546.20635
G1 X84.68 Y50.634 E546.25609
G1 X85.399 Y50.729 E546.30584
G0 F12000 X85.327 Y51.274
G0 X85.399 Y51.284
; TYPE:WALL-INNER
G1 F600 X86.261 Y51.17 E546.36548
G1 X87.065 Y50.838 E546.42515
G1 X87.755 Y50.307 E546.48488
G1 X88.284 Y49.618 E546.54447
G1 X88.618 Y48.814 E546.60419
G1 X88.731 Y47.95 E546.66397
G1 X88.613 Y47.078 E546.72433
G1 X88.285 Y46.286 E546.78314
G1 X87.755 Y45.596 E546.84282
G1 X87.065 Y45.066 E546.90251
G1 X86.261 Y44.733 E546.9622
G1 X85.399 Y44.62 E547.02184
G1 X84.537 Y44.733 E547.08148
G1 X83.733 Y45.066 E547.14118
G1 X83.043 Y45.596 E547.20086
G1 X82.513 Y46.286 E547.26055
G1 X82.18 Y47.09 E547.32025
G1 X82.067 Y47.952 E547.37988
G1 X82.18 Y48.814 E547.43952
G1 X82.514 Y49.618 E547.49925
G1 X83.043 Y50.307 E547.55883
G1 X83.733 Y50.838 E547.61856
G1 X84.537 Y51.17 E547.67823
G1 X85.399 Y51.284 E547.73788
G0 F12000 X85.399 Y51.839
G1 F600 X86.405 Y51.705 E547.8075
G1 X87.342 Y51.318 E547.87704
G1 X88.148 Y50.699 E547.94676
G1 X88.765 Y49.896 E548.01623
G1 X89.154 Y48.958 E548.08589
G1 X89.286 Y47.949 E548.15569
G1 X89.149 Y46.933 E548.22602
G1 X88.765 Y46.009 E548.29466
G1 X88.148 Y45.203 E548.36429
G1 X87.342 Y44.586 E548.43392
G1 X86.405 Y44.197 E548.50352
G1 X85.399 Y44.065 E548.57312
G1 X84.393 Y44.197 E548.64272
G1 X83.456 Y44.586 E548.71232
G1 X82.65 Y45.203 E548.78195
G1 X82.033 Y46.009 E548.85158
G1 X81.644 Y46.946 E548.92118
G1 X81.512 Y47.952 E548.99078
G1 X81.644 Y48.958 E549.06038
G1 X82.033 Y49.896 E549.13004
G1 X82.65 Y50.699 E549.19951
G1 X83.456 Y51.318 E549.26923
G1 X84.393 Y51.705 E549.33877
G1 X85.399 Y51.839 E549.40839
G0 F12000 X74.7 Y57.77
G0 X73.992 Y58.063
G0 X73.234 Y58.162
G0 X73.163 Y58.152
G0 X73.234 Y57.607
; TYPE:WALL-OUTER
G1 F600 X73.849 Y57.527 E549.45094
G1 X74.423 Y57.289 E549.49356
G1 X74.915 Y56.911 E549.53612
G1 X75.293 Y56.419 E549.57868
G1 X75.53 Y55.846 E549.62122
G1 X75.611 Y55.23 E549.66384
G1 X75.53 Y54.615 E549.7064
G1 X75.293 Y54.041 E549.749
G1 X74.915 Y53.549 E549.79156
G1 X74.423 Y53.172 E549.83408
G1 X73.849 Y52.934 E549.8767
G1 X73.234 Y52.853 E549.91926
G1 X72.618 Y52.934 E549.96188
G1 X72.045 Y53.172 E550.00444
G1 X71.553 Y53.549 E550.04696
G1 X71.175 Y54.041 E550.08952
G1 X70.937 Y54.615 E550.13215
G1 X70.857 Y55.23 E550.17469
G1 X70.937 Y55.846 E550.2173
G1 X71.175 Y56.419 E550.25987
G1 X71.553 Y56.911 E550.30243
G1 X72.045 Y57.289 E550.34499
G1 X72.618 Y57.527 E550.38755
G1 X73.234 Y57.607 E550.43017
G0 F12000 X73.163 Y58.152
G0 X73.234 Y58.162
; TYPE:WALL-INNER
G1 F600 X73.992 Y58.063 E550.48261
G1 X74.7 Y57.77 E550.53517
G1 X75.307 Y57.303 E550.58771
G1 X75.774 Y56.696 E550.64024
G1 X76.066 Y55.989 E550.69272
G1 X76.166 Y55.23 E550.74523
G1 X76.066 Y54.472 E550.79768
G1 X75.774 Y53.764 E550.85022
G1 X75.307 Y53.156 E550.90281
G1 X74.7 Y52.691 E550.95526
G1 X73.993 Y52.398 E551.00776
G1 X73.234 Y52.298 E551.06028
G1 X72.474 Y52.398 E551.11286
G1 X71.768 Y52.691 E551.1653
G1 X71.161 Y53.156 E551.21775
G1 X70.694 Y53.764 E551.27034
G1 X70.401 Y54.472 E551.32291
G1 X70.302 Y55.23 E551.37535
G1 X70.401 Y55.989 E551.42785
G1 X70.695 Y56.696 E551.48038
G1 X71.161 Y57.303 E551.53288
G1 X71.768 Y57.769 E551.58537
G1 X72.475 Y58.063 E551.6379
G1 X73.234 Y58.162 E551.6904
G0 F12000 X73.234 Y58.717
G1 F600 X74.135 Y58.599 E551.75274
G1 X74.978 Y58.25 E551.81533
G1 X75.7 Y57.696 E551.87776
G1 X76.254 Y56.973 E551.94024
G1 X76.602 Y56.133 E552.00261
G1 X76.721 Y55.23 E552.06509
G1 X76.602 Y54.329 E552.12744
G1 X76.255 Y53.487 E552.18991
G1 X75.699 Y52.764 E552.25248
G1 X74.977 Y52.211 E552.31487
G1 X74.137 Y51.863 E552.37724
G1 X73.234 Y51.743 E552.43973
G1 X72.33 Y51.863 E552.50228
G1 X71.491 Y52.211 E552.56459
G1 X70.769 Y52.764 E552.62698
G1 X70.214 Y53.486 E552.68945
G1 X69.865 Y54.329 E552.75204
G1 X69.747 Y55.23 E552.81438
G1 X69.865 Y56.133 E552.87685
G1 X70.214 Y56.974 E552.93931
G1 X70.768 Y57.696 E553.00174
G1 X71.49 Y58.25 E553.06417
G1 X72.331 Y58.599 E553.12663
G1 X73.234 Y58.717 E553.1891
G1 F6600 E549.1891
G1 Z0.7
G0 F12000 X74.7 Y57.77
G0 X75.307 Y57.303
G0 X75.774 Y56.696
G0 X96.009 Y22.903
G0 X96.08 Y22.358
; TYPE:WALL-OUTER
G1 Z0.4
G1 F6600 E553.2891
G1 F600 X96.54 Y22.298 E553.32092
G1 X96.969 Y22.12 E553.35279
G1 X97.336 Y21.838 E553.38454
G1 X97.619 Y21.47 E553.41638
G1 X97.797 Y21.041 E553.44824
G1 X97.858 Y20.579 E553.48021
G1 X97.789 Y20.102 E553.51327
G1 X97.619 Y19.692 E553.54372
G1 X97.336 Y19.324 E553.57557
G1 X96.969 Y19.042 E553.60732
G1 X96.54 Y18.864 E553.63918
G1 X96.08 Y18.804 E553.671
G1 X95.619 Y18.864 E553.70289
G1 X95.191 Y19.042 E553.73469
G1 X94.823 Y19.324 E553.76649
G1 X94.541 Y19.692 E553.7983
G1 X94.363 Y20.121 E553.83016
G1 X94.303 Y20.581 E553.86198
G1 X94.363 Y21.041 E553.89381
G1 X94.541 Y21.47 E553.92567
G1 X94.823 Y21.838 E553.95747
G1 X95.191 Y22.12 E553.98928
G1 X95.619 Y22.298 E554.02107
G1 X96.08 Y22.358 E554.05297
G0 F12000 X96.009 Y22.903
G0 X96.08 Y22.913
; TYPE:WALL-INNER
G1 F600 X96.683 Y22.834 E554.09468
G1 X97.246 Y22.601 E554.13648
G1 X97.728 Y22.23 E554.17821
G1 X98.099 Y21.747 E554.21999
G1 X98.333 Y21.184 E554.26181
G1 X98.413 Y20.576 E554.30388
G1 X98.324 Y19.955 E554.34691
G1 X98.099 Y19.414 E554.38711
G1 X97.728 Y18.932 E554.42883
G1 X97.246 Y18.561 E554.47056
G1 X96.683 Y18.328 E554.51236
G1 X96.08 Y18.249 E554.55407
G1 X95.475 Y18.328 E554.59593
G1 X94.914 Y18.561 E554.6376
G1 X94.431 Y18.932 E554.67938
G1 X94.06 Y19.415 E554.72116
G1 X93.827 Y19.978 E554.76296
G1 X93.748 Y20.581 E554.80468
G1 X93.827 Y21.184 E554.8464
G1 X94.06 Y21.747 E554.88819
G1 X94.431 Y22.23 E554.92997
G1 X94.914 Y22.601 E554.97175
G1 X95.475 Y22.834 E555.01342
G1 X96.08 Y22.913 E555.05528
G0 F12000 X96.08 Y23.468
G1 F600 X96.827 Y23.37 E555.10696
G1 X97.524 Y23.081 E555.15872
G1 X98.12 Y22.623 E555.21028
G1 X98.58 Y22.025 E555.26204
G1 X98.869 Y21.328 E555.3138
G1 X98.968 Y20.573 E555.36604
G1 X98.859 Y19.808 E555.41904
G1 X98.579 Y19.136 E555.46898
G1 X98.12 Y18.539 E555.52064
G1 X97.524 Y18.081 E555.57221
G1 X96.827 Y17.792 E555.62397
G1 X96.08 Y17.694 E555.67565
G1 X95.332 Y17.792 E555.7274
G1 X94.637 Y18.081 E555.77903
G1 X94.038 Y18.539 E555.83076
G1 X93.58 Y19.138 E555.88249
G1 X93.291 Y19.834 E555.93418
G1 X93.193 Y20.581 E555.98587
G1 X93.291 Y21.328 E556.03755
G1 X93.58 Y22.024 E556.08924
G1 X94.038 Y22.623 E556.14097
G1 X94.637 Y23.081 E556.1927
G1 X95.332 Y23.37 E556.24433
G1 X96.08 Y23.468 E556.29608
G1 F6600 E552.29608
G1 Z0.7
G0 F12000 X31.065 Y50.838
G0 X-46.31 Y83.226
G0 X-47.018 Y83.519
G0 X-47.776 Y83.618
G0 X-47.847 Y83.608
G0 X-47.776 Y83.063
; TYPE:WALL-OUTER
G1 Z0.4
G1 F6600 E556.39608
G1 F600 X-47.161 Y82.983 E556.43863
G1 X-46.587 Y82.745 E556.48125
G1 X-46.095 Y82.367 E556.52381
G1 X-45.718 Y81.875 E556.56633
G1 X-45.48 Y81.302 E556.6089
G1 X-45.399 Y80.686 E556.65152
G1 X-45.48 Y80.071 E556.69407
G1 X-45.718 Y79.497 E556.7367
G1 X-46.095 Y79.005 E556.77922
G1 X-46.587 Y78.628 E556.82174
G1 X-47.161 Y78.39 E556.86436
G1 X-47.776 Y78.309 E556.90692
G1 X-48.392 Y78.39 E556.94954
G1 X-48.965 Y78.628 E556.9921
G1 X-49.457 Y79.005 E557.03462
G1 X-49.835 Y79.497 E557.07718
G1 X-50.073 Y80.071 E557.11981
G1 X-50.153 Y80.686 E557.16235
G1 X-50.073 Y81.302 E557.20496
G1 X-49.835 Y81.875 E557.24753
G1 X-49.457 Y82.367 E557.29009
G1 X-48.965 Y82.745 E557.33265
G1 X-48.392 Y82.983 E557.37521
G1 X-47.776 Y83.063 E557.41782
G0 F12000 X-47.847 Y83.608
G0 X-47.776 Y83.618
; TYPE:WALL-INNER
G1 F600 X-47.018 Y83.519 E557.47026
G1 X-46.31 Y83.226 E557.52283
G1 X-45.702 Y82.759 E557.57542
G1 X-45.237 Y82.152 E557.62787
G1 X-44.944 Y81.446 E557.68031
G1 X-44.844 Y80.686 E557.73289
G1 X-44.944 Y79.927 E557.78541
G1 X-45.237 Y79.22 E557.83791
G1 X-45.703 Y78.613 E557.8904
G1 X-46.31 Y78.147 E557.9429
G1 X-47.017 Y77.854 E557.9954
G1 X-47.776 Y77.754 E558.04792
G1 X-48.536 Y77.854 E558.1005
G1 X-49.242 Y78.147 E558.15294
G1 X-49.849 Y78.612 E558.20539
G1 X-50.316 Y79.22 E558.25798
G1 X-50.609 Y79.928 E558.31054
G1 X-50.708 Y80.686 E558.36298
G1 X-50.609 Y81.445 E558.41549
G1 X-50.315 Y82.152 E558.46802
G1 X-49.849 Y82.759 E558.52051
G1 X-49.242 Y83.225 E558.57301
G1 X-48.535 Y83.519 E558.62553
G1 X-47.776 Y83.618 E558.67804
G0 F12000 X-47.776 Y84.173
G1 F600 X-46.875 Y84.055 E558.74038
G1 X-46.032 Y83.706 E558.80297
G1 X-45.31 Y83.151 E558.86544
G1 X-44.757 Y82.429 E558.92782
G1 X-44.409 Y81.59 E558.99013
G1 X-44.289 Y80.686 E559.05269
G1 X-44.409 Y79.783 E559.11518
G1 X-44.757 Y78.943 E559.17755
G1 X-45.31 Y78.22 E559.23999
G1 X-46.033 Y77.667 E559.30244
G1 X-46.873 Y77.319 E559.36481
G1 X-47.776 Y77.199 E559.4273
G1 X-48.68 Y77.319 E559.48985
G1 X-49.519 Y77.667 E559.55216
G1 X-50.241 Y78.22 E559.61455
G1 X-50.796 Y78.942 E559.67702
G1 X-51.145 Y79.785 E559.73961
G1 X-51.263 Y80.686 E559.80195
G1 X-51.145 Y81.589 E559.86442
G1 X-50.796 Y82.43 E559.92688
G1 X-50.242 Y83.152 E559.98931
G1 X-49.52 Y83.706 E560.05174
G1 X-48.679 Y84.055 E560.1142
G1 X-47.776 Y84.173 E560.17667
G1 F6600 E556.17667
G1 Z0.7
G0 F12000 X-49.686 Y103.627
G0 X-49.599 Y104.295
G0 X-49.341 Y104.918
G0 X-48.93 Y105.453
G0 X-48.395 Y105.864
G0 X-47.772 Y106.122
G0 X-47.175 Y106.199
G0 X-47.104 Y105.654
; TYPE:WALL-OUTER
G1 Z0.4
G1 F6600 E560.27667
G1 F600 X-46.579 Y105.586 E560.31299
G1 X-46.09 Y105.383 E560.34931
G1 X-45.671 Y105.061 E560.38556
G1 X-45.349 Y104.641 E560.42186
G1 X-45.146 Y104.152 E560.45818
G1 X-45.076 Y103.625 E560.49465
G1 X-45.156 Y103.079 E560.53251
G1 X-45.349 Y102.613 E560.56711
G1 X-45.671 Y102.194 E560.60336
G1 X-46.09 Y101.872 E560.63961
G1 X-46.579 Y101.669 E560.67593
G1 X-47.104 Y101.6 E560.71225
G1 X-47.629 Y101.669 E560.74858
G1 X-48.118 Y101.872 E560.7849
G1 X-48.538 Y102.194 E560.8212
G1 X-48.86 Y102.613 E560.85745
G1 X-49.063 Y103.102 E560.89377
G1 X-49.131 Y103.627 E560.93009
G1 X-49.063 Y104.152 E560.9664
G1 X-48.86 Y104.641 E561.00272
G1 X-48.538 Y105.061 E561.03903
G1 X-48.118 Y105.383 E561.07533
G1 X-47.629 Y105.586 E561.11165
G1 X-47.104 Y105.654 E561.14797
G0 F12000 X-47.175 Y106.199
G0 X-47.104 Y106.209
; TYPE:WALL-INNER
G1 F600 X-46.436 Y106.122 E561.19418
G1 X-45.813 Y105.863 E561.24046
G1 X-45.278 Y105.453 E561.2867
G1 X-44.868 Y104.918 E561.33294
G1 X-44.61 Y104.296 E561.37913
G1 X-44.521 Y103.622 E561.42577
G1 X-44.621 Y102.932 E561.4736
G1 X-44.868 Y102.336 E561.51786
G1 X-45.279 Y101.802 E561.56408
G1 X-45.813 Y101.392 E561.61026
G1 X-46.435 Y101.133 E561.65648
G1 X-47.104 Y101.045 E561.70277
G1 X-47.773 Y101.133 E561.74906
G1 X-48.395 Y101.391 E561.79525
G1 X-48.93 Y101.801 E561.84149
G1 X-49.34 Y102.336 E561.88773
G1 X-49.599 Y102.959 E561.93401
G1 X-49.686 Y103.627 E561.98023
G1 X-49.599 Y104.295 E562.02644
G1 X-49.341 Y104.918 E562.07269
G1 X-48.93 Y105.453 E562.11897
G1 X-48.395 Y105.864 E562.16525
G1 X-47.772 Y106.122 E562.21151
G1 X-47.104 Y106.209 E562.25772
G0 F12000 X-47.104 Y106.764
G1 F600 X-46.293 Y106.658 E562.31383
G1 X-45.535 Y106.344 E562.37011
G1 X-44.886 Y105.845 E562.42627
G1 X-44.388 Y105.195 E562.48244
G1 X-44.075 Y104.44 E562.53851
G1 X-43.966 Y103.618 E562.59539
G1 X-44.087 Y102.785 E562.65313
G1 X-44.388 Y102.058 E562.70711
G1 X-44.886 Y101.409 E562.76323
G1 X-45.535 Y100.911 E562.81935
G1 X-46.291 Y100.598 E562.87548
G1 X-47.104 Y100.49 E562.93174
G1 X-47.917 Y100.598 E562.988
G1 X-48.672 Y100.911 E563.04406
G1 X-49.322 Y101.409 E563.10024
G1 X-49.821 Y102.058 E563.1564
G1 X-50.135 Y102.816 E563.21268
G1 X-50.241 Y103.627 E563.26879
G1 X-50.135 Y104.438 E563.32489
G1 X-49.821 Y105.195 E563.38111
G1 X-49.323 Y105.846 E563.43734
G1 X-48.672 Y106.344 E563.49356
G1 X-47.915 Y106.658 E563.54978
G1 X-47.104 Y106.764 E563.60589
G1 F6600 E559.60589
G1 Z0.7
G0 F12000 X-74.595 Y111.096
G0 X-75.353 Y111.195
G0 X-75.424 Y111.185
G0 X-75.353 Y110.64
; TYPE:WALL-OUTER
G1 Z0.4
G1 F6600 E563.70589
G1 F600 X-74.738 Y110.56 E563.74843
G1 X-74.164 Y110.322 E563.79106
G1 X-73.673 Y109.944 E563.83357
G1 X-73.295 Y109.452 E563.87613
G1 X-73.057 Y108.879 E563.91869
G1 X-72.976 Y108.263 E563.96131
G1 X-73.057 Y107.648 E564.00387
G1 X-73.295 Y107.074 E564.04649
G1 X-73.673 Y106.582 E564.08906
G1 X-74.164 Y106.205 E564.13152
G1 X-74.738 Y105.967 E564.17415
G1 X-75.353 Y105.886 E564.2167
G1 X-75.969 Y105.967 E564.25932
G1 X-76.542 Y106.205 E564.30188
G1 X-77.034 Y106.582 E564.3444
G1 X-77.412 Y107.074 E564.38697
G1 X-77.65 Y107.648 E564.42959
G1 X-77.73 Y108.263 E564.47214
G1 X-77.65 Y108.879 E564.51475
G1 X-77.412 Y109.452 E564.55731
G1 X-77.034 Y109.944 E564.59987
G1 X-76.542 Y110.322 E564.64243
G1 X-75.969 Y110.56 E564.685
G1 X-75.353 Y110.64 E564.72761
G0 F12000 X-75.424 Y111.185
G0 X-75.353 Y111.195
; TYPE:WALL-INNER
G1 F600 X-74.595 Y111.096 E564.78005
G1 X-73.886 Y110.802 E564.8327
G1 X-73.28 Y110.336 E564.88514
G1 X-72.815 Y109.729 E564.9376
G1 X-72.521 Y109.023 E564.99006
G1 X-72.421 Y108.263 E565.04264
G1 X-72.521 Y107.504 E565.09516
G1 X-72.814 Y106.797 E565.14766
G1 X-73.281 Y106.19 E565.2002
G1 X-73.887 Y105.724 E565.25264
G1 X-74.594 Y105.431 E565.30514
G1 X-75.353 Y105.331 E565.35765
G1 X-76.113 Y105.431 E565.41024
G1 X-76.819 Y105.724 E565.46267
G1 X-77.426 Y106.189 E565.51513
G1 X-77.893 Y106.797 E565.56772
G1 X-78.186 Y107.505 E565.62028
G1 X-78.285 Y108.263 E565.67272
G1 X-78.186 Y109.022 E565.72523
G1 X-77.892 Y109.729 E565.77775
G1 X-77.426 Y110.336 E565.83025
G1 X-76.819 Y110.802 E565.88275
G1 X-76.112 Y111.096 E565.93527
G1 X-75.353 Y111.195 E565.98778
G0 F12000 X-75.353 Y111.75
G1 F600 X-74.452 Y111.632 E566.05011
G1 X-73.609 Y111.283 E566.1127
G1 X-72.888 Y110.728 E566.17512
G1 X-72.334 Y110.007 E566.23749
G1 X-71.986 Y109.167 E566.29987
G1 X-71.866 Y108.263 E566.36242
G1 X-71.986 Y107.36 E566.42491
G1 X-72.334 Y106.519 E566.48735
G1 X-72.889 Y105.797 E566.54982
G1 X-73.61 Y105.244 E566.61215
G1 X-74.45 Y104.896 E566.67452
G1 X-75.353 Y104.776 E566.73701
G1 X-76.257 Y104.896 E566.79957
G1 X-77.096 Y105.244 E566.86188
G1 X-77.818 Y105.797 E566.92427
G1 X-78.373 Y106.519 E566.98674
G1 X-78.722 Y107.362 E567.04933
G1 X-78.84 Y108.263 E567.11166
G1 X-78.722 Y109.166 E567.17413
G1 X-78.373 Y110.007 E567.2366
G1 X-77.819 Y110.729 E567.29903
G1 X-77.097 Y111.283 E567.36145
G1 X-76.256 Y111.632 E567.42392
G1 X-75.353 Y111.75 E567.48639
G1 F6600 E563.48639
G1 Z0.7
G0 F12000 X-76.819 Y110.802
G0 X-77.426 Y110.336
G0 X-100.88 Y85.729
G0 X-100.809 Y85.184
; TYPE:WALL-OUTER
G1 Z0.4
G1 F6600 E567.58639
G1 F600 X-100.194 Y85.104 E567.62893
G1 X-99.62 Y84.866 E567.67156
G1 X-99.128 Y84.488 E567.71412
G1 X-98.751 Y83.996 E567.75664
G1 X-98.513 Y83.423 E567.7992
G1 X-98.432 Y82.807 E567.84182
G1 X-98.513 Y82.192 E567.88438
G1 X-98.751 Y81.618 E567.927
G1 X-99.128 Y81.127 E567.96947
G1 X-99.62 Y80.749 E568.01203
G1 X-100.194 Y80.511 E568.05466
G1 X-100.809 Y80.43 E568.09721
G1 X-101.425 Y80.511 E568.13983
G1 X-101.998 Y80.749 E568.18239
G1 X-102.49 Y81.127 E568.22496
G1 X-102.868 Y81.618 E568.26746
G1 X-103.106 Y82.192 E568.31009
G1 X-103.186 Y82.807 E568.35263
G1 X-103.106 Y83.423 E568.39524
G1 X-102.868 Y83.996 E568.43781
G1 X-102.49 Y84.488 E568.48037
G1 X-101.998 Y84.866 E568.52293
G1 X-101.425 Y85.104 E568.56549
G1 X-100.809 Y85.184 E568.60811
G0 F12000 X-100.88 Y85.729
G0 X-100.809 Y85.739
; TYPE:WALL-INNER
G1 F600 X-100.051 Y85.64 E568.66055
G1 X-99.343 Y85.347 E568.71311
G1 X-98.735 Y84.88 E568.7657
G1 X-98.27 Y84.273 E568.81815
G1 X-97.977 Y83.567 E568.87059
G1 X-97.877 Y82.807 E568.92317
G1 X-97.977 Y82.048 E568.97569
G1 X-98.27 Y81.341 E569.02819
G1 X-98.736 Y80.735 E569.08063
G1 X-99.343 Y80.268 E569.13317
G1 X-100.05 Y79.975 E569.18567
G1 X-100.809 Y79.875 E569.23818
G1 X-101.569 Y79.975 E569.29077
G1 X-102.275 Y80.269 E569.34323
G1 X-102.882 Y80.734 E569.39569
G1 X-103.348 Y81.34 E569.44813
G1 X-103.642 Y82.049 E569.50078
G1 X-103.741 Y82.807 E569.55322
G1 X-103.642 Y83.566 E569.60573
G1 X-103.348 Y84.273 E569.65825
G1 X-102.882 Y84.88 E569.71075
G1 X-102.275 Y85.346 E569.76324
G1 X-101.568 Y85.64 E569.81577
G1 X-100.809 Y85.739 E569.86828
G0 F12000 X-100.809 Y86.294
G1 F600 X-99.908 Y86.176 E569.93061
G1 X-99.065 Y85.827 E569.9932
G1 X-98.343 Y85.272 E570.05567
G1 X-97.79 Y84.55 E570.11806
G1 X-97.442 Y83.711 E570.18037
G1 X-97.322 Y82.807 E570.24292
G1 X-97.442 Y81.904 E570.30541
G1 X-97.79 Y81.064 E570.36779
G1 X-98.343 Y80.343 E570.43012
G1 X-99.065 Y79.788 E570.49259
G1 X-99.906 Y79.44 E570.55503
G1 X-100.809 Y79.32 E570.61752
G1 X-101.713 Y79.44 E570.68007
G1 X-102.553 Y79.788 E570.74245
G1 X-103.274 Y80.342 E570.80482
G1 X-103.829 Y81.063 E570.86724
G1 X-104.178 Y81.906 E570.92983
G1 X-104.296 Y82.807 E570.99216
G1 X-104.178 Y83.71 E571.05463
G1 X-103.829 Y84.551 E571.11709
G1 X-103.275 Y85.273 E571.17952
G1 X-102.553 Y85.827 E571.24195
G1 X-101.712 Y86.176 E571.30441
G1 X-100.809 Y86.294 E571.36689
G0 F12000 X-102.275 Y85.346
G0 X-102.882 Y84.88
G0 X-103.348 Y84.273
G0 X-103.642 Y83.566
G0 X-103.741 Y82.807
G0 X-103.303 Y72.996
G0 X-103.232 Y72.451
; TYPE:WALL-OUTER
G1 F600 X-102.513 Y72.357 E571.41663
G1 X-101.843 Y72.079 E571.46639
G1 X-101.268 Y71.638 E571.5161
G1 X-100.827 Y71.063 E571.56581
G1 X-100.549 Y70.393 E571.61557
G1 X-100.455 Y69.673 E571.66538
G1 X-100.554 Y68.944 E571.71585
G1 X-100.827 Y68.285 E571.76478
G1 X-101.268 Y67.71 E571.81449
G1 X-101.843 Y67.269 E571.8642
G1 X-102.513 Y66.991 E571.91396
G1 X-103.232 Y66.897 E571.9637
G1 X-103.951 Y66.991 E572.01344
G1 X-104.621 Y67.269 E572.06321
G1 X-105.196 Y67.71 E572.11292
G1 X-105.637 Y68.285 E572.16262
G1 X-105.915 Y68.955 E572.21239
G1 X-106.009 Y69.674 E572.26213
G1 X-105.915 Y70.393 E572.31187
G1 X-105.637 Y71.063 E572.36163
G1 X-105.196 Y71.638 E572.41134
G1 X-104.621 Y72.079 E572.46105
G1 X-103.951 Y72.357 E572.51081
G1 X-103.232 Y72.451 E572.56055
G0 F12000 X-103.303 Y72.996
G0 X-103.232 Y73.006
; TYPE:WALL-INNER
G1 F600 X-102.37 Y72.893 E572.62019
G1 X-101.566 Y72.56 E572.67989
G1 X-100.876 Y72.03 E572.73957
G1 X-100.346 Y71.34 E572.79926
G1 X-100.013 Y70.536 E572.85896
G1 X-99.9 Y69.672 E572.91873
G1 X-100.019 Y68.799 E572.97917
G1 X-100.346 Y68.008 E573.03789
G1 X-100.876 Y67.318 E573.09757
G1 X-101.566 Y66.788 E573.15726
G1 X-102.37 Y66.455 E573.21695
G1 X-103.232 Y66.342 E573.27659
G1 X-104.094 Y66.455 E573.33623
G1 X-104.898 Y66.788 E573.39593
G1 X-105.588 Y67.318 E573.45561
G1 X-106.118 Y68.008 E573.5153
G1 X-106.451 Y68.812 E573.575
G1 X-106.564 Y69.674 E573.63463
G1 X-106.451 Y70.536 E573.69427
G1 X-106.118 Y71.34 E573.75397
G1 X-105.588 Y72.03 E573.81365
G1 X-104.898 Y72.56 E573.87334
G1 X-104.094 Y72.893 E573.93304
G1 X-103.232 Y73.006 E573.99267
G0 F12000 X-103.232 Y73.561
G1 F600 X-102.226 Y73.429 E574.06228
G1 X-101.289 Y73.04 E574.13187
G1 X-100.483 Y72.423 E574.2015
G1 X-99.866 Y71.617 E574.27114
G1 X-99.477 Y70.68 E574.34073
G1 X-99.345 Y69.67 E574.41061
G1 X-99.484 Y68.654 E574.48095
G1 X-99.866 Y67.731 E574.54948
G1 X-100.483 Y66.925 E574.61911
G1 X-101.289 Y66.308 E574.68874
G1 X-102.226 Y65.919 E574.75834
G1 X-103.232 Y65.787 E574.82794
G1 X-104.238 Y65.919 E574.89754
G1 X-105.175 Y66.308 E574.96714
G1 X-105.981 Y66.925 E575.03677
G1 X-106.598 Y67.731 E575.1064
G1 X-106.987 Y68.668 E575.176
G1 X-107.119 Y69.674 E575.2456
G1 X-106.987 Y70.68 E575.3152
G1 X-106.598 Y71.617 E575.3848
G1 X-105.981 Y72.423 E575.45443
G1 X-105.175 Y73.04 E575.52406
G1 X-104.238 Y73.429 E575.59366
G1 X-103.232 Y73.561 E575.66326
G0 F12000 X-101.566 Y72.56
G0 X-100.876 Y72.03
G0 X-100.346 Y71.34
G0 X-100.013 Y70.536
G0 X-96.244 Y57.13
G0 X-96.173 Y56.585
; TYPE:WALL-OUTER
G1 F600 X-95.648 Y56.517 E575.69957
G1 X-95.159 Y56.314 E575.7359
G1 X-94.74 Y55.992 E575.77215
G1 X-94.418 Y55.572 E575.80845
G1 X-94.215 Y55.083 E575.84477
G1 X-94.145 Y54.556 E575.88124
G1 X-94.225 Y54.01 E575.91909
G1 X-94.418 Y53.544 E575.9537
G1 X-94.74 Y53.125 E575.98995
G1 X-95.159 Y52.803 E576.0262
G1 X-95.648 Y52.6 E576.06252
G1 X-96.173 Y52.531 E576.09884
G1 X-96.698 Y52.6 E576.13516
G1 X-97.187 Y52.803 E576.17149
G1 X-97.607 Y53.125 E576.20779
G1 X-97.929 Y53.544 E576.24404
G1 X-98.132 Y54.033 E576.28036
G1 X-98.2 Y54.558 E576.31668
G1 X-98.132 Y55.083 E576.35299
G1 X-97.929 Y55.572 E576.38931
G1 X-97.607 Y55.992 E576.42562
G1 X-97.187 Y56.314 E576.46192
G1 X-96.698 Y56.517 E576.49824
G1 X-96.173 Y56.585 E576.53456
G0 F12000 X-96.244 Y57.13
G0 X-96.173 Y57.14
; TYPE:WALL-INNER
G1 F600 X-95.505 Y57.053 E576.58077
G1 X-94.882 Y56.794 E576.62705
G1 X-94.347 Y56.384 E576.67329
G1 X-93.937 Y55.849 E576.71953
G1 X-93.679 Y55.227 E576.76572
G1 X-93.59 Y54.553 E576.81236
G1 X-93.69 Y53.863 E576.86019
G1 X-93.937 Y53.267 E576.90444
G1 X-94.348 Y52.733 E576.95067
G1 X-94.882 Y52.323 E576.99685
G1 X-95.504 Y52.064 E577.04307
G1 X-96.173 Y51.976 E577.08936
G1 X-96.842 Y52.064 E577.13565
G1 X-97.464 Y52.322 E577.18184
G1 X-97.999 Y52.732 E577.22808
G1 X-98.409 Y53.267 E577.27432
G1 X-98.668 Y53.89 E577.3206
G1 X-98.755 Y54.558 E577.36681
G1 X-98.668 Y55.226 E577.41302
G1 X-98.41 Y55.849 E577.45928
G1 X-97.999 Y56.384 E577.50556
G1 X-97.464 Y56.795 E577.55184
G1 X-96.841 Y57.053 E577.5981
G1 X-96.173 Y57.14 E577.64431
G0 F12000 X-96.173 Y57.695
G1 F600 X-95.362 Y57.589 E577.70042
G1 X-94.604 Y57.275 E577.7567
G1 X-93.955 Y56.776 E577.81286
G1 X-93.457 Y56.126 E577.86903
G1 X-93.144 Y55.371 E577.9251
G1 X-93.035 Y54.549 E577.98198
G1 X-93.156 Y53.716 E578.03972
G1 X-93.457 Y52.989 E578.0937
G1 X-93.955 Y52.34 E578.14982
G1 X-94.604 Y51.842 E578.20593
G1 X-95.36 Y51.529 E578.26206
G1 X-96.173 Y51.421 E578.31832
G1 X-96.986 Y51.529 E578.37459
G1 X-97.741 Y51.842 E578.43065
G1 X-98.391 Y52.34 E578.48682
G1 X-98.89 Y52.989 E578.54298
G1 X-99.204 Y53.747 E578.59927
G1 X-99.31 Y54.558 E578.65537
G1 X-99.204 Y55.369 E578.71148
G1 X-98.89 Y56.126 E578.7677
G1 X-98.392 Y56.777 E578.82393
G1 X-97.741 Y57.275 E578.88015
G1 X-96.984 Y57.589 E578.93637
G1 X-96.173 Y57.695 E578.99248
G1 F6600 E574.99248
G1 Z0.7
G0 F12000 X-73.303 Y58.152
G0 X-73.232 Y57.607
; TYPE:WALL-OUTER
G1 Z0.4
G1 F6600 E579.09248
G1 F600 X-72.617 Y57.527 E579.13502
G1 X-72.043 Y57.289 E579.17765
G1 X-71.551 Y56.911 E579.22021
G1 X-71.174 Y56.419 E579.26273
G1 X-70.936 Y55.846 E579.30529
G1 X-70.855 Y55.23 E579.34792
G1 X-70.936 Y54.615 E579.39047
G1 X-71.174 Y54.041 E579.43309
G1 X-71.551 Y53.549 E579.47561
G1 X-72.043 Y53.172 E579.51813
G1 X-72.617 Y52.934 E579.56076
G1 X-73.232 Y52.853 E579.60331
G1 X-73.848 Y52.934 E579.64593
G1 X-74.421 Y53.172 E579.6885
G1 X-74.913 Y53.549 E579.73102
G1 X-75.291 Y54.041 E579.77358
G1 X-75.529 Y54.615 E579.81621
G1 X-75.609 Y55.23 E579.85875
G1 X-75.529 Y55.846 E579.90136
G1 X-75.291 Y56.419 E579.94392
G1 X-74.913 Y56.911 E579.98649
G1 X-74.421 Y57.289 E580.02905
G1 X-73.848 Y57.527 E580.07161
G1 X-73.232 Y57.607 E580.11422
G0 F12000 X-73.303 Y58.152
G0 X-73.232 Y58.162
; TYPE:WALL-INNER
G1 F600 X-72.474 Y58.063 E580.16666
G1 X-71.766 Y57.77 E580.21922
G1 X-71.158 Y57.303 E580.27182
G1 X-70.693 Y56.696 E580.32427
G1 X-70.4 Y55.99 E580.37671
G1 X-70.3 Y55.23 E580.42929
G1 X-70.4 Y54.471 E580.48181
G1 X-70.693 Y53.764 E580.53431
G1 X-71.159 Y53.157 E580.5868
G1 X-71.766 Y52.691 E580.6393
G1 X-72.473 Y52.398 E580.6918
G1 X-73.232 Y52.298 E580.74431
G1 X-73.992 Y52.398 E580.7969
G1 X-74.698 Y52.691 E580.84933
G1 X-75.305 Y53.156 E580.90179
G1 X-75.772 Y53.764 E580.95438
G1 X-76.065 Y54.472 E581.00694
G1 X-76.164 Y55.23 E581.05938
G1 X-76.065 Y55.989 E581.11189
G1 X-75.771 Y56.696 E581.16442
G1 X-75.305 Y57.303 E581.21691
G1 X-74.698 Y57.769 E581.26941
G1 X-73.991 Y58.063 E581.32193
G1 X-73.232 Y58.162 E581.37444
G0 F12000 X-73.232 Y58.717
G1 F600 X-72.331 Y58.599 E581.43677
G1 X-71.488 Y58.25 E581.49936
G1 X-70.766 Y57.695 E581.56183
G1 X-70.213 Y56.973 E581.62422
G1 X-69.865 Y56.134 E581.68653
G1 X-69.745 Y55.23 E581.74909
G1 X-69.865 Y54.327 E581.81158
G1 X-70.213 Y53.487 E581.87395
G1 X-70.766 Y52.764 E581.93639
G1 X-71.489 Y52.211 E581.99883
G1 X-72.329 Y51.863 E582.06121
G1 X-73.232 Y51.743 E582.1237
G1 X-74.136 Y51.863 E582.18625
G1 X-74.975 Y52.211 E582.24856
G1 X-75.697 Y52.764 E582.31095
