; Generated with MatterSlice 1.0
; filamentDiameter = 1.75
; extrusionWidth = 0.4
; firstLayerExtrusionWidth = 1
; layerThickness = 0.2
; firstLayerThickness = 0.3
; automatic settings before start_gcode
G21 ; set units to millimeters
M107 ; fan off
M190 S12 ; wait for bed temperature to be reached
M104 T0 S215 ; start heating extruder 0
T0 ; set the active extruder to 0
; settings from start_gcode
G28 X0 Y0 Z0 ; home all axes
G1 Z5 F5000 ; lift nozzle
M109 S210 ; set the extruder temp and wait
G28 X0 Y0 Z0 ; Home Z again in case there was filament on nozzle
M565 Z0
G29 ; probe the bed
; automatic settings after start_gcode
T0 ; set the active extruder to 0
G90 ; use absolute coordinates
G92 E0 ; reset the expected extruder position
M82 ; use absolute distance for extrusion
; Layer count: 14
; LAYER:0
M107
G0 F9000 X47.18 Y38.966 Z1.299
; TYPE:WALL-OUTER
G1 Z1.299
G1 F1800 E0
G1 F1080 X52.836 Y33.31 E0.99765
G1 X60.435 Y40.908 E2.33794
G1 X61.208 Y41.542 E2.46263
G1 X62.152 Y42.058 E2.59682
G1 X63.18 Y42.382 E2.73125
G1 X64.229 Y42.496 E2.86286
G1 X163.72 Y42.501 E15.27193
G1 X164.716 Y42.403 E15.39675
G1 X165.748 Y42.101 E15.53087
G1 X166.704 Y41.603 E15.66531
G1 X167.525 Y40.942 E15.79678
G1 X175.164 Y33.309 E17.14368
G1 X180.114 Y38.259 E18.0168
G1 X171.328 Y47.045 E19.56655
G1 X170.951 Y47.538 E19.64396
G1 X170.701 Y48.141 E19.72538
G1 X170.616 Y48.79 E19.80701
G1 X170.701 Y49.437 E19.88841
G1 X170.951 Y50.042 E19.97005
G1 X171.328 Y50.534 E20.04736
G1 X189.76 Y68.966 E23.29855
G1 X190.252 Y69.344 E23.37594
G1 X190.857 Y69.593 E23.45754
G1 X191.504 Y69.678 E23.53893
G1 X192.152 Y69.593 E23.62044
G1 X192.756 Y69.344 E23.70193
G1 X193.249 Y68.966 E23.77941
G1 X202.035 Y60.18 E25.32916
G1 X207.691 Y65.836 E26.32682
G1 X200.093 Y73.435 E27.6671
G1 X199.459 Y74.208 E27.7918
G1 X198.943 Y75.152 E27.92598
G1 X198.619 Y76.18 E28.06042
G1 X198.505 Y77.229 E28.19202
G1 X198.5 Y176.72 E40.60109
G1 X198.598 Y177.716 E40.72591
G1 X198.9 Y178.748 E40.86003
G1 X199.398 Y179.704 E40.99448
G1 X200.059 Y180.525 E41.12594
G1 X207.692 Y188.164 E42.47284
G1 X202.742 Y193.114 E43.34596
G1 X193.152 Y183.524 E45.03753
G1 X192.401 Y183.426 E45.13199
G1 X191.752 Y183.511 E45.21363
G1 X191.149 Y183.761 E45.29505
G1 X190.657 Y184.139 E45.37243
G1 X172.035 Y202.76 E48.65705
G1 X171.658 Y203.252 E48.73436
G1 X171.408 Y203.857 E48.81601
G1 X171.323 Y204.504 E48.8974
G1 X171.408 Y205.153 E48.97904
G1 X171.658 Y205.756 E49.06045
G1 X172.035 Y206.249 E49.13786
G1 X180.821 Y215.035 E50.68761
G1 X175.165 Y220.691 E51.68527
G1 X167.566 Y213.093 E53.02555
G1 X166.793 Y212.459 E53.15025
G1 X165.849 Y211.943 E53.28443
G1 X164.821 Y211.619 E53.41886
G1 X163.772 Y211.505 E53.55047
G1 X64.281 Y211.5 E65.95954
G1 X63.285 Y211.598 E66.08436
G1 X62.253 Y211.9 E66.21848
G1 X61.297 Y212.398 E66.35292
G1 X60.476 Y213.059 E66.48439
G1 X52.837 Y220.692 E67.83129
G1 X47.887 Y215.742 E68.70441
G1 X56.673 Y206.956 E70.25416
G1 X57.051 Y206.463 E70.33165
G1 X57.3 Y205.859 E70.41313
G1 X57.385 Y205.211 E70.49465
G1 X57.3 Y204.564 E70.57604
G1 X57.051 Y203.959 E70.65764
G1 X56.673 Y203.467 E70.73502
G1 X38.241 Y185.035 E73.98621
G1 X37.749 Y184.658 E74.06352
G1 X37.144 Y184.408 E74.14517
G1 X36.497 Y184.323 E74.22656
G1 X35.848 Y184.408 E74.3082
G1 X35.245 Y184.658 E74.38962
G1 X34.752 Y185.035 E74.46703
G1 X25.966 Y193.821 E76.01677
G1 X20.31 Y188.165 E77.01443
G1 X27.908 Y180.566 E78.35472
G1 X28.542 Y179.793 E78.47941
G1 X29.058 Y178.849 E78.61359
G1 X29.382 Y177.821 E78.74803
G1 X29.496 Y176.772 E78.87963
G1 X29.501 Y77.281 E91.2887
G1 X29.403 Y76.285 E91.41353
G1 X29.101 Y75.253 E91.54764
G1 X28.603 Y74.297 E91.68209
G1 X27.942 Y73.476 E91.81355
G1 X20.309 Y65.837 E93.16045
G1 X25.259 Y60.887 E94.03358
G1 X34.045 Y69.673 E95.58333
G1 X34.538 Y70.051 E95.66081
G1 X35.141 Y70.3 E95.74218
G1 X35.79 Y70.386 E95.82383
G1 X36.437 Y70.3 E95.90524
G1 X37.042 Y70.051 E95.98684
G1 X37.534 Y69.673 E96.06423
G1 X55.966 Y51.241 E99.31542
G1 X56.343 Y50.749 E99.39273
G1 X56.593 Y50.144 E99.47438
G1 X56.678 Y49.497 E99.55577
G1 X56.593 Y48.848 E99.6374
G1 X56.343 Y48.245 E99.71882
G1 X55.966 Y47.753 E99.79613
G1 X47.817 Y39.603 E101.23361
G0 F9000 X48.611 Y39.768
G0 X48.96 Y39.963
G0 X62.06 Y47.308
G0 X62.612 Y47.538
G1 F1080 X62.362 Y48.141 E101.31503
G1 X62.277 Y48.79 E101.39666
G1 X62.362 Y49.437 E101.47805
G1 X62.612 Y50.042 E101.5597
G1 X63.01 Y50.561 E101.64128
G1 X63.529 Y50.959 E101.72285
G1 X64.132 Y51.208 E101.80422
G1 X64.781 Y51.294 E101.88588
G1 X65.43 Y51.208 E101.96753
G1 X66.033 Y50.959 E102.0489
G1 X66.552 Y50.561 E102.13048
G1 X66.95 Y50.042 E102.21205
G1 X67.2 Y49.437 E102.2937
G1 X67.285 Y48.79 E102.37509
G1 X67.2 Y48.141 E102.45673
G1 X66.95 Y47.538 E102.53814
G1 X66.552 Y47.018 E102.61982
G1 X66.033 Y46.621 E102.70132
G1 X65.43 Y46.371 E102.78273
G1 X64.781 Y46.286 E102.86437
G1 X64.132 Y46.371 E102.94601
G1 X63.529 Y46.621 E103.02743
G1 X63.206 Y46.868 E103.07814
G0 F9000 X62.06 Y47.308
G0 X61.962 Y47.282
G0 X63.178 Y46.011
G0 X64.781 Y45.581
G0 X66.384 Y46.011
G0 X75.412 Y50.812
G0 X75.988 Y50.976
G1 F1080 X75.637 Y52.221 E103.23948
G1 X75.586 Y53.514 E103.40088
G1 X75.838 Y54.784 E103.56237
G1 X76.38 Y55.958 E103.72364
G1 X77.126 Y56.904 E103.87391
G1 X110.131 Y89.92 E109.69658
G1 X111.073 Y90.671 E109.84684
G1 X112.184 Y91.206 E110.00064
G1 X113.385 Y91.48 E110.15428
G1 X114.616 Y91.48 E110.30782
G1 X115.817 Y91.206 E110.46147
G1 X116.928 Y90.671 E110.61527
G1 X117.825 Y89.957 E110.75826
G1 X150.838 Y56.951 E116.58076
G1 X151.621 Y55.958 E116.73848
G1 X152.163 Y54.784 E116.89976
G1 X152.416 Y53.514 E117.06127
G1 X152.364 Y52.221 E117.22267
G1 X152.013 Y50.976 E117.38401
G1 X151.381 Y49.848 E117.54528
G1 X150.503 Y48.898 E117.70662
G1 X149.428 Y48.179 E117.86793
G1 X148.214 Y47.731 E118.02933
G1 X147.019 Y47.59 E118.17941
G1 X84.454 Y47.583 E125.98286
G1 X81.043 Y47.583 E126.4083
G1 X79.787 Y47.731 E126.56604
G1 X78.573 Y48.179 E126.72743
G1 X77.498 Y48.898 E126.88874
G1 X76.62 Y49.848 E127.05008
G1 X76.429 Y50.19 E127.09894
G0 F9000 X75.412 Y50.812
G0 X75.397 Y51.063
G0 X74.942 Y52.112
G0 X74.859 Y60.691
G0 X74.781 Y61.286
G1 F1080 X74.132 Y61.371 E127.18058
G1 X73.529 Y61.621 E127.262
G1 X73.01 Y62.018 E127.3435
G1 X72.612 Y62.538 E127.42517
G1 X72.362 Y63.141 E127.50659
G1 X72.277 Y63.79 E127.58823
G1 X72.362 Y64.437 E127.66962
G1 X72.612 Y65.042 E127.75126
G1 X73.01 Y65.561 E127.83284
G1 X73.529 Y65.959 E127.91441
G1 X74.132 Y66.208 E127.99578
G1 X74.781 Y66.294 E128.07744
G1 X75.43 Y66.208 E128.15909
G1 X76.033 Y65.959 E128.24046
G1 X76.552 Y65.561 E128.32204
G1 X76.95 Y65.042 E128.40361
G1 X77.2 Y64.437 E128.48526
G1 X77.286 Y63.787 E128.56704
G1 X77.189 Y63.113 E128.65197
G1 X76.95 Y62.538 E128.72963
G1 X76.552 Y62.018 E128.81131
G1 X76.033 Y61.621 E128.89281
G1 X75.658 Y61.466 E128.94342
G1 F1800 E125.94342
G1 Z1.799
G0 F9000 X74.859 Y60.691
G0 X74.77 Y60.727
G0 X73.178 Y61.011
G0 X38.435 Y76.164
G0 X37.959 Y76.529
G1 Z1.299
G1 F1800 E128.94342
G1 F1080 X37.561 Y76.01 E129.02499
G1 X37.042 Y75.612 E129.10657
G1 X36.437 Y75.362 E129.18822
G1 X35.79 Y75.277 E129.26961
G1 X35.141 Y75.362 E129.35125
G1 X34.538 Y75.612 E129.43266
G1 X34.018 Y76.01 E129.51434
G1 X33.621 Y76.529 E129.59584
G1 X33.371 Y77.132 E129.67725
G1 X33.286 Y77.781 E129.75889
G1 X33.371 Y78.43 E129.84053
G1 X33.621 Y79.033 E129.92195
G1 X34.018 Y79.552 E130.00345
G1 X34.538 Y79.95 E130.08512
G1 X35.141 Y80.2 E130.16654
G1 X35.79 Y80.285 E130.24818
G1 X36.437 Y80.2 E130.32957
G1 X37.042 Y79.95 E130.41121
G1 X37.561 Y79.552 E130.49279
G1 X37.959 Y79.033 E130.57436
G1 X38.208 Y78.43 E130.65573
G1 X38.294 Y77.781 E130.73739
G1 X38.241 Y77.379 E130.78796
G0 F9000 X38.435 Y76.164
G0 X38.436 Y76.203
G0 X38.999 Y77.781
G0 X39.059 Y88.059
G0 X39.221 Y88.637
G1 F1080 X37.976 Y88.988 E130.9493
G1 X36.848 Y89.62 E131.11057
G1 X35.898 Y90.498 E131.27191
G1 X35.179 Y91.573 E131.43322
G1 X34.731 Y92.787 E131.59461
G1 X34.59 Y93.982 E131.74469
G1 X34.583 Y159.958 E139.97358
G1 X34.731 Y161.214 E140.13132
G1 X35.179 Y162.428 E140.29272
G1 X35.898 Y163.503 E140.45403
G1 X36.848 Y164.381 E140.61537
G1 X37.976 Y165.013 E140.77664
G1 X39.221 Y165.364 E140.93798
G1 X40.514 Y165.416 E141.09938
G1 X41.784 Y165.163 E141.26089
G1 X42.958 Y164.621 E141.42217
G1 X43.904 Y163.876 E141.57236
G1 X76.92 Y130.87 E147.39512
G1 X77.671 Y129.928 E147.54538
G1 X78.206 Y128.817 E147.69918
G1 X78.48 Y127.616 E147.85282
G1 X78.48 Y126.385 E148.00636
G1 X78.206 Y125.184 E148.16
G1 X77.671 Y124.073 E148.3138
G1 X76.956 Y123.177 E148.45678
G1 X43.951 Y90.163 E154.27927
G1 X42.958 Y89.38 E154.437
G1 X41.784 Y88.838 E154.59828
G1 X40.514 Y88.586 E154.75977
G1 X40.121 Y88.601 E154.80882
G0 F9000 X39.059 Y88.059
G0 X38.865 Y88.167
G0 X37.708 Y88.339
G0 X34.935 Y90.384
G0 X34.459 Y90.749
G1 F1080 X34.061 Y90.23 E154.89039
G1 X33.542 Y89.832 E154.97197
G1 X32.937 Y89.582 E155.05362
G1 X32.29 Y89.497 E155.13501
G1 X31.641 Y89.582 E155.21665
G1 X31.038 Y89.832 E155.29806
G1 X30.518 Y90.23 E155.37974
G1 X30.121 Y90.749 E155.46124
G1 X29.871 Y91.352 E155.54265
G1 X29.786 Y92.001 E155.62429
G1 X29.871 Y92.65 E155.70593
G1 X30.121 Y93.253 E155.78735
G1 X30.518 Y93.772 E155.86885
G1 X31.038 Y94.17 E155.95052
G1 X31.641 Y94.42 E156.03194
G1 X32.29 Y94.505 E156.11358
G1 X32.937 Y94.42 E156.19497
G1 X33.542 Y94.17 E156.27661
G1 X34.061 Y93.772 E156.35819
G1 X34.459 Y93.253 E156.43976
G1 X34.708 Y92.65 E156.52113
G1 X34.795 Y91.998 E156.60318
G1 X34.738 Y91.6 E156.65332
G1 F1800 E153.65332
G1 Z1.799
G0 F9000 X34.935 Y90.384
G0 X34.934 Y90.375
G0 X34.919 Y90.775
G0 X34.095 Y112.793
G0 X34.08 Y113.193
G0 X32.368 Y158.901
G0 X32.29 Y159.496
G1 Z1.299
G1 F1800 E156.65332
G1 F1080 X31.641 Y159.581 E156.73496
G1 X31.038 Y159.831 E156.81638
G1 X30.518 Y160.229 E156.89805
G1 X30.121 Y160.748 E156.97955
G1 X29.871 Y161.351 E157.06097
G1 X29.786 Y162 E157.14261
G1 X29.871 Y162.649 E157.22424
G1 X30.121 Y163.252 E157.30566
G1 X30.518 Y163.771 E157.38716
G1 X31.038 Y164.169 E157.46884
G1 X31.641 Y164.419 E157.55025
G1 X32.29 Y164.504 E157.63189
G1 X32.937 Y164.419 E157.71328
G1 X33.542 Y164.169 E157.79493
G1 X34.061 Y163.771 E157.8765
G1 X34.459 Y163.252 E157.95808
G1 X34.708 Y162.649 E158.03945
G1 X34.795 Y161.997 E158.12149
G1 X34.697 Y161.323 E158.20644
G1 X34.459 Y160.748 E158.28406
G1 X34.061 Y160.229 E158.36563
G1 X33.542 Y159.831 E158.44721
G1 X33.167 Y159.676 E158.49782
G0 F9000 X32.368 Y158.901
G0 X32.35 Y158.806
G0 X32.42 Y159.2
G0 X33.372 Y164.567
G0 X33.442 Y164.961
G0 X34.913 Y173.247
G0 X35.141 Y173.801
G1 F1080 X34.538 Y174.051 E158.57923
G1 X34.018 Y174.449 E158.66091
G1 X33.621 Y174.968 E158.74241
G1 X33.371 Y175.571 E158.82383
G1 X33.286 Y176.22 E158.90546
G1 X33.371 Y176.869 E158.9871
G1 X33.621 Y177.472 E159.06852
G1 X34.018 Y177.991 E159.15002
G1 X34.538 Y178.389 E159.23169
G1 X35.141 Y178.639 E159.31311
G1 X35.79 Y178.724 E159.39475
G1 X36.437 Y178.639 E159.47614
G1 X37.042 Y178.389 E159.55779
G1 X37.561 Y177.991 E159.63936
G1 X37.959 Y177.472 E159.72094
G1 X38.208 Y176.869 E159.80231
G1 X38.294 Y176.22 E159.88396
G1 X38.208 Y175.571 E159.96561
G1 X37.959 Y174.968 E160.04698
G1 X37.561 Y174.449 E160.12856
G1 X37.042 Y174.051 E160.21013
G1 X36.437 Y173.801 E160.29178
G1 X36.035 Y173.749 E160.34234
G1 F1800 E157.34234
G1 Z1.799
G0 F9000 X34.913 Y173.247
G0 X34.85 Y173.177
G0 X36.619 Y173.121
G0 X38.058 Y173.952
G0 X62.536 Y203.075
G0 X63.01 Y203.44
G1 Z1.299
G1 F1800 E160.34234
G1 F1080 X62.612 Y203.959 E160.42391
G1 X62.362 Y204.564 E160.50556
G1 X62.277 Y205.211 E160.58695
G1 X62.362 Y205.86 E160.66859
G1 X62.612 Y206.463 E160.75001
G1 X63.01 Y206.983 E160.83168
G1 X63.529 Y207.38 E160.91318
G1 X64.132 Y207.63 E160.9946
G1 X64.781 Y207.715 E161.07624
G1 X65.43 Y207.63 E161.15787
G1 X66.033 Y207.38 E161.23929
G1 X66.552 Y206.983 E161.32079
G1 X66.95 Y206.463 E161.40247
G1 X67.2 Y205.86 E161.48388
G1 X67.285 Y205.211 E161.56552
G1 X67.2 Y204.564 E161.64691
G1 X66.95 Y203.959 E161.72856
G1 X66.552 Y203.44 E161.81013
G1 X66.033 Y203.042 E161.89171
G1 X65.43 Y202.793 E161.97308
G1 X64.781 Y202.707 E162.05473
G1 X64.132 Y202.793 E162.13639
G1 X63.757 Y202.948 E162.187
G0 F9000 X62.536 Y203.075
G0 X72.534 Y192.345
G0 X72.534 Y192.345
G0 X73.01 Y191.983
G1 F1080 X73.529 Y192.38 E162.2685
G1 X74.132 Y192.63 E162.34991
G1 X74.781 Y192.715 E162.43155
G1 X75.43 Y192.63 E162.51319
G1 X76.033 Y192.38 E162.59461
G1 X76.552 Y191.983 E162.67611
G1 X76.95 Y191.463 E162.75778
G1 X77.2 Y190.86 E162.8392
G1 X77.286 Y190.208 E162.92122
G1 X77.189 Y189.536 E163.00591
G1 X76.95 Y188.959 E163.0838
G1 X76.552 Y188.44 E163.16538
G1 X76.033 Y188.042 E163.24695
G1 X75.43 Y187.793 E163.32832
G1 X74.781 Y187.707 E163.40998
G1 X74.132 Y187.793 E163.49163
G1 X73.529 Y188.042 E163.573
G1 X73.01 Y188.44 E163.65458
G1 X72.612 Y188.959 E163.73615
G1 X72.362 Y189.564 E163.8178
G1 X72.277 Y190.211 E163.89919
G1 X72.362 Y190.86 E163.98083
G1 X72.517 Y191.235 E164.03144
G0 F9000 X72.534 Y192.345
G0 X76.693 Y196.678
G0 X76.693 Y196.678
G0 X77.163 Y197.05
G1 F1080 X76.38 Y198.043 E164.18916
G1 X75.838 Y199.217 E164.35044
G1 X75.586 Y200.487 E164.51193
G1 X75.637 Y201.78 E164.67333
G1 X75.988 Y203.025 E164.83466
G1 X76.62 Y204.153 E164.99593
G1 X77.498 Y205.104 E165.15737
G1 X78.574 Y205.823 E165.31878
G1 X79.787 Y206.27 E165.48001
G1 X80.982 Y206.412 E165.63011
G1 X146.959 Y206.419 E173.85912
G1 X148.214 Y206.27 E174.01675
G1 X149.427 Y205.823 E174.17799
G1 X150.503 Y205.104 E174.3394
G1 X151.381 Y204.153 E174.50084
G1 X152.013 Y203.025 E174.66211
G1 X152.364 Y201.78 E174.82344
G1 X152.416 Y200.487 E174.98484
G1 X152.163 Y199.217 E175.14636
G1 X151.621 Y198.043 E175.30764
G1 X150.875 Y197.097 E175.4579
G1 X117.87 Y164.081 E181.28057
G1 X116.928 Y163.33 E181.43083
G1 X115.817 Y162.795 E181.58463
G1 X114.616 Y162.521 E181.73828
G1 X113.385 Y162.521 E181.89181
G1 X112.184 Y162.795 E182.04546
G1 X111.073 Y163.33 E182.19926
G1 X110.176 Y164.044 E182.34225
G1 X77.8 Y196.413 E188.05239
G1 F1800 E185.05239
G1 Z1.799
G0 F9000 X76.693 Y196.678
G0 X76.641 Y196.682
G0 X110.7 Y162.735
G0 X113.306 Y161.823
G0 X116.049 Y162.132
G0 X118.336 Y163.558
G0 X150.901 Y190.133
G0 X151.496 Y190.211
G1 Z1.299
G1 F1800 E188.05239
G1 F1080 X151.581 Y190.86 E188.13403
G1 X151.831 Y191.463 E188.21544
G1 X152.229 Y191.983 E188.29712
G1 X152.748 Y192.38 E188.37862
G1 X153.351 Y192.63 E188.46003
G1 X154 Y192.715 E188.54167
G1 X154.649 Y192.63 E188.62331
G1 X155.252 Y192.38 E188.70473
G1 X155.771 Y191.983 E188.78623
G1 X156.169 Y191.463 E188.8679
G1 X156.419 Y190.86 E188.94932
G1 X156.505 Y190.208 E189.03134
G1 X156.408 Y189.536 E189.11603
G1 X156.169 Y188.959 E189.19392
G1 X155.771 Y188.44 E189.2755
G1 X155.252 Y188.042 E189.35707
G1 X154.649 Y187.793 E189.43844
G1 X154 Y187.707 E189.5201
G1 X153.351 Y187.793 E189.60175
G1 X152.748 Y188.042 E189.68312
G1 X152.229 Y188.44 E189.7647
G1 X151.831 Y188.959 E189.84627
G1 X151.676 Y189.334 E189.89688
G0 F9000 X150.901 Y190.133
G0 X150.873 Y190.097
G0 X151.222 Y191.815
G0 X160.975 Y203.075
G0 X161.449 Y203.44
G1 F1080 X161.051 Y203.959 E189.97846
G1 X160.801 Y204.564 E190.0601
G1 X160.716 Y205.211 E190.1415
G1 X160.801 Y205.86 E190.22313
G1 X161.051 Y206.463 E190.30455
G1 X161.449 Y206.983 E190.38622
G1 X161.968 Y207.38 E190.46772
G1 X162.571 Y207.63 E190.54914
G1 X163.22 Y207.715 E190.63078
G1 X163.869 Y207.63 E190.71242
G1 X164.472 Y207.38 E190.79383
G1 X164.991 Y206.983 E190.87533
G1 X165.389 Y206.463 E190.95701
G1 X165.639 Y205.86 E191.03843
G1 X165.724 Y205.211 E191.12006
G1 X165.639 Y204.564 E191.20145
G1 X165.389 Y203.959 E191.2831
G1 X164.991 Y203.44 E191.36468
G1 X164.472 Y203.042 E191.44625
G1 X163.869 Y202.793 E191.52762
G1 X163.22 Y202.707 E191.60928
G1 X162.571 Y202.793 E191.69093
G1 X162.196 Y202.948 E191.74154
G1 F1800 E188.74154
G1 Z1.799
G0 F9000 X160.975 Y203.075
G0 X190.075 Y178.465
G0 X190.075 Y178.465
G0 X190.44 Y177.991
G1 Z1.299
G1 F1800 E191.74154
G1 F1080 X190.959 Y178.389 E191.82312
G1 X191.564 Y178.639 E191.90476
G1 X192.211 Y178.724 E191.98615
G1 X192.86 Y178.639 E192.06779
G1 X193.463 Y178.389 E192.14921
G1 X193.983 Y177.991 E192.23088
G1 X194.38 Y177.472 E192.31238
G1 X194.63 Y176.869 E192.3938
G1 X194.715 Y176.22 E192.47544
G1 X194.63 Y175.571 E192.55708
G1 X194.38 Y174.968 E192.63849
G1 X193.983 Y174.449 E192.71999
G1 X193.463 Y174.051 E192.80167
G1 X192.86 Y173.801 E192.88308
G1 X192.211 Y173.716 E192.96472
G1 X191.564 Y173.801 E193.04611
G1 X190.959 Y174.051 E193.12776
G1 X190.44 Y174.449 E193.20934
G1 X190.042 Y174.968 E193.29091
G1 X189.793 Y175.571 E193.37228
G1 X189.707 Y176.22 E193.45393
G1 X189.793 Y176.869 E193.53559
G1 X189.948 Y177.244 E193.5862
G1 F1800 E190.5862
G1 Z1.799
G0 F9000 X190.075 Y178.465
G0 X190.066 Y178.546
G0 X189.113 Y177.05
G0 X189.113 Y175.39
G0 X193.352 Y148.141
G0 X194.631 Y130.349
G0 X194.711 Y129.754
G1 Z1.299
G1 F1800 E193.5862
G1 F1080 X195.165 Y129.694 E193.64332
G1 X195.588 Y129.52 E193.70036
G1 X195.952 Y129.241 E193.75757
G1 X196.231 Y128.877 E193.81477
G1 X196.406 Y128.454 E193.87187
G1 X196.466 Y127.997 E193.92935
G1 X196.399 Y127.528 E193.98844
G1 X196.23 Y127.122 E194.04329
G1 X195.951 Y126.759 E194.1004
G1 X195.587 Y126.481 E194.15752
G1 X195.165 Y126.307 E194.21446
G1 X194.711 Y126.247 E194.27157
G1 X194.258 Y126.307 E194.32857
G1 X193.834 Y126.481 E194.38573
G1 X193.472 Y126.759 E194.44266
G1 X193.192 Y127.123 E194.49994
G1 X193.017 Y127.545 E194.55692
G1 X192.957 Y128 E194.61416
G1 X193.017 Y128.455 E194.6714
G1 X193.192 Y128.877 E194.72838
G1 X193.471 Y129.24 E194.78549
G1 X193.834 Y129.52 E194.84267
G1 X193.846 Y129.525 E194.84429
G0 F9000 X194.631 Y130.349
G0 X194.631 Y130.448
G0 X196.449 Y129.738
G0 X197.17 Y127.993
G0 X196.448 Y126.261
G0 X194.631 Y122.35
G0 X194.711 Y121.755
G1 F1080 X195.165 Y121.695 E194.9014
G1 X195.588 Y121.521 E194.95845
G1 X195.952 Y121.242 E195.01565
G1 X196.231 Y120.878 E195.07286
G1 X196.406 Y120.455 E195.12995
G1 X196.466 Y119.998 E195.18744
G1 X196.399 Y119.529 E195.24653
G1 X196.23 Y119.123 E195.30138
G1 X195.952 Y118.76 E195.35841
G1 X195.588 Y118.481 E195.41561
G1 X195.165 Y118.307 E195.47266
G1 X194.711 Y118.247 E195.52978
G1 X194.258 Y118.307 E195.58677
G1 X193.834 Y118.481 E195.64394
G1 X193.471 Y118.761 E195.70111
G1 X193.192 Y119.124 E195.75822
G1 X193.017 Y119.546 E195.8152
G1 X192.957 Y120.001 E195.87244
G1 X193.017 Y120.456 E195.92968
G1 X193.192 Y120.878 E195.98666
G1 X193.471 Y121.241 E196.04376
G1 X193.834 Y121.521 E196.10094
G1 X193.846 Y121.526 E196.10257
G0 F9000 X194.631 Y122.35
G0 X194.631 Y122.449
G0 X196.449 Y121.739
G0 X197.17 Y119.994
G0 X196.449 Y118.263
G0 X194.631 Y114.35
G0 X194.711 Y113.755
G1 F1080 X195.165 Y113.695 E196.15968
G1 X195.588 Y113.521 E196.21673
G1 X195.952 Y113.242 E196.27393
G1 X196.231 Y112.878 E196.33114
G1 X196.406 Y112.455 E196.38823
G1 X196.466 Y111.998 E196.44572
G1 X196.399 Y111.529 E196.50481
G1 X196.23 Y111.123 E196.55966
G1 X195.952 Y110.76 E196.61669
G1 X195.588 Y110.481 E196.67389
G1 X195.165 Y110.307 E196.73094
G1 X194.711 Y110.247 E196.78806
G1 X194.258 Y110.307 E196.84505
G1 X193.834 Y110.481 E196.90221
G1 X193.471 Y110.761 E196.95939
G1 X193.192 Y111.124 E197.0165
G1 X193.017 Y111.546 E197.07348
G1 X192.957 Y112.001 E197.13072
G1 X193.017 Y112.456 E197.18796
G1 X193.192 Y112.878 E197.24494
G1 X193.471 Y113.241 E197.30204
G1 X193.834 Y113.521 E197.35922
G1 X193.846 Y113.526 E197.36084
G0 F9000 X194.631 Y114.35
G0 X194.631 Y114.449
G0 X196.449 Y113.739
G0 X197.17 Y111.994
G0 X196.449 Y110.263
G0 X194.631 Y106.35
G0 X194.711 Y105.755
G1 F1080 X195.165 Y105.695 E197.41796
G1 X195.588 Y105.521 E197.47501
G1 X195.952 Y105.242 E197.53221
G1 X196.231 Y104.878 E197.58942
G1 X196.406 Y104.455 E197.64651
G1 X196.466 Y103.998 E197.704
G1 X196.399 Y103.529 E197.76309
G1 X196.23 Y103.123 E197.81794
G1 X195.952 Y102.76 E197.87497
G1 X195.588 Y102.481 E197.93217
G1 X195.165 Y102.307 E197.98922
G1 X194.711 Y102.247 E198.04634
G1 X194.258 Y102.307 E198.10333
G1 X193.834 Y102.481 E198.16049
G1 X193.471 Y102.761 E198.21767
G1 X193.192 Y103.124 E198.27478
G1 X193.017 Y103.546 E198.33176
G1 X192.957 Y104.001 E198.389
G1 X193.017 Y104.456 E198.44624
G1 X193.192 Y104.878 E198.50322
G1 X193.471 Y105.241 E198.56032
G1 X193.834 Y105.521 E198.6175
G1 X193.846 Y105.526 E198.61912
G0 F9000 X194.631 Y106.35
G0 X194.659 Y106.432
G0 X196.449 Y105.739
G0 X197.17 Y103.994
G0 X196.449 Y102.263
G0 X193.352 Y100.86
G0 X192.711 Y100.901
G0 X192.711 Y101.501
G1 F1080 X169.711 Y101.501 E201.48781
G1 X169.711 Y147.5 E207.22506
G1 X192.711 Y147.5 E210.09375
G1 X192.711 Y102.401 E215.71874
G1 F1800 E212.71874
G1 Z1.799
G0 F9000 X192.711 Y100.901
G0 X191.171 Y100.988
G0 X190.771 Y101.011
G0 X169.265 Y102.244
G0 X169.466 Y103.998
G1 Z1.299
G1 F1800 E215.71874
G1 F1080 X169.399 Y103.529 E215.77783
G1 X169.23 Y103.123 E215.83268
G1 X168.952 Y102.76 E215.88971
G1 X168.588 Y102.481 E215.94691
G1 X168.165 Y102.307 E216.00396
G1 X167.711 Y102.247 E216.06108
G1 X167.258 Y102.307 E216.11807
G1 X166.834 Y102.481 E216.17523
G1 X166.471 Y102.761 E216.23241
G1 X166.192 Y103.124 E216.28952
G1 X166.017 Y103.546 E216.3465
G1 X165.957 Y104.001 E216.40374
G1 X166.017 Y104.456 E216.46098
G1 X166.192 Y104.878 E216.51796
G1 X166.471 Y105.241 E216.57506
G1 X166.834 Y105.521 E216.63224
G1 X167.258 Y105.695 E216.68941
G1 X167.711 Y105.755 E216.7464
G1 X168.165 Y105.695 E216.80352
G1 X168.588 Y105.521 E216.86057
G1 X168.952 Y105.242 E216.91777
G1 X169.231 Y104.878 E216.97497
G1 X169.237 Y104.863 E216.97699
G0 F9000 X169.265 Y102.244
G0 X168.779 Y105.796
G0 X168.724 Y106.192
G0 X168.245 Y109.713
G0 X168.165 Y110.307
G1 F1080 X167.711 Y110.247 E217.0341
G1 X167.258 Y110.307 E217.0911
G1 X166.834 Y110.481 E217.14826
G1 X166.471 Y110.761 E217.20544
G1 X166.192 Y111.124 E217.26254
G1 X166.017 Y111.546 E217.31953
G1 X165.957 Y112.001 E217.37677
G1 X166.017 Y112.456 E217.43401
G1 X166.192 Y112.878 E217.49099
G1 X166.471 Y113.241 E217.54809
G1 X166.834 Y113.521 E217.60527
G1 X167.258 Y113.695 E217.66243
G1 X167.711 Y113.755 E217.71943
G1 X168.165 Y113.695 E217.77655
G1 X168.588 Y113.521 E217.83359
G1 X168.952 Y113.242 E217.8908
G1 X169.231 Y112.878 E217.948
G1 X169.406 Y112.455 E218.00509
G1 X169.466 Y111.998 E218.06258
G1 X169.399 Y111.529 E218.12167
G1 X169.23 Y111.123 E218.17652
G1 X168.952 Y110.76 E218.23355
G1 X168.941 Y110.751 E218.23532
G0 F9000 X168.245 Y109.713
G0 X168.25 Y109.612
G0 X166.483 Y109.871
G0 X165.337 Y111.364
G0 X165.583 Y113.231
G0 X167.791 Y117.652
G0 X167.711 Y118.247
G1 F1080 X167.258 Y118.307 E218.29232
G1 X166.834 Y118.481 E218.34948
G1 X166.471 Y118.761 E218.40666
G1 X166.192 Y119.124 E218.46376
G1 X166.017 Y119.546 E218.52075
G1 X165.957 Y120.001 E218.57799
G1 X166.017 Y120.456 E218.63523
G1 X166.192 Y120.878 E218.69221
G1 X166.471 Y121.241 E218.74931
G1 X166.834 Y121.521 E218.80649
G1 X167.258 Y121.695 E218.86365
G1 X167.711 Y121.755 E218.92065
G1 X168.165 Y121.695 E218.97777
G1 X168.588 Y121.521 E219.03481
G1 X168.952 Y121.242 E219.09202
G1 X169.231 Y120.878 E219.14922
G1 X169.406 Y120.455 E219.20631
G1 X169.466 Y119.998 E219.2638
G1 X169.399 Y119.529 E219.32289
G1 X169.23 Y119.123 E219.37774
G1 X168.952 Y118.76 E219.43477
G1 X168.588 Y118.481 E219.49197
G1 X168.576 Y118.476 E219.49359
G0 F9000 X167.791 Y117.652
G0 X167.791 Y117.553
G0 X165.973 Y118.264
G0 X165.252 Y120.001
G0 X165.973 Y121.738
G0 X167.791 Y125.652
G0 X167.711 Y126.247
G1 F1080 X167.258 Y126.307 E219.55059
G1 X166.834 Y126.481 E219.60775
G1 X166.472 Y126.759 E219.66468
G1 X166.192 Y127.123 E219.72196
G1 X166.017 Y127.545 E219.77894
G1 X165.957 Y128 E219.83618
G1 X166.017 Y128.455 E219.89342
G1 X166.192 Y128.877 E219.9504
G1 X166.471 Y129.24 E220.00751
G1 X166.834 Y129.52 E220.06469
G1 X167.258 Y129.694 E220.12185
G1 X167.711 Y129.754 E220.17884
G1 X168.165 Y129.694 E220.23596
G1 X168.588 Y129.52 E220.29301
G1 X168.952 Y129.241 E220.35021
G1 X169.231 Y128.877 E220.40741
G1 X169.406 Y128.454 E220.46451
G1 X169.466 Y127.997 E220.522
G1 X169.399 Y127.528 E220.58109
G1 X169.23 Y127.122 E220.63594
G1 X168.951 Y126.759 E220.69304
G1 X168.587 Y126.481 E220.75017
G1 X168.575 Y126.477 E220.75175
G1 F1800 E217.75175
G1 Z1.799
G0 F9000 X167.791 Y125.652
G0 X169.12 Y123.033
G0 X165.973 Y121.738
G0 X165.252 Y120.001
G0 X165.337 Y103.364
G0 X166.483 Y101.871
G0 X190.729 Y80.503
G0 X190.959 Y79.95
G1 Z1.299
G1 F1800 E220.75175
G1 F1080 X191.564 Y80.2 E220.83339
G1 X192.211 Y80.285 E220.91478
G1 X192.86 Y80.2 E220.99642
G1 X193.463 Y79.95 E221.07784
G1 X193.983 Y79.552 E221.15951
G1 X194.38 Y79.033 E221.24101
G1 X194.63 Y78.43 E221.32243
G1 X194.715 Y77.781 E221.40407
G1 X194.63 Y77.132 E221.48571
G1 X194.38 Y76.529 E221.56712
G1 X193.983 Y76.01 E221.64862
G1 X193.463 Y75.612 E221.7303
G1 X192.86 Y75.362 E221.81171
G1 X192.211 Y75.277 E221.89335
G1 X191.564 Y75.362 E221.97474
G1 X190.959 Y75.612 E222.05639
G1 X190.44 Y76.01 E222.13797
G1 X190.042 Y76.529 E222.21954
G1 X189.793 Y77.132 E222.30091
G1 X189.707 Y77.781 E222.38256
G1 X189.793 Y78.43 E222.46422
G1 X190.042 Y79.033 E222.54559
G1 X190.29 Y79.356 E222.59638
G1 F1800 E219.59638
G1 Z1.799
G0 F9000 X190.729 Y80.503
G0 X156.722 Y65.272
G0 X156.722 Y65.272
G0 X156.169 Y65.042
G1 Z1.299
G1 F1800 E222.59638
G1 F1080 X156.419 Y64.437 E222.67803
G1 X156.505 Y63.787 E222.75981
G1 X156.408 Y63.113 E222.84474
G1 X156.169 Y62.538 E222.9224
G1 X155.771 Y62.018 E223.00408
G1 X155.252 Y61.621 E223.08558
G1 X154.649 Y61.371 E223.16699
G1 X154 Y61.286 E223.24863
G1 X153.351 Y61.371 E223.33027
G1 X152.748 Y61.621 E223.41169
G1 X152.229 Y62.018 E223.49319
G1 X151.831 Y62.538 E223.57486
G1 X151.581 Y63.141 E223.65628
G1 X151.496 Y63.79 E223.73792
G1 X151.581 Y64.437 E223.81931
G1 X151.831 Y65.042 E223.90095
G1 X152.229 Y65.561 E223.98253
G1 X152.748 Y65.959 E224.0641
G1 X153.351 Y66.208 E224.14547
G1 X154 Y66.294 E224.22713
G1 X154.649 Y66.208 E224.30878
G1 X155.252 Y65.959 E224.39015
G1 X155.575 Y65.711 E224.44094
G0 F9000 X156.722 Y65.272
G0 X161.739 Y51.513
G0 X161.739 Y51.513
G0 X161.968 Y50.959
G1 F1080 X162.571 Y51.208 E224.52231
G1 X163.22 Y51.294 E224.60397
G1 X163.869 Y51.208 E224.68562
G1 X164.472 Y50.959 E224.76699
G1 X164.991 Y50.561 E224.84857
G1 X165.389 Y50.042 E224.93014
G1 X165.639 Y49.437 E225.01179
G1 X165.724 Y48.79 E225.09318
G1 X165.639 Y48.141 E225.17482
G1 X165.389 Y47.538 E225.25624
G1 X164.991 Y47.018 E225.33791
G1 X164.472 Y46.621 E225.41941
G1 X163.869 Y46.371 E225.50083
G1 X163.22 Y46.286 E225.58246
G1 X162.571 Y46.371 E225.6641
G1 X161.968 Y46.621 E225.74552
G1 X161.449 Y47.018 E225.82702
G1 X161.051 Y47.538 E225.90869
G1 X160.801 Y48.141 E225.99011
G1 X160.716 Y48.79 E226.07175
G1 X160.801 Y49.437 E226.15314
G1 X161.051 Y50.042 E226.23479
G1 X161.299 Y50.365 E226.28558
G0 F9000 X161.464 Y51.833
; TYPE:WALL-INNER
G1 F1080 X162.31 Y52.182 E226.39972
G1 X163.22 Y52.303 E226.51422
G1 X164.13 Y52.182 E226.62872
G1 X164.976 Y51.833 E226.74286
G1 X165.704 Y51.274 E226.85734
G1 X166.262 Y50.547 E226.97165
G1 X166.613 Y49.698 E227.08623
G1 X166.733 Y48.79 E227.20047
G1 X166.613 Y47.88 E227.31495
G1 X166.262 Y47.034 E227.42919
G1 X165.704 Y46.305 E227.5437
G1 X164.976 Y45.748 E227.65802
G1 X164.13 Y45.397 E227.77226
G1 X163.22 Y45.277 E227.88675
G1 X162.31 Y45.397 E228.00123
G1 X161.464 Y45.748 E228.11547
G1 X160.736 Y46.305 E228.2298
G1 X160.178 Y47.034 E228.3443
G1 X159.827 Y47.88 E228.45854
G1 X159.707 Y48.79 E228.57302
G1 X159.827 Y49.698 E228.68726
G1 X160.178 Y50.547 E228.80184
G1 X160.736 Y51.274 E228.91615
G1 X160.749 Y51.284 E228.91819
G0 F9000 X153.359 Y52.063
G1 F1080 X152.943 Y50.591 E229.10898
G1 X152.196 Y49.256 E229.29978
G1 X151.157 Y48.132 E229.49069
G1 X149.885 Y47.282 E229.68151
G1 X148.449 Y46.752 E229.87242
G1 X147.078 Y46.59 E230.04461
G1 X84.454 Y46.583 E237.85542
G1 X80.984 Y46.583 E238.28822
G1 X79.552 Y46.752 E238.46807
G1 X78.116 Y47.282 E238.65898
G1 X76.844 Y48.132 E238.84979
G1 X75.805 Y49.256 E239.04071
G1 X75.058 Y50.591 E239.23151
G1 X74.642 Y52.064 E239.42241
G1 X74.582 Y53.593 E239.61327
G1 X74.88 Y55.095 E239.80426
G1 X75.521 Y56.484 E239.99506
G1 X76.377 Y57.569 E240.16743
G1 X109.464 Y90.667 E246.00457
G1 X110.538 Y91.523 E246.17586
G1 X111.851 Y92.156 E246.35767
G1 X113.272 Y92.48 E246.53945
G1 X114.729 Y92.48 E246.72118
G1 X116.15 Y92.156 E246.90296
G1 X117.463 Y91.523 E247.08476
G1 X118.492 Y90.704 E247.24879
G1 X151.587 Y57.616 E253.08575
G1 X152.48 Y56.484 E253.26559
G1 X153.12 Y55.095 E253.45634
G1 X153.42 Y53.593 E253.64737
G1 X153.395 Y52.963 E253.72601
G0 F9000 X154 Y60.277
G1 F1080 X153.09 Y60.397 E253.8405
G1 X152.244 Y60.748 E253.95473
G1 X151.516 Y61.305 E254.06906
G1 X150.958 Y62.034 E254.18357
G1 X150.607 Y62.88 E254.29781
G1 X150.487 Y63.79 E254.41229
G1 X150.607 Y64.698 E254.52652
G1 X150.958 Y65.547 E254.64111
G1 X151.516 Y66.274 E254.75541
G1 X152.244 Y66.833 E254.86989
G1 X153.09 Y67.182 E254.98404
G1 X154 Y67.303 E255.09854
G1 X154.91 Y67.182 E255.21304
G1 X155.756 Y66.833 E255.32718
G1 X156.484 Y66.274 E255.44166
G1 X157.042 Y65.547 E255.55597
G1 X157.393 Y64.698 E255.67055
G1 X157.514 Y63.781 E255.78592
G1 X157.38 Y62.846 E255.90373
G1 X157.042 Y62.033 E256.01354
G1 X156.484 Y61.305 E256.12795
G1 X155.756 Y60.748 E256.24227
G1 X154.91 Y60.397 E256.35651
G1 X154.894 Y60.395 E256.35853
G0 F9000 X170.077 Y50.546
G1 F1080 X170.574 Y51.195 E256.46048
G1 X189.099 Y69.719 E259.72799
G1 X189.748 Y70.218 E259.8301
G1 X190.597 Y70.568 E259.94463
G1 X191.504 Y70.687 E260.05873
G1 X192.412 Y70.568 E260.17295
G1 X193.259 Y70.218 E260.28726
G1 X193.91 Y69.72 E260.38949
G1 X202.035 Y61.594 E261.82273
G1 X206.277 Y65.836 E262.57097
G1 X199.351 Y72.763 E263.79273
G1 X198.626 Y73.646 E263.93522
G1 X198.018 Y74.759 E264.09341
G1 X197.636 Y75.974 E264.25226
G1 X197.505 Y77.174 E264.40282
G1 X197.5 Y176.769 E276.82486
G1 X197.612 Y177.907 E276.96748
G1 X197.968 Y179.123 E277.12551
G1 X198.557 Y180.254 E277.28456
G1 X199.314 Y181.194 E277.43509
G1 X206.278 Y188.164 E278.66399
G1 X202.742 Y191.7 E279.2877
G1 X193.619 Y182.577 E280.8969
G1 X192.401 Y182.417 E281.05012
G1 X191.491 Y182.537 E281.1646
G1 X190.644 Y182.888 E281.27895
G1 X189.996 Y183.386 E281.38089
G1 X171.281 Y202.099 E284.68182
G1 X170.784 Y202.748 E284.78378
G1 X170.434 Y203.596 E284.8982
G1 X170.314 Y204.504 E285.01243
G1 X170.434 Y205.414 E285.12692
G1 X170.784 Y206.259 E285.24099
G1 X171.281 Y206.909 E285.34305
G1 X179.407 Y215.035 E286.77638
G1 X175.165 Y219.277 E287.52462
G1 X168.238 Y212.351 E288.74638
G1 X167.355 Y211.626 E288.88887
G1 X166.242 Y211.018 E289.04706
G1 X165.027 Y210.636 E289.20591
G1 X163.827 Y210.505 E289.35647
G1 X64.232 Y210.5 E301.77851
G1 X63.094 Y210.612 E301.92113
G1 X61.878 Y210.968 E302.07916
G1 X60.747 Y211.557 E302.23821
G1 X59.807 Y212.314 E302.38874
G1 X52.837 Y219.278 E303.61764
G1 X49.301 Y215.742 E304.24135
G1 X57.427 Y207.617 E305.6746
G1 X57.925 Y206.966 E305.77683
G1 X58.275 Y206.119 E305.89113
G1 X58.394 Y205.211 E306.00535
G1 X58.275 Y204.304 E306.11945
G1 X57.925 Y203.455 E306.23399
G1 X57.426 Y202.806 E306.33609
G1 X38.902 Y184.281 E309.6036
G1 X38.253 Y183.784 E309.70556
G1 X37.405 Y183.434 E309.81998
G1 X36.497 Y183.314 E309.93422
G1 X35.587 Y183.434 E310.0487
G1 X34.742 Y183.784 E310.16277
G1 X34.092 Y184.281 E310.26483
G1 X25.966 Y192.407 E311.69816
G1 X21.724 Y188.165 E312.4464
G1 X28.65 Y181.238 E313.66816
G1 X29.375 Y180.355 E313.81066
G1 X29.983 Y179.242 E313.96884
G1 X30.365 Y178.027 E314.12769
G1 X30.496 Y176.827 E314.27825
G1 X30.497 Y165.013 E315.75176
G1 X30.534 Y165.042 E315.75762
G1 X31.38 Y165.393 E315.87186
G1 X32.29 Y165.513 E315.98635
G1 X33.198 Y165.393 E316.10058
G1 X34.047 Y165.042 E316.21517
G1 X34.774 Y164.484 E316.32947
G1 X35.082 Y164.083 E316.39254
G1 X35.132 Y164.157 E316.40368
G1 X36.256 Y165.196 E316.59459
G1 X37.591 Y165.943 E316.78539
G1 X39.063 Y166.359 E316.97618
G1 X40.593 Y166.42 E317.16716
G1 X42.095 Y166.12 E317.3582
G1 X43.484 Y165.48 E317.54895
G1 X44.569 Y164.625 E317.72124
G1 X77.667 Y131.537 E323.55847
G1 X78.523 Y130.463 E323.72976
G1 X79.156 Y129.15 E323.91157
G1 X79.48 Y127.729 E324.09335
G1 X79.48 Y126.272 E324.27507
G1 X79.156 Y124.851 E324.45686
G1 X78.523 Y123.538 E324.63866
G1 X77.703 Y122.51 E324.80267
G1 X44.616 Y89.414 E330.63963
G1 X43.484 Y88.521 E330.81947
G1 X42.095 Y87.88 E331.01027
G1 X40.593 Y87.582 E331.20126
G1 X39.064 Y87.642 E331.39211
G1 X37.591 Y88.058 E331.58302
G1 X36.256 Y88.805 E331.77382
G1 X35.132 Y89.844 E331.96473
G1 X35.082 Y89.919 E331.97597
G1 X34.774 Y89.517 E332.03914
G1 X34.047 Y88.959 E332.15344
G1 X33.198 Y88.608 E332.26803
G1 X32.29 Y88.488 E332.38226
G1 X31.38 Y88.608 E332.49675
G1 X30.534 Y88.959 E332.61098
G1 X30.5 Y88.985 E332.61632
G1 X30.501 Y77.232 E334.08222
G1 X30.389 Y76.094 E334.22485
G1 X30.033 Y74.878 E334.38288
G1 X29.444 Y73.747 E334.54192
G1 X28.687 Y72.807 E334.69246
G1 X21.723 Y65.837 E335.92136
G1 X25.259 Y62.301 E336.54507
G1 X33.384 Y70.427 E337.97831
G1 X34.035 Y70.925 E338.08054
G1 X34.88 Y71.274 E338.19457
G1 X35.79 Y71.395 E338.30907
G1 X36.698 Y71.274 E338.42332
G1 X37.546 Y70.925 E338.53769
G1 X38.195 Y70.426 E338.6398
G1 X56.72 Y51.902 E341.90731
G1 X57.217 Y51.253 E342.00927
G1 X57.567 Y50.405 E342.12369
G1 X57.687 Y49.497 E342.23792
G1 X57.567 Y48.587 E342.35241
G1 X57.216 Y47.741 E342.46665
G1 X56.72 Y47.092 E342.56853
G1 X48.594 Y38.966 E344.00186
G1 X52.836 Y34.724 E344.7501
G1 X59.763 Y41.65 E345.97185
G1 X60.646 Y42.375 E346.11435
G1 X61.759 Y42.983 E346.27254
G1 X62.974 Y43.365 E346.43139
G1 X64.174 Y43.496 E346.58195
G1 X163.769 Y43.501 E359.00399
G1 X164.907 Y43.389 E359.14661
G1 X166.123 Y43.033 E359.30464
G1 X167.254 Y42.444 E359.46369
G1 X168.194 Y41.687 E359.61422
G1 X175.164 Y34.723 E360.84312
G1 X178.7 Y38.259 E361.46683
G1 X170.574 Y46.385 E362.90017
G1 X170.077 Y47.035 E363.00222
G1 X169.727 Y47.88 E363.1163
G1 X169.607 Y48.79 E363.23078
G1 X169.727 Y49.698 E363.34501
G1 X169.733 Y49.713 E363.34703
G0 F9000 X189.727 Y75.297
G1 F1080 X189.168 Y76.025 E363.46151
G1 X188.819 Y76.871 E363.57565
G1 X188.698 Y77.781 E363.69015
G1 X188.819 Y78.691 E363.80465
G1 X189.168 Y79.537 E363.9188
G1 X189.727 Y80.265 E364.03328
G1 X190.454 Y80.823 E364.14758
G1 X191.303 Y81.174 E364.26217
G1 X192.211 Y81.294 E364.3764
G1 X193.121 Y81.174 E364.49088
G1 X193.967 Y80.823 E364.60512
G1 X194.696 Y80.265 E364.71963
G1 X195.253 Y79.537 E364.83396
G1 X195.604 Y78.691 E364.94819
G1 X195.724 Y77.781 E365.06268
G1 X195.604 Y76.871 E365.17716
G1 X195.253 Y76.025 E365.2914
G1 X194.696 Y75.297 E365.40573
G1 X193.967 Y74.739 E365.52023
G1 X193.121 Y74.388 E365.63447
G1 X192.211 Y74.268 E365.74895
G1 X191.303 Y74.388 E365.86319
G1 X190.454 Y74.739 E365.97777
G1 X190.442 Y74.748 E365.97964
G1 F1800 E362.97964
G1 Z1.799
G0 F9000 X189.802 Y75.78
G0 X189.113 Y76.951
G0 X189.113 Y78.611
G0 X193.711 Y100.501
G0 X193.711 Y100.501
G1 Z1.299
G1 F1800 E365.97964
G1 F1080 X168.711 Y100.501 E369.09778
G1 X168.711 Y101.45 E369.21615
G1 X168.426 Y101.333 E369.25457
G1 X167.711 Y101.238 E369.34454
G1 X166.998 Y101.333 E369.43425
G1 X166.33 Y101.607 E369.5243
G1 X165.757 Y102.048 E369.61449
G1 X165.319 Y102.619 E369.70424
G1 X165.043 Y103.284 E369.79405
G1 X164.948 Y104.001 E369.88426
G1 X165.043 Y104.718 E369.97447
G1 X165.319 Y105.383 E370.06427
G1 X165.757 Y105.954 E370.15403
G1 X166.33 Y106.395 E370.24421
G1 X166.998 Y106.669 E370.33426
G1 X167.711 Y106.764 E370.42398
G1 X168.426 Y106.669 E370.51394
G1 X168.711 Y106.552 E370.55237
G1 X168.711 Y109.45 E370.91382
G1 X168.426 Y109.333 E370.95225
G1 X167.711 Y109.238 E371.04221
G1 X166.998 Y109.333 E371.13192
G1 X166.33 Y109.607 E371.22198
G1 X165.757 Y110.048 E371.31216
G1 X165.319 Y110.619 E371.40192
G1 X165.043 Y111.284 E371.49172
G1 X164.948 Y112.001 E371.58193
G1 X165.043 Y112.718 E371.67214
G1 X165.319 Y113.383 E371.76194
G1 X165.757 Y113.954 E371.8517
G1 X166.33 Y114.395 E371.94188
G1 X166.998 Y114.669 E372.03194
G1 X167.711 Y114.764 E372.12165
G1 X168.426 Y114.669 E372.21162
G1 X168.711 Y114.552 E372.25004
G1 X168.711 Y117.45 E372.6115
G1 X168.426 Y117.333 E372.64992
G1 X167.711 Y117.238 E372.73988
G1 X166.998 Y117.333 E372.8296
G1 X166.33 Y117.607 E372.91965
G1 X165.757 Y118.048 E373.00984
G1 X165.319 Y118.619 E373.09959
G1 X165.043 Y119.284 E373.1894
G1 X164.948 Y120.001 E373.27961
G1 X165.043 Y120.718 E373.36982
G1 X165.319 Y121.383 E373.45962
G1 X165.757 Y121.954 E373.54938
G1 X166.33 Y122.395 E373.63956
G1 X166.998 Y122.669 E373.72961
G1 X167.711 Y122.764 E373.81933
G1 X168.426 Y122.669 E373.90929
G1 X168.711 Y122.552 E373.94772
G1 X168.711 Y125.45 E374.30917
G1 X168.426 Y125.333 E374.3476
G1 X167.711 Y125.238 E374.43756
G1 X166.998 Y125.333 E374.52727
G1 X166.331 Y125.606 E374.61716
G1 X165.759 Y126.046 E374.70717
G1 X165.319 Y126.618 E374.79718
G1 X165.043 Y127.283 E374.88698
G1 X164.948 Y128 E374.97719
G1 X165.043 Y128.717 E375.0674
G1 X165.319 Y129.382 E375.15721
G1 X165.757 Y129.953 E375.24696
G1 X166.33 Y130.394 E375.33715
G1 X166.998 Y130.668 E375.4272
G1 X167.711 Y130.763 E375.51692
G1 X168.426 Y130.668 E375.60688
G1 X168.711 Y130.551 E375.6453
G1 X168.711 Y148.5 E377.884
G1 X193.711 Y148.5 E381.00214
G1 X193.711 Y130.55 E383.24096
G1 X193.998 Y130.668 E383.27967
G1 X194.711 Y130.763 E383.36938
G1 X195.426 Y130.668 E383.45934
G1 X196.092 Y130.394 E383.54917
G1 X196.665 Y129.954 E383.63927
G1 X197.104 Y129.382 E383.72921
G1 X197.381 Y128.715 E383.81929
G1 X197.475 Y127.991 E383.91035
G1 X197.371 Y127.261 E384.00231
G1 X197.103 Y126.617 E384.08932
G1 X196.664 Y126.045 E384.17925
G1 X196.09 Y125.606 E384.26938
G1 X195.426 Y125.333 E384.35892
G1 X194.711 Y125.238 E384.44889
G1 X193.998 Y125.333 E384.5386
G1 X193.711 Y125.45 E384.57726
G1 X193.711 Y122.551 E384.93884
G1 X193.998 Y122.669 E384.97754
G1 X194.711 Y122.764 E385.06726
G1 X195.426 Y122.669 E385.15722
G1 X196.092 Y122.395 E385.24704
G1 X196.665 Y121.955 E385.33715
G1 X197.104 Y121.383 E385.42708
G1 X197.381 Y120.716 E385.51716
G1 X197.475 Y119.992 E385.60822
G1 X197.371 Y119.262 E385.70019
G1 X197.103 Y118.618 E385.78719
G1 X196.665 Y118.047 E385.87695
G1 X196.092 Y117.607 E385.96706
G1 X195.426 Y117.333 E386.05688
G1 X194.711 Y117.238 E386.14684
G1 X193.998 Y117.333 E386.23656
G1 X193.711 Y117.451 E386.27526
G1 X193.711 Y114.551 E386.63696
G1 X193.998 Y114.669 E386.67567
G1 X194.711 Y114.764 E386.76538
G1 X195.426 Y114.669 E386.85534
G1 X196.092 Y114.395 E386.94517
G1 X196.665 Y113.955 E387.03527
G1 X197.104 Y113.383 E387.12521
G1 X197.381 Y112.716 E387.21529
G1 X197.475 Y111.992 E387.30635
G1 X197.371 Y111.262 E387.39832
G1 X197.103 Y110.618 E387.48532
G1 X196.665 Y110.047 E387.57507
G1 X196.092 Y109.607 E387.66518
G1 X195.426 Y109.333 E387.755
G1 X194.711 Y109.238 E387.84497
G1 X193.998 Y109.333 E387.93468
G1 X193.711 Y109.451 E387.97339
G1 X193.711 Y106.551 E388.33509
G1 X193.998 Y106.669 E388.37379
G1 X194.711 Y106.764 E388.46351
G1 X195.426 Y106.669 E388.55347
G1 X196.092 Y106.395 E388.64329
G1 X196.665 Y105.955 E388.7334
G1 X197.104 Y105.383 E388.82333
G1 X197.381 Y104.716 E388.91341
G1 X197.475 Y103.992 E389.00447
G1 X197.371 Y103.262 E389.09644
G1 X197.103 Y102.618 E389.18344
G1 X196.665 Y102.047 E389.2732
G1 X196.092 Y101.607 E389.36331
G1 X195.426 Y101.333 E389.45313
G1 X194.711 Y101.238 E389.54309
G1 X193.998 Y101.333 E389.63281
G1 X193.711 Y101.451 E389.67151
G1 X193.711 Y101.401 E389.67775
G1 F1800 E386.67775
G1 Z1.799
G0 F9000 X193.683 Y101.802
G0 X195.347 Y101.627
G0 X196.84 Y102.771
G0 X197.087 Y104.637
G0 X197.087 Y128.636
G0 X192.211 Y172.707
G0 X192.211 Y172.707
G1 Z1.299
G1 F1800 E389.67775
G1 F1080 X191.303 Y172.827 E389.79198
G1 X190.454 Y173.178 E389.90657
G1 X189.727 Y173.736 E390.02087
G1 X189.168 Y174.464 E390.13535
G1 X188.819 Y175.31 E390.2495
G1 X188.698 Y176.22 E390.364
G1 X188.819 Y177.13 E390.4785
G1 X189.168 Y177.976 E390.59264
G1 X189.727 Y178.704 E390.70712
G1 X190.454 Y179.262 E390.82143
G1 X191.303 Y179.613 E390.93601
G1 X192.211 Y179.733 E391.05025
G1 X193.121 Y179.613 E391.16473
G1 X193.967 Y179.262 E391.27897
G1 X194.696 Y178.704 E391.39347
G1 X195.253 Y177.976 E391.5078
G1 X195.604 Y177.13 E391.62204
G1 X195.724 Y176.22 E391.73652
G1 X195.604 Y175.31 E391.85101
G1 X195.253 Y174.464 E391.96524
G1 X194.696 Y173.736 E392.07957
G1 X193.967 Y173.178 E392.19408
G1 X193.121 Y172.827 E392.30832
G1 X193.105 Y172.825 E392.31033
G0 F9000 X157.042 Y188.454
G1 F1080 X156.484 Y187.727 E392.42463
G1 X155.756 Y187.168 E392.53911
G1 X154.91 Y186.819 E392.65326
G1 X154 Y186.698 E392.76776
G1 X153.09 Y186.819 E392.88226
G1 X152.244 Y187.168 E392.9964
G1 X151.516 Y187.727 E393.11088
G1 X150.958 Y188.454 E393.22518
G1 X150.607 Y189.303 E393.33977
G1 X150.487 Y190.211 E393.45401
G1 X150.607 Y191.121 E393.56849
G1 X150.958 Y191.967 E393.68273
G1 X151.516 Y192.696 E393.79723
G1 X152.244 Y193.253 E393.91156
G1 X153.09 Y193.604 E394.0258
G1 X154 Y193.724 E394.14028
G1 X154.91 Y193.604 E394.25476
G1 X155.756 Y193.253 E394.369
G1 X156.484 Y192.696 E394.48333
G1 X157.042 Y191.967 E394.59784
G1 X157.393 Y191.121 E394.71207
G1 X157.514 Y190.202 E394.82769
G1 X157.383 Y189.287 E394.94297
G0 F9000 X162.31 Y201.819
G1 F1080 X161.464 Y202.168 E395.05712
G1 X160.736 Y202.727 E395.1716
G1 X160.178 Y203.454 E395.2859
G1 X159.827 Y204.303 E395.40049
G1 X159.707 Y205.211 E395.51472
G1 X159.827 Y206.121 E395.62921
G1 X160.178 Y206.967 E395.74345
G1 X160.736 Y207.696 E395.85795
G1 X161.464 Y208.253 E395.97228
G1 X162.31 Y208.604 E396.08652
G1 X163.22 Y208.724 E396.201
G1 X164.13 Y208.604 E396.31548
G1 X164.976 Y208.253 E396.42972
G1 X165.704 Y207.696 E396.54405
G1 X166.262 Y206.967 E396.65855
G1 X166.613 Y206.121 E396.77279
G1 X166.733 Y205.211 E396.88728
G1 X166.613 Y204.303 E397.00151
G1 X166.262 Y203.454 E397.1161
G1 X165.704 Y202.727 E397.2304
G1 X164.976 Y202.168 E397.34488
G1 X164.13 Y201.819 E397.45903
G1 X163.22 Y201.698 E397.57352
G1 X163.203 Y201.7 E397.57566
G0 F9000 X153.359 Y201.938
G1 F1080 X153.42 Y200.408 E397.76664
G1 X153.12 Y198.906 E397.95768
G1 X152.48 Y197.517 E398.14843
G1 X151.624 Y196.432 E398.3208
G1 X118.537 Y163.334 E404.15794
G1 X117.463 Y162.478 E404.32924
G1 X116.15 Y161.845 E404.51104
G1 X114.729 Y161.521 E404.69282
G1 X113.272 Y161.521 E404.87455
G1 X111.851 Y161.845 E405.05633
G1 X110.538 Y162.478 E405.23813
G1 X109.509 Y163.297 E405.40216
G1 X76.414 Y196.385 E411.23912
G1 X75.521 Y197.517 E411.41896
G1 X74.88 Y198.906 E411.60976
G1 X74.582 Y200.408 E411.80075
G1 X74.642 Y201.937 E411.9916
G1 X75.058 Y203.41 E412.18251
G1 X75.805 Y204.745 E412.37331
G1 X76.844 Y205.869 E412.56422
G1 X78.117 Y206.72 E412.75521
G1 X79.552 Y207.249 E412.94596
G1 X80.923 Y207.412 E413.11817
G1 X147.018 Y207.419 E421.3619
G1 X148.449 Y207.249 E421.54164
G1 X149.884 Y206.72 E421.73239
G1 X151.157 Y205.869 E421.92338
G1 X152.196 Y204.745 E422.11429
G1 X152.943 Y203.41 E422.30509
G1 X153.114 Y202.805 E422.38351
G1 F1800 E419.38351
G1 Z1.799
G0 F9000 X153.056 Y201.893
G0 X152.832 Y199.001
G0 X151.399 Y196.633
G0 X117.301 Y162.735
G0 X114.695 Y161.823
G0 X111.952 Y162.132
G0 X109.71 Y163.522
G0 X78.174 Y191.121
G0 X78.174 Y191.121
G1 Z1.299
G1 F1800 E422.38351
G1 F1080 X78.295 Y190.202 E422.49912
G1 X78.161 Y189.269 E422.61668
G1 X77.823 Y188.454 E422.72673
G1 X77.265 Y187.727 E422.84103
G1 X76.537 Y187.168 E422.95551
G1 X75.691 Y186.819 E423.06966
G1 X74.781 Y186.698 E423.18416
G1 X73.871 Y186.819 E423.29866
G1 X73.025 Y187.168 E423.4128
G1 X72.297 Y187.727 E423.52728
G1 X71.739 Y188.454 E423.64159
G1 X71.388 Y189.303 E423.75617
G1 X71.268 Y190.211 E423.87041
G1 X71.388 Y191.121 E423.98489
G1 X71.739 Y191.967 E424.09913
G1 X72.297 Y192.696 E424.21363
G1 X73.025 Y193.253 E424.32796
G1 X73.871 Y193.604 E424.4422
G1 X74.781 Y193.724 E424.55668
G1 X75.691 Y193.604 E424.67116
G1 X76.537 Y193.253 E424.7854
G1 X77.265 Y192.696 E424.89973
G1 X77.823 Y191.967 E425.01424
G1 X77.828 Y191.954 E425.01597
G0 F9000 X67.265 Y202.727
G1 F1080 X66.537 Y202.168 E425.13045
G1 X65.691 Y201.819 E425.2446
G1 X64.781 Y201.698 E425.3591
G1 X63.871 Y201.819 E425.4736
G1 X63.025 Y202.168 E425.58774
G1 X62.297 Y202.727 E425.70222
G1 X61.739 Y203.454 E425.81652
G1 X61.388 Y204.303 E425.93111
G1 X61.268 Y205.211 E426.04535
G1 X61.388 Y206.121 E426.15983
G1 X61.739 Y206.967 E426.27407
G1 X62.297 Y207.696 E426.38857
G1 X63.025 Y208.253 E426.5029
G1 X63.871 Y208.604 E426.61714
G1 X64.781 Y208.724 E426.73162
G1 X65.691 Y208.604 E426.8461
G1 X66.537 Y208.253 E426.96034
G1 X67.265 Y207.696 E427.07467
G1 X67.823 Y206.967 E427.18918
G1 X68.174 Y206.121 E427.30341
G1 X68.294 Y205.211 E427.4179
G1 X68.174 Y204.303 E427.53213
G1 X67.823 Y203.454 E427.64672
G1 X67.814 Y203.442 E427.64859
G0 F9000 X38.274 Y178.704
G1 F1080 X38.833 Y177.976 E427.76307
G1 X39.182 Y177.13 E427.87721
G1 X39.303 Y176.22 E427.99171
G1 X39.182 Y175.31 E428.10621
G1 X38.833 Y174.464 E428.22035
G1 X38.274 Y173.736 E428.33483
G1 X37.547 Y173.178 E428.44914
G1 X36.698 Y172.827 E428.56373
G1 X35.79 Y172.707 E428.67796
G1 X34.88 Y172.827 E428.79244
G1 X34.034 Y173.178 E428.90668
G1 X33.305 Y173.736 E429.02119
G1 X32.748 Y174.464 E429.13551
G1 X32.397 Y175.31 E429.24975
G1 X32.277 Y176.22 E429.36424
G1 X32.397 Y177.13 E429.47872
G1 X32.748 Y177.976 E429.59296
G1 X33.305 Y178.704 E429.70729
G1 X34.034 Y179.262 E429.82179
G1 X34.88 Y179.613 E429.93603
G1 X35.79 Y179.733 E430.05051
G1 X36.698 Y179.613 E430.16475
G1 X37.547 Y179.262 E430.27933
G1 X37.559 Y179.253 E430.2812
G1 F1800 E427.2812
G1 Z1.799
G0 F9000 X38.178 Y178.258
G0 X38.888 Y177.05
G0 X38.888 Y175.39
G0 X35.008 Y163.53
G0 X34.924 Y163.139
G0 X34.124 Y159.425
G0 X34.04 Y159.034
G0 X33.983 Y158.766
G0 X33.583 Y158.766
G1 Z1.299
G1 F1800 E430.2812
G1 F1080 X33.198 Y158.607 E430.33316
G1 X32.29 Y158.487 E430.44739
G1 X31.38 Y158.607 E430.56188
G1 X30.534 Y158.958 E430.67611
G1 X30.497 Y158.986 E430.6819
G1 X30.5 Y95.017 E438.66047
G1 X30.534 Y95.043 E438.66581
G1 X31.38 Y95.394 E438.78005
G1 X32.29 Y95.514 E438.89453
G1 X33.198 Y95.394 E439.00876
G1 X33.59 Y95.232 E439.06167
G1 X33.584 Y157.866 E446.87372
G1 F1800 E443.87372
G1 Z1.799
G0 F9000 X33.983 Y158.766
G0 X34.078 Y154.634
G0 X34.087 Y154.234
G0 X35.578 Y90.306
G0 X35.588 Y89.906
G0 X35.79 Y81.294
G0 X35.79 Y81.294
G1 Z1.299
G1 F1800 E446.87372
G1 F1080 X36.698 Y81.174 E446.98796
G1 X37.547 Y80.823 E447.10254
G1 X38.274 Y80.265 E447.21685
G1 X38.833 Y79.537 E447.33133
G1 X39.182 Y78.691 E447.44547
G1 X39.303 Y77.781 E447.55997
G1 X39.182 Y76.871 E447.67447
G1 X38.833 Y76.025 E447.78862
G1 X38.274 Y75.297 E447.9031
G1 X37.547 Y74.739 E448.0174
G1 X36.698 Y74.388 E448.13199
G1 X35.79 Y74.268 E448.24622
G1 X34.88 Y74.388 E448.36071
G1 X34.034 Y74.739 E448.47494
G1 X33.305 Y75.297 E448.58945
G1 X32.748 Y76.025 E448.70378
G1 X32.397 Y76.871 E448.81802
G1 X32.277 Y77.781 E448.9325
G1 X32.397 Y78.691 E449.04698
G1 X32.748 Y79.537 E449.16122
G1 X33.305 Y80.265 E449.27555
G1 X34.034 Y80.823 E449.39005
G1 X34.88 Y81.174 E449.50429
G1 X34.896 Y81.176 E449.5063
G1 F1800 E446.5063
G1 Z1.799
G0 F9000 X36.16 Y80.873
G0 X37.395 Y80.559
G0 X62.297 Y51.274
G0 X62.297 Y51.274
G1 Z1.299
G1 F1800 E449.5063
G1 F1080 X63.025 Y51.833 E449.62078
G1 X63.871 Y52.182 E449.73493
G1 X64.781 Y52.303 E449.84943
G1 X65.691 Y52.182 E449.96393
G1 X66.537 Y51.833 E450.07807
G1 X67.265 Y51.274 E450.19255
G1 X67.823 Y50.547 E450.30685
G1 X68.174 Y49.698 E450.42144
G1 X68.294 Y48.79 E450.53568
G1 X68.174 Y47.88 E450.65016
G1 X67.823 Y47.034 E450.7644
G1 X67.265 Y46.305 E450.8789
G1 X66.537 Y45.748 E450.99323
G1 X65.691 Y45.397 E451.10747
G1 X64.781 Y45.277 E451.22195
G1 X63.871 Y45.397 E451.33643
G1 X63.025 Y45.748 E451.45067
G1 X62.297 Y46.305 E451.565
G1 X61.739 Y47.034 E451.67951
G1 X61.388 Y47.88 E451.79374
G1 X61.268 Y48.79 E451.90823
G1 X61.388 Y49.698 E452.02246
G1 X61.739 Y50.547 E452.13705
G1 X61.748 Y50.559 E452.13892
G0 F9000 X72.569 Y61.609
G0 X72.569 Y61.609
G0 X72.297 Y61.305
G1 F1080 X71.739 Y62.034 E452.25342
G1 X71.388 Y62.88 E452.36766
G1 X71.268 Y63.79 E452.48214
G1 X71.388 Y64.698 E452.59638
G1 X71.739 Y65.547 E452.71096
G1 X72.297 Y66.274 E452.82527
G1 X73.025 Y66.833 E452.93975
G1 X73.871 Y67.182 E453.05389
G1 X74.781 Y67.303 E453.16839
G1 X75.691 Y67.182 E453.28289
G1 X76.537 Y66.833 E453.39704
G1 X77.265 Y66.274 E453.51152
G1 X77.823 Y65.547 E453.62582
G1 X78.174 Y64.698 E453.74041
G1 X78.295 Y63.781 E453.85577
G1 X78.161 Y62.846 E453.97358
G1 X77.823 Y62.033 E454.0834
G1 X77.265 Y61.305 E454.1978
G1 X76.537 Y60.748 E454.31213
G1 X75.691 Y60.397 E454.42637
G1 X74.781 Y60.277 E454.54085
G1 X73.871 Y60.397 E454.65534
G1 X73.025 Y60.748 E454.76957
G1 X73.013 Y60.757 E454.77145
G0 F9000 X72.164 Y60.85
; TYPE:FILL
G1 F1080 X63.95 Y52.636 E456.2203
G0 F9000 X65.393 Y52.665
G1 F1080 X73.006 Y60.278 E457.56315
G0 F9000 X74.069 Y59.927
G1 F1080 X66.475 Y52.333 E458.90264
G0 F9000 X67.332 Y51.775
G1 F1080 X75.481 Y59.925 E460.34012
G0 F9000 X75.371 Y60.759
G0 X75.963 Y56.397
G0 X75.963 Y56.397
G0 X75.304 Y56.919
G1 F1080 X68.483 Y50.099 E461.54318
G0 F9000 X68.003 Y51.032
G1 F1080 X189.967 Y172.997 E483.05631
G0 F9000 X189.224 Y173.668
G1 F1080 X78.639 Y63.083 E502.56223
G0 F9000 X78.643 Y64.5
G1 F1080 X188.666 Y174.524 E521.96911
G0 F9000 X188.335 Y175.607
G1 F1080 X78.291 Y65.563 E541.37961
G0 F9000 X77.718 Y66.404
G1 F1080 X188.364 Y177.05 E560.89629
G0 F9000 X191.38 Y180.066
G1 F1080 X193.419 Y182.106 E561.25604
G0 F9000 X191.934 Y182.034
G1 F1080 X76.96 Y67.06 E581.53613
G0 F9000 X76.011 Y67.525
G1 F1080 X190.822 Y182.337 E601.78756
G0 F9000 X189.943 Y182.871
G1 F1080 X74.814 Y67.742 E622.09499
G0 F9000 X72.924 Y67.267
G1 F1080 X189.206 Y183.55 E642.60589
G0 F9000 X188.499 Y184.257
G1 F1080 X56.743 Y52.5 E665.84622
G0 F9000 X56.036 Y53.207
G1 F1080 X187.792 Y184.964 E689.08655
G0 F9000 X187.085 Y185.671
G1 F1080 X55.328 Y53.914 E712.32697
G0 F9000 X54.621 Y54.621
G1 F1080 X186.378 Y186.378 E735.56739
G0 F9000 X185.671 Y187.085
G1 F1080 X53.914 Y55.328 E758.80781
G0 F9000 X53.207 Y56.036
G1 F1080 X184.964 Y187.792 E782.04814
G0 F9000 X184.257 Y188.499
G1 F1080 X52.5 Y56.743 E805.28847
G0 F9000 X51.793 Y57.45
G1 F1080 X183.55 Y189.206 E828.5288
G0 F9000 X182.842 Y189.914
G1 F1080 X51.086 Y58.157 E851.76914
G0 F9000 X50.379 Y58.864
G1 F1080 X182.135 Y190.621 E875.00947
G0 F9000 X181.428 Y191.328
G1 F1080 X49.672 Y59.571 E898.2498
G0 F9000 X48.965 Y60.278
G1 F1080 X180.721 Y192.035 E921.49013
G0 F9000 X180.014 Y192.742
G1 F1080 X48.257 Y60.985 E944.73055
G0 F9000 X47.55 Y61.692
G1 F1080 X179.307 Y193.449 E967.97097
G0 F9000 X178.6 Y194.156
G1 F1080 X46.843 Y62.4 E991.2113
G0 F9000 X46.136 Y63.107
G1 F1080 X177.893 Y194.863 E1014.45164
G0 F9000 X177.186 Y195.57
G1 F1080 X45.429 Y63.814 E1037.69197
G0 F9000 X44.722 Y64.521
G1 F1080 X176.479 Y196.277 E1060.9323
G0 F9000 X175.771 Y196.985
G1 F1080 X44.015 Y65.228 E1084.17263
G0 F9000 X43.308 Y65.935
G1 F1080 X175.064 Y197.692 E1107.41296
G0 F9000 X174.357 Y198.399
G1 F1080 X42.601 Y66.642 E1130.65329
G0 F9000 X41.893 Y67.349
G1 F1080 X173.65 Y199.106 E1153.89371
G0 F9000 X172.943 Y199.813
G1 F1080 X41.186 Y68.056 E1177.13413
G0 F9000 X40.479 Y68.764
G1 F1080 X172.236 Y200.52 E1200.37447
G0 F9000 X171.529 Y201.227
G1 F1080 X39.772 Y69.471 E1223.6148
G0 F9000 X39.065 Y70.178
G1 F1080 X155.454 Y186.567 E1244.14448
G0 F9000 X153.758 Y186.285
G1 F1080 X38.34 Y70.867 E1264.50289
G0 F9000 X37.484 Y71.425
G1 F1080 X152.602 Y186.543 E1284.80838
G0 F9000 X151.686 Y187.041
G1 F1080 X36.401 Y71.757 E1305.14324
G0 F9000 X34.958 Y71.728
G1 F1080 X37.454 Y74.223 E1305.58342
G0 F9000 X35.657 Y73.841
G1 F1080 X24.999 Y63.182 E1307.46345
G0 F9000 X24.291 Y63.889
G1 F1080 X34.479 Y74.077 E1309.2605
G0 F9000 X33.545 Y74.558
G1 F1080 X23.584 Y64.597 E1311.01751
G0 F9000 X22.877 Y65.304
G1 F1080 X32.802 Y75.229 E1312.76816
G0 F9000 X32.245 Y76.086
G1 F1080 X29.978 Y73.819 E1313.16803
G0 F9000 X30.829 Y76.084
G1 F1080 X31.426 Y77.388 E1313.35925
G1 X31.942 Y78.611 E1313.52481
G0 F9000 X30.94 Y79.024
G1 F1080 X39.115 Y87.198 E1314.9667
G0 F9000 X37.99 Y87.488
G1 F1080 X30.94 Y80.438 E1316.21024
G0 F9000 X30.94 Y81.852
G1 F1080 X36.982 Y87.894 E1317.27598
G0 F9000 X36.074 Y88.4
G1 F1080 X30.94 Y83.266 E1318.18156
G0 F9000 X30.94 Y84.68
G1 F1080 X35.324 Y89.065 E1318.95493
G0 F9000 X32.98 Y88.134
G1 F1080 X30.94 Y86.094 E1319.31477
G0 F9000 X30.94 Y87.508
G1 F1080 X31.569 Y88.138 E1319.4258
G0 F9000 X34.958 Y81.627
G1 F1080 X40.476 Y87.145 E1320.39911
G0 F9000 X42.195 Y87.45
G1 F1080 X36.401 Y81.656 E1321.42111
G0 F9000 X37.484 Y81.325
G1 F1080 X159.675 Y203.515 E1342.97411
G0 F9000 X160.233 Y202.659
G1 F1080 X38.34 Y80.767 E1364.47454
G0 F9000 X39.012 Y80.024
G1 F1080 X150.171 Y191.183 E1384.08171
G0 F9000 X150.109 Y189.707
G1 F1080 X39.492 Y79.09 E1403.59328
G0 F9000 X39.728 Y77.912
G1 F1080 X150.419 Y188.603 E1423.1179
G0 F9000 X150.959 Y187.729
G1 F1080 X39.346 Y76.116 E1442.80515
G0 F9000 X38.849 Y77.455
G0 X38.888 Y78.611
G0 X34.356 Y89.586
G0 X34.217 Y89.961
G0 X32.42 Y94.813
G0 X32.281 Y95.188
G0 X32.312 Y95.108
G0 X32.314 Y95.954
G1 F1080 X33.149 Y96.789 E1442.95244
G0 F9000 X33.149 Y98.203
G1 F1080 X30.94 Y95.993 E1443.34217
G0 F9000 X30.94 Y97.408
G1 F1080 X33.149 Y99.617 E1443.73181
G0 F9000 X33.149 Y101.031
G1 F1080 X30.94 Y98.822 E1444.12145
G0 F9000 X30.94 Y100.236
G1 F1080 X33.149 Y102.445 E1444.51109
G0 F9000 X33.149 Y103.859
G1 F1080 X30.94 Y101.65 E1444.90073
G0 F9000 X30.94 Y103.065
G1 F1080 X33.148 Y105.273 E1445.2902
G0 F9000 X33.148 Y106.687
G1 F1080 X30.939 Y104.478 E1445.67984
G0 F9000 X30.939 Y105.892
G1 F1080 X33.148 Y108.101 E1446.06948
G0 F9000 X33.148 Y109.515
G1 F1080 X30.939 Y107.306 E1446.45913
G0 F9000 X30.939 Y108.721
G1 F1080 X33.148 Y110.93 E1446.84877
G0 F9000 X33.147 Y112.343
G1 F1080 X30.939 Y110.135 E1447.23823
G0 F9000 X30.939 Y111.549
G1 F1080 X33.147 Y113.757 E1447.6277
G0 F9000 X33.147 Y115.172
G1 F1080 X30.939 Y112.963 E1448.01725
G0 F9000 X30.939 Y114.378
G1 F1080 X33.147 Y116.586 E1448.40672
G0 F9000 X33.147 Y117.999
G1 F1080 X30.939 Y115.792 E1448.7961
G0 F9000 X30.939 Y117.206
G1 F1080 X33.147 Y119.414 E1449.18556
G0 F9000 X33.147 Y120.828
G1 F1080 X30.939 Y118.62 E1449.57503
G0 F9000 X30.938 Y120.034
G1 F1080 X33.147 Y122.242 E1449.96458
G0 F9000 X33.147 Y123.656
G1 F1080 X30.938 Y121.448 E1450.35414
G0 F9000 X30.938 Y122.862
G1 F1080 X33.146 Y125.07 E1450.7436
G0 F9000 X33.146 Y126.484
G1 F1080 X30.938 Y124.276 E1451.13307
G0 F9000 X30.938 Y125.691
G1 F1080 X33.146 Y127.898 E1451.52245
G0 F9000 X33.146 Y129.312
G1 F1080 X30.938 Y127.105 E1451.91182
G0 F9000 X30.938 Y128.519
G1 F1080 X33.145 Y130.726 E1452.30111
G0 F9000 X33.145 Y132.14
G1 F1080 X30.938 Y129.933 E1452.6904
G0 F9000 X30.938 Y131.347
G1 F1080 X33.145 Y133.554 E1453.07969
G0 F9000 X33.145 Y134.969
G1 F1080 X30.938 Y132.762 E1453.46898
G0 F9000 X30.938 Y134.176
G1 F1080 X33.144 Y136.382 E1453.8581
G0 F9000 X33.144 Y137.796
G1 F1080 X30.938 Y135.589 E1454.2473
G0 F9000 X30.938 Y137.004
G1 F1080 X33.144 Y139.21 E1454.63641
G0 F9000 X33.144 Y140.625
G1 F1080 X30.938 Y138.418 E1455.02561
G0 F9000 X30.938 Y139.832
G1 F1080 X33.144 Y142.039 E1455.41481
G0 F9000 X33.144 Y143.452
G1 F1080 X30.938 Y141.246 E1455.80393
G0 F9000 X30.938 Y142.66
G1 F1080 X33.144 Y144.867 E1456.19313
G0 F9000 X33.144 Y146.281
G1 F1080 X30.938 Y144.075 E1456.58224
G0 F9000 X30.938 Y145.489
G1 F1080 X33.144 Y147.695 E1456.97135
G0 F9000 X33.143 Y149.109
G1 F1080 X30.938 Y146.903 E1457.36038
G0 F9000 X30.938 Y148.317
G1 F1080 X33.143 Y150.523 E1457.7494
G0 F9000 X33.143 Y151.937
G1 F1080 X30.938 Y149.731 E1458.13843
G0 F9000 X30.937 Y151.145
G1 F1080 X33.143 Y153.351 E1458.52754
G0 F9000 X33.143 Y154.765
G1 F1080 X30.937 Y152.559 E1458.91665
G0 F9000 X30.937 Y153.973
G1 F1080 X33.142 Y156.179 E1459.30568
G0 F9000 X33.142 Y157.593
G1 F1080 X30.937 Y155.388 E1459.69461
G0 F9000 X30.937 Y156.802
G1 F1080 X31.597 Y158.17 E1459.9157
G1 X30.937 Y158.216 E1459.99821
G0 F9000 X30.097 Y158.216
G0 X30.335 Y159.514
G0 X30.407 Y159.907
G0 X31.275 Y164.626
G0 X31.348 Y165.019
G0 X31.502 Y165.852
G0 X31.502 Y165.852
G1 F1080 X75.709 Y210.06 E1467.79591
G0 F9000 X74.295 Y210.06
G1 F1080 X68.631 Y204.395 E1468.79506
G0 F9000 X68.655 Y205.834
G1 F1080 X72.881 Y210.06 E1469.54048
G0 F9000 X71.467 Y210.06
G1 F1080 X68.321 Y206.914 E1470.0954
G0 F9000 X67.762 Y207.769
G1 F1080 X70.052 Y210.059 E1470.49933
G0 F9000 X68.638 Y210.059
G1 F1080 X67.017 Y208.438 E1470.78525
G0 F9000 X66.081 Y208.917
G1 F1080 X66.516 Y210.059 E1470.9866
G1 X64.648 Y209.605 E1471.14677
G1 X63.093 Y208.757 E1471.36768
G0 F9000 X63.091 Y210.169
G1 F1080 X58.756 Y205.834 E1472.13232
G0 F9000 X58.421 Y206.914
G1 F1080 X61.984 Y210.477 E1472.7608
G0 F9000 X61.014 Y210.92
G1 F1080 X57.863 Y207.769 E1473.3166
G0 F9000 X57.172 Y208.493
G1 F1080 X60.15 Y211.471 E1473.84188
G0 F9000 X59.381 Y212.116
G1 F1080 X56.465 Y209.2 E1474.35623
G0 F9000 X55.758 Y209.907
G1 F1080 X58.674 Y212.823 E1474.87058
G0 F9000 X57.966 Y213.529
G1 F1080 X55.051 Y210.614 E1475.38475
G0 F9000 X54.343 Y211.321
G1 F1080 X57.259 Y214.237 E1475.8991
G0 F9000 X56.552 Y214.944
G1 F1080 X53.636 Y212.028 E1476.41345
G0 F9000 X52.929 Y212.735
G1 F1080 X55.844 Y215.65 E1476.92762
G0 F9000 X55.137 Y216.357
G1 F1080 X52.222 Y213.443 E1477.44171
G0 F9000 X51.515 Y214.15
G1 F1080 X54.43 Y217.064 E1477.95579
G0 F9000 X53.722 Y217.771
G1 F1080 X50.808 Y214.857 E1478.46979
G0 F9000 X50.101 Y215.564
G1 F1080 X53.015 Y218.478 E1478.98378
G0 F9000 X53.609 Y219.073
G0 X61.233 Y206.897
G0 X61.233 Y206.897
G1 F1080 X58.73 Y204.394 E1479.42528
G0 F9000 X60.84 Y205.089
G1 F1080 X35.91 Y180.16 E1483.82256
G0 F9000 X37.09 Y179.926
G1 F1080 X61.074 Y203.909 E1488.05297
G0 F9000 X61.552 Y202.974
G1 F1080 X38.026 Y179.447 E1492.20278
G0 F9000 X38.77 Y178.777
G1 F1080 X62.222 Y202.229 E1496.33944
G0 F9000 X63.076 Y201.669
G1 F1080 X39.33 Y177.923 E1500.52796
G0 F9000 X39.663 Y176.842
G1 F1080 X64.157 Y201.336 E1504.84842
G0 F9000 X65.597 Y201.362
G1 F1080 X39.638 Y175.402 E1509.42738
G0 F9000 X36.604 Y172.369
G1 F1080 X30.937 Y166.701 E1510.42706
G0 F9000 X30.937 Y168.116
G1 F1080 X35.165 Y172.344 E1511.17283
G0 F9000 X34.086 Y172.679
G1 F1080 X30.936 Y169.529 E1511.72846
G0 F9000 X30.936 Y170.943
G1 F1080 X33.231 Y173.238 E1512.13327
G0 F9000 X32.561 Y173.982
G1 F1080 X30.936 Y172.357 E1512.4199
G0 F9000 X30.936 Y173.772
G1 F1080 X31.508 Y175.051 E1512.62191
G1 X31.391 Y176.348 E1512.78287
G1 X32.242 Y177.906 E1513.00429
G0 F9000 X30.82 Y177.898
G1 F1080 X35.872 Y182.951 E1513.8955
G0 F9000 X34.793 Y183.285
G1 F1080 X30.517 Y179.009 E1514.64974
G0 F9000 X30.078 Y179.984
G1 F1080 X33.937 Y183.844 E1515.33051
G0 F9000 X33.214 Y184.535
G1 F1080 X29.533 Y180.854 E1515.97979
G0 F9000 X28.887 Y181.622
G1 F1080 X32.507 Y185.242 E1516.61832
G0 F9000 X31.8 Y185.949
G1 F1080 X28.18 Y182.329 E1517.25685
G0 F9000 X27.473 Y183.036
G1 F1080 X31.092 Y186.656 E1517.89528
G0 F9000 X30.385 Y187.363
G1 F1080 X26.766 Y183.743 E1518.53372
G0 F9000 X26.059 Y184.45
G1 F1080 X29.678 Y188.07 E1519.17216
G0 F9000 X28.971 Y188.777
G1 F1080 X25.352 Y185.158 E1519.81051
G0 F9000 X24.645 Y185.865
G1 F1080 X28.264 Y189.484 E1520.44886
G0 F9000 X27.557 Y190.191
G1 F1080 X23.938 Y186.572 E1521.08721
G0 F9000 X23.231 Y187.28
G1 F1080 X26.85 Y190.899 E1521.72556
G0 F9000 X26.143 Y191.606
G1 F1080 X22.524 Y187.987 E1522.36391
G0 F9000 X34.103 Y179.767
G1 F1080 X37.313 Y182.977 E1522.93012
G0 F9000 X37.903 Y178.527
G0 X38.888 Y177.05
G0 X39.57 Y165.977
G0 X39.537 Y166.817
G1 F1080 X74.183 Y201.462 E1529.04118
G0 F9000 X74.2 Y200.065
G1 F1080 X40.934 Y166.799 E1534.90892
G0 F9000 X42.113 Y166.563
G1 F1080 X74.435 Y198.885 E1540.61015
G0 F9000 X74.86 Y197.897
G1 F1080 X43.102 Y166.138 E1546.21199
G0 F9000 X44.005 Y165.627
G1 F1080 X75.372 Y196.994 E1551.74477
G0 F9000 X75.995 Y196.203
G1 F1080 X73.834 Y194.042 E1552.12594
G0 F9000 X75.304 Y194.097
G1 F1080 X77.043 Y195.13 E1552.3704
G1 X76.839 Y193.512 E1552.54553
G1 X78.458 Y193.716 E1552.69187
G1 X78.206 Y192.051 E1552.84204
G1 X79.519 Y192.656 E1553.02235
G0 F9000 X80.226 Y191.949
G1 F1080 X78.708 Y190.431 E1553.29011
G0 F9000 X78.409 Y188.718
G1 F1080 X80.934 Y191.242 E1553.7354
G0 F9000 X81.641 Y190.535
G1 F1080 X50.461 Y159.356 E1559.23511
G0 F9000 X49.754 Y160.063
G1 F1080 X76.273 Y186.582 E1563.91276
G0 F9000 X74.559 Y186.282
G1 F1080 X49.047 Y160.77 E1568.41278
G0 F9000 X48.34 Y161.477
G1 F1080 X73.399 Y186.536 E1572.8329
G0 F9000 X72.48 Y187.031
G1 F1080 X47.633 Y162.184 E1577.21562
G0 F9000 X46.925 Y162.891
G1 F1080 X71.75 Y187.716 E1581.59447
G0 F9000 X71.207 Y188.587
G1 F1080 X46.218 Y163.598 E1586.00224
G0 F9000 X45.511 Y164.305
G1 F1080 X70.893 Y189.687 E1590.47933
G0 F9000 X70.948 Y191.156
G1 F1080 X44.797 Y165.005 E1595.09207
G0 F9000 X42.344 Y165.504
G0 X40.569 Y166.117
G0 X37.75 Y166.443
G0 X37.75 Y166.443
G1 F1080 X74.556 Y203.25 E1601.58431
G0 F9000 X78.716 Y207.409
G1 F1080 X81.366 Y210.06 E1602.05183
G0 F9000 X79.952 Y210.06
G1 F1080 X34.862 Y164.97 E1610.00519
G0 F9000 X34.011 Y165.532
G1 F1080 X78.538 Y210.06 E1617.85933
G0 F9000 X77.124 Y210.06
G1 F1080 X32.934 Y165.87 E1625.65394
G0 F9000 X36.1 Y164.616
G0 X37.708 Y165.662
G0 X40.569 Y166.117
G0 X43.325 Y165.221
G0 X51.169 Y158.649
G0 X51.169 Y158.649
G1 F1080 X82.348 Y189.828 E1631.15355
G0 F9000 X83.055 Y189.121
G1 F1080 X51.876 Y157.942 E1636.65317
G0 F9000 X52.583 Y157.235
G1 F1080 X83.762 Y188.414 E1642.15279
G0 F9000 X84.469 Y187.707
G1 F1080 X53.291 Y156.528 E1647.65232
G0 F9000 X53.998 Y155.821
G1 F1080 X85.176 Y187 E1653.15185
G0 F9000 X85.883 Y186.292
G1 F1080 X54.705 Y155.114 E1658.65129
G0 F9000 X55.412 Y154.407
G1 F1080 X86.59 Y185.585 E1664.15073
G0 F9000 X87.297 Y184.878
G1 F1080 X56.119 Y153.7 E1669.65017
G0 F9000 X56.827 Y152.993
G1 F1080 X88.005 Y184.171 E1675.14961
G0 F9000 X88.712 Y183.465
G1 F1080 X57.534 Y152.286 E1680.64914
G0 F9000 X58.241 Y151.579
G1 F1080 X89.42 Y182.758 E1686.14875
G0 F9000 X90.127 Y182.051
G1 F1080 X58.948 Y150.872 E1691.64837
G0 F9000 X59.655 Y150.165
G1 F1080 X90.834 Y181.343 E1697.1479
G0 F9000 X91.541 Y180.636
G1 F1080 X60.362 Y149.458 E1702.64743
G0 F9000 X61.069 Y148.751
G1 F1080 X92.248 Y179.929 E1708.14696
G0 F9000 X92.955 Y179.222
G1 F1080 X61.777 Y148.044 E1713.6464
G0 F9000 X62.484 Y147.337
G1 F1080 X93.662 Y178.515 E1719.14584
G0 F9000 X94.369 Y177.808
G1 F1080 X63.192 Y146.63 E1724.64519
G0 F9000 X63.899 Y145.923
G1 F1080 X95.076 Y177.101 E1730.14454
G0 F9000 X95.783 Y176.394
G1 F1080 X64.606 Y145.216 E1735.6439
G0 F9000 X65.313 Y144.509
G1 F1080 X96.491 Y175.687 E1741.14334
G0 F9000 X97.198 Y174.98
G1 F1080 X66.02 Y143.802 E1746.64278
G0 F9000 X66.728 Y143.095
G1 F1080 X97.906 Y174.273 E1752.14222
G0 F9000 X98.613 Y173.566
G1 F1080 X67.435 Y142.388 E1757.64166
G0 F9000 X68.142 Y141.681
G1 F1080 X99.32 Y172.859 E1763.1411
G0 F9000 X100.027 Y172.152
G1 F1080 X68.849 Y140.974 E1768.64054
G0 F9000 X69.556 Y140.267
G1 F1080 X100.734 Y171.445 E1774.13998
G0 F9000 X101.441 Y170.738
G1 F1080 X70.263 Y139.56 E1779.63942
G0 F9000 X70.971 Y138.853
G1 F1080 X102.148 Y170.03 E1785.13869
G0 F9000 X102.855 Y169.323
G1 F1080 X71.678 Y138.146 E1790.63795
G0 F9000 X72.385 Y137.439
G1 F1080 X103.562 Y168.616 E1796.13722
G0 F9000 X104.269 Y167.909
G1 F1080 X73.092 Y136.732 E1801.63648
G0 F9000 X73.8 Y136.025
G1 F1080 X104.977 Y167.202 E1807.13574
G0 F9000 X105.684 Y166.496
G1 F1080 X74.507 Y135.318 E1812.6351
G0 F9000 X75.214 Y134.611
G1 F1080 X106.391 Y165.788 E1818.13436
G0 F9000 X107.099 Y165.081
G1 F1080 X75.922 Y133.904 E1823.63363
G0 F9000 X76.629 Y133.197
G1 F1080 X107.806 Y164.374 E1829.13289
G0 F9000 X108.513 Y163.667
G1 F1080 X77.336 Y132.49 E1834.63215
G0 F9000 X78.037 Y131.777
G1 F1080 X109.221 Y162.961 E1840.13265
G0 F9000 X110.009 Y162.335
G1 F1080 X78.664 Y130.99 E1845.66155
G0 F9000 X79.186 Y130.098
G1 F1080 X110.901 Y161.813 E1851.25571
G0 F9000 X111.886 Y161.384
G1 F1080 X79.615 Y129.113 E1856.94795
G0 F9000 X79.878 Y127.961
G1 F1080 X113.038 Y161.122 E1862.79708
G0 F9000 X114.411 Y161.08
G1 F1080 X79.919 Y126.588 E1868.88107
G0 F9000 X79.08 Y126.588
G0 X79.611 Y124.865
G0 X79.611 Y124.865
G1 F1080 X116.134 Y161.389 E1875.32339
G1 F1800 E1872.32339
G1 Z1.799
G0 F9000 X116.13 Y162.19
G0 X118.336 Y163.558
G0 X152.221 Y197.676
G0 X153.117 Y200.432
G0 X152.662 Y203.293
G0 X150.959 Y205.639
G0 X148.377 Y206.953
G0 X115.93 Y207.854
G0 X115.93 Y207.854
G1 Z1.299
G1 F1800 E1875.32339
G1 F1080 X118.138 Y210.062 E1875.71286
G0 F9000 X116.724 Y210.062
G1 F1080 X114.516 Y207.854 E1876.10233
G0 F9000 X113.102 Y207.854
G1 F1080 X115.31 Y210.062 E1876.49179
G0 F9000 X113.895 Y210.061
G1 F1080 X111.688 Y207.854 E1876.88108
G0 F9000 X110.273 Y207.854
G1 F1080 X112.48 Y210.061 E1877.27037
G0 F9000 X111.066 Y210.061
G1 F1080 X108.859 Y207.854 E1877.65966
G0 F9000 X107.444 Y207.854
G1 F1080 X109.652 Y210.061 E1878.04904
G0 F9000 X108.238 Y210.061
G1 F1080 X106.03 Y207.854 E1878.43842
G0 F9000 X104.616 Y207.854
G1 F1080 X106.824 Y210.061 E1878.82779
G0 F9000 X105.409 Y210.061
G1 F1080 X103.201 Y207.853 E1879.21726
G0 F9000 X101.787 Y207.853
G1 F1080 X103.995 Y210.061 E1879.60673
G0 F9000 X102.581 Y210.061
G1 F1080 X100.373 Y207.853 E1879.99619
G0 F9000 X98.958 Y207.853
G1 F1080 X101.167 Y210.061 E1880.38574
G0 F9000 X99.752 Y210.06
G1 F1080 X97.544 Y207.853 E1880.77512
G0 F9000 X96.129 Y207.852
G1 F1080 X98.338 Y210.06 E1881.16468
G0 F9000 X96.923 Y210.06
G1 F1080 X94.715 Y207.852 E1881.55414
G0 F9000 X93.301 Y207.852
G1 F1080 X95.509 Y210.06 E1881.94361
G0 F9000 X94.095 Y210.06
G1 F1080 X91.887 Y207.852 E1882.33307
G0 F9000 X90.472 Y207.851
G1 F1080 X92.681 Y210.06 E1882.72272
G0 F9000 X91.266 Y210.06
G1 F1080 X89.057 Y207.851 E1883.11236
G0 F9000 X87.643 Y207.851
G1 F1080 X89.852 Y210.06 E1883.502
G0 F9000 X88.438 Y210.06
G1 F1080 X86.229 Y207.851 E1883.89164
G0 F9000 X84.815 Y207.851
G1 F1080 X87.024 Y210.06 E1884.28129
G0 F9000 X85.61 Y210.06
G1 F1080 X83.4 Y207.851 E1884.67102
G0 F9000 X81.986 Y207.851
G1 F1080 X84.195 Y210.06 E1885.06066
G0 F9000 X82.78 Y210.06
G1 F1080 X80.528 Y207.807 E1885.45797
G0 F9000 X117.345 Y207.855
G1 F1080 X119.552 Y210.062 E1885.84726
G0 F9000 X120.966 Y210.062
G1 F1080 X118.759 Y207.855 E1886.23655
G0 F9000 X120.174 Y207.855
G1 F1080 X122.381 Y210.062 E1886.62584
G0 F9000 X123.795 Y210.062
G1 F1080 X121.588 Y207.855 E1887.01513
G0 F9000 X123.002 Y207.855
G1 F1080 X125.209 Y210.062 E1887.40442
G0 F9000 X126.623 Y210.062
G1 F1080 X124.417 Y207.856 E1887.79353
G0 F9000 X125.831 Y207.856
G1 F1080 X128.037 Y210.062 E1888.18265
G0 F9000 X129.452 Y210.063
G1 F1080 X127.245 Y207.856 E1888.57194
G0 F9000 X128.66 Y207.856
G1 F1080 X130.867 Y210.063 E1888.96122
G0 F9000 X132.281 Y210.063
G1 F1080 X130.074 Y207.856 E1889.35051
G0 F9000 X131.489 Y207.856
G1 F1080 X133.695 Y210.063 E1889.73972
G0 F9000 X135.109 Y210.063
G1 F1080 X132.903 Y207.856 E1890.12892
G0 F9000 X134.317 Y207.856
G1 F1080 X136.523 Y210.063 E1890.51812
G0 F9000 X137.938 Y210.063
G1 F1080 X135.731 Y207.856 E1890.90741
G0 F9000 X137.146 Y207.857
G1 F1080 X139.352 Y210.063 E1891.29652
G0 F9000 X140.766 Y210.063
G1 F1080 X138.561 Y207.857 E1891.68555
G0 F9000 X139.975 Y207.857
G1 F1080 X142.18 Y210.063 E1892.07457
G0 F9000 X143.595 Y210.063
G1 F1080 X141.389 Y207.857 E1892.46368
G0 F9000 X142.803 Y207.857
G1 F1080 X145.009 Y210.063 E1892.8528
G0 F9000 X146.424 Y210.063
G1 F1080 X144.218 Y207.858 E1893.24182
G0 F9000 X145.632 Y207.858
G1 F1080 X147.838 Y210.063 E1893.63085
G0 F9000 X149.252 Y210.063
G1 F1080 X147.046 Y207.857 E1894.01996
G0 F9000 X148.311 Y207.708
G1 F1080 X150.666 Y210.063 E1894.43535
G0 F9000 X152.08 Y210.063
G1 F1080 X149.389 Y207.371 E1894.9101
G0 F9000 X150.361 Y206.929
G1 F1080 X153.495 Y210.063 E1895.46291
G0 F9000 X154.909 Y210.063
G1 F1080 X151.209 Y206.363 E1896.11554
G0 F9000 X151.935 Y205.675
G1 F1080 X156.323 Y210.063 E1896.88954
G0 F9000 X157.738 Y210.064
G1 F1080 X152.6 Y204.925 E1897.79591
G0 F9000 X153.106 Y204.017
G1 F1080 X159.152 Y210.064 E1898.86244
G0 F9000 X160.566 Y210.064
G1 F1080 X153.512 Y203.009 E1900.10677
G0 F9000 X153.8 Y201.883
G1 F1080 X161.981 Y210.064 E1901.54981
G0 F9000 X162.388 Y209.057
G1 F1080 X163.613 Y209.575 E1901.72731
G1 X164.927 Y210.182 E1901.90784
G0 F9000 X164.914 Y208.754
G1 F1080 X167.198 Y211.038 E1902.31071
G0 F9000 X165.771 Y208.197
G1 F1080 X175.696 Y218.122 E1904.06137
G0 F9000 X176.403 Y217.415
G1 F1080 X166.442 Y207.454 E1905.81837
G0 F9000 X166.923 Y206.521
G1 F1080 X177.11 Y216.708 E1907.61524
G0 F9000 X177.817 Y216.001
G1 F1080 X167.159 Y205.343 E1909.49519
G0 F9000 X166.776 Y203.546
G1 F1080 X178.524 Y215.294 E1911.5674
G0 F9000 X169.979 Y205.334
G1 F1080 X157.169 Y192.524 E1913.82694
G0 F9000 X156.482 Y193.251
G1 F1080 X164.883 Y201.653 E1915.30887
G0 F9000 X163.087 Y201.271
G1 F1080 X155.607 Y193.791 E1916.62825
G0 F9000 X154.502 Y194.1
G1 F1080 X161.909 Y201.507 E1917.93476
G0 F9000 X160.975 Y201.987
G1 F1080 X153.027 Y194.039 E1919.3367
G0 F9000 X153.548 Y198.803
G1 F1080 X159.343 Y204.598 E1920.35887
G0 F9000 X159.372 Y206.041
G1 F1080 X153.855 Y200.524 E1921.332
G0 F9000 X157.667 Y191.608
G1 F1080 X169.95 Y203.892 E1923.49867
G0 F9000 X170.282 Y202.809
G1 F1080 X157.925 Y190.452 E1925.67831
G0 F9000 X157.644 Y188.757
G1 F1080 X170.839 Y201.951 E1928.00566
G0 F9000 X192.824 Y180.096
G1 F1080 X203.273 Y190.545 E1929.84875
G0 F9000 X203.98 Y189.838
G1 F1080 X193.905 Y179.763 E1931.62586
G0 F9000 X194.762 Y179.206
G1 F1080 X204.687 Y189.131 E1933.37652
G0 F9000 X205.394 Y188.424
G1 F1080 X195.433 Y178.463 E1935.13352
G0 F9000 X195.914 Y177.529
G1 F1080 X197.51 Y179.125 E1935.41504
G0 F9000 X197.11 Y177.311
G1 F1080 X196.604 Y176.098 E1935.58421
G1 X195.765 Y174.552 E1935.8036
G0 F9000 X197.059 Y174.431
G1 F1080 X171.567 Y148.94 E1940.30001
G0 F9000 X170.153 Y148.94
G1 F1080 X193.878 Y172.664 E1944.48474
G0 F9000 X192.079 Y172.28
G1 F1080 X168.739 Y148.94 E1948.60165
G0 F9000 X168.27 Y148.471
G1 F1080 X112.57 Y92.771 E1958.42649
G0 F9000 X114.132 Y92.919
G1 F1080 X168.27 Y147.057 E1967.97581
G0 F9000 X168.27 Y145.643
G1 F1080 X115.404 Y92.777 E1977.30076
G0 F9000 X116.511 Y92.469
G1 F1080 X168.27 Y144.229 E1986.43054
G0 F9000 X168.27 Y142.815
G1 F1080 X117.465 Y92.01 E1995.39196
G0 F9000 X118.294 Y91.423
G1 F1080 X168.27 Y141.4 E2004.20724
G0 F9000 X168.27 Y139.985
G1 F1080 X119.052 Y90.767 E2012.88873
G0 F9000 X119.759 Y90.06
G1 F1080 X168.27 Y138.571 E2021.44551
G0 F9000 X168.27 Y137.157
G1 F1080 X120.466 Y89.353 E2029.87759
G0 F9000 X121.173 Y88.646
G1 F1080 X168.27 Y135.743 E2038.18496
G0 F9000 X168.27 Y134.329
G1 F1080 X121.88 Y87.939 E2046.36762
G0 F9000 X122.587 Y87.232
G1 F1080 X164.916 Y129.561 E2053.83397
G0 F9000 X166.151 Y130.795
G1 F1080 X168.27 Y132.914 E2054.20774
G0 F9000 X168.27 Y131.5
G1 F1080 X167.944 Y131.175 E2054.26515
G0 F9000 X166.966 Y130.198
G0 X165.973 Y129.737
G0 X164.534 Y127.765
G0 X164.534 Y127.765
G1 F1080 X123.295 Y86.525 E2061.53933
G0 F9000 X124.002 Y85.818
G1 F1080 X164.829 Y126.645 E2068.74074
G0 F9000 X165.395 Y125.797
G1 F1080 X124.709 Y85.111 E2075.91728
G0 F9000 X125.416 Y84.404
G1 F1080 X166.197 Y125.185 E2083.11058
G0 F9000 X167.277 Y124.851
G1 F1080 X126.123 Y83.697 E2090.36967
G0 F9000 X126.83 Y82.99
G1 F1080 X164.603 Y120.763 E2097.0324
G0 F9000 X164.591 Y119.336
G1 F1080 X127.538 Y82.283 E2103.56812
G0 F9000 X128.245 Y81.576
G1 F1080 X164.992 Y118.323 E2110.04987
G0 F9000 X165.654 Y117.571
G1 F1080 X128.952 Y80.868 E2116.52377
G0 F9000 X129.659 Y80.161
G1 F1080 X166.542 Y117.044 E2123.0295
G0 F9000 X167.706 Y116.794
G1 F1080 X130.366 Y79.454 E2129.61585
G0 F9000 X131.073 Y78.747
G1 F1080 X164.53 Y112.204 E2135.51728
G0 F9000 X164.7 Y110.959
G1 F1080 X131.781 Y78.041 E2141.32373
G0 F9000 X132.488 Y77.334
G1 F1080 X165.202 Y110.048 E2147.0941
G0 F9000 X165.929 Y109.361
G1 F1080 X133.195 Y76.627 E2152.868
G0 F9000 X133.902 Y75.919
G1 F1080 X166.885 Y108.902 E2158.68582
G0 F9000 X168.263 Y108.866
G1 F1080 X166.223 Y106.826 E2159.04565
G0 F9000 X167.983 Y107.171
G1 F1080 X168.27 Y107.459 E2159.09637
G0 F9000 X164.885 Y105.489
G1 F1080 X134.609 Y75.212 E2164.43679
G0 F9000 X135.316 Y74.505
G1 F1080 X164.539 Y103.728 E2169.59139
G0 F9000 X164.842 Y102.616
G1 F1080 X136.024 Y73.798 E2174.67456
G0 F9000 X136.731 Y73.091
G1 F1080 X165.412 Y101.773 E2179.73364
G0 F9000 X166.228 Y101.174
G1 F1080 X137.438 Y72.384 E2184.81187
G0 F9000 X138.145 Y71.677
G1 F1080 X167.314 Y100.846 E2189.95695
G0 F9000 X168.27 Y100.387
G1 F1080 X138.852 Y70.97 E2195.14585
G0 F9000 X139.56 Y70.263
G1 F1080 X169.357 Y100.061 E2200.40179
G0 F9000 X170.771 Y100.061
G1 F1080 X140.267 Y69.556 E2205.78243
G0 F9000 X140.974 Y68.849
G1 F1080 X172.186 Y100.061 E2211.28787
G0 F9000 X173.6 Y100.061
G1 F1080 X141.681 Y68.142 E2216.91802
G0 F9000 X142.388 Y67.435
G1 F1080 X175.014 Y100.061 E2222.67287
G0 F9000 X176.428 Y100.061
G1 F1080 X143.095 Y66.728 E2228.55243
G0 F9000 X143.802 Y66.021
G1 F1080 X177.843 Y100.061 E2234.55678
G0 F9000 X179.257 Y100.061
G1 F1080 X144.509 Y65.314 E2240.68584
G0 F9000 X145.217 Y64.606
G1 F1080 X180.671 Y100.061 E2246.9396
G0 F9000 X182.085 Y100.061
G1 F1080 X145.924 Y63.899 E2253.31808
G0 F9000 X146.631 Y63.192
G1 F1080 X183.499 Y100.061 E2259.82126
G0 F9000 X184.914 Y100.061
G1 F1080 X152.104 Y67.251 E2265.60856
G0 F9000 X154.012 Y67.745
G1 F1080 X186.328 Y100.061 E2271.30873
G0 F9000 X187.742 Y100.061
G1 F1080 X155.213 Y67.532 E2277.04648
G0 F9000 X156.166 Y67.071
G1 F1080 X189.156 Y100.061 E2282.86553
G0 F9000 X190.57 Y100.061
G1 F1080 X156.927 Y66.417 E2288.79986
G0 F9000 X157.503 Y65.579
G1 F1080 X191.985 Y100.061 E2294.88209
G0 F9000 X193.399 Y100.061
G1 F1080 X157.86 Y64.522 E2301.15076
G0 F9000 X157.862 Y63.109
G1 F1080 X195.738 Y100.986 E2307.83174
G0 F9000 X197.063 Y100.897
G1 F1080 X152.864 Y56.697 E2315.62802
G0 F9000 X152.244 Y57.492
G1 F1080 X154.673 Y59.921 E2316.05647
G0 F9000 X153.267 Y59.929
G1 F1080 X151.581 Y58.243 E2316.35386
G0 F9000 X150.874 Y58.95
G1 F1080 X151.789 Y60.573 E2316.58903
G1 X149.813 Y60.01 E2316.80122
G1 X150.717 Y61.622 E2317.03174
G0 F9000 X150.255 Y62.574
G1 F1080 X148.753 Y61.072 E2317.29667
G0 F9000 X148.046 Y61.779
G1 F1080 X150.043 Y63.776 E2317.64892
G0 F9000 X150.538 Y65.685
G1 F1080 X147.338 Y62.485 E2318.21336
G0 F9000 X153.311 Y55.73
G1 F1080 X197.063 Y99.482 E2325.93071
G0 F9000 X197.063 Y98.068
G1 F1080 X153.655 Y54.66 E2333.58738
G0 F9000 X153.853 Y53.444
G1 F1080 X197.063 Y96.654 E2341.20913
G0 F9000 X197.063 Y95.24
G1 F1080 X153.785 Y51.962 E2348.84287
G0 F9000 X152.962 Y49.724
G1 F1080 X197.063 Y93.825 E2356.62178
G0 F9000 X197.063 Y92.411
G1 F1080 X148.592 Y43.94 E2365.17151
G0 F9000 X150.006 Y43.94
G1 F1080 X197.063 Y90.997 E2373.47182
G0 F9000 X197.063 Y89.583
G1 F1080 X151.42 Y43.94 E2381.52272
G0 F9000 X152.834 Y43.94
G1 F1080 X160.221 Y51.327 E2382.82571
G0 F9000 X160.681 Y51.787
G1 F1080 X189.213 Y80.318 E2387.85833
G0 F9000 X189.672 Y80.778
G1 F1080 X197.064 Y88.169 E2389.16211
G0 F9000 X197.064 Y86.755
G1 F1080 X192.021 Y81.713 E2390.05155
G0 F9000 X193.298 Y81.576
G1 F1080 X197.064 Y85.341 E2390.71574
G0 F9000 X197.064 Y83.927
G1 F1080 X194.276 Y81.139 E2391.20751
G0 F9000 X195.061 Y80.51
G1 F1080 X197.064 Y82.512 E2391.56073
G0 F9000 X197.064 Y81.098
G1 F1080 X195.856 Y79.183 E2391.80783
G1 X197.064 Y78.977 E2391.98666
G1 X196.105 Y77.311 E2392.22642
G0 F9000 X197.093 Y76.885
G1 F1080 X191.314 Y71.105 E2393.24585
G0 F9000 X192.591 Y70.969
G1 F1080 X197.275 Y75.652 E2394.07197
G0 F9000 X197.614 Y74.577
G1 F1080 X193.569 Y70.533 E2394.78537
G0 F9000 X194.351 Y69.901
G1 F1080 X198.114 Y73.663 E2395.44903
G0 F9000 X198.711 Y72.846
G1 F1080 X195.058 Y69.193 E2396.09338
G0 F9000 X195.766 Y68.486
G1 F1080 X199.385 Y72.105 E2396.73173
G0 F9000 X200.092 Y71.398
G1 F1080 X196.473 Y67.779 E2397.37008
G0 F9000 X197.18 Y67.072
G1 F1080 X200.799 Y70.691 E2398.00843
G0 F9000 X201.506 Y69.984
G1 F1080 X197.887 Y66.365 E2398.64678
G0 F9000 X198.593 Y65.657
G1 F1080 X202.213 Y69.277 E2399.28531
G0 F9000 X202.919 Y68.569
G1 F1080 X199.3 Y64.95 E2399.92366
G0 F9000 X200.007 Y64.243
G1 F1080 X203.626 Y67.862 E2400.56201
G0 F9000 X204.334 Y67.155
G1 F1080 X200.715 Y63.536 E2401.20036
G0 F9000 X201.422 Y62.829
G1 F1080 X205.041 Y66.448 E2401.83871
G0 F9000 X192.679 Y73.885
G1 F1080 X188.967 Y70.173 E2402.49346
G0 F9000 X190.293 Y74.328
G1 F1080 X166.671 Y50.705 E2406.6602
G0 F9000 X166.07 Y51.519
G1 F1080 X189.481 Y74.929 E2410.78954
G0 F9000 X188.851 Y75.714
G1 F1080 X165.285 Y52.148 E2414.94631
G0 F9000 X164.307 Y52.584
G1 F1080 X188.415 Y76.692 E2419.19869
G0 F9000 X188.278 Y77.969
G1 F1080 X163.03 Y52.721 E2423.65214
G0 F9000 X167.058 Y49.679
G1 F1080 X191.32 Y73.94 E2427.93159
G1 F1800 E2424.93159
G1 Z1.799
G0 F9000 X191.397 Y74.68
G0 X189.943 Y75.513
G0 X189.113 Y76.951
G0 X189.113 Y78.611
G0 X194.15 Y100.812
G0 X194.15 Y100.812
G1 Z1.299
G1 F1800 E2427.93159
G1 F1080 X194.199 Y100.861 E2427.94024
G0 F9000 X194.544 Y101.572
G0 X195.939 Y101.871
G0 X197.077 Y103.344
G0 X196.865 Y106.355
G0 X196.865 Y106.355
G1 F1080 X196.532 Y106.73 E2427.97502
G1 X197.062 Y107.967 E2428.14287
G0 F9000 X197.062 Y109.38
G1 F1080 X194.868 Y107.186 E2428.52986
G0 F9000 X194.15 Y107.883
G1 F1080 X195.114 Y108.847 E2428.6999
G0 F9000 X195.322 Y109.658
G0 X196.84 Y110.771
G0 X197.087 Y112.637
G0 X196.59 Y114.566
G0 X196.59 Y114.566
G1 F1080 X196.36 Y115.043 E2428.78312
G1 X197.062 Y116.452 E2428.97946
G0 F9000 X196.765 Y117.569
G1 F1080 X194.356 Y115.16 E2429.40438
G0 F9000 X194.15 Y116.368
G1 F1080 X194.591 Y116.809 E2429.48217
G0 F9000 X194.81 Y117.571
G0 X196.449 Y118.263
G0 X197.17 Y119.994
G0 X196.316 Y122.777
G0 X196.316 Y122.777
G1 F1080 X197.062 Y123.523 E2429.61376
G0 F9000 X197.062 Y124.937
G1 F1080 X195.259 Y123.134 E2429.93179
G0 F9000 X194.15 Y123.439
G1 F1080 X195.667 Y124.956 E2430.19937
G0 F9000 X194.163 Y124.867
G1 F1080 X194.15 Y124.853 E2430.20175
G0 F9000 X194.502 Y125.578
G0 X195.938 Y125.871
G0 X197.077 Y127.343
G0 X196.841 Y130.373
G0 X196.841 Y130.373
G1 F1080 X196.516 Y130.755 E2430.24053
G1 X197.061 Y132.007 E2430.41084
G0 F9000 X197.061 Y133.421
G1 F1080 X194.83 Y131.19 E2430.80437
G0 F9000 X194.15 Y131.924
G1 F1080 X197.061 Y134.836 E2431.31792
G0 F9000 X197.061 Y136.25
G1 F1080 X194.15 Y133.339 E2431.83139
G0 F9000 X194.15 Y134.753
G1 F1080 X197.061 Y137.664 E2432.34486
G0 F9000 X197.06 Y139.078
G1 F1080 X194.15 Y136.167 E2432.85824
G0 F9000 X194.15 Y137.581
G1 F1080 X197.06 Y140.492 E2433.37161
G0 F9000 X197.06 Y141.906
G1 F1080 X194.15 Y138.995 E2433.88499
G0 F9000 X194.15 Y140.41
G1 F1080 X197.06 Y143.32 E2434.39828
G0 F9000 X197.06 Y144.734
G1 F1080 X194.15 Y141.824 E2434.91157
G0 F9000 X194.15 Y143.238
G1 F1080 X197.06 Y146.149 E2435.42495
G0 F9000 X197.06 Y147.563
G1 F1080 X194.15 Y144.652 E2435.93833
G0 F9000 X194.15 Y146.067
G1 F1080 X197.06 Y148.977 E2436.45162
G0 F9000 X197.06 Y150.391
G1 F1080 X194.15 Y147.481 E2436.96491
G0 F9000 X194.15 Y148.895
G1 F1080 X197.06 Y151.805 E2437.4782
G0 F9000 X197.06 Y153.22
G1 F1080 X192.779 Y148.939 E2438.23332
G0 F9000 X191.365 Y148.939
G1 F1080 X197.06 Y154.633 E2439.23777
G0 F9000 X197.06 Y156.047
G1 F1080 X189.951 Y148.939 E2440.49162
G0 F9000 X188.537 Y148.939
G1 F1080 X197.06 Y157.462 E2441.99498
G0 F9000 X197.06 Y158.876
G1 F1080 X187.123 Y148.939 E2443.74776
G0 F9000 X185.708 Y148.939
G1 F1080 X197.06 Y160.29 E2445.75003
G0 F9000 X197.06 Y161.704
G1 F1080 X184.294 Y148.939 E2448.00172
G0 F9000 X182.88 Y148.939
G1 F1080 X197.06 Y163.118 E2450.50282
G0 F9000 X197.06 Y164.533
G1 F1080 X181.466 Y148.939 E2453.25342
G0 F9000 X180.052 Y148.94
G1 F1080 X197.06 Y165.947 E2456.25335
G0 F9000 X197.06 Y167.361
G1 F1080 X178.638 Y148.94 E2459.50269
G0 F9000 X177.224 Y148.94
G1 F1080 X197.06 Y168.775 E2463.00144
G0 F9000 X197.059 Y170.189
G1 F1080 X175.81 Y148.94 E2466.74952
G0 F9000 X174.395 Y148.94
G1 F1080 X197.059 Y171.603 E2470.7471
G0 F9000 X197.059 Y173.017
G1 F1080 X172.981 Y148.94 E2474.9941
G1 F1800 E2471.9941
G1 Z1.799
G0 F9000 X172.837 Y148.195
G0 X169.07 Y148.141
G0 X165.252 Y128
G0 X165.974 Y126.262
G0 X168.27 Y124.429
G0 X168.27 Y124.429
G1 Z1.299
G1 F1800 E2474.9941
G1 F1080 X166.947 Y123.107 E2475.22737
G0 F9000 X167.081 Y122.372
G0 X165.583 Y121.231
G0 X165.337 Y119.364
G0 X166.483 Y117.871
G0 X168.27 Y115.944
G0 X168.27 Y115.944
G1 F1080 X167.506 Y115.18 E2475.36213
G0 F9000 X110.734 Y91.167
G0 X110.734 Y91.167
G0 X110.21 Y91.825
G1 F1080 X190.901 Y172.516 E2489.5951
G1 F1800 E2486.5951
G1 Z1.799
G0 F9000 X186.729 Y148.196
G0 X169.07 Y148.141
G0 X165.252 Y128
G0 X165.337 Y103.364
G0 X170.119 Y51.325
G0 X170.119 Y51.325
G1 Z1.299
G1 F1800 E2489.5951
G1 F1080 X167.114 Y48.32 E2490.12514
G0 F9000 X169.187 Y48.979
G1 F1080 X164.116 Y43.908 E2491.01961
G0 F9000 X163.688 Y44.894
G1 F1080 X162.531 Y44.445 E2491.18772
G1 X161.311 Y44.639 E2491.36552
G1 X159.906 Y43.941 E2491.56119
G0 F9000 X158.492 Y43.941
G1 F1080 X160.489 Y45.938 E2491.91344
G0 F9000 X159.86 Y46.723
G1 F1080 X157.078 Y43.941 E2492.40415
G0 F9000 X155.663 Y43.94
G1 F1080 X159.424 Y47.701 E2493.06755
G0 F9000 X159.287 Y48.978
G1 F1080 X154.248 Y43.94 E2493.95628
G0 F9000 X150.204 Y46.966
G1 F1080 X147.177 Y43.94 E2494.49012
G0 F9000 X145.763 Y43.94
G1 F1080 X148.09 Y46.266 E2494.90049
G0 F9000 X146.559 Y46.15
G1 F1080 X144.349 Y43.94 E2495.29031
G0 F9000 X142.935 Y43.94
G1 F1080 X145.144 Y46.15 E2495.68004
G0 F9000 X143.73 Y46.15
G1 F1080 X141.52 Y43.939 E2496.06995
G0 F9000 X140.106 Y43.939
G1 F1080 X142.315 Y46.149 E2496.45968
G0 F9000 X140.901 Y46.149
G1 F1080 X138.691 Y43.939 E2496.8495
G0 F9000 X137.277 Y43.939
G1 F1080 X139.487 Y46.149 E2497.23932
G0 F9000 X138.073 Y46.149
G1 F1080 X135.863 Y43.939 E2497.62913
G0 F9000 X134.449 Y43.939
G1 F1080 X136.658 Y46.149 E2498.01886
G0 F9000 X135.244 Y46.148
G1 F1080 X133.035 Y43.939 E2498.40851
G0 F9000 X131.62 Y43.939
G1 F1080 X133.829 Y46.148 E2498.79815
G0 F9000 X132.415 Y46.148
G1 F1080 X130.206 Y43.939 E2499.18779
G0 F9000 X128.792 Y43.939
G1 F1080 X131.001 Y46.148 E2499.57743
G0 F9000 X129.586 Y46.147
G1 F1080 X127.377 Y43.938 E2499.96708
G0 F9000 X125.963 Y43.938
G1 F1080 X128.172 Y46.147 E2500.35672
G0 F9000 X126.758 Y46.147
G1 F1080 X124.549 Y43.938 E2500.74636
G0 F9000 X123.134 Y43.938
G1 F1080 X125.343 Y46.147 E2501.136
G0 F9000 X123.929 Y46.147
G1 F1080 X121.72 Y43.938 E2501.52564
G0 F9000 X120.306 Y43.938
G1 F1080 X122.514 Y46.147 E2501.9152
G0 F9000 X121.1 Y46.147
G1 F1080 X118.892 Y43.938 E2502.30475
G0 F9000 X117.478 Y43.938
G1 F1080 X119.686 Y46.147 E2502.69431
G0 F9000 X118.272 Y46.147
G1 F1080 X116.063 Y43.938 E2503.08395
G0 F9000 X114.649 Y43.938
G1 F1080 X116.857 Y46.147 E2503.4735
G0 F9000 X115.442 Y46.146
G1 F1080 X113.234 Y43.938 E2503.86297
G0 F9000 X111.82 Y43.938
G1 F1080 X114.028 Y46.146 E2504.25243
G0 F9000 X112.614 Y46.146
G1 F1080 X110.406 Y43.938 E2504.6419
G0 F9000 X108.992 Y43.938
G1 F1080 X111.2 Y46.146 E2505.03137
G0 F9000 X109.786 Y46.146
G1 F1080 X107.577 Y43.938 E2505.42092
G0 F9000 X106.163 Y43.938
G1 F1080 X108.371 Y46.145 E2505.8103
G0 F9000 X106.956 Y46.145
G1 F1080 X104.749 Y43.938 E2506.19959
G0 F9000 X103.335 Y43.938
G1 F1080 X105.542 Y46.145 E2506.58888
G0 F9000 X104.128 Y46.145
G1 F1080 X101.92 Y43.938 E2506.97825
G0 F9000 X100.506 Y43.938
G1 F1080 X102.714 Y46.145 E2507.36763
G0 F9000 X101.299 Y46.145
G1 F1080 X99.091 Y43.937 E2507.7571
G0 F9000 X97.677 Y43.937
G1 F1080 X99.885 Y46.145 E2508.14656
G0 F9000 X98.47 Y46.145
G1 F1080 X96.263 Y43.937 E2508.53594
G0 F9000 X94.849 Y43.937
G1 F1080 X97.056 Y46.145 E2508.92532
G0 F9000 X95.642 Y46.145
G1 F1080 X93.434 Y43.937 E2509.31478
G0 F9000 X92.02 Y43.937
G1 F1080 X94.227 Y46.144 E2509.70407
G0 F9000 X92.813 Y46.144
G1 F1080 X90.606 Y43.937 E2510.09336
G0 F9000 X89.192 Y43.937
G1 F1080 X91.399 Y46.144 E2510.48265
G0 F9000 X89.984 Y46.144
G1 F1080 X87.778 Y43.937 E2510.87185
G0 F9000 X86.363 Y43.937
G1 F1080 X88.57 Y46.144 E2511.26114
G0 F9000 X87.155 Y46.143
G1 F1080 X84.948 Y43.936 E2511.65043
G0 F9000 X83.534 Y43.936
G1 F1080 X85.741 Y46.143 E2512.03972
G0 F9000 X84.327 Y46.143
G1 F1080 X82.12 Y43.936 E2512.42901
G0 F9000 X80.706 Y43.936
G1 F1080 X82.913 Y46.143 E2512.8183
G0 F9000 X81.498 Y46.142
G1 F1080 X79.292 Y43.936 E2513.20741
G0 F9000 X77.877 Y43.936
G1 F1080 X80.176 Y46.235 E2513.61293
G0 F9000 X79.009 Y46.482
G1 F1080 X76.463 Y43.936 E2514.06202
G0 F9000 X75.049 Y43.936
G1 F1080 X77.976 Y46.864 E2514.57839
G0 F9000 X77.117 Y47.419
G1 F1080 X73.635 Y43.936 E2515.19267
G0 F9000 X72.221 Y43.936
G1 F1080 X76.326 Y48.042 E2515.91683
G0 F9000 X75.646 Y48.776
G1 F1080 X70.806 Y43.936 E2516.77055
G0 F9000 X69.391 Y43.936
G1 F1080 X75.088 Y49.632 E2517.77535
G0 F9000 X74.607 Y50.565
G1 F1080 X67.977 Y43.936 E2518.94471
G0 F9000 X66.563 Y43.936
G1 F1080 X74.295 Y51.668 E2520.30855
G0 F9000 X74.165 Y52.952
G1 F1080 X68.335 Y47.122 E2521.3369
G0 F9000 X68.72 Y48.921
G1 F1080 X74.315 Y54.516 E2522.32379
G0 F9000 X75.14 Y54.35
G0 X72.178 Y62.121
G0 X72.178 Y62.121
G0 X71.509 Y61.609
G1 F1080 X57.728 Y47.829 E2524.75451
G0 F9000 X58.112 Y49.627
G1 F1080 X71.044 Y62.559 E2527.03557
G0 F9000 X70.827 Y63.756
G1 F1080 X57.876 Y50.805 E2529.31997
G0 F9000 X57.397 Y51.74
G1 F1080 X71.303 Y65.647 E2531.77292
G0 F9000 X60.932 Y49.619
G1 F1080 X49.747 Y38.434 E2533.74583
G0 F9000 X50.454 Y37.726
G1 F1080 X60.903 Y48.175 E2535.58891
G0 F9000 X61.236 Y47.094
G1 F1080 X51.162 Y37.019 E2537.36594
G0 F9000 X51.869 Y36.312
G1 F1080 X61.794 Y46.237 E2539.11659
G0 F9000 X62.537 Y45.566
G1 F1080 X52.576 Y35.605 E2540.8736
G0 F9000 X61.862 Y43.477
G1 F1080 X63.47 Y45.085 E2541.15723
G0 F9000 X64.648 Y44.849
G1 F1080 X64.416 Y43.91 E2541.32733
G1 X66.448 Y45.235 E2541.62989
G1 F1800 E2538.62989
G1 Z1.799
G0 F9000 X66.127 Y46.011
G0 X165.342 Y43.719
G0 X165.342 Y43.719
G1 Z1.299
G1 F1800 E2541.62989
G1 F1080 X169.323 Y47.7 E2542.3321
G0 F9000 X169.76 Y46.723
G1 F1080 X166.413 Y43.376 E2542.92247
G0 F9000 X167.343 Y42.893
G1 F1080 X170.392 Y45.942 E2543.46028
G0 F9000 X171.1 Y45.235
G1 F1080 X168.15 Y42.285 E2543.98062
G0 F9000 X168.891 Y41.611
G1 F1080 X171.807 Y44.527 E2544.49497
G0 F9000 X172.514 Y43.82
G1 F1080 X169.598 Y40.904 E2545.00932
G0 F9000 X170.305 Y40.198
G1 F1080 X173.221 Y43.113 E2545.52358
G0 F9000 X173.928 Y42.406
G1 F1080 X171.013 Y39.491 E2546.03775
G0 F9000 X171.72 Y38.784
G1 F1080 X174.635 Y41.699 E2546.55193
G0 F9000 X175.342 Y40.992
G1 F1080 X172.427 Y38.077 E2547.0661
G0 F9000 X173.135 Y37.37
G1 F1080 X176.049 Y40.285 E2547.58018
G0 F9000 X176.756 Y39.578
G1 F1080 X173.842 Y36.663 E2548.09427
G0 F9000 X174.55 Y35.957
G1 F1080 X177.464 Y38.871 E2548.60826
; LAYER:1
G0 F9000 X180.045 Y38.188 Z1.499
G0 X180.045 Y38.188
G0 X179.974 Y38.259
; TYPE:WALL-INNER
G1 F3600 X171.252 Y46.979 E2549.01847
G1 X170.864 Y47.488 E2549.03976
G1 X170.603 Y48.115 E2549.06235
G1 X170.515 Y48.79 E2549.08499
G1 X170.603 Y49.464 E2549.1076
G1 X170.864 Y50.092 E2549.13022
G1 X171.253 Y50.6 E2549.1515
G1 X189.693 Y69.041 E2550.01888
G1 X190.202 Y69.431 E2550.04021
G1 X190.831 Y69.691 E2550.06285
G1 X191.504 Y69.779 E2550.08542
G1 X192.178 Y69.691 E2550.10803
G1 X192.806 Y69.431 E2550.13064
G1 X193.315 Y69.041 E2550.15196
G1 X202.035 Y60.32 E2550.56215
G1 X207.551 Y65.836 E2550.82161
G1 X200.019 Y73.368 E2551.17589
G1 X199.342 Y74.193 E2551.21138
G1 X198.824 Y75.162 E2551.24793
G1 X198.505 Y76.213 E2551.28446
G1 X198.4 Y77.277 E2551.32002
G1 X198.4 Y176.724 E2554.62764
G1 X198.505 Y177.788 E2554.6632
G1 X198.824 Y178.839 E2554.69973
G1 X199.342 Y179.808 E2554.73628
G1 X200.019 Y180.633 E2554.77177
G1 X207.551 Y188.165 E2555.12606
G1 X202.742 Y192.974 E2555.35226
G1 X193.198 Y183.43 E2555.80118
G1 X192.401 Y183.325 E2555.82791
G1 X191.726 Y183.413 E2555.85055
G1 X191.098 Y183.674 E2555.87317
G1 X190.59 Y184.064 E2555.89448
G1 X171.96 Y202.694 E2556.77077
G1 X171.571 Y203.202 E2556.79205
G1 X171.31 Y203.83 E2556.81467
G1 X171.222 Y204.504 E2556.83728
G1 X171.31 Y205.179 E2556.85992
G1 X171.571 Y205.806 E2556.88251
G1 X171.959 Y206.315 E2556.9038
G1 X180.681 Y215.035 E2557.31401
G1 X175.165 Y220.551 E2557.57346
G1 X167.633 Y213.019 E2557.92774
G1 X166.808 Y212.342 E2557.96324
G1 X165.839 Y211.824 E2557.99979
G1 X164.788 Y211.505 E2558.03632
G1 X163.724 Y211.4 E2558.07188
G1 X64.277 Y211.4 E2561.3795
G1 X63.213 Y211.505 E2561.41506
G1 X62.162 Y211.824 E2561.45159
G1 X61.193 Y212.342 E2561.48814
G1 X60.368 Y213.019 E2561.52363
G1 X52.836 Y220.551 E2561.87791
G1 X48.027 Y215.742 E2562.10411
G1 X56.748 Y207.022 E2562.5143
G1 X57.138 Y206.513 E2562.53563
G1 X57.398 Y205.885 E2562.55823
G1 X57.486 Y205.211 E2562.58084
G1 X57.398 Y204.538 E2562.60342
G1 X57.138 Y203.909 E2562.62605
G1 X56.748 Y203.4 E2562.64738
G1 X38.307 Y184.96 E2563.51477
G1 X37.799 Y184.571 E2563.53605
G1 X37.171 Y184.31 E2563.55867
G1 X36.497 Y184.222 E2563.58127
G1 X35.822 Y184.31 E2563.60391
G1 X35.195 Y184.571 E2563.6265
G1 X34.686 Y184.959 E2563.64779
G1 X25.966 Y193.681 E2564.058
G1 X20.45 Y188.165 E2564.31745
G1 X27.982 Y180.633 E2564.67174
G1 X28.659 Y179.808 E2564.70723
G1 X29.177 Y178.839 E2564.74378
G1 X29.496 Y177.788 E2564.78031
G1 X29.601 Y176.724 E2564.81587
G1 X29.601 Y77.277 E2568.12349
G1 X29.496 Y76.213 E2568.15905
G1 X29.177 Y75.162 E2568.19558
G1 X28.659 Y74.193 E2568.23213
G1 X27.982 Y73.368 E2568.26762
G1 X20.45 Y65.836 E2568.6219
G1 X25.259 Y61.027 E2568.84811
G1 X33.979 Y69.748 E2569.25829
G1 X34.488 Y70.138 E2569.27962
G1 X35.115 Y70.397 E2569.30218
G1 X35.79 Y70.487 E2569.32483
G1 X36.464 Y70.397 E2569.34745
G1 X37.092 Y70.138 E2569.37004
G1 X37.601 Y69.748 E2569.39137
G1 X56.041 Y51.307 E2570.25875
G1 X56.43 Y50.799 E2570.28003
G1 X56.691 Y50.171 E2570.30265
G1 X56.779 Y49.497 E2570.32526
G1 X56.691 Y48.822 E2570.3479
G1 X56.43 Y48.195 E2570.37049
G1 X56.041 Y47.687 E2570.39177
G1 X47.32 Y38.966 E2570.80198
G1 X52.836 Y33.45 E2571.06144
G1 X60.368 Y40.982 E2571.41572
G1 X61.193 Y41.659 E2571.45121
G1 X62.162 Y42.177 E2571.48776
G1 X63.213 Y42.496 E2571.52429
G1 X64.277 Y42.601 E2571.55985
G1 X163.724 Y42.601 E2574.86747
G1 X164.788 Y42.496 E2574.90303
G1 X165.839 Y42.177 E2574.93956
G1 X166.808 Y41.659 E2574.97611
G1 X167.633 Y40.982 E2575.0116
G1 X175.165 Y33.45 E2575.36589
G1 X179.719 Y38.004 E2575.58009
G0 F9000 X180.045 Y38.188
G0 X165.476 Y47.487
G0 X165.476 Y47.487
G1 F3600 X165.062 Y46.947 E2575.60272
G1 X164.522 Y46.534 E2575.62534
G1 X163.895 Y46.273 E2575.64792
G1 X163.22 Y46.185 E2575.67057
G1 X162.545 Y46.273 E2575.69321
G1 X161.918 Y46.534 E2575.71579
G1 X161.378 Y46.947 E2575.73841
G1 X160.964 Y47.487 E2575.76104
G1 X160.703 Y48.115 E2575.78366
G1 X160.615 Y48.79 E2575.8063
G1 X160.703 Y49.464 E2575.8289
G1 X160.964 Y50.093 E2575.85156
G1 X161.378 Y50.632 E2575.87416
G1 X161.918 Y51.046 E2575.89679
G1 X162.545 Y51.305 E2575.91935
G1 X163.22 Y51.395 E2575.942
G1 X163.895 Y51.305 E2575.96465
G1 X164.522 Y51.046 E2575.98722
G1 X165.062 Y50.632 E2576.00985
G1 X165.476 Y50.093 E2576.03245
G1 X165.737 Y49.464 E2576.0551
G1 X165.825 Y48.79 E2576.07771
G1 X165.737 Y48.115 E2576.10035
G1 X165.615 Y47.82 E2576.11097
G0 F9000 X165.458 Y47.49
G0 X163.893 Y46.275
G0 X161.918 Y46.536
G0 X152.106 Y50.938
G0 X152.106 Y50.938
G1 F3600 X151.463 Y49.789 E2576.15476
G1 X150.568 Y48.822 E2576.19859
G1 X149.473 Y48.09 E2576.24239
G1 X148.237 Y47.633 E2576.28622
G1 X146.964 Y47.483 E2576.32886
G1 X81.037 Y47.483 E2578.5216
G1 X79.764 Y47.633 E2578.56423
G1 X78.528 Y48.09 E2578.60806
G1 X77.433 Y48.822 E2578.65187
G1 X76.538 Y49.789 E2578.69569
G1 X75.895 Y50.938 E2578.73949
G1 X75.537 Y52.206 E2578.78331
G1 X75.486 Y53.522 E2578.82711
G1 X75.742 Y54.815 E2578.87095
G1 X76.294 Y56.011 E2578.91476
G1 X77.088 Y57.017 E2578.95739
G1 X110.065 Y89.995 E2580.50855
G1 X111.02 Y90.756 E2580.54916
G1 X112.151 Y91.301 E2580.59092
G1 X113.373 Y91.58 E2580.63261
G1 X114.628 Y91.58 E2580.67435
G1 X115.85 Y91.301 E2580.71604
G1 X116.981 Y90.756 E2580.7578
G1 X117.936 Y89.995 E2580.79841
G1 X150.913 Y57.017 E2582.34957
G1 X151.707 Y56.011 E2582.3922
G1 X152.259 Y54.815 E2582.43601
G1 X152.516 Y53.522 E2582.47986
G1 X152.464 Y52.205 E2582.5237
G1 X152.204 Y51.285 E2582.55549
G0 F9000 X152.232 Y52.008
G0 X152.462 Y52.206
G0 X153.325 Y61.273
G0 X153.325 Y61.273
G1 F3600 X152.698 Y61.534 E2582.57808
G1 X152.158 Y61.947 E2582.60069
G1 X151.744 Y62.487 E2582.62333
G1 X151.483 Y63.115 E2582.64594
G1 X151.395 Y63.79 E2582.66859
G1 X151.483 Y64.464 E2582.69119
G1 X151.744 Y65.093 E2582.71384
G1 X152.158 Y65.632 E2582.73645
G1 X152.698 Y66.046 E2582.75908
G1 X153.325 Y66.305 E2582.78164
G1 X154 Y66.395 E2582.80429
G1 X154.675 Y66.305 E2582.82694
G1 X155.302 Y66.046 E2582.8495
G1 X155.842 Y65.632 E2582.87214
G1 X156.256 Y65.093 E2582.89474
G1 X156.517 Y64.464 E2582.91739
G1 X156.605 Y63.79 E2582.94
G1 X156.517 Y63.117 E2582.96257
G1 X156.256 Y62.487 E2582.98525
G1 X155.842 Y61.947 E2583.00789
G1 X155.302 Y61.534 E2583.0305
G1 X154.675 Y61.273 E2583.05309
G1 X154 Y61.185 E2583.07573
G1 X153.683 Y61.226 E2583.08636
G1 F1800 E2580.08636
G1 Z1.999
G0 F9000 X153.511 Y61.35
G0 X154.673 Y61.275
G0 X189.955 Y76.479
G0 X189.955 Y76.479
G1 Z1.499
G1 F1800 E2583.08636
G1 F3600 X189.696 Y77.106 E2583.10892
G1 X189.606 Y77.781 E2583.13157
G1 X189.696 Y78.456 E2583.15422
G1 X189.955 Y79.083 E2583.17678
G1 X190.369 Y79.623 E2583.19941
G1 X190.908 Y80.037 E2583.22202
G1 X191.537 Y80.298 E2583.24467
G1 X192.211 Y80.386 E2583.26728
G1 X192.886 Y80.298 E2583.28992
G1 X193.514 Y80.037 E2583.31254
G1 X194.054 Y79.623 E2583.33517
G1 X194.467 Y79.083 E2583.35778
G1 X194.728 Y78.456 E2583.38037
G1 X194.816 Y77.781 E2583.40301
G1 X194.728 Y77.106 E2583.42565
G1 X194.467 Y76.479 E2583.44824
G1 X194.054 Y75.939 E2583.47085
G1 X193.514 Y75.525 E2583.49348
G1 X192.886 Y75.264 E2583.5161
G1 X192.211 Y75.176 E2583.53874
G1 X191.537 Y75.264 E2583.56135
G1 X190.908 Y75.525 E2583.584
G1 X190.369 Y75.939 E2583.6066
G1 X190.175 Y76.193 E2583.61723
G1 F1800 E2580.61723
G1 Z1.999
G0 F9000 X189.983 Y76.652
G0 X189.607 Y77.781
G0 X194.232 Y102.209
G0 X194.232 Y102.209
G1 Z1.499
G1 F1800 E2583.61723
G1 F3600 X193.783 Y102.394 E2583.63339
G1 X193.4 Y102.69 E2583.64949
G1 X193.105 Y103.073 E2583.66557
G1 X192.92 Y103.52 E2583.68166
G1 X192.856 Y104.001 E2583.69779
G1 X192.92 Y104.482 E2583.71393
G1 X193.105 Y104.929 E2583.73002
G1 X193.4 Y105.312 E2583.7461
G1 X193.783 Y105.608 E2583.7622
G1 X194.232 Y105.793 E2583.77835
G1 X194.711 Y105.856 E2583.79442
G1 X195.191 Y105.793 E2583.81053
G1 X195.638 Y105.608 E2583.82662
G1 X196.023 Y105.313 E2583.84275
G1 X196.318 Y104.929 E2583.85885
G1 X196.504 Y104.481 E2583.87499
G1 X196.566 Y104.001 E2583.89108
G1 X196.504 Y103.521 E2583.90718
G1 X196.318 Y103.073 E2583.92332
G1 X196.023 Y102.689 E2583.93942
G1 X195.638 Y102.394 E2583.95555
G1 X195.191 Y102.209 E2583.97164
G1 X194.711 Y102.146 E2583.98775
G1 X194.59 Y102.162 E2583.99181
G0 F9000 X194.232 Y102.218
G0 X193.107 Y103.074
G0 X192.921 Y104.482
G0 X194.711 Y110.146
G0 X194.711 Y110.146
G1 F3600 X194.232 Y110.209 E2584.00787
G1 X193.783 Y110.394 E2584.02403
G1 X193.4 Y110.69 E2584.04013
G1 X193.105 Y111.073 E2584.0562
G1 X192.92 Y111.52 E2584.07229
G1 X192.856 Y112.001 E2584.08843
G1 X192.92 Y112.482 E2584.10457
G1 X193.105 Y112.929 E2584.12066
G1 X193.4 Y113.312 E2584.13674
G1 X193.783 Y113.608 E2584.15284
G1 X194.232 Y113.793 E2584.16899
G1 X194.711 Y113.856 E2584.18506
G1 X195.191 Y113.793 E2584.20116
G1 X195.638 Y113.608 E2584.21725
G1 X196.023 Y113.313 E2584.23339
G1 X196.318 Y112.929 E2584.24949
G1 X196.504 Y112.481 E2584.26563
G1 X196.566 Y112.001 E2584.28172
G1 X196.504 Y111.521 E2584.29782
G1 X196.318 Y111.073 E2584.31395
G1 X196.023 Y110.689 E2584.33006
G1 X195.638 Y110.394 E2584.34619
G1 X195.191 Y110.209 E2584.36228
G1 X195.069 Y110.193 E2584.36638
G0 F9000 X194.711 Y118.146
G1 F3600 X194.232 Y118.209 E2584.38244
G1 X193.783 Y118.394 E2584.3986
G1 X193.4 Y118.69 E2584.4147
G1 X193.105 Y119.073 E2584.43077
G1 X192.92 Y119.52 E2584.44687
G1 X192.856 Y120.001 E2584.463
G1 X192.92 Y120.482 E2584.47914
G1 X193.105 Y120.929 E2584.49523
G1 X193.4 Y121.312 E2584.51131
G1 X193.783 Y121.608 E2584.52741
G1 X194.232 Y121.793 E2584.54356
G1 X194.711 Y121.856 E2584.55963
G1 X195.191 Y121.793 E2584.57573
G1 X195.638 Y121.608 E2584.59183
G1 X196.023 Y121.313 E2584.60796
G1 X196.318 Y120.929 E2584.62406
G1 X196.504 Y120.481 E2584.6402
G1 X196.566 Y120.001 E2584.65629
G1 X196.504 Y119.521 E2584.67239
G1 X196.318 Y119.073 E2584.68853
G1 X196.023 Y118.689 E2584.70463
G1 X195.638 Y118.394 E2584.72076
G1 X195.191 Y118.209 E2584.73685
G1 X195.069 Y118.193 E2584.74095
G0 F9000 X194.711 Y126.146
G1 F3600 X194.232 Y126.209 E2584.75701
G1 X193.784 Y126.393 E2584.77312
G1 X193.4 Y126.688 E2584.78923
G1 X193.105 Y127.072 E2584.80533
G1 X192.92 Y127.519 E2584.82142
G1 X192.856 Y128 E2584.83756
G1 X192.92 Y128.481 E2584.8537
G1 X193.105 Y128.928 E2584.86979
G1 X193.4 Y129.311 E2584.88587
G1 X193.783 Y129.607 E2584.90197
G1 X194.232 Y129.792 E2584.91812
G1 X194.711 Y129.855 E2584.93419
G1 X195.191 Y129.792 E2584.95029
G1 X195.638 Y129.607 E2584.96638
G1 X196.023 Y129.312 E2584.98252
G1 X196.318 Y128.928 E2584.99862
G1 X196.504 Y128.48 E2585.01476
G1 X196.566 Y128 E2585.03085
G1 X196.504 Y127.52 E2585.04695
G1 X196.318 Y127.072 E2585.06308
G1 X196.022 Y126.688 E2585.07921
G1 X195.638 Y126.393 E2585.09532
G1 X195.191 Y126.209 E2585.11139
G1 X195.069 Y126.193 E2585.11549
G1 F1800 E2582.11549
G1 Z1.999
G0 F9000 X192.809 Y126.286
G0 X192.752 Y147.541
G0 X169.67 Y147.541
G0 X169.566 Y128
G0 X169.566 Y128
G1 Z1.499
G1 F1800 E2585.11549
G1 F3600 X169.504 Y127.52 E2585.13158
G1 X169.318 Y127.072 E2585.14772
G1 X169.022 Y126.688 E2585.16384
G1 X168.638 Y126.393 E2585.17995
G1 X168.191 Y126.209 E2585.19603
G1 X167.711 Y126.146 E2585.21213
G1 X167.232 Y126.209 E2585.2282
G1 X166.784 Y126.393 E2585.24431
G1 X166.4 Y126.688 E2585.26041
G1 X166.105 Y127.072 E2585.27652
G1 X165.92 Y127.519 E2585.29261
G1 X165.856 Y128 E2585.30875
G1 X165.92 Y128.481 E2585.32489
G1 X166.105 Y128.928 E2585.34098
G1 X166.4 Y129.311 E2585.35705
G1 X166.783 Y129.607 E2585.37315
G1 X167.232 Y129.792 E2585.38931
G1 X167.711 Y129.855 E2585.40537
G1 X168.191 Y129.792 E2585.42148
G1 X168.638 Y129.607 E2585.43757
G1 X169.023 Y129.312 E2585.4537
G1 X169.318 Y128.928 E2585.4698
G1 X169.504 Y128.48 E2585.48594
G1 X169.519 Y128.358 E2585.49003
G0 F9000 X168.191 Y121.793
G1 F3600 X168.638 Y121.608 E2585.50612
G1 X169.023 Y121.313 E2585.52225
G1 X169.318 Y120.929 E2585.53835
G1 X169.504 Y120.481 E2585.55449
G1 X169.566 Y120.001 E2585.57059
G1 X169.504 Y119.521 E2585.58668
G1 X169.318 Y119.073 E2585.60282
G1 X169.023 Y118.689 E2585.61892
G1 X168.638 Y118.394 E2585.63505
G1 X168.191 Y118.209 E2585.65114
G1 X167.711 Y118.146 E2585.66725
G1 X167.232 Y118.209 E2585.68332
G1 X166.783 Y118.394 E2585.69947
G1 X166.4 Y118.69 E2585.71557
G1 X166.105 Y119.073 E2585.73165
G1 X165.92 Y119.52 E2585.74774
G1 X165.856 Y120.001 E2585.76388
G1 X165.92 Y120.482 E2585.78001
G1 X166.105 Y120.929 E2585.7961
G1 X166.4 Y121.312 E2585.81218
G1 X166.783 Y121.608 E2585.82828
G1 X167.232 Y121.793 E2585.84444
G1 X167.711 Y121.856 E2585.8605
G1 X167.833 Y121.84 E2585.8646
G0 F9000 X168.19 Y121.781
G0 X169.316 Y120.928
G0 X169.455 Y119.406
G0 X167.711 Y113.856
G0 X167.711 Y113.856
G1 F3600 X168.191 Y113.793 E2585.8807
G1 X168.638 Y113.608 E2585.89679
G1 X169.023 Y113.313 E2585.91292
G1 X169.318 Y112.929 E2585.92903
G1 X169.504 Y112.481 E2585.94516
G1 X169.566 Y112.001 E2585.96126
G1 X169.504 Y111.521 E2585.97736
G1 X169.318 Y111.073 E2585.99349
G1 X169.023 Y110.689 E2586.00959
G1 X168.638 Y110.394 E2586.02573
G1 X168.191 Y110.209 E2586.04182
G1 X167.711 Y110.146 E2586.05792
G1 X167.232 Y110.209 E2586.07399
G1 X166.783 Y110.394 E2586.09014
G1 X166.4 Y110.69 E2586.10624
G1 X166.105 Y111.073 E2586.12232
G1 X165.92 Y111.52 E2586.13841
G1 X165.856 Y112.001 E2586.15455
G1 X165.92 Y112.482 E2586.17069
G1 X166.105 Y112.929 E2586.18678
G1 X166.4 Y113.312 E2586.20286
G1 X166.783 Y113.608 E2586.21896
G1 X167.232 Y113.793 E2586.23511
G1 X167.353 Y113.809 E2586.23917
G0 F9000 X167.711 Y105.856
G1 F3600 X168.191 Y105.793 E2586.25527
G1 X168.638 Y105.608 E2586.27136
G1 X169.023 Y105.313 E2586.28749
G1 X169.318 Y104.929 E2586.3036
G1 X169.504 Y104.481 E2586.31973
G1 X169.566 Y104.001 E2586.33583
G1 X169.504 Y103.521 E2586.35193
G1 X169.318 Y103.073 E2586.36806
G1 X169.023 Y102.689 E2586.38416
G1 X168.638 Y102.394 E2586.4003
G1 X168.191 Y102.209 E2586.41639
G1 X167.711 Y102.146 E2586.43249
G1 X167.232 Y102.209 E2586.44856
G1 X166.783 Y102.394 E2586.46471
G1 X166.4 Y102.69 E2586.48081
G1 X166.105 Y103.073 E2586.49689
G1 X165.92 Y103.52 E2586.51298
G1 X165.856 Y104.001 E2586.52912
G1 X165.92 Y104.482 E2586.54526
G1 X166.105 Y104.929 E2586.56135
G1 X166.4 Y105.312 E2586.57743
