; Generated with MatterSlice 1.0
; filamentDiameter = 1.75
; extrusionWidth = 0.4
; firstLayerExtrusionWidth = 1
; layerThickness = 0.2
; firstLayerThickness = 0.3
; automatic settings before start_gcode
G21 ; set units to millimeters
M107 ; fan off
M190 S12 ; wait for bed temperature to be reached
M104 T0 S215 ; start heating extruder 0
T0 ; set the active extruder to 0
; settings from start_gcode
G28 X0 Y0 Z0 ; home all axes
G1 Z5 F5000 ; lift nozzle
M109 S210 ; set the extruder temp and wait
G28 X0 Y0 Z0 ; Home Z again in case there was filament on nozzle
M565 Z0
G29 ; probe the bed
; automatic settings after start_gcode
T0 ; set the active extruder to 0
G90 ; use absolute coordinates
G92 E0 ; reset the expected extruder position
M82 ; use absolute distance for extrusion
; Layer count: 14
; LAYER:0
M107
G0 F9000 X52.836 Y33.31 Z1.299
; TYPE:WALL-OUTER
G1 Z1.299
G1 F1800 E0
G1 F1080 X60.441 Y40.914 E1.34135
G1 X61.554 Y41.768 E1.51632
G1 X62.882 Y42.318 E1.6956
G1 X64.207 Y42.492 E1.86228
G1 X82.023 Y42.501 E4.08439
G1 X83.824 Y42.343 E4.30988
G1 X85.593 Y41.87 E4.53827
G1 X87.252 Y41.096 E4.76661
G1 X88.752 Y40.045 E4.99505
G1 X90.045 Y38.752 E5.22312
G1 X91.096 Y37.252 E5.45156
G1 X91.87 Y35.593 E5.67989
G1 X92.343 Y33.824 E5.90828
G1 X92.501 Y32.023 E6.13378
G1 X92.501 Y20.501 E7.57086
G1 X135.5 Y20.501 E12.93393
G1 X135.5 Y32.023 E14.37102
G1 X135.658 Y33.824 E14.59652
G1 X136.131 Y35.593 E14.82491
G1 X136.905 Y37.252 E15.05324
G1 X137.956 Y38.752 E15.28168
G1 X139.249 Y40.045 E15.50975
G1 X140.749 Y41.096 E15.73819
G1 X142.408 Y41.87 E15.96652
G1 X144.177 Y42.343 E16.19491
G1 X145.978 Y42.501 E16.42041
G1 X163.728 Y42.501 E18.63428
G1 X165.12 Y42.318 E18.8094
G1 X166.447 Y41.768 E18.98856
G1 X167.507 Y40.955 E19.15518
G1 X175.164 Y33.309 E20.50481
G1 X207.691 Y65.836 E26.2422
G1 X200.087 Y73.441 E27.58355
G1 X199.233 Y74.554 E27.75853
G1 X198.683 Y75.882 E27.9378
G1 X198.509 Y77.207 E28.10448
G1 X198.5 Y95.023 E30.32659
G1 X198.658 Y96.824 E30.55209
G1 X199.131 Y98.593 E30.78048
G1 X199.905 Y100.252 E31.00881
G1 X200.956 Y101.752 E31.23725
G1 X202.249 Y103.045 E31.46532
G1 X203.749 Y104.096 E31.69376
G1 X205.408 Y104.87 E31.9221
G1 X207.177 Y105.343 E32.15049
G1 X208.978 Y105.501 E32.37598
G1 X220.5 Y105.501 E33.81307
G1 X220.5 Y148.5 E39.17614
G1 X208.978 Y148.5 E40.61323
G1 X207.177 Y148.658 E40.83872
G1 X205.408 Y149.131 E41.06711
G1 X203.749 Y149.905 E41.29544
G1 X202.249 Y150.956 E41.52388
G1 X200.956 Y152.249 E41.75195
G1 X199.905 Y153.749 E41.98039
G1 X199.131 Y155.408 E42.20873
G1 X198.658 Y157.177 E42.43712
G1 X198.5 Y158.978 E42.66261
G1 X198.5 Y176.728 E44.87649
G1 X198.683 Y178.12 E45.0516
G1 X199.233 Y179.447 E45.23076
G1 X200.046 Y180.507 E45.39738
G1 X207.692 Y188.164 E46.74702
G1 X175.165 Y220.691 E52.48441
G1 X167.56 Y213.087 E53.82575
G1 X166.447 Y212.233 E54.00073
G1 X165.119 Y211.683 E54.18001
G1 X163.794 Y211.509 E54.34669
G1 X145.978 Y211.5 E56.5688
G1 X144.177 Y211.658 E56.79429
G1 X142.408 Y212.131 E57.02268
G1 X140.749 Y212.905 E57.25101
G1 X139.249 Y213.956 E57.47946
G1 X137.956 Y215.249 E57.70753
G1 X136.905 Y216.749 E57.93597
G1 X136.131 Y218.408 E58.1643
G1 X135.658 Y220.177 E58.39269
G1 X135.5 Y221.978 E58.61818
G1 X135.5 Y233.5 E60.05527
G1 X92.501 Y233.5 E65.41834
G1 X92.501 Y221.978 E66.85543
G1 X92.343 Y220.177 E67.08092
G1 X91.87 Y218.408 E67.30931
G1 X91.096 Y216.749 E67.53764
G1 X90.045 Y215.249 E67.76609
G1 X88.752 Y213.956 E67.99416
G1 X87.252 Y212.905 E68.2226
G1 X85.593 Y212.131 E68.45093
G1 X83.824 Y211.658 E68.67932
G1 X82.023 Y211.5 E68.90481
G1 X64.273 Y211.5 E71.11869
G1 X62.881 Y211.683 E71.2938
G1 X61.554 Y212.233 E71.47297
G1 X60.494 Y213.046 E71.63958
G1 X52.837 Y220.692 E72.98922
G1 X20.31 Y188.165 E78.72661
G1 X27.914 Y180.56 E80.06796
G1 X28.768 Y179.447 E80.24293
G1 X29.318 Y178.119 E80.42221
G1 X29.492 Y176.794 E80.58889
G1 X29.501 Y158.978 E82.811
G1 X29.343 Y157.177 E83.0365
G1 X28.87 Y155.408 E83.26489
G1 X28.096 Y153.749 E83.49322
G1 X27.045 Y152.249 E83.72166
G1 X25.752 Y150.956 E83.94973
G1 X24.252 Y149.905 E84.17817
G1 X22.593 Y149.131 E84.4065
G1 X20.824 Y148.658 E84.63489
G1 X19.023 Y148.5 E84.86039
G1 X7.501 Y148.5 E86.29747
G1 X7.501 Y105.501 E91.66055
G1 X19.023 Y105.501 E93.09763
G1 X20.824 Y105.343 E93.32313
G1 X22.593 Y104.87 E93.55152
G1 X24.252 Y104.096 E93.77985
G1 X25.752 Y103.045 E94.00829
G1 X27.045 Y101.752 E94.23636
G1 X28.096 Y100.252 E94.4648
G1 X28.87 Y98.593 E94.69313
G1 X29.343 Y96.824 E94.92152
G1 X29.501 Y95.023 E95.14702
G1 X29.501 Y77.273 E97.3609
G1 X29.318 Y75.881 E97.53601
G1 X28.768 Y74.554 E97.71517
G1 X27.955 Y73.494 E97.88179
G1 X20.309 Y65.837 E99.23143
G1 X52.199 Y33.947 E104.85645
G0 F9000 X52.773 Y34.093
G0 X62.535 Y46.654
G0 X62.535 Y46.654
G0 X63.01 Y47.018
G1 F1080 X62.612 Y47.538 E104.93813
G1 X62.362 Y48.141 E105.01955
G1 X62.277 Y48.79 E105.10118
G1 X62.362 Y49.437 E105.18258
G1 X62.612 Y50.042 E105.26422
G1 X63.01 Y50.561 E105.3458
G1 X63.529 Y50.959 E105.42737
G1 X64.132 Y51.208 E105.50874
G1 X64.781 Y51.294 E105.5904
G1 X65.43 Y51.208 E105.67205
G1 X66.033 Y50.959 E105.75342
G1 X66.552 Y50.561 E105.835
G1 X66.95 Y50.042 E105.91657
G1 X67.2 Y49.437 E105.99822
G1 X67.285 Y48.79 E106.07961
G1 X67.2 Y48.141 E106.16125
G1 X66.95 Y47.538 E106.24266
G1 X66.552 Y47.018 E106.32434
G1 X66.033 Y46.621 E106.40584
G1 X65.43 Y46.371 E106.48726
G1 X64.781 Y46.286 E106.56889
G1 X64.132 Y46.371 E106.65053
G1 X63.758 Y46.526 E106.70103
G0 F9000 X62.535 Y46.654
G0 X62.444 Y46.62
G0 X63.951 Y45.691
G0 X65.611 Y45.691
G0 X71.61 Y50.023
G0 X72.203 Y50.11
G1 F1080 X72.109 Y50.756 E106.78245
G1 X72.185 Y51.404 E106.86382
G1 X72.427 Y52.011 E106.94533
G1 X72.8 Y52.511 E107.02313
G1 X112.257 Y91.972 E113.98325
G1 X112.749 Y92.35 E114.06063
G1 X113.352 Y92.6 E114.14205
G1 X114 Y92.685 E114.22356
G1 X114.649 Y92.6 E114.3052
G1 X115.252 Y92.35 E114.38662
G1 X115.744 Y91.972 E114.464
G1 X155.183 Y52.535 E121.42041
G1 X155.543 Y52.066 E121.49415
G1 X155.798 Y51.469 E121.57512
G1 X155.892 Y50.824 E121.65642
G1 X155.816 Y50.175 E121.73792
G1 X155.574 Y49.569 E121.81931
G1 X155.183 Y49.044 E121.90095
G1 X154.671 Y48.641 E121.98222
G1 X154.071 Y48.383 E122.06368
G1 X153.455 Y48.293 E122.14133
G1 X74.576 Y48.29 E131.97955
G1 X73.992 Y48.367 E132.05302
G1 X73.388 Y48.608 E132.13413
G1 X72.864 Y48.997 E132.21553
G1 X72.614 Y49.315 E132.26598
G1 F1800 E129.26598
G1 Z1.799
G0 F9000 X71.61 Y50.023
G0 X71.529 Y50.053
G0 X72.374 Y48.493
G0 X73.815 Y47.687
G0 X96.712 Y40.533
G0 X97.307 Y40.455
G1 Z1.299
G1 F1800 E132.26598
G1 F1080 X97.481 Y40.878 E132.32303
G1 X97.76 Y41.242 E132.38023
G1 X98.124 Y41.521 E132.43743
G1 X98.547 Y41.695 E132.49448
G1 X99.001 Y41.755 E132.5516
G1 X99.455 Y41.695 E132.60872
G1 X99.878 Y41.521 E132.66577
G1 X100.242 Y41.242 E132.72297
G1 X100.521 Y40.878 E132.78017
G1 X100.695 Y40.455 E132.83722
G1 X100.756 Y39.998 E132.89472
G1 X100.688 Y39.529 E132.95383
G1 X100.521 Y39.124 E133.00847
G1 X100.242 Y38.76 E133.06567
G1 X99.878 Y38.481 E133.12288
G1 X99.455 Y38.307 E133.17992
G1 X99.001 Y38.247 E133.23704
G1 X98.547 Y38.307 E133.29416
G1 X98.124 Y38.481 E133.35121
G1 X97.76 Y38.76 E133.40841
G1 X97.481 Y39.124 E133.46561
G1 X97.307 Y39.547 E133.52266
G1 X97.306 Y39.56 E133.52429
G0 F9000 X96.712 Y40.533
G0 X96.734 Y40.406
G0 X96.627 Y39.365
G0 X98.921 Y28.35
G0 X99.001 Y27.755
G1 F1080 X99.455 Y27.695 E133.5814
G1 X99.878 Y27.521 E133.63845
G1 X100.242 Y27.242 E133.69565
G1 X100.521 Y26.878 E133.75286
G1 X100.695 Y26.455 E133.8099
G1 X100.756 Y25.998 E133.86741
G1 X100.688 Y25.529 E133.92652
G1 X100.521 Y25.124 E133.98116
G1 X100.242 Y24.76 E134.03836
G1 X99.878 Y24.481 E134.09556
G1 X99.455 Y24.307 E134.15261
G1 X99.001 Y24.247 E134.20973
G1 X98.547 Y24.307 E134.26685
G1 X98.124 Y24.481 E134.32389
G1 X97.76 Y24.76 E134.3811
G1 X97.481 Y25.124 E134.4383
G1 X97.307 Y25.547 E134.49535
G1 X97.247 Y26.001 E134.55246
G1 X97.307 Y26.455 E134.60958
G1 X97.481 Y26.878 E134.66663
G1 X97.76 Y27.242 E134.72383
G1 X98.124 Y27.521 E134.78103
G1 X98.136 Y27.526 E134.78266
G0 F9000 X98.921 Y28.35
G0 X98.881 Y28.437
G0 X97.263 Y27.739
G0 X100.739 Y24.263
G0 X101.092 Y22.016
G0 X101.733 Y22.057
G0 X101.733 Y22.657
G1 F1080 X101.733 Y43.345 E137.36298
G1 X126.268 Y43.345 E140.42312
G1 X126.268 Y22.657 E143.00344
G1 X102.633 Y22.657 E145.95133
G1 F1800 E142.95133
G1 Z1.799
G0 F9000 X101.733 Y22.057
G0 X102.201 Y22.126
G0 X102.596 Y22.185
G0 X126.671 Y25.776
G0 X127.246 Y26.001
G1 Z1.299
G1 F1800 E145.95133
G1 F1080 X127.306 Y26.455 E146.00844
G1 X127.48 Y26.878 E146.06549
G1 X127.759 Y27.242 E146.12269
G1 X128.123 Y27.521 E146.1799
G1 X128.546 Y27.695 E146.23694
G1 X129 Y27.755 E146.29406
G1 X129.454 Y27.695 E146.35118
G1 X129.877 Y27.521 E146.40823
G1 X130.241 Y27.242 E146.46543
G1 X130.52 Y26.878 E146.52263
G1 X130.694 Y26.455 E146.57968
G1 X130.755 Y25.998 E146.63719
G1 X130.687 Y25.529 E146.69629
G1 X130.52 Y25.124 E146.75093
G1 X130.241 Y24.76 E146.80814
G1 X129.877 Y24.481 E146.86534
G1 X129.454 Y24.307 E146.92239
G1 X129 Y24.247 E146.9795
G1 X128.546 Y24.307 E147.03662
G1 X128.123 Y24.481 E147.09367
G1 X127.759 Y24.76 E147.15087
G1 X127.48 Y25.124 E147.20807
G1 X127.475 Y25.136 E147.2097
G0 F9000 X126.671 Y25.776
G0 X126.727 Y26.058
G0 X126.626 Y26.637
G0 X126.89 Y26.859
G0 X129.08 Y37.652
G0 X129 Y38.247
G1 F1080 X128.546 Y38.307 E147.26681
G1 X128.123 Y38.481 E147.32386
G1 X127.759 Y38.76 E147.38106
G1 X127.48 Y39.124 E147.43827
G1 X127.306 Y39.547 E147.49531
G1 X127.246 Y40.001 E147.55243
G1 X127.306 Y40.455 E147.60955
G1 X127.48 Y40.878 E147.6666
G1 X127.759 Y41.242 E147.7238
G1 X128.123 Y41.521 E147.781
G1 X128.546 Y41.695 E147.83805
G1 X129 Y41.755 E147.89517
G1 X129.454 Y41.695 E147.95229
G1 X129.877 Y41.521 E148.00933
G1 X130.241 Y41.242 E148.06654
G1 X130.52 Y40.878 E148.12374
G1 X130.694 Y40.455 E148.18079
G1 X130.755 Y39.998 E148.23829
G1 X130.687 Y39.529 E148.2974
G1 X130.52 Y39.124 E148.35204
G1 X130.241 Y38.76 E148.40924
G1 X129.877 Y38.481 E148.46644
G1 X129.865 Y38.476 E148.46807
G1 F1800 E145.46807
G1 Z1.799
G0 F9000 X129.08 Y37.652
G0 X129.389 Y37.755
G0 X140.142 Y41.351
G0 X142.169 Y42.528
G0 X160.207 Y48.062
G0 X160.801 Y48.141
G1 Z1.299
G1 F1800 E148.46807
G1 F1080 X160.716 Y48.79 E148.5497
G1 X160.801 Y49.437 E148.63109
G1 X161.051 Y50.042 E148.71274
G1 X161.449 Y50.561 E148.79432
G1 X161.968 Y50.959 E148.87589
G1 X162.571 Y51.208 E148.95726
G1 X163.22 Y51.294 E149.03892
G1 X163.869 Y51.208 E149.12057
G1 X164.472 Y50.959 E149.20194
G1 X164.991 Y50.561 E149.28351
G1 X165.389 Y50.042 E149.36509
G1 X165.639 Y49.437 E149.44674
G1 X165.724 Y48.79 E149.52813
G1 X165.639 Y48.141 E149.60977
G1 X165.389 Y47.538 E149.69118
G1 X164.991 Y47.018 E149.77286
G1 X164.472 Y46.621 E149.85436
G1 X163.869 Y46.371 E149.93577
G1 X163.22 Y46.286 E150.01741
G1 X162.571 Y46.371 E150.09905
G1 X161.968 Y46.621 E150.18047
G1 X161.449 Y47.018 E150.26197
G1 X161.202 Y47.34 E150.31258
G1 F1800 E147.31258
G1 Z1.799
G0 F9000 X160.207 Y48.062
G0 X160.107 Y48.061
G0 X160.952 Y46.521
G0 X162.39 Y45.691
G0 X164.05 Y45.691
G0 X183.251 Y48.091
G0 X183.846 Y48.171
G1 Z1.299
G1 F1800 E150.31258
G1 F1080 X183.923 Y48.754 E150.38593
G1 X184.147 Y49.298 E150.45931
G1 X184.506 Y49.765 E150.53278
G1 X184.973 Y50.124 E150.60624
G1 X185.517 Y50.348 E150.67962
G1 X186.1 Y50.425 E150.75297
G1 X186.683 Y50.348 E150.82632
G1 X187.227 Y50.124 E150.89969
G1 X187.694 Y49.765 E150.97316
G1 X188.053 Y49.298 E151.04663
G1 X188.277 Y48.754 E151.12001
G1 X188.355 Y48.168 E151.19374
G1 X188.267 Y47.563 E151.26999
G1 X188.053 Y47.044 E151.34001
G1 X187.694 Y46.577 E151.41348
G1 X187.227 Y46.218 E151.48695
G1 X186.683 Y45.994 E151.56033
G1 X186.1 Y45.917 E151.63367
G1 X185.517 Y45.994 E151.70702
G1 X184.973 Y46.218 E151.7804
G1 X184.506 Y46.577 E151.85387
G1 X184.147 Y47.044 E151.92734
G1 X184.042 Y47.299 E151.96173
G1 F1800 E148.96173
G1 Z1.799
G0 F9000 X183.251 Y48.091
G0 X183.331 Y48.353
G0 X183.243 Y48.936
G0 X191.485 Y74.767
G0 X191.564 Y75.362
G1 Z1.299
G1 F1800 E151.96173
G1 F1080 X190.959 Y75.612 E152.04338
G1 X190.44 Y76.01 E152.12495
G1 X190.042 Y76.529 E152.20653
G1 X189.793 Y77.132 E152.2879
G1 X189.707 Y77.781 E152.36955
G1 X189.793 Y78.43 E152.45121
G1 X190.042 Y79.033 E152.53258
G1 X190.44 Y79.552 E152.61415
G1 X190.959 Y79.95 E152.69573
G1 X191.564 Y80.2 E152.77738
G1 X192.211 Y80.285 E152.85877
G1 X192.86 Y80.2 E152.9404
G1 X193.463 Y79.95 E153.02182
G1 X193.983 Y79.552 E153.1035
G1 X194.38 Y79.033 E153.18499
G1 X194.63 Y78.43 E153.26641
G1 X194.715 Y77.781 E153.34805
G1 X194.63 Y77.132 E153.42969
G1 X194.38 Y76.529 E153.51111
G1 X193.983 Y76.01 E153.5926
G1 X193.463 Y75.612 E153.67428
G1 X192.86 Y75.362 E153.7557
G1 X192.458 Y75.31 E153.80625
G1 F1800 E150.80625
G1 Z1.799
G0 F9000 X191.485 Y74.767
G0 X191.46 Y74.67
G0 X193.041 Y74.682
G0 X194.48 Y75.513
G0 X195.31 Y76.951
G0 X195.31 Y78.611
G0 X194.48 Y80.049
G0 X200.468 Y109.712
G0 X200.546 Y110.307
G1 Z1.299
G1 F1800 E153.80625
G1 F1080 X200.123 Y110.481 E153.8633
G1 X199.759 Y110.76 E153.9205
G1 X199.48 Y111.124 E153.97771
G1 X199.306 Y111.547 E154.03475
G1 X199.246 Y112.001 E154.09187
G1 X199.306 Y112.455 E154.14899
G1 X199.48 Y112.878 E154.20604
G1 X199.759 Y113.242 E154.26324
G1 X200.123 Y113.521 E154.32044
G1 X200.546 Y113.695 E154.37749
G1 X201 Y113.755 E154.43461
G1 X201.454 Y113.695 E154.49173
G1 X201.877 Y113.521 E154.54877
G1 X202.241 Y113.242 E154.60598
G1 X202.52 Y112.878 E154.66318
G1 X202.694 Y112.455 E154.72023
G1 X202.755 Y111.998 E154.77773
G1 X202.687 Y111.529 E154.83684
G1 X202.52 Y111.124 E154.89148
G1 X202.241 Y110.76 E154.94868
G1 X201.877 Y110.481 E155.00588
G1 X201.454 Y110.307 E155.06293
G1 X201.441 Y110.306 E155.06456
G0 F9000 X200.468 Y109.712
G0 X200.5 Y109.66
G0 X199.262 Y110.263
G0 X197.656 Y114.133
G0 X197.656 Y114.733
G1 F1080 X197.656 Y139.268 E158.1247
G1 X218.344 Y139.268 E160.70502
G1 X218.344 Y114.733 E163.76516
G1 X198.556 Y114.733 E166.23323
G1 F1800 E163.23323
G1 Z1.799
G0 F9000 X197.656 Y114.133
G0 X199.602 Y113.925
G0 X198.626 Y112.637
G0 X198.87 Y110.773
G0 X200.364 Y109.627
G0 X202.228 Y109.871
G0 X212.711 Y112.533
G0 X213.306 Y112.455
G1 Z1.299
G1 F1800 E166.23323
G1 F1080 X213.48 Y112.878 E166.29028
G1 X213.759 Y113.242 E166.34748
G1 X214.123 Y113.521 E166.40468
G1 X214.546 Y113.695 E166.46173
G1 X215 Y113.755 E166.51885
G1 X215.454 Y113.695 E166.57596
G1 X215.877 Y113.521 E166.63301
G1 X216.241 Y113.242 E166.69021
G1 X216.52 Y112.878 E166.74742
G1 X216.694 Y112.455 E166.80447
G1 X216.755 Y111.998 E166.86197
G1 X216.687 Y111.529 E166.92108
G1 X216.52 Y111.124 E166.97572
G1 X216.241 Y110.76 E167.03292
G1 X215.877 Y110.481 E167.09012
G1 X215.454 Y110.307 E167.14717
G1 X215 Y110.247 E167.20429
G1 X214.546 Y110.307 E167.26141
G1 X214.123 Y110.481 E167.31845
G1 X213.759 Y110.76 E167.37566
G1 X213.48 Y111.124 E167.43286
G1 X213.306 Y111.547 E167.48991
G1 X213.305 Y111.56 E167.49153
G1 F1800 E164.49153
G1 Z1.799
G0 F9000 X212.711 Y112.533
G0 X212.849 Y114.034
G0 X212.886 Y114.432
G0 X215.225 Y139.671
G0 X215 Y140.246
G1 Z1.299
G1 F1800 E167.49153
G1 F1080 X214.546 Y140.306 E167.54865
G1 X214.123 Y140.48 E167.6057
G1 X213.759 Y140.759 E167.6629
G1 X213.48 Y141.123 E167.7201
G1 X213.306 Y141.546 E167.77715
G1 X213.246 Y142 E167.83427
G1 X213.306 Y142.454 E167.89139
G1 X213.48 Y142.877 E167.94844
G1 X213.759 Y143.241 E168.00564
G1 X214.123 Y143.52 E168.06284
G1 X214.546 Y143.694 E168.11989
G1 X215 Y143.754 E168.17701
G1 X215.454 Y143.694 E168.23412
G1 X215.877 Y143.52 E168.29117
G1 X216.241 Y143.241 E168.34837
G1 X216.52 Y142.877 E168.40558
G1 X216.694 Y142.454 E168.46262
G1 X216.755 Y141.997 E168.52013
G1 X216.687 Y141.528 E168.57924
G1 X216.52 Y141.123 E168.63388
G1 X216.241 Y140.759 E168.69108
G1 X215.877 Y140.48 E168.74828
G1 X215.865 Y140.475 E168.7499
G0 F9000 X215.225 Y139.671
G0 X214.937 Y139.728
G0 X214.364 Y139.626
G0 X214.145 Y139.888
G0 X203.349 Y142.077
G0 X202.755 Y141.997
G1 F1080 X202.687 Y141.528 E168.80901
G1 X202.52 Y141.123 E168.86365
G1 X202.241 Y140.759 E168.92085
G1 X201.877 Y140.48 E168.97805
G1 X201.454 Y140.306 E169.0351
G1 X201 Y140.246 E169.09222
G1 X200.546 Y140.306 E169.14934
G1 X200.123 Y140.48 E169.20639
G1 X199.759 Y140.759 E169.26359
G1 X199.48 Y141.123 E169.32079
G1 X199.306 Y141.546 E169.37784
G1 X199.246 Y142 E169.43496
G1 X199.306 Y142.454 E169.49207
G1 X199.48 Y142.877 E169.54912
G1 X199.759 Y143.241 E169.60632
G1 X200.123 Y143.52 E169.66353
G1 X200.546 Y143.694 E169.72058
G1 X201 Y143.754 E169.77769
G1 X201.454 Y143.694 E169.83481
G1 X201.877 Y143.52 E169.89186
G1 X202.241 Y143.241 E169.94906
G1 X202.52 Y142.877 E170.00626
G1 X202.526 Y142.861 E170.00839
G1 F1800 E167.00839
G1 Z1.799
G0 F9000 X203.349 Y142.077
G0 X203.245 Y142.384
G0 X203.374 Y142.636
G0 X197.967 Y157.056
G0 X192.939 Y173.207
G0 X192.86 Y173.801
G1 Z1.299
G1 F1800 E170.00839
G1 F1080 X192.211 Y173.716 E170.09003
G1 X191.564 Y173.801 E170.17142
G1 X190.959 Y174.051 E170.25307
G1 X190.44 Y174.449 E170.33465
G1 X190.042 Y174.968 E170.41622
G1 X189.793 Y175.571 E170.49759
G1 X189.707 Y176.22 E170.57925
G1 X189.793 Y176.869 E170.6609
G1 X190.042 Y177.472 E170.74227
G1 X190.44 Y177.991 E170.82384
G1 X190.959 Y178.389 E170.90542
G1 X191.564 Y178.639 E170.98707
G1 X192.211 Y178.724 E171.06846
G1 X192.86 Y178.639 E171.1501
G1 X193.463 Y178.389 E171.23151
G1 X193.983 Y177.991 E171.31319
G1 X194.38 Y177.472 E171.39469
G1 X194.63 Y176.869 E171.4761
G1 X194.715 Y176.22 E171.55774
G1 X194.63 Y175.571 E171.63938
G1 X194.38 Y174.968 E171.7208
G1 X193.983 Y174.449 E171.8023
G1 X193.661 Y174.202 E171.85291
G1 F1800 E168.85291
G1 Z1.799
G0 F9000 X192.939 Y173.207
G0 X192.958 Y173.107
G0 X194.48 Y173.952
G0 X195.31 Y175.39
G0 X195.31 Y177.05
G0 X186.763 Y202.879
G0 X186.683 Y203.473
G1 Z1.299
G1 F1800 E171.85291
G1 F1080 X186.1 Y203.396 E171.92626
G1 X185.517 Y203.473 E171.99961
G1 X184.973 Y203.697 E172.07298
G1 X184.506 Y204.056 E172.14645
G1 X184.147 Y204.523 E172.21992
G1 X183.923 Y205.067 E172.2933
G1 X183.846 Y205.65 E172.36664
G1 X183.923 Y206.233 E172.43999
G1 X184.147 Y206.777 E172.51337
G1 X184.506 Y207.244 E172.58684
G1 X184.973 Y207.603 E172.66031
G1 X185.517 Y207.827 E172.73368
G1 X186.1 Y207.904 E172.80703
G1 X186.683 Y207.827 E172.88038
G1 X187.227 Y207.603 E172.95375
G1 X187.694 Y207.244 E173.02722
G1 X188.053 Y206.777 E173.10069
G1 X188.277 Y206.233 E173.17407
G1 X188.355 Y205.647 E173.2478
G1 X188.267 Y205.042 E173.32406
G1 X188.053 Y204.523 E173.39407
G1 X187.694 Y204.056 E173.46754
G1 X187.475 Y203.888 E173.50197
G1 F1800 E170.50197
G1 Z1.799
G0 F9000 X186.763 Y202.879
G0 X186.55 Y202.902
G0 X185.335 Y202.793
G0 X166.419 Y205.133
G0 X166.022 Y205.177
G0 X165.724 Y205.211
G0 X165.724 Y205.211
G1 Z1.299
G1 F1800 E173.50197
G1 F1080 X165.639 Y204.564 E173.58336
G1 X165.389 Y203.959 E173.66501
G1 X164.991 Y203.44 E173.74658
G1 X164.472 Y203.042 E173.82816
G1 X163.869 Y202.793 E173.90953
G1 X163.22 Y202.707 E173.99118
G1 X162.571 Y202.793 E174.07284
G1 X161.968 Y203.042 E174.15421
G1 X161.449 Y203.44 E174.23578
G1 X161.051 Y203.959 E174.31736
G1 X160.801 Y204.564 E174.399
G1 X160.716 Y205.211 E174.48039
G1 X160.801 Y205.86 E174.56203
G1 X161.051 Y206.463 E174.64345
G1 X161.449 Y206.983 E174.72512
G1 X161.968 Y207.38 E174.80662
G1 X162.571 Y207.63 E174.88804
G1 X163.22 Y207.715 E174.96968
G1 X163.869 Y207.63 E175.05132
G1 X164.472 Y207.38 E175.13273
G1 X164.991 Y206.983 E175.21423
G1 X165.389 Y206.463 E175.29591
G1 X165.544 Y206.088 E175.34652
G0 F9000 X162.124 Y202.62
G0 X161.8 Y202.386
G0 X156.211 Y198.367
G0 X155.736 Y198.002
G1 F1080 X155.936 Y197.519 E175.41172
G1 X156.005 Y196.997 E175.47739
G1 X155.927 Y196.459 E175.5452
G1 X155.736 Y195.998 E175.60744
G1 X155.418 Y195.582 E175.67274
G1 X155.002 Y195.264 E175.73805
G1 X154.519 Y195.064 E175.80326
G1 X154 Y194.996 E175.86854
G1 X153.481 Y195.064 E175.93383
G1 X152.998 Y195.264 E175.99903
G1 X152.582 Y195.582 E176.06434
G1 X152.264 Y195.998 E176.12965
G1 X152.064 Y196.481 E176.19485
G1 X151.996 Y197 E176.26014
G1 X152.064 Y197.519 E176.32542
G1 X152.264 Y198.002 E176.39063
G1 X152.582 Y198.418 E176.45593
G1 X152.998 Y198.736 E176.52124
G1 X153.481 Y198.936 E176.58645
G1 X154 Y199.004 E176.65173
G1 X154.519 Y198.936 E176.71702
G1 X155.002 Y198.736 E176.78222
G1 X155.118 Y198.648 E176.80038
G1 F1800 E173.80038
G1 Z1.799
G0 F9000 X156.211 Y198.367
G0 X156.158 Y198.396
G0 X156.476 Y204.082
G0 X155.627 Y205.508
G0 X154.186 Y206.314
G0 X131.074 Y212.894
G0 X130.52 Y213.123
G1 Z1.299
G1 F1800 E176.80038
G1 F1080 X130.241 Y212.759 E176.85758
G1 X129.877 Y212.48 E176.91479
G1 X129.454 Y212.306 E176.97183
G1 X129 Y212.246 E177.02895
G1 X128.546 Y212.306 E177.08607
G1 X128.123 Y212.48 E177.14312
G1 X127.759 Y212.759 E177.20032
G1 X127.48 Y213.123 E177.25752
G1 X127.306 Y213.546 E177.31457
G1 X127.246 Y214 E177.37169
G1 X127.306 Y214.454 E177.42881
G1 X127.48 Y214.877 E177.48585
G1 X127.759 Y215.241 E177.54306
G1 X128.123 Y215.52 E177.60026
G1 X128.546 Y215.694 E177.65731
G1 X129 Y215.754 E177.71442
G1 X129.454 Y215.694 E177.77154
G1 X129.877 Y215.52 E177.82859
G1 X130.241 Y215.241 E177.88579
G1 X130.52 Y214.877 E177.94299
G1 X130.694 Y214.454 E178.00004
G1 X130.755 Y213.997 E178.05755
G1 X130.754 Y213.987 E178.0588
G0 F9000 X131.074 Y212.894
G0 X131.075 Y212.885
G0 X131.46 Y213.993
G0 X129.08 Y225.651
G0 X129 Y226.246
G1 F1080 X128.546 Y226.306 E178.11592
G1 X128.123 Y226.48 E178.17297
G1 X127.759 Y226.759 E178.23017
G1 X127.48 Y227.123 E178.28737
G1 X127.306 Y227.546 E178.34442
G1 X127.246 Y228 E178.40154
G1 X127.306 Y228.454 E178.45866
G1 X127.48 Y228.877 E178.5157
G1 X127.759 Y229.241 E178.57291
G1 X128.123 Y229.52 E178.63011
G1 X128.546 Y229.694 E178.68716
G1 X129 Y229.754 E178.74427
G1 X129.454 Y229.694 E178.80139
G1 X129.877 Y229.52 E178.85844
G1 X130.241 Y229.241 E178.91564
G1 X130.52 Y228.877 E178.97284
G1 X130.694 Y228.454 E179.02989
G1 X130.755 Y227.997 E179.0874
G1 X130.687 Y227.528 E179.14651
G1 X130.52 Y227.123 E179.20114
G1 X130.241 Y226.759 E179.25835
G1 X129.877 Y226.48 E179.31555
G1 X129.865 Y226.475 E179.31717
G1 F1800 E176.31717
G1 Z1.799
G0 F9000 X129.08 Y225.651
G0 X126.966 Y225.812
G0 X126.567 Y225.843
G0 X101.331 Y227.778
G0 X100.756 Y227.997
G1 Z1.299
G1 F1800 E179.31717
G1 F1080 X100.688 Y227.528 E179.37628
G1 X100.521 Y227.123 E179.43092
G1 X100.242 Y226.759 E179.48812
G1 X99.878 Y226.48 E179.54532
G1 X99.455 Y226.306 E179.60237
G1 X99.001 Y226.246 E179.65949
G1 X98.547 Y226.306 E179.71661
G1 X98.124 Y226.48 E179.77365
G1 X97.76 Y226.759 E179.83086
G1 X97.481 Y227.123 E179.88806
G1 X97.307 Y227.546 E179.94511
G1 X97.247 Y228 E180.00223
G1 X97.307 Y228.454 E180.05934
G1 X97.481 Y228.877 E180.11639
G1 X97.76 Y229.241 E180.17359
G1 X98.124 Y229.52 E180.2308
G1 X98.547 Y229.694 E180.28784
G1 X99.001 Y229.754 E180.34496
G1 X99.455 Y229.694 E180.40208
G1 X99.878 Y229.52 E180.45913
G1 X100.242 Y229.241 E180.51633
G1 X100.521 Y228.877 E180.57353
G1 X100.527 Y228.861 E180.57566
G0 F9000 X101.331 Y227.778
G0 X101.273 Y227.506
G0 X101.191 Y227.115
G0 X98.921 Y216.349
G0 X99.001 Y215.754
G1 F1080 X99.455 Y215.694 E180.63278
G1 X99.878 Y215.52 E180.68983
G1 X100.242 Y215.241 E180.74703
G1 X100.521 Y214.877 E180.80423
G1 X100.695 Y214.454 E180.86128
G1 X100.756 Y213.997 E180.91879
G1 X100.688 Y213.528 E180.97789
G1 X100.521 Y213.123 E181.03253
G1 X100.242 Y212.759 E181.08974
G1 X99.878 Y212.48 E181.14694
G1 X99.455 Y212.306 E181.20399
G1 X99.001 Y212.246 E181.2611
G1 X98.547 Y212.306 E181.31822
G1 X98.124 Y212.48 E181.37527
G1 X97.76 Y212.759 E181.43247
G1 X97.481 Y213.123 E181.48967
G1 X97.307 Y213.546 E181.54672
G1 X97.247 Y214 E181.60384
G1 X97.307 Y214.454 E181.66096
G1 X97.481 Y214.877 E181.71801
G1 X97.76 Y215.241 E181.77521
G1 X98.124 Y215.52 E181.83241
G1 X98.136 Y215.525 E181.83403
G0 F9000 X98.921 Y216.349
G0 X98.879 Y216.433
G0 X97.263 Y215.738
G0 X100.739 Y212.262
G0 X101.131 Y212.772
G0 X101.22 Y213.601
G0 X101.321 Y211.488
G0 X101.733 Y210.656
G0 X101.733 Y210.656
G1 F1080 X101.733 Y231.344 E184.41435
G1 X126.268 Y231.344 E187.47449
G1 X126.268 Y210.656 E190.05482
G1 X102.633 Y210.656 E193.0027
G0 F9000 X101.493 Y210.318
G0 X101.262 Y209.992
G0 X98.696 Y206.371
G0 X98.464 Y206.045
G0 X93.283 Y198.736
G0 X93.283 Y198.736
G1 F1080 X93.699 Y198.418 E193.06801
G1 X94.017 Y198.002 E193.13332
G1 X94.217 Y197.519 E193.19852
G1 X94.286 Y196.997 E193.2642
G1 X94.208 Y196.459 E193.332
G1 X94.017 Y195.998 E193.39424
G1 X93.699 Y195.582 E193.45955
G1 X93.283 Y195.264 E193.52486
G1 X92.8 Y195.064 E193.59006
G1 X92.281 Y194.996 E193.65535
G1 X91.762 Y195.064 E193.72063
G1 X91.279 Y195.264 E193.78583
G1 X90.863 Y195.582 E193.85114
G1 X90.545 Y195.998 E193.91645
G1 X90.345 Y196.481 E193.98165
G1 X90.277 Y197 E194.04694
G1 X90.345 Y197.519 E194.11223
G1 X90.545 Y198.002 E194.17743
G1 X90.863 Y198.418 E194.24274
G1 X91.279 Y198.736 E194.30805
G1 X91.762 Y198.936 E194.37325
G1 X92.281 Y199.004 E194.43854
G1 X92.424 Y198.986 E194.45651
G0 F9000 X71.851 Y203.569
G0 X71.46 Y203.657
G0 X67.795 Y204.485
G0 X67.2 Y204.564
G1 F1080 X66.95 Y203.959 E194.53816
G1 X66.552 Y203.44 E194.61974
G1 X66.033 Y203.042 E194.70131
G1 X65.43 Y202.793 E194.78268
G1 X64.781 Y202.707 E194.86433
G1 X64.132 Y202.793 E194.94599
G1 X63.529 Y203.042 E195.02736
G1 X63.01 Y203.44 E195.10893
G1 X62.612 Y203.959 E195.19051
G1 X62.362 Y204.564 E195.27216
G1 X62.277 Y205.211 E195.35355
G1 X62.362 Y205.86 E195.43518
G1 X62.612 Y206.463 E195.5166
G1 X63.01 Y206.983 E195.59828
G1 X63.529 Y207.38 E195.67978
G1 X64.132 Y207.63 E195.76119
G1 X64.781 Y207.715 E195.84283
G1 X65.43 Y207.63 E195.92447
G1 X66.033 Y207.38 E196.00589
G1 X66.552 Y206.983 E196.08739
G1 X66.95 Y206.463 E196.16906
G1 X67.2 Y205.86 E196.25048
G1 X67.252 Y205.458 E196.30103
G0 F9000 X67.795 Y204.485
G0 X67.894 Y204.473
G0 X67.049 Y202.943
G0 X65.611 Y202.113
G0 X63.951 Y202.113
G0 X56.87 Y205.727
G0 X56.276 Y205.647
G1 F1080 X56.188 Y205.042 E196.37729
G1 X55.974 Y204.523 E196.44731
G1 X55.615 Y204.056 E196.52077
G1 X55.148 Y203.697 E196.59424
G1 X54.604 Y203.473 E196.66762
G1 X54.021 Y203.396 E196.74097
G1 X53.438 Y203.473 E196.81431
G1 X52.894 Y203.697 E196.88769
G1 X52.427 Y204.056 E196.96116
G1 X52.068 Y204.523 E197.03463
G1 X51.844 Y205.067 E197.10801
G1 X51.767 Y205.65 E197.18135
G1 X51.844 Y206.233 E197.2547
G1 X52.068 Y206.777 E197.32808
G1 X52.427 Y207.244 E197.40155
G1 X52.894 Y207.603 E197.47501
G1 X53.438 Y207.827 E197.54839
G1 X54.021 Y207.904 E197.62174
G1 X54.604 Y207.827 E197.69508
G1 X55.148 Y207.603 E197.76846
G1 X55.615 Y207.244 E197.84193
G1 X55.974 Y206.777 E197.9154
G1 X56.08 Y206.519 E197.95019
G1 F1800 E194.95019
G1 Z1.799
G0 F9000 X56.87 Y205.727
G0 X56.892 Y205.756
G0 X56.584 Y204.17
G0 X37.271 Y178.943
G0 X37.042 Y178.389
G1 Z1.299
G1 F1800 E197.95019
G1 F1080 X37.561 Y177.991 E198.03176
G1 X37.959 Y177.472 E198.11334
G1 X38.208 Y176.869 E198.19471
G1 X38.294 Y176.22 E198.27636
G1 X38.208 Y175.571 E198.35802
G1 X37.959 Y174.968 E198.43939
G1 X37.561 Y174.449 E198.52096
G1 X37.042 Y174.051 E198.60254
G1 X36.437 Y173.801 E198.68418
G1 X35.79 Y173.716 E198.76557
G1 X35.141 Y173.801 E198.84721
G1 X34.538 Y174.051 E198.92863
G1 X34.018 Y174.449 E199.0103
G1 X33.621 Y174.968 E199.0918
G1 X33.371 Y175.571 E199.17322
G1 X33.286 Y176.22 E199.25486
G1 X33.371 Y176.869 E199.3365
G1 X33.621 Y177.472 E199.41791
G1 X34.018 Y177.991 E199.49941
G1 X34.538 Y178.389 E199.58109
G1 X35.141 Y178.639 E199.6625
G1 X35.79 Y178.724 E199.74414
G1 X36.192 Y178.672 E199.7947
G0 F9000 X37.271 Y178.943
G0 X37.251 Y179.008
G0 X38.569 Y177.824
G0 X40.093 Y169.084
G0 X40.203 Y168.7
G0 X40.19 Y168.75
G0 X40.27 Y168.156
G1 F1080 X40.79 Y168.224 E199.86011
G1 X41.309 Y168.156 E199.9254
G1 X41.792 Y167.956 E199.9906
G1 X42.206 Y167.638 E200.05571
G1 X42.526 Y167.222 E200.12117
G1 X42.725 Y166.739 E200.18633
G1 X42.795 Y166.217 E200.25201
G1 X42.716 Y165.68 E200.31971
G1 X42.526 Y165.218 E200.38202
G1 X42.206 Y164.802 E200.44748
G1 X41.792 Y164.484 E200.51259
G1 X41.309 Y164.284 E200.57779
G1 X40.79 Y164.216 E200.64308
G1 X40.27 Y164.284 E200.70849
G1 X39.788 Y164.484 E200.77358
G1 X39.372 Y164.802 E200.83889
G1 X39.054 Y165.218 E200.90419
G1 X38.854 Y165.701 E200.9694
G1 X38.786 Y166.22 E201.03468
G1 X38.854 Y166.739 E201.09997
G1 X39.054 Y167.222 E201.16517
G1 X39.372 Y167.638 E201.23048
G1 X39.486 Y167.725 E201.24837
G1 F1800 E198.24837
G1 Z1.799
G0 F9000 X40.19 Y168.75
G0 X34.876 Y157.738
G0 X34.702 Y157.378
G0 X28.243 Y143.996
G0 X27.878 Y143.52
G1 Z1.299
G1 F1800 E201.24837
G1 F1080 X28.242 Y143.241 E201.30557
G1 X28.521 Y142.877 E201.36277
G1 X28.695 Y142.454 E201.41982
G1 X28.756 Y141.997 E201.47732
G1 X28.688 Y141.528 E201.53643
G1 X28.521 Y141.123 E201.59107
G1 X28.242 Y140.759 E201.64827
G1 X27.878 Y140.48 E201.70548
G1 X27.455 Y140.306 E201.76253
G1 X27.001 Y140.246 E201.81964
G1 X26.547 Y140.306 E201.87676
G1 X26.124 Y140.48 E201.93381
G1 X25.76 Y140.759 E201.99101
G1 X25.481 Y141.123 E202.04821
G1 X25.307 Y141.546 E202.10526
G1 X25.247 Y142 E202.16238
G1 X25.307 Y142.454 E202.2195
G1 X25.481 Y142.877 E202.27654
G1 X25.76 Y143.241 E202.33375
G1 X26.124 Y143.52 E202.39095
G1 X26.547 Y143.694 E202.448
G1 X27.001 Y143.754 E202.50512
G1 X27.014 Y143.753 E202.50674
G0 F9000 X28.243 Y143.996
G0 X28.287 Y144.002
G0 X27.001 Y144.459
G0 X15.35 Y142.077
G0 X14.756 Y141.997
G1 F1080 X14.688 Y141.528 E202.56585
G1 X14.521 Y141.123 E202.62049
G1 X14.242 Y140.759 E202.67769
G1 X13.878 Y140.48 E202.73489
G1 X13.455 Y140.306 E202.79194
G1 X13.001 Y140.246 E202.84906
G1 X12.547 Y140.306 E202.90618
G1 X12.124 Y140.48 E202.96323
G1 X11.76 Y140.759 E203.02043
G1 X11.481 Y141.123 E203.07763
G1 X11.307 Y141.546 E203.13468
G1 X11.247 Y142 E203.1918
G1 X11.307 Y142.454 E203.24891
G1 X11.481 Y142.877 E203.30596
G1 X11.76 Y143.241 E203.36316
G1 X12.124 Y143.52 E203.42037
G1 X12.547 Y143.694 E203.47741
G1 X13.001 Y143.754 E203.53453
G1 X13.455 Y143.694 E203.59165
G1 X13.878 Y143.52 E203.6487
G1 X14.242 Y143.241 E203.7059
G1 X14.521 Y142.877 E203.7631
G1 X14.527 Y142.861 E203.76523
G0 F9000 X15.35 Y142.077
G0 X15.438 Y142.116
G0 X14.739 Y143.738
G0 X11.263 Y140.262
G0 X9.016 Y139.909
G0 X9.057 Y139.268
G0 X9.657 Y139.268
G1 F1080 X30.345 Y139.268 E206.34555
G1 X30.345 Y114.733 E209.4057
G1 X9.657 Y114.733 E211.98602
G1 X9.657 Y138.368 E214.9339
G1 F1800 E211.9339
G1 Z1.799
G0 F9000 X9.057 Y139.268
G0 X9.127 Y138.791
G0 X9.186 Y138.395
G0 X12.775 Y114.33
G0 X13.001 Y113.755
G1 Z1.299
G1 F1800 E214.9339
G1 F1080 X13.455 Y113.695 E214.99102
G1 X13.878 Y113.521 E215.04807
G1 X14.242 Y113.242 E215.10527
G1 X14.521 Y112.878 E215.16247
G1 X14.695 Y112.455 E215.21952
G1 X14.756 Y111.998 E215.27703
G1 X14.688 Y111.529 E215.33614
G1 X14.521 Y111.124 E215.39078
G1 X14.242 Y110.76 E215.44798
G1 X13.878 Y110.481 E215.50518
G1 X13.455 Y110.307 E215.56223
G1 X13.001 Y110.247 E215.61935
G1 X12.547 Y110.307 E215.67646
G1 X12.124 Y110.481 E215.73351
G1 X11.76 Y110.76 E215.79071
G1 X11.481 Y111.124 E215.84792
G1 X11.307 Y111.547 E215.90496
G1 X11.247 Y112.001 E215.96208
G1 X11.307 Y112.455 E216.0192
G1 X11.481 Y112.878 E216.07625
G1 X11.76 Y113.242 E216.13345
G1 X12.124 Y113.521 E216.19065
G1 X12.136 Y113.526 E216.19227
G0 F9000 X12.775 Y114.33
G0 X13.054 Y114.272
G0 X13.637 Y114.375
G0 X13.864 Y114.108
G0 X24.652 Y111.921
G0 X25.247 Y112.001
G1 F1080 X25.307 Y112.455 E216.24939
G1 X25.481 Y112.878 E216.30644
G1 X25.76 Y113.242 E216.36364
G1 X26.124 Y113.521 E216.42084
G1 X26.547 Y113.695 E216.47789
G1 X27.001 Y113.755 E216.53501
G1 X27.455 Y113.695 E216.59213
G1 X27.878 Y113.521 E216.64918
G1 X28.242 Y113.242 E216.70638
G1 X28.521 Y112.878 E216.76358
G1 X28.695 Y112.455 E216.82063
G1 X28.756 Y111.998 E216.87813
G1 X28.688 Y111.529 E216.93724
G1 X28.521 Y111.124 E216.99188
G1 X28.242 Y110.76 E217.04908
G1 X27.878 Y110.481 E217.10629
G1 X27.455 Y110.307 E217.16333
G1 X27.001 Y110.247 E217.22045
G1 X26.547 Y110.307 E217.27757
G1 X26.124 Y110.481 E217.33462
G1 X25.76 Y110.76 E217.39182
G1 X25.481 Y111.124 E217.44902
G1 X25.476 Y111.136 E217.45064
G1 F1800 E214.45064
G1 Z1.799
G0 F9000 X24.652 Y111.921
G0 X24.624 Y111.947
G0 X24.871 Y110.773
G0 X34.649 Y98.08
G0 X38.897 Y98.003
G0 X39.372 Y97.639
G1 Z1.299
G1 F1800 E217.45064
G1 F1080 X39.788 Y97.957 E217.51595
G1 X40.27 Y98.157 E217.58104
G1 X40.79 Y98.225 E217.64645
G1 X41.309 Y98.157 E217.71173
G1 X41.792 Y97.957 E217.77694
G1 X42.206 Y97.639 E217.84205
G1 X42.526 Y97.223 E217.90751
G1 X42.725 Y96.74 E217.97266
G1 X42.795 Y96.218 E218.03835
G1 X42.716 Y95.681 E218.10605
G1 X42.526 Y95.219 E218.16836
G1 X42.206 Y94.803 E218.23382
G1 X41.792 Y94.485 E218.29893
G1 X41.309 Y94.285 E218.36413
G1 X40.79 Y94.217 E218.42942
G1 X40.27 Y94.285 E218.49483
G1 X39.788 Y94.485 E218.55992
G1 X39.372 Y94.803 E218.62523
G1 X39.054 Y95.219 E218.69053
G1 X38.854 Y95.702 E218.75574
G1 X38.786 Y96.221 E218.82102
G1 X38.854 Y96.74 E218.88631
G1 X38.909 Y96.874 E218.90437
G0 F9000 X38.897 Y98.003
G0 X38.913 Y98.007
G0 X39.297 Y98.119
G0 X39.301 Y98.121
G0 X40.755 Y98.721
G1 F1080 X35.29 Y98.721 E219.586
G1 X35.29 Y166.576 E228.04925
G1 X35.365 Y167.172 E228.12417
G1 X35.6 Y167.76 E228.20315
G1 X35.974 Y168.269 E228.28193
G1 X36.464 Y168.668 E228.36075
G1 X37.038 Y168.934 E228.43965
G1 X37.661 Y169.045 E228.51858
G1 X38.291 Y168.998 E228.59737
G1 X39.488 Y168.589 E228.75515
G1 X38.629 Y167.468 E228.93129
G1 X38.38 Y166.867 E229.01243
G1 X38.295 Y166.22 E229.09382
G1 X38.38 Y165.573 E229.17521
G1 X38.629 Y164.972 E229.25635
G1 X39.025 Y164.456 E229.33748
G1 X39.541 Y164.059 E229.41868
G1 X40.144 Y163.809 E229.5001
G1 X40.79 Y163.725 E229.58135
G1 X41.437 Y163.81 E229.66274
G1 X42.035 Y164.058 E229.74349
G1 X42.954 Y164.763 E229.88795
G1 X78.972 Y128.744 E236.2412
G1 X79.35 Y128.252 E236.31859
G1 X79.6 Y127.649 E236.4
G1 X79.685 Y127 E236.48164
G1 X79.6 Y126.352 E236.56315
G1 X79.35 Y125.749 E236.64457
G1 X78.972 Y125.257 E236.72196
G1 X39.535 Y85.818 E243.67837
G1 X39.066 Y85.458 E243.75211
G1 X38.469 Y85.203 E243.83308
G1 X37.824 Y85.109 E243.91438
G1 X37.175 Y85.185 E243.99588
G1 X36.569 Y85.427 E244.07726
G1 X36.044 Y85.818 E244.15891
G1 X35.641 Y86.33 E244.24018
G1 X35.383 Y86.93 E244.32164
G1 X35.293 Y87.546 E244.39928
G1 X35.29 Y93.721 E245.16946
G1 X40.755 Y93.721 E245.85109
G1 X41.437 Y93.811 E245.93689
G1 X42.035 Y94.059 E246.01764
G1 X42.554 Y94.457 E246.09921
G1 X42.952 Y94.976 E246.18079
G1 X43.199 Y95.574 E246.26148
G1 X43.285 Y96.221 E246.34289
G1 X43.199 Y96.868 E246.4243
G1 X42.952 Y97.466 E246.505
G1 X42.554 Y97.985 E246.58657
G1 X42.035 Y98.383 E246.66815
G1 X41.634 Y98.549 E246.72228
G1 F1800 E243.72228
G1 Z1.799
G0 F9000 X39.301 Y98.121
G0 X38.794 Y94.972
G0 X38.875 Y94.306
G0 X34.648 Y94.362
G0 X34.705 Y86.739
G0 X36.516 Y80.795
G0 X36.437 Y80.2
G1 Z1.299
G1 F1800 E246.72228
G1 F1080 X37.042 Y79.95 E246.80392
G1 X37.561 Y79.552 E246.8855
G1 X37.959 Y79.033 E246.96707
G1 X38.208 Y78.43 E247.04844
G1 X38.294 Y77.781 E247.1301
G1 X38.208 Y77.132 E247.21175
G1 X37.959 Y76.529 E247.29312
G1 X37.561 Y76.01 E247.3747
G1 X37.042 Y75.612 E247.45627
G1 X36.437 Y75.362 E247.53792
G1 X35.79 Y75.277 E247.61931
G1 X35.141 Y75.362 E247.70095
G1 X34.538 Y75.612 E247.78237
G1 X34.018 Y76.01 E247.86404
G1 X33.621 Y76.529 E247.94554
G1 X33.371 Y77.132 E248.02696
G1 X33.286 Y77.781 E248.1086
G1 X33.371 Y78.43 E248.19023
G1 X33.621 Y79.033 E248.27165
G1 X34.018 Y79.552 E248.35315
G1 X34.538 Y79.95 E248.43482
G1 X35.141 Y80.2 E248.51624
G1 X35.543 Y80.252 E248.5668
G1 F1800 E245.5668
G1 Z1.799
G0 F9000 X36.516 Y80.795
G0 X78.26 Y95.622
G0 X78.26 Y95.622
G0 X78.854 Y95.702
G1 Z1.299
G1 F1800 E248.5668
G1 F1080 X78.786 Y96.221 E248.63208
G1 X78.854 Y96.74 E248.69737
G1 X79.054 Y97.223 E248.76257
G1 X79.372 Y97.639 E248.82788
G1 X79.788 Y97.957 E248.89319
G1 X80.27 Y98.157 E248.95828
G1 X80.79 Y98.225 E249.02369
G1 X81.309 Y98.157 E249.08897
G1 X81.792 Y97.957 E249.15418
G1 X82.206 Y97.639 E249.21929
G1 X82.526 Y97.223 E249.28475
G1 X82.725 Y96.74 E249.3499
G1 X82.795 Y96.218 E249.41559
G1 X82.716 Y95.681 E249.48329
G1 X82.526 Y95.219 E249.5456
G1 X82.206 Y94.803 E249.61106
G1 X81.792 Y94.485 E249.67617
G1 X81.309 Y94.285 E249.74137
G1 X80.79 Y94.217 E249.80666
G1 X80.27 Y94.285 E249.87207
G1 X79.788 Y94.485 E249.93716
G1 X79.372 Y94.803 E250.00246
G1 X79.284 Y94.918 E250.02053
G1 F1800 E247.02053
G1 Z1.799
G0 F9000 X78.26 Y95.622
G0 X78.241 Y95.591
G0 X78.174 Y96.921
G0 X91.05 Y118.111
G0 X91.279 Y118.665
G1 Z1.299
G1 F1800 E250.02053
G1 F1080 X90.863 Y118.983 E250.08583
G1 X90.545 Y119.399 E250.15114
G1 X90.345 Y119.882 E250.21635
G1 X90.277 Y120.401 E250.28163
G1 X90.345 Y120.92 E250.34692
G1 X90.545 Y121.403 E250.41212
G1 X90.863 Y121.819 E250.47743
G1 X91.279 Y122.137 E250.54274
G1 X91.762 Y122.337 E250.60794
G1 X92.281 Y122.405 E250.67323
G1 X92.8 Y122.337 E250.73851
G1 X93.283 Y122.137 E250.80372
G1 X93.699 Y121.819 E250.86902
G1 X94.017 Y121.403 E250.93433
G1 X94.217 Y120.92 E250.99954
G1 X94.286 Y120.398 E251.06521
G1 X94.208 Y119.86 E251.13301
G1 X94.017 Y119.399 E251.19525
G1 X93.699 Y118.983 E251.26056
G1 X93.283 Y118.665 E251.32587
G1 X92.8 Y118.465 E251.39107
G1 X92.281 Y118.397 E251.45636
G1 X92.138 Y118.415 E251.47433
G1 F1800 E248.47433
G1 Z1.799
G0 F9000 X91.05 Y118.111
G0 X91.066 Y118.032
G0 X89.935 Y119.048
G0 X81.539 Y163.731
G0 X81.309 Y164.284
G1 Z1.299
G1 F1800 E251.47433
G1 F1080 X80.79 Y164.216 E251.53962
G1 X80.27 Y164.284 E251.60503
G1 X79.788 Y164.484 E251.67012
G1 X79.372 Y164.802 E251.73543
G1 X79.054 Y165.218 E251.80074
G1 X78.854 Y165.701 E251.86594
G1 X78.786 Y166.22 E251.93122
G1 X78.854 Y166.739 E251.99651
G1 X79.054 Y167.222 E252.06171
G1 X79.372 Y167.638 E252.12702
G1 X79.788 Y167.956 E252.19233
G1 X80.27 Y168.156 E252.25742
G1 X80.79 Y168.224 E252.32283
G1 X81.309 Y168.156 E252.38811
G1 X81.792 Y167.956 E252.45332
G1 X82.206 Y167.638 E252.51843
G1 X82.526 Y167.222 E252.58389
G1 X82.725 Y166.739 E252.64904
G1 X82.795 Y166.217 E252.71473
G1 X82.716 Y165.68 E252.78243
G1 X82.526 Y165.218 E252.84474
G1 X82.206 Y164.802 E252.9102
G1 X82.092 Y164.715 E252.92808
G1 F1800 E249.92808
G1 Z1.799
G0 F9000 X81.539 Y163.731
G0 X81.523 Y163.651
G0 X83.136 Y164.867
G0 X86.122 Y187.317
G0 X86.546 Y187.74
G1 Z1.299
G1 F1800 E252.92808
G1 F1080 X93.895 Y195.09 E254.22445
G1 X94.307 Y195.549 E254.30138
G1 X94.6 Y196.088 E254.3779
G1 X94.752 Y196.687 E254.45498
G1 X94.755 Y197.3 E254.53143
G1 X94.607 Y197.894 E254.60779
G1 X94.316 Y198.438 E254.68474
G1 X93.905 Y198.89 E254.76093
G1 X93.391 Y199.231 E254.83787
G1 X92.815 Y199.435 E254.91408
G1 X92.202 Y199.49 E254.99085
G1 X91.595 Y199.396 E255.06746
G1 X91.032 Y199.156 E255.14379
G1 X90.492 Y198.745 E255.22843
G1 X83.015 Y191.27 E256.54711
G1 X72.818 Y201.466 E258.34566
G1 X72.458 Y201.935 E258.4194
G1 X72.203 Y202.532 E258.50037
G1 X72.109 Y203.177 E258.58167
G1 X72.185 Y203.826 E258.66317
G1 X72.427 Y204.432 E258.74455
G1 X72.818 Y204.957 E258.8262
G1 X73.33 Y205.36 E258.90747
G1 X73.93 Y205.618 E258.98893
G1 X74.546 Y205.708 E259.06658
G1 X153.425 Y205.711 E268.9048
G1 X154.009 Y205.634 E268.97827
G1 X154.613 Y205.393 E269.05938
G1 X155.137 Y205.004 E269.14078
G1 X155.542 Y204.49 E269.22239
G1 X155.798 Y203.891 E269.30364
G1 X155.892 Y203.245 E269.38506
G1 X155.816 Y202.597 E269.46644
G1 X155.574 Y201.99 E269.54794
G1 X155.201 Y201.49 E269.62575
G1 X115.744 Y162.029 E276.58586
G1 X115.252 Y161.651 E276.66325
G1 X114.649 Y161.401 E276.74466
G1 X114 Y161.316 E276.8263
G1 X113.352 Y161.401 E276.90781
G1 X112.749 Y161.651 E276.98923
G1 X112.257 Y162.029 E277.06662
G1 X87.183 Y187.103 E281.48938
G1 F1800 E278.48938
G1 Z1.799
G0 F9000 X86.122 Y187.317
G0 X88.036 Y185.53
G0 X112.396 Y161.042
G0 X148.554 Y129.11
G0 X149.029 Y128.744
G1 Z1.299
G1 F1800 E281.48938
G1 F1080 X188.466 Y168.183 E288.44579
G1 X188.935 Y168.543 E288.51953
G1 X189.532 Y168.798 E288.6005
G1 X190.177 Y168.892 E288.6818
G1 X190.826 Y168.816 E288.7633
G1 X191.432 Y168.574 E288.84469
G1 X191.957 Y168.183 E288.92633
G1 X192.36 Y167.671 E289.0076
G1 X192.618 Y167.071 E289.08906
G1 X192.708 Y166.455 E289.16671
G1 X192.711 Y87.576 E299.00493
G1 X192.634 Y86.992 E299.0784
G1 X192.393 Y86.388 E299.15951
G1 X192.004 Y85.864 E299.24091
G1 X191.49 Y85.459 E299.32253
G1 X190.891 Y85.203 E299.40378
G1 X190.245 Y85.109 E299.4852
G1 X189.597 Y85.185 E299.56657
G1 X188.99 Y85.427 E299.64808
G1 X188.49 Y85.8 E299.72588
G1 X155.773 Y118.512 E305.49634
G1 X156.295 Y119.432 E305.62827
G1 X156.468 Y120.057 E305.70916
G1 X156.472 Y120.704 E305.78986
G1 X156.303 Y121.363 E305.87471
G1 X155.979 Y121.921 E305.95519
G1 X155.543 Y122.357 E306.0321
G1 X154.992 Y122.686 E306.11214
G1 X154.367 Y122.865 E306.19323
G1 X153.721 Y122.877 E306.27381
G1 X153.06 Y122.713 E306.35875
G1 X152.111 Y122.174 E306.49488
G1 X149.029 Y125.257 E307.0386
G1 X148.651 Y125.749 E307.11598
G1 X148.401 Y126.352 E307.1974
G1 X148.316 Y127 E307.27891
G1 X148.401 Y127.649 E307.36055
G1 X148.543 Y127.993 E307.40697
G0 F9000 X148.554 Y129.11
G0 X148.519 Y129.187
G0 X147.721 Y127.83
G0 X147.721 Y126.171
G0 X148.503 Y124.795
G0 X151.792 Y121.646
G0 X152.998 Y122.137
G1 F1080 X153.481 Y122.337 E307.47217
G1 X154 Y122.405 E307.53746
G1 X154.519 Y122.337 E307.60274
G1 X155.002 Y122.137 E307.66795
G1 X155.418 Y121.819 E307.73325
G1 X155.736 Y121.403 E307.79856
G1 X155.936 Y120.92 E307.86377
G1 X156.005 Y120.398 E307.92944
G1 X155.927 Y119.86 E307.99724
G1 X155.736 Y119.399 E308.05948
G1 X155.418 Y118.983 E308.12479
G1 X155.002 Y118.665 E308.1901
G1 X154.519 Y118.465 E308.2553
G1 X154 Y118.397 E308.32059
G1 X153.481 Y118.465 E308.38587
G1 X152.998 Y118.665 E308.45108
G1 X152.582 Y118.983 E308.51639
G1 X152.264 Y119.399 E308.58169
G1 X152.064 Y119.882 E308.6469
G1 X151.996 Y120.401 E308.71218
G1 X152.064 Y120.92 E308.77747
G1 X152.264 Y121.403 E308.84267
G1 X152.352 Y121.519 E308.86083
G0 F9000 X151.792 Y121.646
G0 X151.265 Y121.606
G0 X151.265 Y121.606
; TYPE:WALL-INNER
G1 F1080 X148.276 Y124.596 E309.38815
G1 X147.778 Y125.244 E309.49008
G1 X147.427 Y126.091 E309.60443
G1 X147.307 Y127 E309.71879
G1 X147.427 Y127.91 E309.83327
G1 X147.778 Y128.757 E309.94763
G1 X148.276 Y129.405 E310.04956
G1 X187.805 Y168.936 E317.0222
G1 X188.426 Y169.413 E317.11987
G1 X189.259 Y169.769 E317.23285
G1 X190.163 Y169.901 E317.3468
G1 X191.074 Y169.794 E317.46121
G1 X191.924 Y169.454 E317.57539
G1 X192.66 Y168.906 E317.68984
G1 X193.227 Y168.186 E317.80414
G1 X193.589 Y167.345 E317.91834
G1 X193.708 Y166.528 E318.02132
G1 X193.711 Y87.51 E327.87688
G1 X193.609 Y86.737 E327.97413
G1 X193.274 Y85.897 E328.08692
G1 X192.727 Y85.161 E328.20129
G1 X192.005 Y84.592 E328.31595
G1 X191.164 Y84.232 E328.43005
G1 X190.258 Y84.1 E328.54425
G1 X189.35 Y84.207 E328.65828
G1 X188.497 Y84.547 E328.77281
G1 X187.834 Y85.042 E328.87601
G1 X155.205 Y117.666 E334.63095
G1 X154.78 Y117.491 E334.68827
G1 X154 Y117.388 E334.7864
G1 X153.22 Y117.491 E334.88454
G1 X152.494 Y117.791 E334.98251
G1 X151.869 Y118.27 E335.08073
G1 X151.39 Y118.895 E335.17894
G1 X151.09 Y119.621 E335.27692
G1 X150.987 Y120.401 E335.37505
G1 X151.032 Y120.743 E335.41807
G0 F9000 X116.405 Y92.725
G1 F1080 X155.936 Y53.196 E342.39071
G1 X156.413 Y52.575 E342.48838
G1 X156.769 Y51.742 E342.60136
G1 X156.901 Y50.838 E342.71531
G1 X156.794 Y49.927 E342.82972
G1 X156.454 Y49.077 E342.9439
G1 X155.906 Y48.341 E343.05835
G1 X155.186 Y47.774 E343.17265
G1 X154.345 Y47.412 E343.28685
G1 X153.528 Y47.293 E343.38983
G1 X74.51 Y47.29 E353.24539
G1 X73.737 Y47.392 E353.34264
G1 X72.897 Y47.727 E353.45543
G1 X72.161 Y48.274 E353.56981
G1 X71.592 Y48.996 E353.68446
G1 X71.232 Y49.837 E353.79856
G1 X71.1 Y50.743 E353.91276
G1 X71.207 Y51.651 E354.02679
G1 X71.547 Y52.504 E354.14132
G1 X72.042 Y53.167 E354.24452
G1 X111.596 Y92.725 E361.22174
G1 X112.244 Y93.223 E361.32368
G1 X113.091 Y93.574 E361.43803
G1 X114 Y93.694 E361.55239
G1 X114.91 Y93.574 E361.66687
G1 X115.68 Y93.255 E361.77083
G1 F1800 E358.77083
G1 Z1.799
G0 F9000 X115.588 Y92.812
G0 X114 Y93.39
G0 X83.805 Y96.211
G0 X83.805 Y96.211
G1 Z1.299
G1 F1800 E361.77083
G1 F1080 X83.687 Y95.414 E361.87132
G1 X83.4 Y94.716 E361.96545
G1 X82.919 Y94.09 E362.06391
G1 X82.297 Y93.612 E362.16175
G1 X81.57 Y93.311 E362.25989
G1 X80.79 Y93.208 E362.35802
G1 X80.009 Y93.311 E362.45628
G1 X79.284 Y93.612 E362.55419
G1 X78.659 Y94.09 E362.65233
G1 X78.18 Y94.715 E362.75054
G1 X77.88 Y95.441 E362.84852
G1 X77.777 Y96.221 E362.94665
G1 X77.88 Y97.001 E363.04478
G1 X78.18 Y97.727 E363.14275
G1 X78.659 Y98.352 E363.24097
G1 X79.284 Y98.83 E363.33911
G1 X80.009 Y99.131 E363.43702
G1 X80.79 Y99.234 E363.53527
G1 X81.57 Y99.131 E363.6334
G1 X82.297 Y98.83 E363.73154
G1 X82.919 Y98.352 E363.82938
G1 X83.4 Y97.727 E363.92775
G1 X83.659 Y97.097 E364.01271
G0 F9000 X91.501 Y117.491
G1 F1080 X90.775 Y117.791 E364.11068
G1 X90.15 Y118.27 E364.2089
G1 X89.671 Y118.895 E364.30711
G1 X89.371 Y119.621 E364.40509
G1 X89.268 Y120.401 E364.50322
G1 X89.371 Y121.181 E364.60135
G1 X89.671 Y121.907 E364.69933
G1 X90.15 Y122.532 E364.79754
G1 X90.775 Y123.011 E364.89576
G1 X91.501 Y123.311 E364.99373
G1 X92.281 Y123.414 E365.09186
G1 X93.061 Y123.311 E365.18999
G1 X93.787 Y123.011 E365.28797
G1 X94.412 Y122.532 E365.38619
G1 X94.891 Y121.907 E365.4844
G1 X95.191 Y121.181 E365.58238
G1 X95.295 Y120.391 E365.68176
G1 X95.18 Y119.593 E365.78232
G1 X94.891 Y118.896 E365.87643
G1 X94.412 Y118.27 E365.97474
G1 X93.787 Y117.791 E366.07296
G1 X93.061 Y117.491 E366.17093
G1 X92.395 Y117.403 E366.25472
G0 F9000 X80.223 Y125.244
G1 F1080 X79.725 Y124.596 E366.35666
G1 X40.196 Y85.065 E373.32929
G1 X39.575 Y84.588 E373.42696
G1 X38.742 Y84.232 E373.53995
G1 X37.838 Y84.1 E373.65389
G1 X36.927 Y84.207 E373.7683
G1 X36.077 Y84.547 E373.88248
G1 X35.341 Y85.095 E373.99693
G1 X34.774 Y85.815 E374.11124
G1 X34.412 Y86.656 E374.22544
G1 X34.293 Y87.473 E374.32841
G1 X34.289 Y94.721 E375.23242
G1 X38.178 Y94.721 E375.71748
G1 X37.88 Y95.441 E375.81467
G1 X37.777 Y96.221 E375.9128
G1 X37.88 Y97.001 E376.01093
G1 X38.178 Y97.721 E376.10812
G1 X34.29 Y97.721 E376.59305
G1 X34.29 Y166.639 E385.18889
G1 X34.389 Y167.425 E385.2877
G1 X34.719 Y168.249 E385.39841
G1 X35.243 Y168.964 E385.50897
G1 X35.93 Y169.523 E385.61944
G1 X36.735 Y169.896 E385.7301
G1 X37.61 Y170.052 E385.84095
G1 X38.493 Y169.985 E385.9514
G1 X40.724 Y169.224 E386.24541
G1 X40.79 Y169.233 E386.25371
G1 X41.57 Y169.13 E386.35184
G1 X42.297 Y168.829 E386.44998
G1 X42.919 Y168.351 E386.54783
G1 X43.4 Y167.726 E386.64619
G1 X43.699 Y167 E386.74412
G1 X43.805 Y166.21 E386.84354
G1 X43.691 Y165.44 E386.94062
G1 X79.725 Y129.405 E393.29669
G1 X80.223 Y128.757 E393.39863
G1 X80.574 Y127.91 E393.51298
G1 X80.694 Y127 E393.62746
G1 X80.574 Y126.091 E393.74182
G1 X80.568 Y126.077 E393.74372
G0 F9000 X80.79 Y163.207
G1 F1080 X80.009 Y163.31 E393.84198
G1 X79.284 Y163.611 E393.93989
G1 X78.659 Y164.089 E394.03803
G1 X78.18 Y164.714 E394.13624
G1 X77.88 Y165.44 E394.23422
G1 X77.777 Y166.22 E394.33235
G1 X77.88 Y167 E394.43048
G1 X78.18 Y167.726 E394.52845
G1 X78.659 Y168.351 E394.62667
G1 X79.284 Y168.829 E394.72481
G1 X80.009 Y169.13 E394.82272
G1 X80.79 Y169.233 E394.92097
G1 X81.57 Y169.13 E395.0191
G1 X82.297 Y168.829 E395.11724
G1 X82.919 Y168.351 E395.21508
G1 X83.4 Y167.726 E395.31345
G1 X83.699 Y167 E395.41138
G1 X83.805 Y166.21 E395.51079
G1 X83.687 Y165.413 E395.61128
G1 X83.4 Y164.715 E395.70542
G1 X82.919 Y164.089 E395.80388
G1 X82.297 Y163.611 E395.90172
G1 X81.676 Y163.354 E395.98555
G1 F1800 E392.98555
G1 Z1.799
G0 F9000 X80.854 Y163.529
G0 X82.704 Y164.305
G0 X83.5 Y166.212
G0 X85.776 Y187.817
G0 X85.132 Y187.74
G1 Z1.299
G1 F1800 E395.98555
G1 F1080 X91.487 Y194.096 E397.10658
G1 X90.775 Y194.39 E397.20266
G1 X90.15 Y194.869 E397.30088
G1 X89.671 Y195.494 E397.39909
G1 X89.374 Y196.213 E397.49612
G1 X83.015 Y189.856 E398.6176
G1 X72.065 Y200.805 E400.54896
G1 X71.588 Y201.426 E400.64663
G1 X71.232 Y202.259 E400.75961
G1 X71.1 Y203.163 E400.87356
G1 X71.207 Y204.074 E400.98797
G1 X71.547 Y204.924 E401.10215
G1 X72.095 Y205.66 E401.2166
G1 X72.815 Y206.227 E401.33091
G1 X73.656 Y206.589 E401.4451
G1 X74.473 Y206.708 E401.54808
G1 X153.491 Y206.711 E411.40364
G1 X154.264 Y206.609 E411.50089
G1 X155.104 Y206.274 E411.61368
G1 X155.84 Y205.727 E411.72806
G1 X156.409 Y205.005 E411.84271
G1 X156.769 Y204.164 E411.95681
G1 X156.901 Y203.258 E412.07101
G1 X156.794 Y202.35 E412.18504
G1 X156.454 Y201.497 E412.29957
G1 X155.959 Y200.834 E412.40277
G1 X154.961 Y199.835 E412.5789
G1 X155.506 Y199.61 E412.65244
G1 X156.131 Y199.131 E412.75065
G1 X156.61 Y198.506 E412.84886
G1 X156.91 Y197.78 E412.94684
G1 X157.014 Y196.99 E413.04622
G1 X156.899 Y196.192 E413.14678
G1 X156.61 Y195.495 E413.24089
G1 X156.131 Y194.869 E413.33921
G1 X155.506 Y194.39 E413.43742
G1 X154.78 Y194.09 E413.5354
G1 X154 Y193.987 E413.63353
G1 X153.22 Y194.09 E413.73166
G1 X152.494 Y194.39 E413.82964
G1 X151.869 Y194.869 E413.92785
G1 X151.39 Y195.494 E414.02606
G1 X151.165 Y196.039 E414.09961
G1 X116.405 Y161.276 E420.23113
G1 X115.757 Y160.778 E420.33307
G1 X114.91 Y160.427 E420.44742
G1 X114 Y160.307 E420.5619
G1 X113.091 Y160.427 E420.67626
G1 X112.244 Y160.778 E420.79062
G1 X111.596 Y161.276 E420.89255
G1 X85.769 Y187.103 E425.44814
G1 F1800 E422.44814
G1 Z1.799
G0 F9000 X85.776 Y187.817
G0 X90.619 Y194.887
G0 X83.015 Y190.363
G0 X71.851 Y201.58
G0 X71.404 Y203.168
G0 X71.813 Y204.775
G0 X72.97 Y205.965
G0 X74.496 Y206.407
G0 X100.733 Y209.656
G0 X100.733 Y209.656
G1 Z1.299
G1 F1800 E425.44814
G1 F1080 X100.733 Y211.876 E425.72503
G1 X100.382 Y211.606 E425.78026
G1 X99.716 Y211.332 E425.87008
G1 X99.001 Y211.237 E425.96004
G1 X98.286 Y211.332 E426.05001
G1 X97.62 Y211.606 E426.13983
G1 X97.047 Y212.046 E426.22994
G1 X96.607 Y212.619 E426.32004
G1 X96.333 Y213.285 E426.40987
G1 X96.238 Y214 E426.49983
G1 X96.333 Y214.715 E426.58979
G1 X96.607 Y215.381 E426.67961
G1 X97.047 Y215.954 E426.76972
G1 X97.62 Y216.394 E426.85983
G1 X98.286 Y216.668 E426.94965
G1 X99.001 Y216.763 E427.03961
G1 X99.716 Y216.668 E427.12958
G1 X100.382 Y216.394 E427.2194
G1 X100.733 Y216.124 E427.27463
G1 X100.733 Y225.876 E428.49095
G1 X100.382 Y225.606 E428.54619
G1 X99.716 Y225.332 E428.63601
G1 X99.001 Y225.237 E428.72597
G1 X98.286 Y225.332 E428.81593
G1 X97.62 Y225.606 E428.90576
G1 X97.047 Y226.046 E428.99586
G1 X96.607 Y226.619 E429.08597
G1 X96.333 Y227.285 E429.17579
G1 X96.238 Y228 E429.26576
G1 X96.333 Y228.715 E429.35572
G1 X96.607 Y229.381 E429.44554
G1 X97.047 Y229.954 E429.53565
G1 X97.62 Y230.394 E429.62576
G1 X98.286 Y230.668 E429.71558
G1 X99.001 Y230.763 E429.80554
G1 X99.716 Y230.668 E429.8955
G1 X100.382 Y230.394 E429.98533
G1 X100.733 Y230.124 E430.04056
G1 X100.733 Y232.344 E430.31745
G1 X127.268 Y232.344 E433.62704
G1 X127.268 Y230.124 E433.90393
G1 X127.619 Y230.394 E433.95916
G1 X128.285 Y230.668 E434.04899
G1 X129 Y230.763 E434.13895
G1 X129.715 Y230.668 E434.22891
G1 X130.381 Y230.394 E434.31873
G1 X130.954 Y229.954 E434.40884
G1 X131.394 Y229.381 E434.49895
G1 X131.668 Y228.715 E434.58877
G1 X131.764 Y227.991 E434.67986
G1 X131.659 Y227.262 E434.77173
G1 X131.394 Y226.619 E434.85847
G1 X130.954 Y226.046 E434.94858
G1 X130.381 Y225.606 E435.03868
G1 X129.715 Y225.332 E435.12851
G1 X129 Y225.237 E435.21847
G1 X128.285 Y225.332 E435.30843
G1 X127.619 Y225.606 E435.39825
G1 X127.268 Y225.876 E435.45349
G1 X127.268 Y216.124 E436.66981
G1 X127.619 Y216.394 E436.72504
G1 X128.285 Y216.668 E436.81486
G1 X129 Y216.763 E436.90483
G1 X129.715 Y216.668 E436.99479
G1 X130.381 Y216.394 E437.08461
G1 X130.954 Y215.954 E437.17472
G1 X131.394 Y215.381 E437.26483
G1 X131.668 Y214.715 E437.35465
G1 X131.764 Y213.991 E437.44574
G1 X131.659 Y213.262 E437.5376
G1 X131.394 Y212.619 E437.62435
G1 X130.954 Y212.046 E437.71445
G1 X130.381 Y211.606 E437.80456
G1 X129.715 Y211.332 E437.89438
G1 X129 Y211.237 E437.98435
G1 X128.285 Y211.332 E438.07431
G1 X127.619 Y211.606 E438.16413
G1 X127.268 Y211.876 E438.21936
G1 X127.268 Y209.656 E438.49625
G1 X101.633 Y209.656 E441.69359
G0 F9000 X146.233 Y206.225
G0 X154.186 Y206.314
G0 X159.707 Y205.211
G0 X159.707 Y205.211
G1 F1080 X159.827 Y206.121 E441.80808
G1 X160.178 Y206.967 E441.92231
G1 X160.736 Y207.696 E442.03682
G1 X161.464 Y208.253 E442.15115
G1 X162.31 Y208.604 E442.26539
G1 X163.22 Y208.724 E442.37987
G1 X164.13 Y208.604 E442.49435
G1 X164.976 Y208.253 E442.60859
G1 X165.704 Y207.696 E442.72292
G1 X166.262 Y206.967 E442.83742
G1 X166.613 Y206.121 E442.95166
G1 X166.733 Y205.211 E443.06614
G1 X166.613 Y204.303 E443.18038
G1 X166.262 Y203.454 E443.29497
G1 X165.704 Y202.727 E443.40927
G1 X164.976 Y202.168 E443.52375
G1 X164.13 Y201.819 E443.63789
G1 X163.22 Y201.698 E443.75239
G1 X162.31 Y201.819 E443.86689
G1 X161.464 Y202.168 E443.98104
G1 X160.736 Y202.727 E444.09552
G1 X160.178 Y203.454 E444.20982
G1 X159.827 Y204.303 E444.32441
G1 X159.826 Y204.317 E444.32616
G1 F1800 E441.32616
G1 Z1.799
G0 F9000 X160.128 Y204.837
G0 X160.442 Y203.606
G0 X189.727 Y178.704
G0 X189.727 Y178.704
G1 Z1.299
G1 F1800 E444.32616
G1 F1080 X190.454 Y179.262 E444.44046
G1 X191.303 Y179.613 E444.55505
G1 X192.211 Y179.733 E444.66928
G1 X193.121 Y179.613 E444.78377
G1 X193.967 Y179.262 E444.89801
G1 X194.696 Y178.704 E445.01251
G1 X195.253 Y177.976 E445.12684
G1 X195.604 Y177.13 E445.24108
G1 X195.724 Y176.22 E445.35556
G1 X195.604 Y175.31 E445.47004
G1 X195.253 Y174.464 E445.58428
G1 X194.696 Y173.736 E445.69861
G1 X193.967 Y173.178 E445.81311
G1 X193.121 Y172.827 E445.92735
G1 X192.211 Y172.707 E446.04184
G1 X191.303 Y172.827 E446.15607
G1 X190.454 Y173.178 E446.27066
G1 X189.727 Y173.736 E446.38496
G1 X189.168 Y174.464 E446.49944
G1 X188.819 Y175.31 E446.61359
G1 X188.698 Y176.22 E446.72809
G1 X188.819 Y177.13 E446.84258
G1 X189.168 Y177.976 E446.95673
G1 X189.178 Y177.989 E446.95877
G1 F1800 E443.95877
G1 Z1.799
G0 F9000 X189.849 Y178.308
G0 X189.113 Y177.05
G0 X189.113 Y175.39
G0 X189.943 Y173.952
G0 X191.453 Y173.138
G0 X200.285 Y144.668
G0 X200.285 Y144.668
G1 Z1.299
G1 F1800 E446.95877
G1 F1080 X201 Y144.763 E447.04874
G1 X201.715 Y144.668 E447.1387
G1 X202.381 Y144.394 E447.22852
G1 X202.954 Y143.954 E447.31863
G1 X203.394 Y143.381 E447.40874
G1 X203.668 Y142.715 E447.49856
G1 X203.764 Y141.991 E447.58965
G1 X203.659 Y141.262 E447.68151
G1 X203.394 Y140.619 E447.76826
G1 X203.124 Y140.268 E447.82349
G1 X212.876 Y140.268 E449.03981
G1 X212.606 Y140.619 E449.09504
G1 X212.332 Y141.285 E449.18487
G1 X212.237 Y142 E449.27483
G1 X212.332 Y142.715 E449.36479
G1 X212.606 Y143.381 E449.45461
G1 X213.046 Y143.954 E449.54472
G1 X213.619 Y144.394 E449.63483
G1 X214.285 Y144.668 E449.72465
G1 X215 Y144.763 E449.81461
G1 X215.715 Y144.668 E449.90458
G1 X216.381 Y144.394 E449.9944
G1 X216.954 Y143.954 E450.08451
G1 X217.394 Y143.381 E450.17461
G1 X217.668 Y142.715 E450.26444
G1 X217.764 Y141.991 E450.35553
G1 X217.659 Y141.262 E450.44739
G1 X217.394 Y140.619 E450.53413
G1 X217.124 Y140.268 E450.58937
G1 X219.344 Y140.268 E450.86626
G1 X219.344 Y113.733 E454.17585
G1 X217.124 Y113.733 E454.45274
G1 X217.394 Y113.382 E454.50797
G1 X217.668 Y112.716 E454.59779
G1 X217.764 Y111.992 E454.68889
G1 X217.659 Y111.263 E454.78075
G1 X217.394 Y110.62 E454.86749
G1 X216.954 Y110.047 E454.9576
G1 X216.381 Y109.607 E455.04771
G1 X215.715 Y109.333 E455.13753
G1 X215 Y109.238 E455.22749
G1 X214.285 Y109.333 E455.31745
G1 X213.619 Y109.607 E455.40728
G1 X213.046 Y110.047 E455.49738
G1 X212.606 Y110.62 E455.58749
G1 X212.332 Y111.286 E455.67731
G1 X212.237 Y112.001 E455.76728
G1 X212.332 Y112.716 E455.85724
G1 X212.606 Y113.382 E455.94706
G1 X212.876 Y113.733 E456.00229
G1 X203.124 Y113.733 E457.21862
G1 X203.394 Y113.382 E457.27385
G1 X203.668 Y112.716 E457.36367
G1 X203.764 Y111.992 E457.45476
G1 X203.659 Y111.263 E457.54663
G1 X203.394 Y110.62 E457.63337
G1 X202.954 Y110.047 E457.72348
G1 X202.381 Y109.607 E457.81358
G1 X201.715 Y109.333 E457.90341
G1 X201 Y109.238 E457.99337
G1 X200.285 Y109.333 E458.08333
G1 X199.619 Y109.607 E458.17315
G1 X199.046 Y110.047 E458.26326
G1 X198.606 Y110.62 E458.35337
G1 X198.332 Y111.286 E458.44319
G1 X198.237 Y112.001 E458.53315
G1 X198.332 Y112.716 E458.62312
G1 X198.606 Y113.382 E458.71294
G1 X198.876 Y113.733 E458.76817
G1 X196.656 Y113.733 E459.04506
G1 X196.656 Y140.268 E462.35465
G1 X198.876 Y140.268 E462.63154
G1 X198.606 Y140.619 E462.68678
G1 X198.332 Y141.285 E462.7766
G1 X198.237 Y142 E462.86656
G1 X198.332 Y142.715 E462.95652
G1 X198.606 Y143.381 E463.04635
G1 X199.046 Y143.954 E463.13645
G1 X199.476 Y144.284 E463.20406
G0 F9000 X203.247 Y149.036
G1 F1080 X201.604 Y150.187 E463.45426
G1 X200.187 Y151.604 E463.70421
G1 X199.036 Y153.247 E463.95441
G1 X198.188 Y155.065 E464.20462
G1 X197.669 Y157.003 E464.45485
G1 X197.5 Y158.934 E464.69662
G1 X197.5 Y176.793 E466.92409
G1 X197.709 Y178.381 E467.12386
G1 X198.36 Y179.951 E467.33585
G1 X199.292 Y181.168 E467.52704
G1 X206.278 Y188.164 E468.76017
G1 X189.293 Y205.149 E471.75613
G1 X189.239 Y204.775 E471.80326
G1 X188.926 Y204.018 E471.90543
G1 X188.407 Y203.343 E472.01163
G1 X187.732 Y202.824 E472.11783
G1 X186.944 Y202.499 E472.22414
G1 X186.1 Y202.387 E472.33034
G1 X185.256 Y202.499 E472.43653
G1 X184.468 Y202.824 E472.54284
G1 X183.793 Y203.343 E472.64904
G1 X183.274 Y204.018 E472.75524
G1 X182.949 Y204.806 E472.86155
G1 X182.837 Y205.65 E472.96774
G1 X182.949 Y206.494 E473.07394
G1 X183.274 Y207.282 E473.18025
G1 X183.793 Y207.957 E473.28645
G1 X184.468 Y208.476 E473.39265
G1 X185.256 Y208.801 E473.49896
G1 X185.596 Y208.846 E473.54174
G1 X175.165 Y219.277 E475.38165
G1 X168.221 Y212.334 E476.6064
G1 X166.952 Y211.36 E476.80593
G1 X165.38 Y210.708 E477.01819
G1 X163.859 Y210.509 E477.20951
G1 X145.935 Y210.5 E479.44509
G1 X144.003 Y210.669 E479.68698
G1 X142.065 Y211.188 E479.93722
G1 X140.247 Y212.036 E480.18742
G1 X138.604 Y213.187 E480.43763
G1 X137.187 Y214.604 E480.68757
G1 X136.036 Y216.247 E480.93778
G1 X135.188 Y218.065 E481.18798
G1 X134.669 Y220.003 E481.43822
G1 X134.5 Y221.934 E481.67999
G1 X134.5 Y232.5 E482.99784
G1 X93.501 Y232.5 E488.11146
G1 X93.501 Y221.934 E489.42931
G1 X93.332 Y220.003 E489.67107
G1 X92.813 Y218.065 E489.92131
G1 X91.965 Y216.247 E490.17151
G1 X90.814 Y214.604 E490.42172
G1 X89.397 Y213.187 E490.67166
G1 X87.754 Y212.036 E490.92187
G1 X85.936 Y211.188 E491.17207
G1 X83.998 Y210.669 E491.42231
G1 X82.067 Y210.5 E491.66407
G1 X64.208 Y210.5 E493.89155
G1 X62.62 Y210.709 E494.09132
G1 X61.05 Y211.36 E494.3033
G1 X59.833 Y212.292 E494.49449
G1 X52.837 Y219.278 E495.72763
G1 X21.724 Y188.165 E501.2156
G1 X28.667 Y181.221 E502.44036
G1 X29.641 Y179.952 E502.63988
G1 X30.293 Y178.38 E502.85214
G1 X30.492 Y176.859 E503.04347
G1 X30.501 Y158.935 E505.27905
G1 X30.332 Y157.003 E505.52094
G1 X29.813 Y155.065 E505.77117
G1 X28.965 Y153.247 E506.02138
G1 X27.814 Y151.604 E506.27158
G1 X26.397 Y150.187 E506.52153
G1 X24.754 Y149.036 E506.77173
G1 X22.936 Y148.188 E507.02194
G1 X20.998 Y147.669 E507.27217
G1 X19.067 Y147.5 E507.51394
G1 X8.501 Y147.5 E508.83179
G1 X8.501 Y106.501 E513.94541
G1 X19.067 Y106.501 E515.26326
G1 X20.998 Y106.332 E515.50502
G1 X22.936 Y105.813 E515.75526
G1 X24.754 Y104.965 E516.00547
G1 X26.397 Y103.814 E516.25567
G1 X27.814 Y102.397 E516.50561
G1 X28.965 Y100.754 E516.75582
G1 X29.813 Y98.936 E517.00603
G1 X30.332 Y96.998 E517.25626
G1 X30.501 Y95.067 E517.49803
G1 X30.501 Y77.208 E519.7255
G1 X30.292 Y75.62 E519.92527
G1 X29.641 Y74.05 E520.13726
G1 X28.709 Y72.833 E520.32845
G1 X21.723 Y65.837 E521.56158
G1 X52.836 Y34.724 E527.04955
G1 X59.78 Y41.667 E528.27431
G1 X61.049 Y42.641 E528.47383
G1 X62.621 Y43.293 E528.6861
G1 X64.142 Y43.492 E528.87742
G1 X82.066 Y43.501 E531.113
G1 X83.998 Y43.332 E531.35489
G1 X85.936 Y42.813 E531.60513
G1 X87.754 Y41.965 E531.85533
G1 X89.397 Y40.814 E532.10554
G1 X90.814 Y39.397 E532.35548
G1 X91.965 Y37.754 E532.60569
G1 X92.813 Y35.936 E532.85589
G1 X93.332 Y33.998 E533.10613
G1 X93.501 Y32.067 E533.34789
G1 X93.501 Y21.501 E534.66574
G1 X134.5 Y21.501 E539.77936
G1 X134.5 Y32.067 E541.09721
G1 X134.669 Y33.998 E541.33898
G1 X135.188 Y35.936 E541.58921
G1 X136.036 Y37.754 E541.83942
G1 X137.187 Y39.397 E542.08962
G1 X138.604 Y40.814 E542.33957
G1 X140.247 Y41.965 E542.58977
G1 X142.065 Y42.813 E542.83998
G1 X144.003 Y43.332 E543.09021
G1 X145.934 Y43.501 E543.33198
G1 X163.793 Y43.501 E545.55945
G1 X165.381 Y43.292 E545.75923
G1 X166.951 Y42.641 E545.97121
G1 X168.168 Y41.709 E546.1624
G1 X175.164 Y34.723 E547.39553
G1 X185.437 Y44.996 E549.20757
G1 X185.256 Y45.02 E549.23034
G1 X184.468 Y45.345 E549.33666
G1 X183.793 Y45.864 E549.44286
G1 X183.274 Y46.539 E549.54906
G1 X182.949 Y47.327 E549.65537
G1 X182.837 Y48.171 E549.76156
G1 X182.949 Y49.015 E549.86775
G1 X183.274 Y49.803 E549.97407
G1 X183.793 Y50.478 E550.08027
G1 X184.468 Y50.997 E550.18647
G1 X185.256 Y51.322 E550.29278
G1 X186.1 Y51.434 E550.39897
G1 X186.944 Y51.322 E550.50516
G1 X187.732 Y50.997 E550.61148
G1 X188.407 Y50.478 E550.71768
G1 X188.926 Y49.803 E550.82388
G1 X189.251 Y49.015 E550.93019
G1 X189.275 Y48.834 E550.95296
G1 X206.277 Y65.836 E553.95192
G1 X199.334 Y72.78 E555.17667
G1 X198.36 Y74.049 E555.3762
G1 X197.708 Y75.621 E555.58846
G1 X197.509 Y77.142 E555.77979
G1 X197.5 Y95.066 E558.01537
G1 X197.669 Y96.998 E558.25726
G1 X198.188 Y98.936 E558.50749
G1 X199.036 Y100.754 E558.7577
G1 X200.187 Y102.397 E559.0079
G1 X201.604 Y103.814 E559.25785
G1 X203.247 Y104.965 E559.50805
G1 X205.065 Y105.813 E559.75826
G1 X207.003 Y106.332 E560.00849
G1 X208.934 Y106.501 E560.25026
G1 X219.5 Y106.501 E561.56811
G1 X219.5 Y147.5 E566.68173
G1 X208.934 Y147.5 E567.99958
G1 X207.003 Y147.669 E568.24134
G1 X205.065 Y148.188 E568.49158
G1 X204.063 Y148.655 E568.62946
G1 F1800 E565.62946
G1 Z1.799
G0 F9000 X202.48 Y143.906
G0 X201 Y144.459
G0 X199.262 Y143.738
G0 X197.015 Y139.909
G0 X193.121 Y81.174
G0 X193.121 Y81.174
G1 Z1.299
G1 F1800 E568.62946
G1 F1080 X193.967 Y80.823 E568.7437
G1 X194.696 Y80.265 E568.8582
G1 X195.253 Y79.537 E568.97253
G1 X195.604 Y78.691 E569.08677
G1 X195.724 Y77.781 E569.20126
G1 X195.604 Y76.871 E569.31574
G1 X195.253 Y76.025 E569.42998
G1 X194.696 Y75.297 E569.54431
G1 X193.967 Y74.739 E569.65881
G1 X193.121 Y74.388 E569.77305
G1 X192.211 Y74.268 E569.88753
G1 X191.303 Y74.388 E570.00177
G1 X190.454 Y74.739 E570.11635
G1 X189.727 Y75.297 E570.23066
G1 X189.168 Y76.025 E570.34514
G1 X188.819 Y76.871 E570.45928
G1 X188.698 Y77.781 E570.57378
G1 X188.819 Y78.691 E570.68828
G1 X189.168 Y79.537 E570.80242
G1 X189.727 Y80.265 E570.9169
G1 X190.454 Y80.823 E571.03121
G1 X191.303 Y81.174 E571.14579
G1 X192.211 Y81.294 E571.26003
G1 X192.227 Y81.292 E571.26204
G1 F1800 E568.26204
G1 Z1.799
G0 F9000 X192.842 Y80.871
G0 X191.382 Y80.88
G0 X189.943 Y80.049
G0 X165.704 Y51.274
G0 X165.704 Y51.274
G1 Z1.299
G1 F1800 E571.26204
G1 F1080 X166.262 Y50.547 E571.37635
G1 X166.613 Y49.698 E571.49093
G1 X166.733 Y48.79 E571.60517
G1 X166.613 Y47.88 E571.71965
G1 X166.262 Y47.034 E571.83389
G1 X165.704 Y46.305 E571.94839
G1 X164.976 Y45.748 E572.06272
G1 X164.13 Y45.397 E572.17696
G1 X163.22 Y45.277 E572.29144
G1 X162.31 Y45.397 E572.40593
G1 X161.464 Y45.748 E572.52016
G1 X160.736 Y46.305 E572.63449
G1 X160.178 Y47.034 E572.749
G1 X159.827 Y47.88 E572.86324
G1 X159.707 Y48.79 E572.97772
G1 X159.827 Y49.698 E573.09195
G1 X160.178 Y50.547 E573.20654
G1 X160.736 Y51.274 E573.32084
G1 X161.464 Y51.833 E573.43532
G1 X162.31 Y52.182 E573.54947
G1 X163.22 Y52.303 E573.66397
G1 X164.13 Y52.182 E573.77847
G1 X164.976 Y51.833 E573.89261
G1 X164.989 Y51.823 E573.89466
G1 F1800 E570.89466
G1 Z1.799
G0 F9000 X165.307 Y51.151
G0 X164.05 Y51.888
G0 X162.39 Y51.888
G0 X160.952 Y51.058
G0 X160.138 Y49.548
G0 X131.668 Y40.716
G0 X131.668 Y40.716
G1 Z1.299
G1 F1800 E573.89466
G1 F1080 X131.764 Y39.992 E573.98575
G1 X131.659 Y39.263 E574.07761
G1 X131.394 Y38.62 E574.16435
G1 X130.954 Y38.047 E574.25446
G1 X130.381 Y37.607 E574.34457
G1 X129.715 Y37.333 E574.43439
G1 X129 Y37.238 E574.52435
G1 X128.285 Y37.333 E574.61432
G1 X127.619 Y37.607 E574.70414
G1 X127.268 Y37.877 E574.75937
G1 X127.268 Y28.125 E575.97569
G1 X127.619 Y28.395 E576.03093
G1 X128.285 Y28.669 E576.12075
G1 X129 Y28.764 E576.21071
G1 X129.715 Y28.669 E576.30067
G1 X130.381 Y28.395 E576.3905
G1 X130.954 Y27.955 E576.4806
G1 X131.394 Y27.382 E576.57071
G1 X131.668 Y26.716 E576.66053
G1 X131.764 Y25.992 E576.75163
G1 X131.659 Y25.263 E576.84349
G1 X131.394 Y24.62 E576.93023
G1 X130.954 Y24.047 E577.02034
G1 X130.381 Y23.607 E577.11045
G1 X129.715 Y23.333 E577.20027
G1 X129 Y23.238 E577.29023
G1 X128.285 Y23.333 E577.38019
G1 X127.619 Y23.607 E577.47002
G1 X127.268 Y23.877 E577.52525
G1 X127.268 Y21.657 E577.80214
G1 X100.733 Y21.657 E581.11173
G1 X100.733 Y23.877 E581.38862
G1 X100.382 Y23.607 E581.44385
G1 X99.716 Y23.333 E581.53368
G1 X99.001 Y23.238 E581.62364
G1 X98.286 Y23.333 E581.7136
G1 X97.62 Y23.607 E581.80342
G1 X97.047 Y24.047 E581.89353
G1 X96.607 Y24.62 E581.98364
G1 X96.333 Y25.286 E582.07346
G1 X96.238 Y26.001 E582.16342
G1 X96.333 Y26.716 E582.25339
G1 X96.607 Y27.382 E582.34321
G1 X97.047 Y27.955 E582.43332
G1 X97.62 Y28.395 E582.52342
G1 X98.286 Y28.669 E582.61325
G1 X99.001 Y28.764 E582.70321
G1 X99.716 Y28.669 E582.79317
G1 X100.382 Y28.395 E582.88299
G1 X100.733 Y28.125 E582.93823
G1 X100.733 Y37.877 E584.15455
G1 X100.382 Y37.607 E584.20978
G1 X99.716 Y37.333 E584.2996
G1 X99.001 Y37.238 E584.38957
G1 X98.286 Y37.333 E584.47953
G1 X97.62 Y37.607 E584.56935
G1 X97.047 Y38.047 E584.65946
G1 X96.607 Y38.62 E584.74957
G1 X96.333 Y39.286 E584.83939
G1 X96.238 Y40.001 E584.92935
G1 X96.333 Y40.716 E585.01931
G1 X96.607 Y41.382 E585.10914
G1 X97.047 Y41.955 E585.19924
G1 X97.62 Y42.395 E585.28935
G1 X98.286 Y42.669 E585.37917
G1 X99.001 Y42.764 E585.46914
G1 X99.716 Y42.669 E585.5591
G1 X100.382 Y42.395 E585.64892
G1 X100.733 Y42.125 E585.70415
G1 X100.733 Y44.345 E585.98104
G1 X127.268 Y44.345 E589.29064
G1 X127.268 Y42.125 E589.56753
G1 X127.619 Y42.395 E589.62276
G1 X128.285 Y42.669 E589.71258
G1 X129 Y42.764 E589.80254
G1 X129.715 Y42.669 E589.89251
G1 X130.381 Y42.395 E589.98233
G1 X130.954 Y41.955 E590.07244
G1 X131.284 Y41.525 E590.14004
G1 F1800 E587.14004
G1 Z1.799
G0 F9000 X131.294 Y40.762
G0 X130.228 Y42.131
G0 X126.909 Y43.986
G0 X73.815 Y47.687
G0 X68.294 Y48.79
G0 X68.294 Y48.79
G1 Z1.299
G1 F1800 E590.14004
G1 F1080 X68.174 Y47.88 E590.25452
G1 X67.823 Y47.034 E590.36876
G1 X67.265 Y46.305 E590.48327
G1 X66.537 Y45.748 E590.5976
G1 X65.691 Y45.397 E590.71183
G1 X64.781 Y45.277 E590.82632
G1 X63.871 Y45.397 E590.9408
G1 X63.025 Y45.748 E591.05504
G1 X62.297 Y46.305 E591.16937
G1 X61.739 Y47.034 E591.28387
G1 X61.388 Y47.88 E591.39811
G1 X61.268 Y48.79 E591.51259
G1 X61.388 Y49.698 E591.62683
G1 X61.739 Y50.547 E591.74141
G1 X62.297 Y51.274 E591.85572
G1 X63.025 Y51.833 E591.9702
G1 X63.871 Y52.182 E592.08434
G1 X64.781 Y52.303 E592.19884
G1 X65.691 Y52.182 E592.31334
G1 X66.537 Y51.833 E592.42749
G1 X67.265 Y51.274 E592.54197
G1 X67.823 Y50.547 E592.65627
G1 X68.174 Y49.698 E592.77086
G1 X68.175 Y49.684 E592.77261
G1 F1800 E589.77261
G1 Z1.799
G0 F9000 X67.872 Y49.162
G0 X67.559 Y50.395
G0 X38.274 Y75.297
G0 X38.274 Y75.297
G1 Z1.299
G1 F1800 E592.77261
G1 F1080 X37.547 Y74.739 E592.88691
G1 X36.698 Y74.388 E593.0015
G1 X35.79 Y74.268 E593.11573
G1 X34.88 Y74.388 E593.23022
G1 X34.034 Y74.739 E593.34445
G1 X33.305 Y75.297 E593.45896
G1 X32.748 Y76.025 E593.57329
G1 X32.397 Y76.871 E593.68753
G1 X32.277 Y77.781 E593.80201
G1 X32.397 Y78.691 E593.91649
G1 X32.748 Y79.537 E594.03073
G1 X33.305 Y80.265 E594.14506
G1 X34.034 Y80.823 E594.25956
G1 X34.88 Y81.174 E594.3738
G1 X35.79 Y81.294 E594.48828
G1 X36.698 Y81.174 E594.60252
G1 X37.547 Y80.823 E594.7171
G1 X38.274 Y80.265 E594.83141
G1 X38.833 Y79.537 E594.94589
G1 X39.182 Y78.691 E595.06003
G1 X39.303 Y77.781 E595.17453
G1 X39.182 Y76.871 E595.28903
G1 X38.833 Y76.025 E595.40318
G1 X38.823 Y76.012 E595.40522
G1 F1800 E592.40522
G1 Z1.799
G0 F9000 X38.151 Y75.691
G0 X38.888 Y76.951
G0 X38.888 Y78.611
G0 X38.058 Y80.049
G0 X36.547 Y80.861
G0 X27.716 Y109.333
G0 X27.716 Y109.333
G1 Z1.299
G1 F1800 E595.40522
G1 F1080 X27.001 Y109.238 E595.49518
G1 X26.286 Y109.333 E595.58515
G1 X25.62 Y109.607 E595.67497
G1 X25.047 Y110.047 E595.76508
G1 X24.607 Y110.62 E595.85518
G1 X24.333 Y111.286 E595.94501
G1 X24.238 Y112.001 E596.03497
G1 X24.333 Y112.716 E596.12493
G1 X24.607 Y113.382 E596.21475
G1 X24.877 Y113.733 E596.26999
G1 X15.125 Y113.733 E597.48631
G1 X15.395 Y113.382 E597.54154
G1 X15.669 Y112.716 E597.63137
G1 X15.765 Y111.992 E597.72246
G1 X15.66 Y111.263 E597.81432
G1 X15.395 Y110.62 E597.90106
G1 X14.955 Y110.047 E597.99117
G1 X14.382 Y109.607 E598.08128
G1 X13.716 Y109.333 E598.1711
G1 X13.001 Y109.238 E598.26106
G1 X12.286 Y109.333 E598.35102
G1 X11.62 Y109.607 E598.44085
G1 X11.047 Y110.047 E598.53095
G1 X10.607 Y110.62 E598.62106
G1 X10.333 Y111.286 E598.71088
G1 X10.238 Y112.001 E598.80085
G1 X10.333 Y112.716 E598.89081
G1 X10.607 Y113.382 E598.98063
G1 X10.877 Y113.733 E599.03586
G1 X8.657 Y113.733 E599.31276
G1 X8.657 Y140.268 E602.62235
G1 X10.877 Y140.268 E602.89924
G1 X10.607 Y140.619 E602.95447
G1 X10.333 Y141.285 E603.04429
G1 X10.238 Y142 E603.13425
G1 X10.333 Y142.715 E603.22422
G1 X10.607 Y143.381 E603.31404
G1 X11.047 Y143.954 E603.40415
G1 X11.62 Y144.394 E603.49425
G1 X12.286 Y144.668 E603.58408
G1 X13.001 Y144.763 E603.67404
G1 X13.716 Y144.668 E603.764
G1 X14.382 Y144.394 E603.85382
G1 X14.955 Y143.954 E603.94393
G1 X15.395 Y143.381 E604.03404
G1 X15.669 Y142.715 E604.12386
G1 X15.765 Y141.991 E604.21495
G1 X15.66 Y141.262 E604.30682
G1 X15.395 Y140.619 E604.39356
G1 X15.125 Y140.268 E604.44879
G1 X24.877 Y140.268 E605.66512
G1 X24.607 Y140.619 E605.72035
G1 X24.333 Y141.285 E605.81017
G1 X24.238 Y142 E605.90013
G1 X24.333 Y142.715 E605.9901
G1 X24.607 Y143.381 E606.07992
G1 X25.047 Y143.954 E606.17003
G1 X25.62 Y144.394 E606.26013
G1 X26.286 Y144.668 E606.34995
G1 X27.001 Y144.763 E606.43992
G1 X27.716 Y144.668 E606.52988
G1 X28.382 Y144.394 E606.6197
G1 X28.955 Y143.954 E606.70981
G1 X29.395 Y143.381 E606.79992
G1 X29.669 Y142.715 E606.88974
G1 X29.765 Y141.991 E606.98083
G1 X29.66 Y141.262 E607.07269
G1 X29.395 Y140.619 E607.15944
G1 X29.125 Y140.268 E607.21467
G1 X31.345 Y140.268 E607.49156
G1 X31.345 Y113.733 E610.80115
G1 X29.125 Y113.733 E611.07804
G1 X29.395 Y113.382 E611.13327
G1 X29.669 Y112.716 E611.2231
G1 X29.765 Y111.992 E611.31419
G1 X29.66 Y111.263 E611.40605
G1 X29.395 Y110.62 E611.49279
G1 X28.955 Y110.047 E611.5829
G1 X28.525 Y109.717 E611.65051
G1 F1800 E608.65051
G1 Z1.799
G0 F9000 X27.763 Y109.704
G0 X29.131 Y110.773
G0 X30.986 Y114.092
G0 X34.684 Y167.349
G0 X35.79 Y172.707
G0 X35.79 Y172.707
G1 Z1.299
G1 F1800 E611.65051
G1 F1080 X34.88 Y172.827 E611.76499
G1 X34.034 Y173.178 E611.87923
G1 X33.305 Y173.736 E611.99373
G1 X32.748 Y174.464 E612.10806
G1 X32.397 Y175.31 E612.2223
G1 X32.277 Y176.22 E612.33678
G1 X32.397 Y177.13 E612.45127
G1 X32.748 Y177.976 E612.56551
G1 X33.305 Y178.704 E612.67983
G1 X34.034 Y179.262 E612.79434
G1 X34.88 Y179.613 E612.90858
G1 X35.79 Y179.733 E613.02306
G1 X36.698 Y179.613 E613.13729
G1 X37.547 Y179.262 E613.25188
G1 X38.274 Y178.704 E613.36619
G1 X38.833 Y177.976 E613.48067
G1 X39.182 Y177.13 E613.59481
G1 X39.303 Y176.22 E613.70931
G1 X39.182 Y175.31 E613.82381
G1 X38.833 Y174.464 E613.93795
G1 X38.274 Y173.736 E614.05243
G1 X37.547 Y173.178 E614.16674
G1 X36.698 Y172.827 E614.28132
G1 X36.684 Y172.826 E614.28307
G1 F1800 E611.28307
G1 Z1.799
G0 F9000 X35.994 Y173.075
G0 X37.395 Y173.442
G0 X38.569 Y174.616
G0 X52.389 Y202.824
G0 X52.389 Y202.824
G1 Z1.299
G1 F1800 E614.28307
G1 F1080 X51.714 Y203.343 E614.38927
G1 X51.195 Y204.018 E614.49547
G1 X50.87 Y204.806 E614.60179
G1 X50.758 Y205.65 E614.70798
G1 X50.87 Y206.494 E614.81417
G1 X51.195 Y207.282 E614.92048
G1 X51.714 Y207.957 E615.02668
G1 X52.389 Y208.476 E615.13288
G1 X53.177 Y208.801 E615.2392
G1 X54.021 Y208.913 E615.34539
G1 X54.865 Y208.801 E615.45158
G1 X55.653 Y208.476 E615.55789
G1 X56.328 Y207.957 E615.66409
G1 X56.847 Y207.282 E615.77029
G1 X57.172 Y206.494 E615.8766
G1 X57.285 Y205.64 E615.98405
G1 X57.16 Y204.775 E616.09306
G1 X56.847 Y204.018 E616.19523
G1 X56.328 Y203.343 E616.30143
G1 X55.653 Y202.824 E616.40762
G1 X54.865 Y202.499 E616.51394
G1 X54.021 Y202.387 E616.62013
G1 X53.225 Y202.492 E616.72027
G0 F9000 X53.147 Y202.947
G0 X54.786 Y202.793
G0 X61.388 Y204.303
G0 X61.388 Y204.303
G1 F1080 X61.268 Y205.211 E616.83451
G1 X61.388 Y206.121 E616.94899
G1 X61.739 Y206.967 E617.06323
G1 X62.297 Y207.696 E617.17773
G1 X63.025 Y208.253 E617.29206
G1 X63.871 Y208.604 E617.4063
G1 X64.781 Y208.724 E617.52078
G1 X65.691 Y208.604 E617.63527
G1 X66.537 Y208.253 E617.74951
G1 X67.265 Y207.696 E617.86383
G1 X67.823 Y206.967 E617.97834
G1 X68.174 Y206.121 E618.09258
G1 X68.294 Y205.211 E618.20706
G1 X68.174 Y204.303 E618.3213
G1 X67.823 Y203.454 E618.43588
G1 X67.265 Y202.727 E618.55019
G1 X66.537 Y202.168 E618.66467
G1 X65.691 Y201.819 E618.77881
G1 X64.781 Y201.698 E618.89331
G1 X63.871 Y201.819 E619.00781
G1 X63.025 Y202.168 E619.12195
G1 X62.297 Y202.727 E619.23643
G1 X61.739 Y203.454 E619.35074
G1 X61.733 Y203.47 E619.35287
G0 F9000 X61.074 Y203.909
; TYPE:FILL
G1 F1080 X37.09 Y179.926 E623.58328
G0 F9000 X38.026 Y179.447
G1 F1080 X61.552 Y202.974 E627.73309
G0 F9000 X62.222 Y202.229
G1 F1080 X38.77 Y178.777 E631.86975
G0 F9000 X39.33 Y177.923
G1 F1080 X63.076 Y201.669 E636.05827
G0 F9000 X64.157 Y201.336
G1 F1080 X39.663 Y176.842 E640.37873
G0 F9000 X39.638 Y175.402
G1 F1080 X65.597 Y201.362 E644.95769
G0 F9000 X68.631 Y204.395
G1 F1080 X74.295 Y210.059 E645.95675
G0 F9000 X75.709 Y210.059
G1 F1080 X30.938 Y165.288 E653.85384
G0 F9000 X30.937 Y166.701
G1 F1080 X36.604 Y172.369 E654.85352
G0 F9000 X35.165 Y172.344
G1 F1080 X30.936 Y168.115 E655.59947
G0 F9000 X30.935 Y169.528
G1 F1080 X34.086 Y172.679 E656.15527
G0 F9000 X33.231 Y173.238
G1 F1080 X30.935 Y170.942 E656.56026
G0 F9000 X30.934 Y172.355
G1 F1080 X32.561 Y173.982 E656.84724
G0 F9000 X32.082 Y174.918
G1 F1080 X30.932 Y174.475 E657.04983
G1 X31.389 Y176.346 E657.21126
G1 X32.242 Y177.906 E657.43302
G0 F9000 X30.802 Y177.88
G1 F1080 X55 Y202.079 E661.70136
G0 F9000 X53.516 Y202.009
G1 F1080 X30.51 Y179.003 E665.75935
G0 F9000 X30.095 Y180.002
G1 F1080 X52.425 Y202.332 E669.69811
G0 F9000 X51.574 Y202.895
G1 F1080 X29.515 Y180.836 E673.58906
G0 F9000 X28.887 Y181.622
G1 F1080 X50.919 Y203.654 E677.47525
G0 F9000 X50.47 Y204.619
G1 F1080 X28.18 Y182.329 E681.40695
G0 F9000 X27.473 Y183.036
G1 F1080 X50.348 Y205.912 E685.44193
G0 F9000 X53.758 Y209.321
G1 F1080 X57.967 Y213.531 E686.18443
G0 F9000 X57.26 Y214.237
G1 F1080 X26.766 Y183.743 E691.56323
G0 F9000 X26.059 Y184.45
G1 F1080 X56.552 Y214.944 E696.94193
G0 F9000 X55.845 Y215.651
G1 F1080 X25.352 Y185.158 E702.32054
G0 F9000 X24.645 Y185.865
G1 F1080 X55.138 Y216.358 E707.69916
G0 F9000 X54.43 Y217.064
G1 F1080 X23.938 Y186.572 E713.0776
G0 F9000 X23.231 Y187.28
G1 F1080 X53.723 Y217.771 E718.45595
G0 F9000 X53.015 Y218.478
G1 F1080 X22.524 Y187.987 E723.83421
G0 F9000 X34.103 Y179.767
G1 F1080 X61.233 Y206.897 E728.61963
G0 F9000 X60.84 Y205.089
G1 F1080 X35.91 Y180.16 E733.0169
G0 F9000 X36.04 Y179.388
G0 X38.058 Y178.488
G0 X38.888 Y177.05
G0 X38.888 Y175.39
G0 X37.55 Y170.486
G0 X37.55 Y170.486
G1 F1080 X70.714 Y203.65 E738.86665
G0 F9000 X70.781 Y202.303
G1 F1080 X38.817 Y170.339 E744.50474
G0 F9000 X39.871 Y169.979
G1 F1080 X71.171 Y201.279 E750.0257
G0 F9000 X71.776 Y200.469
G1 F1080 X40.959 Y169.653 E755.46137
G0 F9000 X42.105 Y169.384
G1 F1080 X72.483 Y199.762 E760.8197
G0 F9000 X73.19 Y199.055
G1 F1080 X42.987 Y168.852 E766.14716
G0 F9000 X43.658 Y168.108
G1 F1080 X73.897 Y198.348 E771.48106
G0 F9000 X74.604 Y197.641
G1 F1080 X44.113 Y167.15 E776.85933
G0 F9000 X44.191 Y165.813
G1 F1080 X75.311 Y196.934 E782.34862
G0 F9000 X76.018 Y196.227
G1 F1080 X44.772 Y164.98 E787.86015
G0 F9000 X45.479 Y164.273
G1 F1080 X76.726 Y195.519 E793.37167
G0 F9000 X77.433 Y194.813
G1 F1080 X46.186 Y163.566 E798.88328
G0 F9000 X46.893 Y162.859
G1 F1080 X78.14 Y194.106 E804.39489
G0 F9000 X78.848 Y193.399
G1 F1080 X47.601 Y162.152 E809.90651
G0 F9000 X48.308 Y161.445
G1 F1080 X79.555 Y192.692 E815.41812
G0 F9000 X80.262 Y191.985
G1 F1080 X49.015 Y160.738 E820.92973
G0 F9000 X49.722 Y160.03
G1 F1080 X80.969 Y191.278 E826.44143
G0 F9000 X81.676 Y190.57
G1 F1080 X50.429 Y159.323 E831.95304
G0 F9000 X51.136 Y158.616
G1 F1080 X82.383 Y189.863 E837.46465
G0 F9000 X85.212 Y187.036
G1 F1080 X53.964 Y155.788 E842.97644
G0 F9000 X53.257 Y156.495
G1 F1080 X90.704 Y193.941 E849.58157
G0 F9000 X89.873 Y194.525
G1 F1080 X52.55 Y157.202 E856.16492
G0 F9000 X51.843 Y157.909
G1 F1080 X89.263 Y195.329 E862.76538
G0 F9000 X90.013 Y195.717
G0 X87.152 Y189.157
G0 X85.639 Y187.74
G0 X85.919 Y186.329
G0 X85.919 Y186.329
G1 F1080 X54.672 Y155.081 E868.27708
G0 F9000 X55.379 Y154.374
G1 F1080 X86.626 Y185.621 E873.78869
G0 F9000 X87.334 Y184.914
G1 F1080 X56.086 Y153.667 E879.30039
G0 F9000 X56.793 Y152.959
G1 F1080 X88.041 Y184.207 E884.81218
G0 F9000 X88.748 Y183.5
G1 F1080 X57.5 Y152.252 E890.32396
G0 F9000 X58.207 Y151.545
G1 F1080 X89.455 Y182.793 E895.83575
G0 F9000 X90.162 Y182.086
G1 F1080 X58.914 Y150.838 E901.34754
G0 F9000 X59.621 Y150.131
G1 F1080 X90.869 Y181.379 E906.85933
G0 F9000 X91.576 Y180.672
G1 F1080 X80.548 Y169.644 E908.80454
G0 F9000 X81.82 Y169.501
G1 F1080 X92.283 Y179.965 E910.65018
G0 F9000 X92.99 Y179.257
G1 F1080 X82.759 Y169.026 E912.45481
G0 F9000 X83.483 Y168.336
G1 F1080 X93.698 Y178.55 E914.25653
G0 F9000 X94.405 Y177.843
G1 F1080 X83.995 Y167.434 E916.09265
G0 F9000 X84.241 Y166.266
G1 F1080 X95.112 Y177.136 E918.01008
G0 F9000 X95.819 Y176.429
G1 F1080 X83.459 Y164.069 E920.19024
G0 F9000 X82.937 Y163.548
G1 F1080 X64.571 Y145.181 E923.42988
G0 F9000 X65.278 Y144.474
G1 F1080 X96.526 Y175.722 E928.94167
G0 F9000 X97.233 Y175.015
G1 F1080 X65.985 Y143.767 E934.45346
G0 F9000 X66.692 Y143.06
G1 F1080 X97.939 Y174.307 E939.96507
G0 F9000 X98.647 Y173.6
G1 F1080 X67.4 Y142.353 E945.47668
G0 F9000 X68.107 Y141.646
G1 F1080 X99.354 Y172.893 E950.98829
G0 F9000 X100.061 Y172.186
G1 F1080 X68.814 Y140.939 E956.4999
G0 F9000 X69.521 Y140.232
G1 F1080 X100.768 Y171.479 E962.01151
G0 F9000 X101.475 Y170.771
G1 F1080 X70.228 Y139.524 E967.52313
G0 F9000 X70.935 Y138.817
G1 F1080 X102.182 Y170.064 E973.03474
G0 F9000 X102.889 Y169.357
G1 F1080 X71.642 Y138.11 E978.54635
G0 F9000 X72.349 Y137.403
G1 F1080 X103.596 Y168.65 E984.05796
G0 F9000 X104.303 Y167.943
G1 F1080 X73.056 Y136.696 E989.56957
G0 F9000 X73.763 Y135.989
G1 F1080 X105.011 Y167.236 E995.08127
G0 F9000 X105.718 Y166.529
G1 F1080 X74.471 Y135.282 E1000.59288
G0 F9000 X75.178 Y134.575
G1 F1080 X106.425 Y165.822 E1006.1045
G0 F9000 X107.132 Y165.115
G1 F1080 X75.885 Y133.868 E1011.61611
G0 F9000 X76.592 Y133.16
G1 F1080 X107.839 Y164.407 E1017.12772
G0 F9000 X108.546 Y163.7
G1 F1080 X77.299 Y132.453 E1022.63933
G0 F9000 X78.006 Y131.746
G1 F1080 X109.253 Y162.993 E1028.15094
G0 F9000 X109.96 Y162.286
G1 F1080 X78.713 Y131.039 E1033.66255
G0 F9000 X79.42 Y130.332
G1 F1080 X110.667 Y161.579 E1039.17416
G0 F9000 X111.385 Y160.883
G1 F1080 X80.117 Y129.614 E1044.68957
G0 F9000 X80.692 Y128.775
G1 F1080 X112.224 Y160.308 E1050.25154
G0 F9000 X113.286 Y159.956
G1 F1080 X81.044 Y127.713 E1055.93875
G0 F9000 X81.045 Y126.3
G1 F1080 X114.699 Y159.954 E1061.87492
G0 F9000 X80.743 Y162.768
G1 F1080 X63.864 Y145.888 E1064.85227
G0 F9000 X63.157 Y146.595
G1 F1080 X79.574 Y163.012 E1067.74804
G0 F9000 X78.671 Y163.524
G1 F1080 X62.45 Y147.303 E1070.60924
G0 F9000 X61.743 Y148.01
G1 F1080 X77.982 Y164.249 E1073.47361
G0 F9000 X77.507 Y165.188
G1 F1080 X61.036 Y148.717 E1076.37891
G0 F9000 X60.328 Y149.424
G1 F1080 X77.364 Y166.46 E1079.38386
G0 F9000 X67.822 Y205.725
G0 X67.822 Y205.725
G0 X68.655 Y205.834
G1 F1080 X72.88 Y210.059 E1080.12911
G0 F9000 X71.466 Y210.059
G1 F1080 X68.321 Y206.914 E1080.68385
G0 F9000 X67.762 Y207.769
G1 F1080 X70.052 Y210.059 E1081.08778
G0 F9000 X68.638 Y210.059
G1 F1080 X67.017 Y208.438 E1081.3737
G0 F9000 X66.081 Y208.917
G1 F1080 X66.516 Y210.059 E1081.57505
G1 X64.648 Y209.605 E1081.73522
G1 X63.093 Y208.757 E1081.95613
G0 F9000 X63.119 Y210.198
G1 F1080 X57.588 Y204.667 E1082.93173
G0 F9000 X57.661 Y206.153
G1 F1080 X61.997 Y210.49 E1083.69664
G0 F9000 X60.997 Y210.904
G1 F1080 X57.337 Y207.244 E1084.34222
G0 F9000 X56.775 Y208.095
G1 F1080 X60.163 Y211.484 E1084.93992
G0 F9000 X59.382 Y212.117
G1 F1080 X56.015 Y208.75 E1085.53382
G0 F9000 X55.05 Y209.199
G1 F1080 X58.675 Y212.824 E1086.17322
G0 F9000 X60.97 Y211.976
G0 X62.7 Y211.003
G0 X74.171 Y207.108
G0 X74.171 Y207.108
G1 F1080 X77.123 Y210.059 E1086.69384
G0 F9000 X78.537 Y210.059
G1 F1080 X75.625 Y207.147 E1087.20748
G0 F9000 X77.039 Y207.147
G1 F1080 X79.951 Y210.059 E1087.72112
G0 F9000 X81.366 Y210.059
G1 F1080 X78.454 Y207.147 E1088.23477
G0 F9000 X79.868 Y207.147
G1 F1080 X82.847 Y210.126 E1088.76023
G0 F9000 X84.476 Y210.341
G1 F1080 X81.282 Y207.147 E1089.32361
G0 F9000 X82.696 Y207.147
G1 F1080 X86.523 Y210.974 E1089.99865
G0 F9000 X86.94 Y207.148
G1 F1080 X100.293 Y220.501 E1092.35397
G0 F9000 X100.293 Y221.915
G1 F1080 X85.525 Y207.148 E1094.95878
G0 F9000 X84.111 Y207.147
G1 F1080 X100.293 Y223.329 E1097.8131
G0 F9000 X100.293 Y224.743
G1 F1080 X93.025 Y217.476 E1099.09501
G0 F9000 X93.658 Y219.523
G1 F1080 X98.935 Y224.8 E1100.02581
G0 F9000 X97.782 Y225.062
G1 F1080 X93.874 Y221.153 E1100.71522
G0 F9000 X93.94 Y222.633
G1 F1080 X96.906 Y225.599 E1101.23839
G0 F9000 X96.252 Y226.359
G1 F1080 X93.94 Y224.048 E1101.64611
G0 F9000 X93.94 Y225.462
G1 F1080 X95.873 Y227.395 E1101.98707
G0 F9000 X95.911 Y228.847
G1 F1080 X93.94 Y226.876 E1102.33473
G0 F9000 X93.941 Y228.291
G1 F1080 X97.709 Y232.059 E1102.99937
G0 F9000 X98.152 Y231.088
G1 F1080 X99.363 Y231.592 E1103.17066
G1 X100.293 Y231.815 E1103.28994
G0 F9000 X96.294 Y232.059
G1 F1080 X93.941 Y229.705 E1103.70507
G0 F9000 X93.941 Y231.119
G1 F1080 X94.88 Y232.059 E1103.87079
G0 F9000 X96.892 Y227.235
G0 X100.293 Y219.087
G0 X100.293 Y219.087
G1 F1080 X98.321 Y217.115 E1104.21862
G0 F9000 X99.73 Y217.11
G1 F1080 X100.293 Y217.672 E1104.31784
G0 F9000 X95.884 Y214.678
G1 F1080 X88.354 Y207.148 E1105.64605
G0 F9000 X89.768 Y207.148
G1 F1080 X95.89 Y213.27 E1106.7259
G0 F9000 X96.313 Y212.279
G1 F1080 X91.182 Y207.148 E1107.63095
G0 F9000 X92.597 Y207.148
G1 F1080 X96.986 Y211.537 E1108.40512
G0 F9000 X97.884 Y211.021
G1 F1080 X94.011 Y207.148 E1109.08827
G0 F9000 X95.425 Y207.148
G1 F1080 X99.079 Y210.802 E1109.73279
G0 F9000 X100.292 Y210.601
G1 F1080 X96.839 Y207.148 E1110.34186
G0 F9000 X98.253 Y207.148
G1 F1080 X100.32 Y209.215 E1110.70646
G0 F9000 X101.734 Y209.215
G1 F1080 X99.668 Y207.148 E1111.07096
G0 F9000 X101.082 Y207.148
G1 F1080 X103.149 Y209.215 E1111.43556
G0 F9000 X104.563 Y209.215
G1 F1080 X102.496 Y207.148 E1111.80015
G0 F9000 X103.91 Y207.148
G1 F1080 X105.977 Y209.215 E1112.16475
G0 F9000 X107.391 Y209.215
G1 F1080 X105.325 Y207.149 E1112.52917
G0 F9000 X106.739 Y207.149
G1 F1080 X108.806 Y209.215 E1112.89368
G0 F9000 X110.22 Y209.215
G1 F1080 X108.154 Y207.149 E1113.25809
G0 F9000 X109.568 Y207.149
G1 F1080 X111.634 Y209.215 E1113.62251
G0 F9000 X113.048 Y209.215
G1 F1080 X110.982 Y207.149 E1113.98693
G0 F9000 X112.396 Y207.149
G1 F1080 X114.462 Y209.215 E1114.35135
G0 F9000 X115.877 Y209.215
G1 F1080 X113.81 Y207.149 E1114.71586
G0 F9000 X115.225 Y207.149
G1 F1080 X117.291 Y209.215 E1115.08028
G0 F9000 X118.705 Y209.215
G1 F1080 X116.639 Y207.149 E1115.44469
G0 F9000 X118.053 Y207.149
G1 F1080 X120.119 Y209.215 E1115.80911
G0 F9000 X121.533 Y209.215
G1 F1080 X119.467 Y207.149 E1116.17353
G0 F9000 X120.882 Y207.149
G1 F1080 X122.948 Y209.215 E1116.53795
G0 F9000 X124.362 Y209.215
G1 F1080 X122.296 Y207.149 E1116.90237
G0 F9000 X123.71 Y207.149
G1 F1080 X125.776 Y209.215 E1117.26679
G0 F9000 X127.19 Y209.215
G1 F1080 X125.125 Y207.149 E1117.63112
G0 F9000 X126.539 Y207.149
G1 F1080 X130.641 Y211.251 E1118.35466
G0 F9000 X131.747 Y212.357
G1 F1080 X135.577 Y216.187 E1119.03023
G0 F9000 X136.137 Y215.333
G1 F1080 X127.953 Y207.149 E1120.47379
G0 F9000 X129.368 Y207.149
G1 F1080 X136.72 Y214.502 E1121.77069
G0 F9000 X137.4 Y213.767
G1 F1080 X130.782 Y207.149 E1122.93803
G0 F9000 X132.196 Y207.149
G1 F1080 X138.107 Y213.06 E1123.98066
G0 F9000 X138.901 Y212.44
G1 F1080 X133.61 Y207.149 E1124.91393
G0 F9000 X135.024 Y207.149
G1 F1080 X139.732 Y211.857 E1125.74437
G0 F9000 X140.649 Y211.36
G1 F1080 X136.439 Y207.149 E1126.48706
G0 F9000 X137.853 Y207.149
G1 F1080 X141.614 Y210.91 E1127.15045
G0 F9000 X142.683 Y210.565
G1 F1080 X139.267 Y207.149 E1127.753
G0 F9000 X140.681 Y207.149
G1 F1080 X143.8 Y210.268 E1128.30315
G0 F9000 X145.079 Y210.133
G1 F1080 X142.095 Y207.149 E1128.82949
G0 F9000 X143.51 Y207.149
G1 F1080 X146.419 Y210.059 E1129.3427
G0 F9000 X147.834 Y210.06
G1 F1080 X144.925 Y207.15 E1129.8559
G0 F9000 X146.339 Y207.15
G1 F1080 X149.249 Y210.06 E1130.36919
G0 F9000 X150.664 Y210.061
G1 F1080 X147.753 Y207.15 E1130.88266
G0 F9000 X149.167 Y207.15
G1 F1080 X152.079 Y210.062 E1131.3963
G0 F9000 X153.494 Y210.063
G1 F1080 X150.581 Y207.15 E1131.91012
G0 F9000 X151.996 Y207.15
G1 F1080 X154.91 Y210.064 E1132.42412
G0 F9000 X156.325 Y210.065
G1 F1080 X153.41 Y207.15 E1132.93829
G0 F9000 X154.615 Y206.941
G1 F1080 X157.739 Y210.065 E1133.48933
G0 F9000 X159.154 Y210.066
G1 F1080 X155.566 Y206.478 E1134.12221
G0 F9000 X156.325 Y205.822
G1 F1080 X160.569 Y210.067 E1134.87089
G0 F9000 X161.984 Y210.067
G1 F1080 X156.897 Y204.981 E1135.76809
G0 F9000 X157.249 Y203.918
G1 F1080 X159.372 Y206.041 E1136.14256
G0 F9000 X159.343 Y204.598
G1 F1080 X157.255 Y202.51 E1136.51086
G0 F9000 X159.675 Y203.515
G1 F1080 X155.968 Y199.809 E1137.16465
G0 F9000 X156.693 Y199.119
G1 F1080 X160.233 Y202.659 E1137.78906
G0 F9000 X160.975 Y201.987
G1 F1080 X157.205 Y198.217 E1138.45405
G0 F9000 X157.45 Y197.048
G1 F1080 X161.909 Y201.507 E1139.24056
G0 F9000 X163.087 Y201.271
G1 F1080 X156.687 Y194.871 E1140.36945
G0 F9000 X156.124 Y194.308
G1 F1080 X39.728 Y77.912 E1160.90036
G0 F9000 X39.492 Y79.09
G1 F1080 X153.951 Y193.549 E1181.08962
G0 F9000 X152.781 Y193.793
G1 F1080 X39.012 Y80.024 E1201.15716
G0 F9000 X38.34 Y80.767
G1 F1080 X151.879 Y194.305 E1221.18405
G0 F9000 X151.19 Y195.03
G1 F1080 X37.484 Y81.325 E1241.24039
G0 F9000 X36.401 Y81.656
G1 F1080 X38.496 Y83.751 E1241.60992
G0 F9000 X37.076 Y83.745
G1 F1080 X34.958 Y81.627 E1241.98351
G0 F9000 X35.067 Y80.795
G0 X36.014 Y84.097
G0 X36.014 Y84.097
G1 F1080 X30.94 Y79.024 E1242.87842
G0 F9000 X31.942 Y78.611
G1 F1080 X31.426 Y77.388 E1243.05507
G1 X30.792 Y76.047 E1243.24008
G0 F9000 X32.245 Y76.086
G1 F1080 X30.052 Y73.893 E1243.6269
G0 F9000 X32.802 Y75.229
G1 F1080 X22.877 Y65.304 E1245.37756
G0 F9000 X23.584 Y64.597
G1 F1080 X33.545 Y74.558 E1247.13456
G0 F9000 X34.479 Y74.077
G1 F1080 X24.291 Y63.889 E1248.93161
G0 F9000 X24.999 Y63.182
G1 F1080 X35.657 Y73.841 E1250.81165
G0 F9000 X37.454 Y74.223
G1 F1080 X25.706 Y62.475 E1252.88386
G0 F9000 X26.413 Y61.768
G1 F1080 X179.231 Y214.587 E1279.83928
G0 F9000 X179.938 Y213.88
G1 F1080 X27.12 Y61.061 E1306.79471
G0 F9000 X27.827 Y60.354
G1 F1080 X89.065 Y121.591 E1317.5963
G0 F9000 X88.878 Y119.991
G1 F1080 X28.534 Y59.647 E1328.24029
G0 F9000 X29.241 Y58.94
G1 F1080 X89.194 Y118.892 E1338.81522
G0 F9000 X89.764 Y118.048
G1 F1080 X29.948 Y58.233 E1349.36599
G0 F9000 X30.655 Y57.525
G1 F1080 X90.542 Y117.412 E1359.92937
G0 F9000 X91.579 Y117.035
G1 F1080 X31.363 Y56.818 E1370.55086
G0 F9000 X32.07 Y56.111
G1 F1080 X92.996 Y117.038 E1381.2976
G0 F9000 X95.637 Y119.679
G1 F1080 X182.513 Y206.555 E1396.62153
G0 F9000 X182.466 Y205.094
G1 F1080 X32.777 Y55.404 E1423.02503
G0 F9000 X33.484 Y54.697
G1 F1080 X182.799 Y204.013 E1449.36257
G0 F9000 X183.37 Y203.169
G1 F1080 X79.664 Y99.463 E1467.65512
G0 F9000 X81.233 Y99.618
G1 F1080 X184.138 Y202.523 E1485.80637
G0 F9000 X185.111 Y202.081
G1 F1080 X82.324 Y99.294 E1503.93682
G0 F9000 X83.162 Y98.719
G1 F1080 X186.429 Y201.985 E1522.15184
G0 F9000 X189.838 Y203.98
G1 F1080 X83.79 Y97.932 E1540.85749
G0 F9000 X84.158 Y96.886
G1 F1080 X190.545 Y203.273 E1559.62293
G0 F9000 X191.252 Y202.566
G1 F1080 X84.137 Y95.451 E1578.51679
G0 F9000 X81.549 Y92.863
G1 F1080 X38.434 Y49.747 E1586.12187
G0 F9000 X39.141 Y49.04
G1 F1080 X191.959 Y201.859 E1613.07729
G0 F9000 X192.666 Y201.152
G1 F1080 X39.848 Y48.333 E1640.03272
G0 F9000 X40.555 Y47.626
G1 F1080 X193.373 Y200.444 E1666.98806
G0 F9000 X194.081 Y199.737
G1 F1080 X41.262 Y46.919 E1693.94349
G0 F9000 X41.969 Y46.212
G1 F1080 X194.788 Y199.03 E1720.89891
G0 F9000 X195.495 Y198.323
G1 F1080 X42.676 Y45.505 E1747.85434
G0 F9000 X43.383 Y44.798
G1 F1080 X196.202 Y197.616 E1774.80976
G0 F9000 X196.909 Y196.909
G1 F1080 X44.09 Y44.09 E1801.76528
G0 F9000 X44.798 Y43.383
G1 F1080 X197.616 Y196.202 E1828.72071
G0 F9000 X198.323 Y195.495
G1 F1080 X45.505 Y42.676 E1855.67613
G0 F9000 X46.212 Y41.969
G1 F1080 X199.03 Y194.788 E1882.63156
G0 F9000 X199.737 Y194.081
G1 F1080 X46.919 Y41.262 E1909.58698
G0 F9000 X47.626 Y40.555
G1 F1080 X200.444 Y193.373 E1936.54232
G0 F9000 X201.152 Y192.666
G1 F1080 X48.333 Y39.848 E1963.49775
G0 F9000 X49.04 Y39.141
G1 F1080 X201.859 Y191.959 E1990.45318
G0 F9000 X202.566 Y191.252
G1 F1080 X191.38 Y180.066 E1992.42626
G0 F9000 X192.824 Y180.096
G1 F1080 X203.273 Y190.545 E1994.26934
G0 F9000 X203.98 Y189.838
G1 F1080 X193.905 Y179.763 E1996.04646
G0 F9000 X194.762 Y179.206
G1 F1080 X204.687 Y189.131 E1997.79711
G0 F9000 X205.394 Y188.424
G1 F1080 X195.433 Y178.463 E1999.55412
G0 F9000 X195.914 Y177.529
G1 F1080 X197.561 Y179.176 E1999.84463
G0 F9000 X197.125 Y177.326
G1 F1080 X196.604 Y176.098 E2000.0165
G1 X195.765 Y174.552 E2000.23589
G0 F9000 X197.059 Y174.431
G1 F1080 X192.328 Y169.7 E2001.07038
G0 F9000 X193.099 Y169.057
G1 F1080 X197.059 Y173.017 E2001.76888
G0 F9000 X197.059 Y171.603
G1 F1080 X193.686 Y168.23 E2002.36384
G0 F9000 X194.055 Y167.185
G1 F1080 X197.059 Y170.189 E2002.89371
G0 F9000 X197.059 Y168.775
G1 F1080 X194.146 Y165.862 E2003.40753
G0 F9000 X194.146 Y164.448
G1 F1080 X197.059 Y167.36 E2003.92126
G0 F9000 X197.059 Y165.946
G1 F1080 X194.146 Y163.034 E2004.43499
G0 F9000 X194.146 Y161.619
G1 F1080 X197.059 Y164.532 E2004.94881
G0 F9000 X197.059 Y163.118
G1 F1080 X194.146 Y160.205 E2005.46263
G0 F9000 X194.146 Y158.791
G1 F1080 X197.059 Y161.704 E2005.97645
G0 F9000 X197.059 Y160.289
G1 F1080 X194.147 Y157.377 E2006.49009
G0 F9000 X194.147 Y155.963
G1 F1080 X197.062 Y158.879 E2007.00436
G0 F9000 X197.176 Y157.578
G1 F1080 X194.147 Y154.549 E2007.53864
G0 F9000 X194.147 Y153.135
G1 F1080 X197.382 Y156.37 E2008.10925
G0 F9000 X197.68 Y155.254
G1 F1080 X194.147 Y151.721 E2008.73243
G0 F9000 X194.147 Y150.306
G1 F1080 X198.083 Y154.243 E2009.42679
G0 F9000 X198.533 Y153.278
G1 F1080 X194.147 Y148.892 E2010.20043
G0 F9000 X194.147 Y147.478
G1 F1080 X199.081 Y152.412 E2011.07073
G0 F9000 X199.665 Y151.581
G1 F1080 X194.147 Y146.064 E2012.04395
G0 F9000 X194.147 Y144.65
G1 F1080 X200.332 Y150.835 E2013.13491
G0 F9000 X201.039 Y150.127
G1 F1080 X194.147 Y143.235 E2014.35058
G0 F9000 X194.148 Y141.822
G1 F1080 X201.822 Y149.496 E2015.70419
G0 F9000 X202.653 Y148.913
G1 F1080 X194.148 Y140.408 E2017.20437
G0 F9000 X194.148 Y138.993
G1 F1080 X197.89 Y142.735 E2017.86442
G0 F9000 X197.883 Y141.314
G1 F1080 X197.276 Y140.707 E2017.97149
G0 F9000 X196.215 Y139.647
G1 F1080 X194.148 Y137.579 E2018.33617
G0 F9000 X194.148 Y136.165
G1 F1080 X196.215 Y138.233 E2018.70085
G0 F9000 X196.215 Y136.818
G1 F1080 X194.148 Y134.751 E2019.06545
G0 F9000 X194.148 Y133.337
G1 F1080 X196.215 Y135.404 E2019.43004
G0 F9000 X196.215 Y133.99
G1 F1080 X194.148 Y131.922 E2019.79473
G0 F9000 X194.148 Y130.508
G1 F1080 X196.215 Y132.576 E2020.15941
G0 F9000 X196.215 Y131.161
G1 F1080 X194.148 Y129.094 E2020.524
G0 F9000 X194.148 Y127.68
G1 F1080 X196.215 Y129.747 E2020.8886
G0 F9000 X196.215 Y128.333
G1 F1080 X194.148 Y126.266 E2021.25319
G0 F9000 X194.148 Y124.852
G1 F1080 X196.215 Y126.918 E2021.6177
G0 F9000 X196.215 Y125.504
G1 F1080 X194.148 Y123.438 E2021.98221
G0 F9000 X194.148 Y122.024
G1 F1080 X196.215 Y124.09 E2022.34672
G0 F9000 X196.215 Y122.675
G1 F1080 X194.148 Y120.609 E2022.71122
G0 F9000 X194.148 Y119.195
G1 F1080 X196.215 Y121.261 E2023.07573
G0 F9000 X196.215 Y119.847
G1 F1080 X194.148 Y117.781 E2023.44024
G0 F9000 X194.148 Y116.367
G1 F1080 X196.215 Y118.433 E2023.80474
G0 F9000 X196.215 Y117.019
G1 F1080 X194.148 Y114.952 E2024.16934
G0 F9000 X194.148 Y113.538
G1 F1080 X196.215 Y115.604 E2024.53384
G0 F9000 X196.215 Y114.19
G1 F1080 X194.148 Y112.124 E2024.89835
G0 F9000 X194.149 Y110.711
G1 F1080 X196.731 Y113.292 E2025.3537
G0 F9000 X198.056 Y113.203
G1 F1080 X194.149 Y109.296 E2026.04285
G0 F9000 X194.149 Y107.882
G1 F1080 X197.848 Y111.581 E2026.69531
G0 F9000 X198.179 Y110.498
G1 F1080 X194.149 Y106.468 E2027.40616
G0 F9000 X194.149 Y105.054
G1 F1080 X198.786 Y109.69 E2028.22398
G0 F9000 X199.634 Y109.124
G1 F1080 X194.149 Y103.639 E2029.19147
G0 F9000 X194.149 Y102.225
G1 F1080 X200.751 Y108.827 E2030.35599
G0 F9000 X202.531 Y109.193
G1 F1080 X194.149 Y100.811 E2031.83448
G0 F9000 X194.149 Y99.397
G1 F1080 X208.045 Y113.293 E2034.28557
G0 F9000 X209.459 Y113.293
G1 F1080 X194.149 Y97.983 E2036.98608
G0 F9000 X194.149 Y96.568
G1 F1080 X198.876 Y101.295 E2037.81987
G0 F9000 X197.658 Y98.664
G1 F1080 X194.15 Y95.155 E2038.43873
G0 F9000 X194.15 Y93.741
G1 F1080 X197.209 Y96.8 E2038.9783
G0 F9000 X197.073 Y95.25
G1 F1080 X194.15 Y92.326 E2039.49397
G0 F9000 X194.15 Y90.912
G1 F1080 X197.06 Y93.822 E2040.00726
G0 F9000 X197.06 Y92.408
G1 F1080 X194.15 Y89.498 E2040.52055
G0 F9000 X194.15 Y88.084
G1 F1080 X197.061 Y90.995 E2041.03402
G0 F9000 X197.062 Y89.581
G1 F1080 X193.992 Y86.512 E2041.57544
G0 F9000 X197.063 Y86.754
G1 F1080 X192.021 Y81.713 E2042.46471
G0 F9000 X193.298 Y81.576
G1 F1080 X197.064 Y85.341 E2043.1289
G0 F9000 X197.065 Y83.927
G1 F1080 X194.276 Y81.139 E2043.62076
G0 F9000 X195.061 Y80.51
G1 F1080 X197.065 Y82.514 E2043.97424
G0 F9000 X197.066 Y81.1
G1 F1080 X195.856 Y79.183 E2044.22164
G1 X197.067 Y78.98 E2044.40098
G1 X196.105 Y77.311 E2044.64125
G0 F9000 X197.097 Y76.889
G1 F1080 X164.111 Y43.903 E2050.4596
G0 F9000 X163.688 Y44.894
G1 F1080 X162.531 Y44.445 E2050.62771
G1 X161.311 Y44.639 E2050.80551
G1 X159.906 Y43.941 E2051.00118
G0 F9000 X158.492 Y43.941
G1 F1080 X160.489 Y45.938 E2051.35343
G0 F9000 X159.86 Y46.723
G1 F1080 X157.078 Y43.941 E2051.84414
G0 F9000 X155.663 Y43.941
G1 F1080 X159.424 Y47.701 E2052.50745
G0 F9000 X159.287 Y48.978
G1 F1080 X154.249 Y43.941 E2053.39601
G0 F9000 X152.835 Y43.941
G1 F1080 X160.221 Y51.327 E2054.69882
G0 F9000 X160.681 Y51.787
G1 F1080 X189.213 Y80.318 E2059.73144
G0 F9000 X189.672 Y80.778
G1 F1080 X197.062 Y88.168 E2061.03496
G0 F9000 X191.287 Y83.807
G1 F1080 X157.174 Y49.694 E2067.0521
G0 F9000 X157.288 Y51.222
G1 F1080 X189.779 Y83.713 E2072.78314
G0 F9000 X188.66 Y84.008
G1 F1080 X156.991 Y52.339 E2078.36918
G0 F9000 X156.465 Y53.227
G1 F1080 X187.774 Y84.536 E2083.89173
G0 F9000 X187.037 Y85.214
G1 F1080 X155.789 Y53.965 E2089.40361
G0 F9000 X155.081 Y54.672
G1 F1080 X186.33 Y85.921 E2094.91557
G0 F9000 X185.623 Y86.628
G1 F1080 X154.374 Y55.379 E2100.42754
G0 F9000 X153.667 Y56.087
G1 F1080 X184.916 Y87.335 E2105.93941
G0 F9000 X184.209 Y88.042
G1 F1080 X152.96 Y56.794 E2111.45129
G0 F9000 X152.253 Y57.501
G1 F1080 X183.501 Y88.749 E2116.96308
G0 F9000 X182.794 Y89.456
G1 F1080 X151.546 Y58.208 E2122.47486
G0 F9000 X150.839 Y58.915
G1 F1080 X182.087 Y90.163 E2127.98665
G0 F9000 X181.379 Y90.87
G1 F1080 X150.132 Y59.622 E2133.49835
G0 F9000 X149.425 Y60.329
G1 F1080 X180.672 Y91.577 E2139.01005
G0 F9000 X179.965 Y92.284
G1 F1080 X148.717 Y61.036 E2144.52184
G0 F9000 X148.01 Y61.743
G1 F1080 X179.258 Y92.991 E2150.03363
G0 F9000 X178.551 Y93.698
G1 F1080 X147.303 Y62.45 E2155.54542
G0 F9000 X146.596 Y63.158
G1 F1080 X177.844 Y94.405 E2161.05711
G0 F9000 X177.137 Y95.112
G1 F1080 X145.889 Y63.865 E2166.56881
G0 F9000 X145.182 Y64.572
G1 F1080 X176.43 Y95.82 E2172.0806
G0 F9000 X175.723 Y96.527
G1 F1080 X144.475 Y65.279 E2177.59239
G0 F9000 X143.768 Y65.986
G1 F1080 X175.015 Y97.234 E2183.10409
G0 F9000 X174.308 Y97.941
G1 F1080 X143.061 Y66.693 E2188.61579
G0 F9000 X142.354 Y67.4
G1 F1080 X173.601 Y98.648 E2194.12749
G0 F9000 X172.894 Y99.355
G1 F1080 X141.646 Y68.107 E2199.63928
G0 F9000 X140.939 Y68.814
G1 F1080 X172.187 Y100.062 E2205.15107
G0 F9000 X171.48 Y100.769
G1 F1080 X140.232 Y69.522 E2210.66277
G0 F9000 X139.525 Y70.229
G1 F1080 X170.772 Y101.476 E2216.17438
G0 F9000 X170.065 Y102.183
G1 F1080 X138.818 Y70.936 E2221.68599
G0 F9000 X138.111 Y71.643
G1 F1080 X169.358 Y102.89 E2227.1976
G0 F9000 X168.651 Y103.597
G1 F1080 X137.404 Y72.35 E2232.70921
G0 F9000 X136.697 Y73.057
G1 F1080 X167.944 Y104.304 E2238.22082
G0 F9000 X167.237 Y105.011
G1 F1080 X135.989 Y73.763 E2243.73261
G0 F9000 X135.282 Y74.471
G1 F1080 X166.53 Y105.718 E2249.24431
G0 F9000 X165.822 Y106.425
G1 F1080 X134.575 Y75.178 E2254.75592
G0 F9000 X133.868 Y75.885
G1 F1080 X165.115 Y107.133 E2260.26762
G0 F9000 X164.408 Y107.84
G1 F1080 X133.16 Y76.592 E2265.77941
G0 F9000 X132.453 Y77.299
G1 F1080 X163.701 Y108.547 E2271.2912
G0 F9000 X162.994 Y109.254
G1 F1080 X131.746 Y78.006 E2276.80299
G0 F9000 X131.039 Y78.713
G1 F1080 X162.287 Y109.961 E2282.31477
G0 F9000 X161.58 Y110.668
G1 F1080 X130.332 Y79.42 E2287.82656
G0 F9000 X129.625 Y80.127
G1 F1080 X160.873 Y111.375 E2293.33835
G0 F9000 X160.165 Y112.082
G1 F1080 X128.918 Y80.835 E2298.84996
G0 F9000 X128.211 Y81.542
G1 F1080 X159.458 Y112.789 E2304.36157
G0 F9000 X158.751 Y113.496
G1 F1080 X127.504 Y82.249 E2309.87318
G0 F9000 X126.796 Y82.956
G1 F1080 X158.044 Y114.203 E2315.38488
G0 F9000 X157.336 Y114.91
G1 F1080 X126.089 Y83.663 E2320.8965
G0 F9000 X125.382 Y84.37
G1 F1080 X156.629 Y115.617 E2326.40811
G0 F9000 X155.922 Y116.324
G1 F1080 X124.675 Y85.077 E2331.91972
G0 F9000 X123.968 Y85.784
G1 F1080 X155.215 Y117.031 E2337.43133
G0 F9000 X153.746 Y116.977
G1 F1080 X123.261 Y86.491 E2342.80862
G0 F9000 X122.554 Y87.198
G1 F1080 X152.618 Y117.263 E2348.11165
G0 F9000 X151.748 Y117.807
G1 F1080 X121.847 Y87.906 E2353.38585
G0 F9000 X121.14 Y88.613
G1 F1080 X151.089 Y118.562 E2358.66851
G0 F9000 X150.655 Y119.542
G1 F1080 X120.433 Y89.32 E2363.99932
G0 F9000 X119.725 Y90.027
G1 F1080 X150.609 Y120.911 E2369.4469
G0 F9000 X150.266 Y121.982
G1 F1080 X119.018 Y90.734 E2374.95869
G0 F9000 X118.311 Y91.441
G1 F1080 X149.559 Y122.689 E2380.47048
G0 F9000 X148.852 Y123.396
G1 F1080 X117.604 Y92.148 E2385.98227
G0 F9000 X116.897 Y92.855
G1 F1080 X148.145 Y124.103 E2391.49405
G0 F9000 X147.505 Y124.877
G1 F1080 X116.122 Y93.495 E2397.02957
G0 F9000 X115.16 Y93.946
G1 F1080 X147.053 Y125.84 E2402.65521
G0 F9000 X146.872 Y127.073
G1 F1080 X113.927 Y94.128 E2408.46633
G0 F9000 X111.891 Y93.506
G1 F1080 X147.493 Y129.108 E2414.74612
G0 F9000 X95.646 Y121.101
G1 F1080 X184.181 Y209.637 E2430.36276
G0 F9000 X183.474 Y210.344
G1 F1080 X95.267 Y122.137 E2445.92146
G0 F9000 X94.632 Y122.916
G1 F1080 X182.767 Y211.051 E2461.46746
G0 F9000 X182.06 Y211.758
G1 F1080 X93.787 Y123.486 E2477.03771
G0 F9000 X92.69 Y123.803
G1 F1080 X181.353 Y212.465 E2492.67676
G0 F9000 X180.645 Y213.172
G1 F1080 X91.089 Y123.616 E2508.47341
G0 F9000 X77.546 Y97.345
G1 F1080 X34.191 Y53.99 E2516.12073
G0 F9000 X34.898 Y53.283
G1 F1080 X77.391 Y95.776 E2523.61601
G0 F9000 X77.715 Y94.686
G1 F1080 X35.605 Y52.576 E2531.04373
G0 F9000 X36.312 Y51.869
G1 F1080 X78.29 Y93.847 E2538.44817
G0 F9000 X79.077 Y93.22
G1 F1080 X37.019 Y51.162 E2545.86671
G0 F9000 X37.726 Y50.454
G1 F1080 X80.122 Y92.85 E2553.34488
G0 F9000 X71.318 Y52.933
G1 F1080 X68.483 Y50.099 E2553.84485
G0 F9000 X68.003 Y51.032
G1 F1080 X189.967 Y172.997 E2575.35799
G0 F9000 X189.224 Y173.668
G1 F1080 X67.332 Y51.775 E2596.85842
G0 F9000 X66.475 Y52.333
G1 F1080 X188.666 Y174.524 E2618.41151
G0 F9000 X188.335 Y175.607
G1 F1080 X65.393 Y52.665 E2640.09707
G0 F9000 X63.95 Y52.636
G1 F1080 X188.364 Y177.05 E2662.04227
G0 F9000 X189.323 Y175.333
G0 X189.432 Y174.616
G0 X190.901 Y172.516
G0 X190.901 Y172.516
G1 F1080 X188.11 Y169.726 E2662.53448
G0 F9000 X190.141 Y170.342
G1 F1080 X192.079 Y172.28 E2662.87632
G0 F9000 X193.878 Y172.664
G1 F1080 X191.365 Y170.151 E2663.31958
G1 F1800 E2660.31958
G1 Z1.799
G0 F9000 X192.135 Y168.774
G0 X192.965 Y168.031
G0 X199.298 Y153.399
