; Generated with MatterSlice 1.0
; filamentDiameter = 1.75
; extrusionWidth = 0.4
; firstLayerExtrusionWidth = 1
; layerThickness = 0.2
; firstLayerThickness = 0.3
; automatic settings before start_gcode
G21 ; set units to millimeters
M107 ; fan off
M190 S12 ; wait for bed temperature to be reached
M104 T0 S215 ; start heating extruder 0
T0 ; set the active extruder to 0
; settings from start_gcode
G28 X0 Y0 Z0 ; home all axes
G1 Z5 F5000 ; lift nozzle
M109 S210 ; set the extruder temp and wait
G28 X0 Y0 Z0 ; Home Z again in case there was filament on nozzle
M565 Z0
G29 ; probe the bed
; automatic settings after start_gcode
T0 ; set the active extruder to 0
G90 ; use absolute coordinates
G92 E0 ; reset the expected extruder position
M82 ; use absolute distance for extrusion
; Layer count: 15
; LAYER:0
M107
G0 F9000 X38.646 Y19.119 Z1.299
; TYPE:WALL-OUTER
G1 Z1.299
G1 F1800 E0
G1 F1080 X70.732 Y51.205 E5.6596
G1 X71.971 Y52.262 E5.86273
G1 X73.376 Y53.123 E6.06826
G1 X74.898 Y53.754 E6.27376
G1 X76.501 Y54.138 E6.47935
G1 X78.045 Y54.26 E6.67253
G1 X149.878 Y54.266 E15.63193
G1 X151.501 Y54.138 E15.83499
G1 X153.103 Y53.754 E16.04046
G1 X154.626 Y53.123 E16.24608
G1 X156.031 Y52.262 E16.4516
G1 X157.209 Y51.255 E16.6449
G1 X189.355 Y19.118 E22.31429
G1 X213.5 Y43.264 E26.57328
G1 X213.5 Y49.421 E27.34121
G1 X213.247 Y49.568 E27.37771
G1 X212.765 Y50.04 E27.46185
G1 X212.42 Y50.621 E27.54613
G1 X212.237 Y51.274 E27.63071
G1 X212.228 Y51.95 E27.71503
G1 X212.394 Y52.607 E27.79955
G1 X212.724 Y53.197 E27.88387
G1 X213.196 Y53.683 E27.96837
G1 X213.5 Y53.865 E28.01256
G1 X213.5 Y60.026 E28.78099
G1 X189.795 Y83.731 E32.96228
G1 X188.738 Y84.97 E33.16541
G1 X187.877 Y86.374 E33.37083
G1 X187.247 Y87.897 E33.5764
G1 X186.862 Y89.499 E33.7819
G1 X186.74 Y91.044 E33.9752
G1 X186.734 Y162.877 E42.93461
G1 X186.862 Y164.5 E43.13767
G1 X187.247 Y166.102 E43.34317
G1 X187.877 Y167.625 E43.54873
G1 X188.738 Y169.03 E43.75426
G1 X189.745 Y170.208 E43.94755
G1 X213.5 Y193.972 E48.13846
G1 X213.5 Y200.13 E48.90652
G1 X213.247 Y200.277 E48.94301
G1 X212.765 Y200.75 E49.02724
G1 X212.421 Y201.33 E49.11135
G1 X212.237 Y201.983 E49.19596
G1 X212.228 Y202.66 E49.28041
G1 X212.395 Y203.317 E49.36496
G1 X212.724 Y203.906 E49.44911
G1 X213.195 Y204.393 E49.53361
G1 X213.5 Y204.576 E49.57797
G1 X213.5 Y210.736 E50.34628
G1 X189.356 Y234.881 E54.6051
G1 X157.269 Y202.795 E60.26478
G1 X156.031 Y201.737 E60.4679
G1 X154.626 Y200.876 E60.67343
G1 X153.103 Y200.246 E60.87899
G1 X151.502 Y199.861 E61.08437
G1 X149.956 Y199.739 E61.2778
G1 X78.123 Y199.733 E70.2372
G1 X76.5 Y199.861 E70.44026
G1 X74.898 Y200.246 E70.64576
G1 X73.376 Y200.876 E70.85121
G1 X71.971 Y201.737 E71.05674
G1 X70.792 Y202.743 E71.25005
G1 X38.646 Y234.881 E76.91953
G1 X14.501 Y210.736 E81.17843
G1 X14.501 Y204.58 E81.94624
G1 X14.756 Y204.432 E81.98301
G1 X15.237 Y203.959 E82.06715
G1 X15.581 Y203.378 E82.15137
G1 X15.764 Y202.726 E82.23583
G1 X15.773 Y202.049 E82.32028
G1 X15.607 Y201.393 E82.40468
G1 X15.278 Y200.803 E82.48893
G1 X14.806 Y200.316 E82.57352
G1 X14.501 Y200.134 E82.61782
G1 X14.501 Y193.973 E83.38625
G1 X38.205 Y170.268 E87.56746
G1 X39.263 Y169.03 E87.77057
G1 X40.124 Y167.625 E87.9761
G1 X40.755 Y166.102 E88.18171
G1 X41.139 Y164.499 E88.3873
G1 X41.261 Y162.955 E88.58048
G1 X41.267 Y91.122 E97.53989
G1 X41.139 Y89.5 E97.74282
G1 X40.755 Y87.897 E97.94841
G1 X40.124 Y86.374 E98.15403
G1 X39.263 Y84.97 E98.35945
G1 X38.257 Y83.791 E98.55276
G1 X14.501 Y60.027 E102.74375
G1 X14.501 Y53.869 E103.51181
G1 X14.755 Y53.722 E103.54841
G1 X15.237 Y53.25 E103.63255
G1 X15.581 Y52.668 E103.71687
G1 X15.764 Y52.016 E103.80134
G1 X15.773 Y51.34 E103.88566
G1 X15.607 Y50.684 E103.97006
G1 X15.278 Y50.093 E104.05442
G1 X14.806 Y49.607 E104.13892
G1 X14.501 Y49.425 E104.18322
G1 X14.501 Y43.264 E104.95166
G1 X38.009 Y19.756 E109.0982
G0 F9000 X38.583 Y19.902
G0 X38.726 Y22.99
G0 X38.726 Y22.99
G0 X38.646 Y23.585
G1 F1080 X37.972 Y23.674 E109.18299
G1 X37.344 Y23.933 E109.26772
G1 X36.804 Y24.347 E109.35259
G1 X36.39 Y24.887 E109.43745
G1 X36.131 Y25.516 E109.5223
G1 X36.042 Y26.189 E109.60697
G1 X36.131 Y26.863 E109.69176
G1 X36.39 Y27.491 E109.77649
G1 X36.804 Y28.031 E109.86136
G1 X37.344 Y28.445 E109.94623
G1 X37.972 Y28.704 E110.03095
G1 X38.646 Y28.793 E110.11575
G1 X39.319 Y28.704 E110.20042
G1 X39.948 Y28.445 E110.28526
G1 X40.488 Y28.031 E110.37013
G1 X40.902 Y27.491 E110.455
G1 X41.161 Y26.863 E110.53973
G1 X41.25 Y26.189 E110.62452
G1 X41.161 Y25.516 E110.70919
G1 X40.902 Y24.887 E110.79403
G1 X40.488 Y24.347 E110.8789
G1 X39.948 Y23.933 E110.96377
G1 X39.525 Y23.759 E111.02082
G1 F1800 E108.02082
G1 Z1.799
G0 F9000 X38.726 Y22.99
G0 X38.694 Y22.955
G0 X40.299 Y23.323
G0 X64.019 Y51.447
G0 X64.382 Y51.924
G1 Z1.299
G1 F1800 E111.02082
G1 F1080 X63.967 Y52.464 E111.10576
G1 X63.708 Y53.093 E111.19061
G1 X63.619 Y53.766 E111.27528
G1 X63.708 Y54.44 E111.36007
G1 X63.967 Y55.068 E111.4448
G1 X64.381 Y55.608 E111.52967
G1 X64.921 Y56.022 E111.61454
G1 X65.55 Y56.282 E111.69943
G1 X66.223 Y56.37 E111.78408
G1 X66.897 Y56.282 E111.86886
G1 X67.525 Y56.022 E111.95363
G1 X68.065 Y55.608 E112.0385
G1 X68.479 Y55.068 E112.12337
G1 X68.739 Y54.44 E112.20815
G1 X68.827 Y53.766 E112.29292
G1 X68.739 Y53.093 E112.37758
G1 X68.479 Y52.464 E112.46247
G1 X68.064 Y51.924 E112.54741
G1 X67.525 Y51.511 E112.63211
G1 X66.898 Y51.251 E112.71677
G1 X66.223 Y51.162 E112.80168
G1 X65.549 Y51.251 E112.88648
G1 X65.126 Y51.426 E112.94357
G0 F9000 X64.019 Y51.447
G0 X63.942 Y51.386
G0 X65.368 Y50.571
G0 X67.08 Y50.571
G0 X68.562 Y51.426
G0 X72.81 Y58.25
G0 X73.362 Y58.48
G1 F1080 X73.152 Y58.987 E113.01202
G1 X73.08 Y59.532 E113.08059
G1 X73.152 Y60.077 E113.14915
G1 X73.362 Y60.584 E113.2176
G1 X73.696 Y61.02 E113.2861
G1 X74.132 Y61.355 E113.35468
G1 X74.64 Y61.565 E113.42324
G1 X75.187 Y61.637 E113.49205
G1 X75.75 Y61.556 E113.563
G1 X76.236 Y61.355 E113.62859
G1 X76.673 Y61.021 E113.6972
G1 X77.007 Y60.584 E113.7658
G1 X77.217 Y60.076 E113.83436
G1 X77.288 Y59.532 E113.90278
G1 X77.217 Y58.988 E113.97121
G1 X77.007 Y58.48 E114.03977
G1 X76.672 Y58.044 E114.10835
G1 X76.236 Y57.71 E114.17685
G1 X75.729 Y57.5 E114.2453
G1 X75.184 Y57.428 E114.31386
G1 X74.639 Y57.5 E114.38243
G1 X74.132 Y57.71 E114.45088
G1 X73.975 Y57.83 E114.47552
G0 F9000 X72.81 Y58.25
G0 X66.098 Y75.44
G0 X66.098 Y75.44
G0 X65.868 Y75.992
G1 F1080 X65.361 Y75.782 E114.54397
G1 X64.816 Y75.71 E114.61253
G1 X64.27 Y75.782 E114.68122
G1 X63.764 Y75.992 E114.74956
G1 X63.328 Y76.326 E114.81806
G1 X62.993 Y76.762 E114.88664
G1 X62.783 Y77.27 E114.9552
G1 X62.712 Y77.814 E115.02362
G1 X62.783 Y78.359 E115.09217
G1 X62.993 Y78.866 E115.16062
G1 X63.327 Y79.303 E115.22922
G1 X63.764 Y79.637 E115.29782
G1 X64.271 Y79.847 E115.36627
G1 X64.819 Y79.919 E115.43521
G1 X65.382 Y79.838 E115.50615
G1 X65.868 Y79.637 E115.57175
G1 X66.304 Y79.302 E115.64032
G1 X66.638 Y78.866 E115.70883
G1 X66.848 Y78.36 E115.77716
G1 X66.92 Y77.814 E115.84585
G1 X66.848 Y77.269 E115.91441
G1 X66.638 Y76.762 E115.98286
G1 X66.518 Y76.605 E116.00751
G1 F1800 E113.00751
G1 Z1.799
G0 F9000 X66.098 Y75.44
G0 X66.139 Y75.345
G0 X67.247 Y76.41
G0 X67.528 Y78.542
G0 X58.284 Y92.856
G0 X58.205 Y93.45
G1 Z1.299
G1 F1800 E116.00751
G1 F1080 X56.812 Y93.266 E116.18276
G1 X51.746 Y93.266 E116.81462
G1 X50.354 Y93.45 E116.98974
G1 X49.027 Y93.999 E117.16886
G1 X47.887 Y94.874 E117.3481
G1 X47.012 Y96.014 E117.52734
G1 X46.463 Y97.341 E117.70646
G1 X46.279 Y98.733 E117.88159
G1 X46.279 Y158.803 E125.37385
G1 X46.451 Y160.151 E125.54334
G1 X46.967 Y161.444 E125.71698
G1 X47.792 Y162.564 E125.89048
G1 X48.869 Y163.444 E126.06395
G1 X50.134 Y164.024 E126.23752
G1 X50.586 Y164.105 E126.29479
G1 X50.392 Y164.632 E126.36484
G1 X50.346 Y165.159 E126.43082
G1 X50.432 Y165.682 E126.49692
G1 X50.649 Y166.168 E126.56331
G1 X50.979 Y166.582 E126.62934
G1 X51.402 Y166.901 E126.69542
G1 X51.894 Y167.105 E126.76185
G1 X52.442 Y167.181 E126.83086
G1 X52.972 Y167.114 E126.89749
G1 X53.443 Y166.926 E126.96074
G1 X53.873 Y166.619 E127.02664
G1 X54.214 Y166.213 E127.09277
G1 X54.443 Y165.732 E127.15921
G1 X54.542 Y165.212 E127.22523
G1 X54.51 Y164.683 E127.29134
G1 X54.374 Y164.265 E127.34616
G1 X56.812 Y164.265 E127.65024
G1 X58.205 Y164.082 E127.82548
G1 X59.531 Y163.532 E128.00453
G1 X60.672 Y162.658 E128.18379
G1 X61.547 Y161.517 E128.36313
G1 X62.096 Y160.189 E128.54236
G1 X62.279 Y158.798 E128.71735
G1 X62.279 Y98.733 E136.20899
G1 X62.096 Y97.342 E136.38398
G1 X61.547 Y96.014 E136.56321
G1 X60.672 Y94.874 E136.74245
G1 X59.531 Y93.999 E136.92179
G1 X59.037 Y93.795 E136.98845
G0 F9000 X58.284 Y92.856
G0 X43.083 Y81.429
G0 X43.083 Y81.429
G0 X42.609 Y81.064
G1 F1080 X43.023 Y80.524 E137.07332
G1 X43.283 Y79.896 E137.15809
G1 X43.371 Y79.222 E137.24287
G1 X43.283 Y78.549 E137.32753
G1 X43.023 Y77.92 E137.41242
G1 X42.609 Y77.38 E137.49729
G1 X42.069 Y76.966 E137.58215
G1 X41.441 Y76.707 E137.66688
G1 X40.767 Y76.618 E137.75168
G1 X40.094 Y76.707 E137.83635
G1 X39.465 Y76.966 E137.92119
G1 X38.925 Y77.381 E138.00613
G1 X38.512 Y77.92 E138.09083
G1 X38.252 Y78.548 E138.1756
G1 X38.163 Y79.222 E138.2604
G1 X38.252 Y79.897 E138.34532
G1 X38.512 Y80.524 E138.42998
G1 X38.925 Y81.063 E138.51467
G1 X39.465 Y81.478 E138.59961
G1 X40.094 Y81.737 E138.68445
G1 X40.767 Y81.826 E138.76913
G1 X41.441 Y81.737 E138.85392
G1 X41.865 Y81.562 E138.91113
G1 F1800 E135.91113
G1 Z1.799
G0 F9000 X43.083 Y81.429
G0 X72.81 Y98.25
G0 X72.81 Y98.25
G0 X73.362 Y98.48
G1 Z1.299
G1 F1800 E138.91113
G1 F1080 X73.152 Y98.987 E138.97958
G1 X73.08 Y99.532 E139.04814
G1 X73.152 Y100.077 E139.11671
G1 X73.362 Y100.584 E139.18516
G1 X73.696 Y101.02 E139.25366
G1 X74.132 Y101.355 E139.32224
G1 X74.64 Y101.565 E139.3908
G1 X75.187 Y101.637 E139.45961
G1 X75.75 Y101.556 E139.53055
G1 X76.236 Y101.355 E139.59615
G1 X76.673 Y101.021 E139.66475
G1 X77.007 Y100.584 E139.73335
G1 X77.217 Y100.076 E139.80192
G1 X77.288 Y99.532 E139.87034
G1 X77.217 Y98.988 E139.93877
G1 X77.007 Y98.48 E140.00733
G1 X76.672 Y98.044 E140.07591
G1 X76.236 Y97.71 E140.14441
G1 X75.729 Y97.5 E140.21286
G1 X75.184 Y97.428 E140.28142
G1 X74.639 Y97.5 E140.34999
G1 X74.132 Y97.71 E140.41843
G1 X73.975 Y97.83 E140.44308
G1 F1800 E137.44308
G1 Z1.799
G0 F9000 X72.81 Y98.25
G0 X72.785 Y98.192
G0 X72.375 Y99.532
G0 X73.198 Y101.518
G0 X80.364 Y116.468
G0 X80.727 Y116.944
G1 Z1.299
G1 F1800 E140.44308
G1 F1080 X80.291 Y117.278 E140.51158
G1 X79.957 Y117.714 E140.58009
G1 X79.747 Y118.221 E140.64853
G1 X79.675 Y118.766 E140.7171
G1 X79.747 Y119.311 E140.78566
G1 X79.957 Y119.818 E140.85411
G1 X80.291 Y120.254 E140.92261
G1 X80.727 Y120.589 E140.99119
G1 X81.235 Y120.799 E141.05975
G1 X81.782 Y120.871 E141.12856
G1 X82.346 Y120.79 E141.19963
G1 X82.831 Y120.589 E141.26511
G1 X83.268 Y120.255 E141.33371
G1 X83.602 Y119.818 E141.40232
G1 X83.812 Y119.31 E141.47088
G1 X83.883 Y118.766 E141.5393
G1 X83.812 Y118.222 E141.60773
G1 X83.602 Y117.714 E141.67629
G1 X83.267 Y117.278 E141.74487
G1 X82.831 Y116.944 E141.81337
G1 X82.325 Y116.734 E141.8817
G1 X81.779 Y116.662 E141.95039
G1 X81.584 Y116.687 E141.97491
G1 F1800 E138.97491
G1 Z1.799
G0 F9000 X80.364 Y116.468
G0 X80.352 Y116.467
G0 X81.779 Y115.957
G0 X140.681 Y118.739
G0 X141.08 Y118.754
G0 X141.384 Y118.766
G0 X141.384 Y118.766
G1 Z1.299
G1 F1800 E141.97491
G1 F1080 X141.456 Y119.311 E142.04348
G1 X141.666 Y119.818 E142.11192
G1 X142 Y120.254 E142.18043
G1 X142.436 Y120.589 E142.24901
G1 X142.944 Y120.799 E142.31757
G1 X143.491 Y120.871 E142.38638
G1 X144.055 Y120.79 E142.45745
G1 X144.54 Y120.589 E142.52293
G1 X144.977 Y120.255 E142.59153
G1 X145.311 Y119.818 E142.66013
G1 X145.521 Y119.31 E142.72869
G1 X145.592 Y118.766 E142.79712
G1 X145.521 Y118.222 E142.86555
G1 X145.311 Y117.714 E142.93411
G1 X144.976 Y117.278 E143.00268
G1 X144.54 Y116.944 E143.07119
G1 X144.034 Y116.734 E143.13952
G1 X143.488 Y116.662 E143.20821
G1 X142.943 Y116.734 E143.27677
G1 X142.436 Y116.944 E143.34522
G1 X142 Y117.278 E143.41372
G1 X141.666 Y117.714 E143.48223
G1 X141.591 Y117.896 E143.50678
G0 F9000 X141.714 Y117.033
G0 X141.79 Y116.64
G0 X144.561 Y102.159
G0 X144.639 Y101.565
G1 F1080 X145.186 Y101.637 E143.57559
G1 X145.749 Y101.556 E143.64653
G1 X146.235 Y101.355 E143.71213
G1 X146.672 Y101.021 E143.78073
G1 X147.006 Y100.584 E143.84933
G1 X147.216 Y100.076 E143.91789
G1 X147.287 Y99.532 E143.98632
G1 X147.216 Y98.988 E144.05475
G1 X147.006 Y98.48 E144.12331
G1 X146.671 Y98.044 E144.19189
G1 X146.235 Y97.71 E144.26039
G1 X145.728 Y97.5 E144.32884
G1 X145.183 Y97.428 E144.3974
G1 X144.638 Y97.5 E144.46597
G1 X144.131 Y97.71 E144.53441
G1 X143.695 Y98.044 E144.60292
G1 X143.361 Y98.48 E144.67142
G1 X143.151 Y98.987 E144.73986
G1 X143.079 Y99.532 E144.80843
G1 X143.151 Y100.077 E144.877
G1 X143.361 Y100.584 E144.94544
G1 X143.695 Y101.02 E145.01394
G1 X143.852 Y101.14 E145.03859
G1 F1800 E142.03859
G1 Z1.799
G0 F9000 X144.561 Y102.159
G0 X144.508 Y102.228
G0 X146.586 Y101.965
G0 X147.896 Y100.258
G0 X161.333 Y79.777
G0 X161.698 Y79.303
G1 Z1.299
G1 F1800 E145.03859
G1 F1080 X162.134 Y79.637 E145.10709
G1 X162.642 Y79.847 E145.17566
G1 X163.189 Y79.919 E145.24447
G1 X163.752 Y79.838 E145.31541
G1 X164.238 Y79.637 E145.38101
G1 X164.674 Y79.303 E145.44951
G1 X165.009 Y78.867 E145.51809
G1 X165.219 Y78.359 E145.58665
G1 X165.29 Y77.814 E145.6552
G1 X165.219 Y77.27 E145.72363
G1 X165.009 Y76.761 E145.7923
G1 X164.673 Y76.326 E145.86086
G1 X164.238 Y75.992 E145.92926
G1 X163.731 Y75.782 E145.99771
G1 X163.186 Y75.71 E146.06627
G1 X162.641 Y75.782 E146.13484
G1 X162.134 Y75.992 E146.20329
G1 X161.699 Y76.326 E146.27169
G1 X161.363 Y76.762 E146.34034
G1 X161.154 Y77.27 E146.40886
G1 X161.082 Y77.814 E146.4773
G1 X161.154 Y78.359 E146.54587
G1 X161.229 Y78.542 E146.57053
G1 F1800 E143.57053
G1 Z1.799
G0 F9000 X161.333 Y79.777
G0 X161.29 Y79.777
G0 X162.46 Y80.527
G0 X183.926 Y79.238
G0 X184.326 Y79.228
G0 X184.63 Y79.222
G0 X184.63 Y79.222
G1 Z1.299
G1 F1800 E146.57053
G1 F1080 X184.719 Y79.897 E146.65545
G1 X184.979 Y80.524 E146.74011
G1 X185.392 Y81.063 E146.82481
G1 X185.932 Y81.478 E146.90975
G1 X186.561 Y81.737 E146.99459
G1 X187.234 Y81.826 E147.07926
G1 X187.908 Y81.737 E147.16406
G1 X188.536 Y81.478 E147.24879
G1 X189.076 Y81.064 E147.33365
G1 X189.49 Y80.524 E147.41852
G1 X189.75 Y79.896 E147.5033
G1 X189.838 Y79.222 E147.58808
G1 X189.75 Y78.549 E147.67273
G1 X189.49 Y77.92 E147.75762
G1 X189.076 Y77.38 E147.84249
G1 X188.536 Y76.966 E147.92736
G1 X187.908 Y76.707 E148.01208
G1 X187.234 Y76.618 E148.09688
G1 X186.561 Y76.707 E148.18155
G1 X185.932 Y76.966 E148.26639
G1 X185.392 Y77.381 E148.35134
G1 X184.979 Y77.92 E148.43603
G1 X184.804 Y78.343 E148.49313
G1 F1800 E145.49313
G1 Z1.799
G0 F9000 X184.322 Y78.874
G0 X184.057 Y78.574
G0 X164.094 Y55.973
G0 X163.62 Y55.608
G1 Z1.299
G1 F1800 E148.49313
G1 F1080 X164.034 Y55.068 E148.57799
G1 X164.294 Y54.44 E148.66277
G1 X164.382 Y53.766 E148.74755
G1 X164.294 Y53.093 E148.8322
G1 X164.034 Y52.464 E148.91709
G1 X163.619 Y51.924 E149.00204
G1 X163.08 Y51.511 E149.08673
G1 X162.453 Y51.251 E149.17139
G1 X161.778 Y51.162 E149.25631
G1 X161.104 Y51.251 E149.3411
G1 X160.476 Y51.511 E149.42588
G1 X159.937 Y51.924 E149.51057
G1 X159.523 Y52.464 E149.59544
G1 X159.263 Y53.092 E149.68021
G1 X159.174 Y53.766 E149.76501
G1 X159.263 Y54.441 E149.84993
G1 X159.523 Y55.068 E149.93459
G1 X159.937 Y55.607 E150.01936
G1 X160.476 Y56.022 E150.1042
G1 X161.105 Y56.282 E150.18909
G1 X161.778 Y56.37 E150.27375
G1 X162.452 Y56.282 E150.35852
G1 X162.876 Y56.107 E150.41574
G0 F9000 X164.094 Y55.973
G0 X164.119 Y55.968
G0 X162.634 Y56.962
G0 X147.811 Y58.911
G0 X147.216 Y58.988
G1 F1080 X147.006 Y58.48 E150.4843
G1 X146.671 Y58.044 E150.55288
G1 X146.235 Y57.71 E150.62138
G1 X145.728 Y57.5 E150.68982
G1 X145.183 Y57.428 E150.75839
G1 X144.638 Y57.5 E150.82696
G1 X144.131 Y57.71 E150.8954
G1 X143.695 Y58.044 E150.9639
G1 X143.361 Y58.48 E151.03241
G1 X143.151 Y58.987 E151.10085
G1 X143.079 Y59.532 E151.16942
G1 X143.151 Y60.077 E151.23798
G1 X143.361 Y60.584 E151.30643
G1 X143.695 Y61.02 E151.37493
G1 X144.131 Y61.355 E151.44351
G1 X144.639 Y61.565 E151.51207
G1 X145.186 Y61.637 E151.58089
G1 X145.749 Y61.556 E151.65183
G1 X146.235 Y61.355 E151.71743
G1 X146.672 Y61.021 E151.78603
G1 X147.006 Y60.584 E151.85463
G1 X147.216 Y60.076 E151.92319
G1 X147.241 Y59.882 E151.94759
G1 F1800 E148.94759
G1 Z1.799
G0 F9000 X147.811 Y58.911
G0 X147.909 Y58.898
G0 X147.169 Y57.546
G0 X145.183 Y56.723
G0 X143.198 Y57.547
G0 X142.378 Y59.533
G0 X121.954 Y61.877
G0 X121.954 Y61.277
G1 Z1.299
G1 F1800 E151.94759
G1 F1080 X121.954 Y55.277 E152.69594
G1 X115.954 Y55.277 E153.44429
G1 X115.954 Y61.277 E154.19265
G1 X121.054 Y61.277 E154.82875
G0 F9000 X121.954 Y61.877
G0 X111.955 Y61.877
G0 X111.955 Y61.877
G0 X111.955 Y61.277
G1 F1080 X111.955 Y55.277 E155.5771
G1 X105.955 Y55.277 E156.32545
G1 X105.955 Y61.277 E157.07381
G1 X111.055 Y61.277 E157.70991
G1 F1800 E154.70991
G1 Z1.799
G0 F9000 X111.955 Y61.877
G0 X111.988 Y61.86
G0 X112.596 Y61.918
G0 X115.271 Y60.357
G0 X115.313 Y54.636
G0 X122.595 Y54.636
G0 X122.634 Y56.985
G0 X151.611 Y54.831
G0 X154.944 Y53.748
G0 X157.683 Y51.769
G0 X186.547 Y27.721
G0 X187.1 Y27.491
G1 Z1.299
G1 F1800 E157.70991
G1 F1080 X187.514 Y28.031 E157.79477
G1 X188.054 Y28.445 E157.87964
G1 X188.682 Y28.704 E157.96437
G1 X189.356 Y28.793 E158.04916
G1 X190.029 Y28.704 E158.13384
G1 X190.658 Y28.445 E158.21868
G1 X191.198 Y28.03 E158.30362
G1 X191.611 Y27.491 E158.38832
G1 X191.871 Y26.864 E158.47298
G1 X191.96 Y26.189 E158.55789
G1 X191.871 Y25.515 E158.64269
G1 X191.611 Y24.887 E158.72746
G1 X191.198 Y24.348 E158.81216
G1 X190.658 Y23.933 E158.8971
G1 X190.029 Y23.674 E158.98194
G1 X189.356 Y23.585 E159.06661
G1 X188.682 Y23.674 E159.15141
G1 X188.054 Y23.933 E159.23614
G1 X187.514 Y24.347 E159.321
G1 X187.1 Y24.887 E159.40587
G1 X186.84 Y25.516 E159.49076
G1 X186.752 Y26.189 E159.57542
G1 X186.811 Y26.643 E159.63252
G1 F1800 E156.63252
G1 Z1.799
G0 F9000 X186.547 Y27.721
G0 X185.833 Y76.265
G0 X184.369 Y77.569
G0 X183.925 Y79.222
G0 X185.123 Y124.658
G0 X185.123 Y125.258
G1 Z1.299
G1 F1800 E159.63252
G1 F1080 X179.123 Y125.258 E160.38087
G1 X179.123 Y131.257 E161.1291
G1 X185.123 Y131.257 E161.87745
G1 X185.123 Y126.158 E162.51343
G0 F9000 X185.123 Y124.658
G0 X185.123 Y124.558
G0 X185.764 Y124.617
G0 X185.764 Y131.898
G0 X185.123 Y134.657
G0 X185.123 Y135.257
G1 F1080 X179.123 Y135.257 E163.26178
G1 X179.123 Y141.257 E164.01014
G1 X185.123 Y141.257 E164.75849
G1 X185.123 Y136.157 E165.39459
G1 F1800 E162.39459
G1 Z1.799
G0 F9000 X185.123 Y134.657
G0 X185.116 Y134.557
G0 X185.764 Y134.616
G0 X186.169 Y164.609
G0 X187.314 Y171.578
G0 X187.234 Y172.173
G1 Z1.299
G1 F1800 E165.39459
G1 F1080 X186.56 Y172.262 E165.47938
G1 X185.932 Y172.522 E165.56416
G1 X185.392 Y172.935 E165.64895
G1 X184.979 Y173.475 E165.73374
G1 X184.719 Y174.103 E165.81852
G1 X184.63 Y174.777 E165.90331
G1 X184.719 Y175.452 E165.98823
G1 X184.979 Y176.079 E166.07289
G1 X185.392 Y176.618 E166.15758
G1 X185.932 Y177.033 E166.24253
G1 X186.561 Y177.293 E166.32742
G1 X187.234 Y177.381 E166.41207
G1 X187.908 Y177.293 E166.49685
G1 X188.536 Y177.033 E166.58163
G1 X189.076 Y176.619 E166.66649
G1 X189.49 Y176.079 E166.75136
G1 X189.75 Y175.451 E166.83614
G1 X189.838 Y174.777 E166.92092
G1 X189.75 Y174.104 E167.00557
G1 X189.49 Y173.475 E167.09046
G1 X189.075 Y172.935 E167.17541
G1 X188.536 Y172.522 E167.2601
G1 X188.113 Y172.347 E167.31719
G1 F1800 E164.31719
G1 Z1.799
G0 F9000 X187.314 Y171.578
G0 X165.814 Y175.564
G0 X165.814 Y175.564
G0 X165.219 Y175.641
G1 Z1.299
G1 F1800 E167.31719
G1 F1080 X165.009 Y175.132 E167.38587
G1 X164.674 Y174.697 E167.45435
G1 X164.239 Y174.362 E167.52283
G1 X163.73 Y174.152 E167.59151
G1 X163.186 Y174.081 E167.65993
G1 X162.642 Y174.152 E167.72836
G1 X162.133 Y174.362 E167.79704
G1 X161.698 Y174.697 E167.86551
G1 X161.363 Y175.133 E167.93409
G1 X161.154 Y175.641 E168.00261
G1 X161.082 Y176.185 E168.07105
G1 X161.154 Y176.729 E168.13949
G1 X161.363 Y177.237 E168.20801
G1 X161.698 Y177.673 E168.27658
G1 X162.134 Y178.008 E168.34516
G1 X162.642 Y178.217 E168.41368
G1 X163.189 Y178.29 E168.48251
G1 X163.752 Y178.208 E168.55347
G1 X164.238 Y178.008 E168.61902
G1 X164.674 Y177.673 E168.68759
G1 X165.009 Y177.238 E168.75607
G1 X165.219 Y176.729 E168.82475
G1 X165.244 Y176.535 E168.84915
G1 F1800 E165.84915
G1 Z1.799
G0 F9000 X165.814 Y175.564
G0 X165.789 Y175.721
G0 X165.899 Y176.911
G0 X162.533 Y197.124
G0 X162.453 Y197.718
G1 Z1.299
G1 F1800 E168.84915
G1 F1080 X161.778 Y197.629 E168.93407
G1 X161.104 Y197.718 E169.01886
G1 X160.476 Y197.978 E169.10364
G1 X159.937 Y198.391 E169.18833
G1 X159.523 Y198.931 E169.2732
G1 X159.263 Y199.559 E169.35797
G1 X159.174 Y200.233 E169.44277
G1 X159.263 Y200.908 E169.52769
G1 X159.523 Y201.535 E169.61234
G1 X159.937 Y202.074 E169.69711
G1 X160.476 Y202.489 E169.78196
G1 X161.105 Y202.749 E169.86685
G1 X161.778 Y202.837 E169.9515
G1 X162.452 Y202.749 E170.03628
G1 X163.08 Y202.489 E170.12106
G1 X163.62 Y202.075 E170.20593
G1 X164.034 Y201.535 E170.29079
G1 X164.294 Y200.907 E170.37557
G1 X164.382 Y200.233 E170.46035
G1 X164.294 Y199.56 E170.545
G1 X164.034 Y198.931 E170.62989
G1 X163.619 Y198.391 E170.71484
G1 X163.257 Y198.114 E170.77169
G0 F9000 X162.533 Y197.124
G0 X146.287 Y195.436
G0 X145.889 Y195.395
G0 X145.592 Y195.365
G0 X145.592 Y195.365
G1 F1080 X145.521 Y194.821 E170.84012
G1 X145.311 Y194.313 E170.90868
G1 X144.976 Y193.877 E170.97726
G1 X144.54 Y193.543 E171.04576
G1 X144.034 Y193.333 E171.11409
G1 X143.488 Y193.261 E171.18278
G1 X142.943 Y193.333 E171.25134
G1 X142.436 Y193.543 E171.31979
G1 X142 Y193.877 E171.38829
G1 X141.666 Y194.313 E171.4568
G1 X141.456 Y194.82 E171.52524
G1 X141.384 Y195.365 E171.59381
G1 X141.456 Y195.91 E171.66237
G1 X141.666 Y196.417 E171.73082
G1 X142 Y196.853 E171.79932
G1 X142.436 Y197.188 E171.8679
G1 X142.944 Y197.398 E171.93646
G1 X143.491 Y197.47 E172.00527
G1 X144.055 Y197.389 E172.07634
G1 X144.54 Y197.188 E172.14182
G1 X144.977 Y196.854 E172.21042
G1 X145.311 Y196.417 E172.27903
G1 X145.386 Y196.235 E172.30358
G1 F1800 E169.30358
G1 Z1.799
G0 F9000 X145.891 Y195.59
G0 X146.21 Y195.831
G0 X156.443 Y201.171
G0 X186.548 Y226.278
G0 X187.1 Y226.508
G1 Z1.299
G1 F1800 E172.30358
G1 F1080 X186.84 Y227.137 E172.38847
G1 X186.752 Y227.81 E172.47312
G1 X186.84 Y228.484 E172.5579
G1 X187.1 Y229.112 E172.64268
G1 X187.514 Y229.652 E172.72755
G1 X188.054 Y230.066 E172.81241
G1 X188.682 Y230.326 E172.89719
G1 X189.356 Y230.414 E172.98197
G1 X190.029 Y230.326 E173.06662
G1 X190.658 Y230.066 E173.15151
G1 X191.198 Y229.651 E173.23646
G1 X191.611 Y229.112 E173.32115
G1 X191.871 Y228.485 E173.40581
G1 X191.96 Y227.81 E173.49073
G1 X191.871 Y227.136 E173.57552
G1 X191.611 Y226.508 E173.6603
G1 X191.198 Y225.968 E173.74509
G1 X190.658 Y225.555 E173.82988
G1 X190.03 Y225.295 E173.91466
G1 X189.356 Y225.206 E173.99945
G1 X188.681 Y225.295 E174.08437
G1 X188.054 Y225.555 E174.16903
G1 X187.689 Y225.834 E174.22633
G1 F1800 E171.22633
G1 Z1.799
G0 F9000 X186.548 Y226.278
G0 X179.506 Y224.189
G0 X156.443 Y201.171
G0 X153.319 Y199.579
G0 X149.982 Y199.04
G0 X84.406 Y195.986
G0 X83.812 Y195.909
G1 Z1.299
G1 F1800 E174.22633
G1 F1080 X83.883 Y195.365 E174.29476
G1 X83.812 Y194.821 E174.36318
G1 X83.602 Y194.313 E174.43174
G1 X83.267 Y193.877 E174.50032
G1 X82.831 Y193.543 E174.56883
G1 X82.325 Y193.333 E174.63716
G1 X81.779 Y193.261 E174.70585
G1 X81.234 Y193.333 E174.77441
G1 X80.727 Y193.543 E174.84286
G1 X80.291 Y193.877 E174.91136
G1 X79.957 Y194.313 E174.97986
G1 X79.747 Y194.82 E175.04831
G1 X79.675 Y195.365 E175.11688
G1 X79.747 Y195.91 E175.18544
G1 X79.957 Y196.417 E175.25389
G1 X80.291 Y196.853 E175.32239
G1 X80.727 Y197.188 E175.39097
G1 X81.235 Y197.398 E175.45953
G1 X81.782 Y197.47 E175.52834
G1 X82.346 Y197.389 E175.59941
G1 X82.831 Y197.188 E175.66489
G1 X83.268 Y196.854 E175.73349
G1 X83.388 Y196.696 E175.75824
G0 F9000 X84.406 Y195.986
G0 X84.496 Y195.964
G0 X83.765 Y197.351
G0 X81.786 Y198.174
G0 X69.334 Y199.483
G0 X68.739 Y199.56
G1 F1080 X68.479 Y198.931 E175.84313
G1 X68.064 Y198.391 E175.92807
G1 X67.525 Y197.978 E176.01277
G1 X66.898 Y197.718 E176.09743
G1 X66.223 Y197.629 E176.18234
G1 X65.549 Y197.718 E176.26714
G1 X64.921 Y197.978 E176.35191
G1 X64.382 Y198.391 E176.43661
G1 X63.967 Y198.931 E176.52155
G1 X63.708 Y199.56 E176.60639
G1 X63.619 Y200.233 E176.69107
G1 X63.708 Y200.907 E176.77586
G1 X63.967 Y201.535 E176.86059
G1 X64.381 Y202.075 E176.94546
G1 X64.921 Y202.489 E177.03032
G1 X65.55 Y202.749 E177.11521
G1 X66.223 Y202.837 E177.19987
G1 X66.897 Y202.749 E177.28465
G1 X67.525 Y202.489 E177.36942
G1 X68.065 Y202.075 E177.45429
G1 X68.479 Y201.535 E177.53916
G1 X68.739 Y200.907 E177.62393
G1 X68.798 Y200.454 E177.68091
G1 F1800 E174.68091
G1 Z1.799
G0 F9000 X69.334 Y199.483
G0 X69.353 Y199.499
G0 X68.562 Y197.893
G0 X43.083 Y176.984
G0 X42.609 Y176.619
G1 Z1.299
G1 F1800 E177.68091
G1 F1080 X43.023 Y176.079 E177.76578
G1 X43.283 Y175.451 E177.85055
G1 X43.371 Y174.777 E177.93533
G1 X43.283 Y174.104 E178.01999
G1 X43.023 Y173.475 E178.10488
G1 X42.608 Y172.935 E178.18982
G1 X42.069 Y172.522 E178.27452
G1 X41.442 Y172.262 E178.35918
G1 X40.767 Y172.173 E178.44409
G1 X40.093 Y172.262 E178.52889
G1 X39.465 Y172.522 E178.61366
G1 X38.925 Y172.935 E178.69846
G1 X38.512 Y173.475 E178.78325
G1 X38.252 Y174.103 E178.86802
G1 X38.163 Y174.777 E178.95282
G1 X38.252 Y175.452 E179.03774
G1 X38.512 Y176.079 E179.1224
G1 X38.925 Y176.618 E179.20709
G1 X39.465 Y177.033 E179.29203
G1 X40.094 Y177.293 E179.37692
G1 X40.767 Y177.381 E179.46158
G1 X41.441 Y177.293 E179.54636
G1 X41.865 Y177.118 E179.60357
G1 F1800 E176.60357
G1 Z1.799
G0 F9000 X43.083 Y176.984
G0 X38.726 Y224.611
G0 X38.726 Y224.611
G0 X38.646 Y225.206
G1 Z1.299
G1 F1800 E179.60357
G1 F1080 X37.971 Y225.295 E179.68849
G1 X37.344 Y225.555 E179.77315
G1 X36.805 Y225.968 E179.85784
G1 X36.39 Y226.508 E179.94278
G1 X36.131 Y227.137 E180.02763
G1 X36.042 Y227.81 E180.1123
G1 X36.131 Y228.484 E180.19709
G1 X36.39 Y229.112 E180.28182
G1 X36.804 Y229.652 E180.36669
G1 X37.344 Y230.066 E180.45156
G1 X37.972 Y230.326 E180.53633
G1 X38.646 Y230.414 E180.62111
G1 X39.319 Y230.326 E180.70576
G1 X39.948 Y230.066 E180.79065
G1 X40.488 Y229.652 E180.87552
G1 X40.902 Y229.112 E180.96039
G1 X41.161 Y228.484 E181.04512
G1 X41.25 Y227.81 E181.12991
G1 X41.161 Y227.137 E181.21458
G1 X40.902 Y226.508 E181.29943
G1 X40.487 Y225.968 E181.38437
G1 X39.948 Y225.555 E181.46906
G1 X39.525 Y225.38 E181.52616
G0 F9000 X38.646 Y224.197
; TYPE:WALL-INNER
G1 F1080 X37.709 Y224.321 E181.64405
G1 X36.84 Y224.682 E181.76141
G1 X36.092 Y225.254 E181.87886
G1 X35.516 Y226.004 E181.99681
G1 X35.157 Y226.876 E182.11442
G1 X35.033 Y227.81 E182.23194
G1 X35.157 Y228.745 E182.34958
G1 X35.516 Y229.616 E182.46708
G1 X36.091 Y230.365 E182.58485
G1 X36.839 Y230.939 E182.70245
G1 X37.711 Y231.301 E182.82021
G1 X38.646 Y231.423 E182.93782
G1 X39.58 Y231.301 E183.0553
G1 X40.453 Y230.939 E183.17318
G1 X41.201 Y230.365 E183.29078
G1 X41.776 Y229.616 E183.40855
G1 X42.135 Y228.745 E183.52605
G1 X42.259 Y227.81 E183.64369
G1 X42.135 Y226.876 E183.76121
G1 X41.776 Y226.004 E183.87882
G1 X41.2 Y225.254 E183.99677
G1 X40.452 Y224.681 E184.1143
G1 X39.581 Y224.321 E184.23184
G1 X39.539 Y224.316 E184.23712
G0 F9000 X38.624 Y224.603
G0 X38.62 Y224.501
G0 X40.299 Y224.945
G0 X41.512 Y226.157
G0 X41.955 Y227.81
G0 X41.512 Y229.463
G0 X38.931 Y233.75
G0 X38.646 Y233.467
G1 F1080 X15.501 Y210.322 E188.31963
G1 X15.501 Y205.101 E188.97082
G1 X16.031 Y204.581 E189.06343
G1 X16.508 Y203.775 E189.18025
G1 X16.762 Y202.87 E189.29748
G1 X16.774 Y201.93 E189.41474
G1 X16.544 Y201.02 E189.53181
G1 X16.088 Y200.202 E189.64861
G1 X15.501 Y199.596 E189.75384
G1 X15.501 Y194.387 E190.40354
G1 X38.94 Y170.947 E194.538
G1 X40.074 Y169.619 E194.7558
G1 X41.018 Y168.08 E194.98099
G1 X41.709 Y166.412 E195.20618
G1 X42.13 Y164.656 E195.4314
G1 X42.261 Y162.994 E195.63934
G1 X42.267 Y91.083 E204.60847
G1 X42.13 Y89.343 E204.82617
G1 X41.709 Y87.587 E205.05139
G1 X41.017 Y85.919 E205.27663
G1 X40.074 Y84.381 E205.50164
G1 X38.992 Y83.112 E205.70964
G1 X15.501 Y59.613 E209.85389
G1 X15.501 Y54.392 E210.50508
G1 X16.031 Y53.872 E210.59769
G1 X16.508 Y53.064 E210.71472
G1 X16.762 Y52.16 E210.83184
G1 X16.774 Y51.221 E210.94896
G1 X16.544 Y50.312 E211.06591
G1 X16.088 Y49.492 E211.18294
G1 X15.501 Y48.887 E211.28808
G1 X15.501 Y43.678 E211.93777
G1 X38.646 Y20.533 E216.02028
G1 X70.053 Y51.94 E221.56012
G1 X71.382 Y53.073 E221.77794
G1 X72.921 Y54.016 E222.00306
G1 X74.588 Y54.708 E222.22818
G1 X76.344 Y55.129 E222.4534
G1 X78.006 Y55.26 E222.66134
G1 X104.955 Y55.262 E226.02257
G1 X104.955 Y62.277 E226.89752
G1 X112.955 Y62.277 E227.89532
G1 X112.955 Y55.263 E228.77015
G1 X114.954 Y55.263 E229.01947
G1 X114.954 Y62.277 E229.8943
G1 X122.954 Y62.277 E230.8921
G1 X122.954 Y55.264 E231.7668
G1 X149.917 Y55.266 E235.12978
G1 X151.658 Y55.129 E235.34759
G1 X153.413 Y54.708 E235.5727
G1 X155.081 Y54.017 E235.79788
G1 X156.621 Y53.073 E236.02318
G1 X157.888 Y51.99 E236.23107
G1 X189.355 Y20.532 E241.78069
G1 X212.5 Y43.678 E245.86329
G1 X212.5 Y48.9 E246.51461
G1 X211.972 Y49.417 E246.60678
G1 X211.493 Y50.224 E246.72382
G1 X211.239 Y51.13 E246.84118
G1 X211.227 Y52.069 E246.95831
G1 X211.457 Y52.98 E247.0755
G1 X211.915 Y53.799 E247.19254
G1 X212.5 Y54.403 E247.29741
G1 X212.5 Y59.612 E247.94711
G1 X189.06 Y83.052 E252.08166
G1 X187.927 Y84.381 E252.29948
G1 X186.983 Y85.919 E252.52456
G1 X186.293 Y87.587 E252.7497
G1 X185.871 Y89.342 E252.97483
G1 X185.74 Y91.005 E253.18289
G1 X185.737 Y124.258 E257.33039
G1 X178.123 Y124.258 E258.28005
G1 X178.123 Y132.257 E259.27773
G1 X185.737 Y132.257 E260.22739
G1 X185.736 Y134.257 E260.47684
G1 X178.123 Y134.257 E261.42637
G1 X178.123 Y142.257 E262.42418
G1 X185.736 Y142.257 E263.37371
G1 X185.734 Y162.916 E265.95042
G1 X185.871 Y164.657 E266.16823
G1 X186.293 Y166.412 E266.39337
G1 X186.983 Y168.08 E266.61851
G1 X187.927 Y169.62 E266.8438
G1 X189.01 Y170.887 E267.05169
G1 X212.5 Y194.386 E271.19585
G1 X212.5 Y199.609 E271.84729
G1 X211.972 Y200.127 E271.93955
G1 X211.494 Y200.933 E272.05642
G1 X211.239 Y201.839 E272.17382
G1 X211.227 Y202.779 E272.29107
G1 X211.458 Y203.69 E272.40829
G1 X211.915 Y204.508 E272.52516
G1 X212.5 Y205.113 E272.63012
G1 X212.5 Y210.322 E273.27982
G1 X189.356 Y233.467 E277.36224
G1 X157.948 Y202.06 E282.90216
G1 X156.62 Y200.926 E283.11997
G1 X155.081 Y199.982 E283.34516
G1 X153.413 Y199.292 E283.5703
G1 X151.659 Y198.87 E283.79531
G1 X149.995 Y198.739 E284.00349
G1 X78.084 Y198.733 E292.97263
G1 X76.343 Y198.87 E293.19045
G1 X74.588 Y199.292 E293.41558
G1 X72.921 Y199.982 E293.6406
G1 X71.382 Y200.926 E293.86579
G1 X70.113 Y202.008 E294.07379
G1 X39.283 Y232.83 E299.51114
G1 F1800 E296.51114
G1 Z1.799
G0 F9000 X38.931 Y233.75
G0 X63.668 Y202.788
G0 X63.668 Y202.788
G1 Z1.299
G1 F1800 E299.51114
G1 F1080 X64.416 Y203.362 E299.62874
G1 X65.289 Y203.724 E299.74662
G1 X66.223 Y203.846 E299.8641
G1 X67.158 Y203.724 E299.98171
G1 X68.03 Y203.362 E300.09947
G1 X68.778 Y202.788 E300.21706
G1 X69.352 Y202.04 E300.33466
G1 X69.714 Y201.168 E300.45242
G1 X69.836 Y200.233 E300.57003
G1 X69.714 Y199.299 E300.68751
G1 X69.352 Y198.426 E300.80539
G1 X68.777 Y197.677 E300.92316
G1 X68.029 Y197.105 E301.04061
G1 X67.16 Y196.744 E301.15798
G1 X66.223 Y196.62 E301.27586
G1 X65.288 Y196.744 E301.3935
G1 X64.417 Y197.104 E301.51105
G1 X63.669 Y197.677 E301.62857
G1 X63.093 Y198.427 E301.74652
G1 X62.734 Y199.299 E301.86414
G1 X62.61 Y200.233 E301.98165
G1 X62.734 Y201.168 E302.09929
G1 X63.093 Y202.039 E302.2168
G1 X63.119 Y202.073 E302.22213
G0 F9000 X64.008 Y202.638
G0 X65.368 Y203.429
G0 X67.079 Y203.429
G0 X78.773 Y196.172
G0 X78.773 Y196.172
G1 F1080 X79.083 Y196.921 E302.32324
G1 X79.577 Y197.566 E302.42457
G1 X80.222 Y198.061 E302.52598
G1 X80.974 Y198.373 E302.62752
G1 X81.788 Y198.479 E302.72991
G1 X82.613 Y198.361 E302.83385
G1 X83.335 Y198.061 E302.93137
G1 X83.981 Y197.567 E303.0328
G1 X84.476 Y196.921 E303.13431
G1 X84.787 Y196.17 E303.23569
G1 X84.892 Y195.365 E303.33695
G1 X84.787 Y194.56 E303.4382
G1 X84.475 Y193.808 E303.53975
G1 X83.98 Y193.163 E303.64115
G1 X83.335 Y192.67 E303.74241
G1 X82.587 Y192.359 E303.84345
G1 X81.779 Y192.252 E303.94511
G1 X80.972 Y192.359 E304.04664
G1 X80.222 Y192.67 E304.14791
G1 X79.578 Y193.164 E304.24914
G1 X79.084 Y193.808 E304.35037
G1 X78.773 Y194.558 E304.45164
G1 X78.678 Y195.279 E304.54235
G0 F9000 X60.035 Y164.405
G1 F1080 X61.385 Y163.371 E304.75444
G1 X62.42 Y162.021 E304.96661
G1 X63.071 Y160.45 E305.17871
G1 X63.279 Y158.863 E305.37834
G1 X63.279 Y98.668 E312.8862
G1 X63.071 Y97.081 E313.08583
G1 X62.42 Y95.509 E313.29804
G1 X61.385 Y94.161 E313.51002
G1 X60.035 Y93.126 E313.72219
G1 X58.466 Y92.476 E313.93401
G1 X56.878 Y92.266 E314.1338
G1 X51.68 Y92.266 E314.78212
G1 X50.093 Y92.476 E314.98179
G1 X48.522 Y93.126 E315.19384
G1 X47.174 Y94.161 E315.40581
G1 X46.139 Y95.509 E315.61778
G1 X45.489 Y97.08 E315.82984
G1 X45.279 Y98.667 E316.0295
G1 X45.279 Y158.866 E323.53785
G1 X45.475 Y160.404 E323.73123
G1 X46.086 Y161.934 E323.93671
G1 X47.061 Y163.259 E324.1419
G1 X48.336 Y164.299 E324.34712
G1 X49.376 Y164.776 E324.48982
G1 X49.339 Y165.197 E324.54253
G1 X49.466 Y165.972 E324.64049
G1 X49.788 Y166.692 E324.73886
G1 X50.276 Y167.304 E324.83649
G1 X50.901 Y167.776 E324.93417
G1 X51.629 Y168.078 E325.03248
G1 X52.437 Y168.19 E325.13422
G1 X53.225 Y168.09 E325.23329
G1 X53.926 Y167.81 E325.32744
G1 X54.558 Y167.359 E325.42428
G1 X55.062 Y166.758 E325.52211
G1 X55.401 Y166.045 E325.62058
G1 X55.546 Y165.265 E325.71953
G1 X56.877 Y165.265 E325.88554
G1 X58.466 Y165.056 E326.08544
G1 X59.203 Y164.751 E326.18492
G0 F9000 X43.896 Y172.97
G1 F1080 X43.321 Y172.221 E326.30269
G1 X42.573 Y171.649 E326.42014
G1 X41.704 Y171.288 E326.53751
G1 X40.767 Y171.164 E326.65539
G1 X39.832 Y171.288 E326.77303
G1 X38.961 Y171.648 E326.89058
G1 X38.212 Y172.222 E327.00828
G1 X37.638 Y172.971 E327.12598
G1 X37.278 Y173.842 E327.24353
G1 X37.154 Y174.777 E327.36116
G1 X37.278 Y175.714 E327.47905
G1 X37.639 Y176.583 E327.59642
G1 X38.211 Y177.331 E327.71387
G1 X38.96 Y177.906 E327.83164
G1 X39.833 Y178.268 E327.94951
G1 X40.767 Y178.39 E328.067
G1 X41.702 Y178.268 E328.1846
G1 X42.574 Y177.906 E328.30236
G1 X43.322 Y177.332 E328.41996
G1 X43.896 Y176.584 E328.53756
G1 X44.258 Y175.712 E328.65532
G1 X44.38 Y174.777 E328.77293
G1 X44.258 Y173.843 E328.89041
G1 X44.241 Y173.802 E328.89595
G1 F1800 E325.89595
G1 Z1.799
G0 F9000 X49.776 Y164.626
G0 X47.282 Y163.049
G0 X45.77 Y160.328
G0 X45.58 Y98.687
G0 X45.783 Y97.16
G0 X46.402 Y95.662
G0 X47.39 Y94.377
G0 X48.675 Y93.389
G0 X50.173 Y92.77
G0 X56.858 Y92.567
G0 X58.386 Y92.77
G0 X59.883 Y93.389
G0 X61.169 Y94.377
G0 X62.157 Y95.662
G0 X62.776 Y97.16
G0 X62.893 Y146.018
G0 X80.446 Y121.12
G0 X80.222 Y121.462
G1 Z1.299
G1 F1800 E328.89595
G1 F1080 X80.974 Y121.774 E328.99749
G1 X81.788 Y121.88 E329.09988
G1 X82.613 Y121.762 E329.20382
G1 X83.335 Y121.462 E329.30134
G1 X83.981 Y120.968 E329.40277
G1 X84.476 Y120.322 E329.50428
G1 X84.787 Y119.571 E329.60566
G1 X84.892 Y118.766 E329.70691
G1 X84.787 Y117.961 E329.80817
G1 X84.475 Y117.209 E329.90971
G1 X83.98 Y116.564 E330.01112
G1 X83.335 Y116.071 E330.11238
G1 X82.587 Y115.76 E330.21342
G1 X81.779 Y115.653 E330.31507
G1 X80.972 Y115.76 E330.41661
G1 X80.222 Y116.071 E330.51788
G1 X79.578 Y116.565 E330.61911
G1 X79.084 Y117.209 E330.72034
G1 X78.773 Y117.959 E330.82161
G1 X78.666 Y118.766 E330.92314
G1 X78.773 Y119.573 E331.02468
G1 X79.083 Y120.322 E331.12578
G1 X79.524 Y120.897 E331.21617
G0 F9000 X80.446 Y121.12
G0 X80.457 Y121.17
G0 X79.347 Y120.169
G0 X76.017 Y102.528
G0 X76.017 Y102.528
G1 F1080 X76.739 Y102.229 E331.31363
G1 X77.386 Y101.734 E331.41524
G1 X77.881 Y101.088 E331.51675
G1 X78.192 Y100.337 E331.61813
G1 X78.297 Y99.532 E331.71938
G1 X78.192 Y98.727 E331.82064
G1 X77.88 Y97.975 E331.92218
G1 X77.385 Y97.33 E332.02359
G1 X76.74 Y96.836 E332.12492
G1 X75.991 Y96.526 E332.22603
G1 X75.184 Y96.419 E332.32756
G1 X74.377 Y96.526 E332.4291
G1 X73.627 Y96.837 E332.53037
G1 X72.983 Y97.331 E332.6316
G1 X72.489 Y97.975 E332.73283
G1 X72.178 Y98.725 E332.8341
G1 X72.071 Y99.532 E332.93563
G1 X72.178 Y100.339 E333.03717
G1 X72.488 Y101.088 E333.13827
G1 X72.982 Y101.733 E333.23961
G1 X73.627 Y102.228 E333.34101
G1 X74.379 Y102.54 E333.44256
G1 X75.125 Y102.637 E333.53639
G1 F1800 E330.53639
G1 Z1.799
G0 F9000 X75.887 Y102.235
G0 X73.781 Y101.964
G0 X72.472 Y100.259
G0 X66.372 Y80.51
G0 X66.372 Y80.51
G1 Z1.299
G1 F1800 E333.53639
G1 F1080 X67.018 Y80.015 E333.63789
G1 X67.511 Y79.37 E333.73915
G1 X67.822 Y78.622 E333.84019
G1 X67.929 Y77.814 E333.94185
G1 X67.822 Y77.007 E334.04338
G1 X67.511 Y76.257 E334.14465
G1 X67.017 Y75.613 E334.24588
G1 X66.373 Y75.119 E334.34711
G1 X65.623 Y74.808 E334.44838
G1 X64.816 Y74.701 E334.54992
G1 X64.008 Y74.808 E334.65157
G1 X63.26 Y75.119 E334.75261
G1 X62.615 Y75.612 E334.85387
G1 X62.12 Y76.257 E334.95528
G1 X61.808 Y77.009 E335.05682
G1 X61.703 Y77.814 E335.15808
G1 X61.808 Y78.62 E335.25946
G1 X62.12 Y79.37 E335.36077
G1 X62.614 Y80.016 E335.4622
G1 X63.26 Y80.51 E335.56363
G1 X64.01 Y80.822 E335.66495
G1 X64.826 Y80.928 E335.76758
G1 X65.532 Y80.827 E335.85653
G0 F9000 X66.688 Y79.712
G0 X67.528 Y78.542
G0 X73.627 Y62.228
G0 X73.627 Y62.228
G1 F1080 X74.379 Y62.54 E335.95808
G1 X75.193 Y62.646 E336.06046
G1 X76.017 Y62.528 E336.16428
G1 X76.739 Y62.229 E336.26175
G1 X77.386 Y61.734 E336.36336
G1 X77.881 Y61.088 E336.46487
G1 X78.192 Y60.337 E336.56625
G1 X78.297 Y59.532 E336.6675
G1 X78.192 Y58.727 E336.76876
G1 X77.88 Y57.975 E336.8703
G1 X77.385 Y57.33 E336.97171
G1 X76.74 Y56.836 E337.07304
G1 X75.991 Y56.526 E337.17415
G1 X75.184 Y56.419 E337.27568
G1 X74.377 Y56.526 E337.37722
G1 X73.627 Y56.837 E337.47849
G1 X72.983 Y57.331 E337.57972
G1 X72.489 Y57.975 E337.68095
G1 X72.178 Y58.725 E337.78222
G1 X72.071 Y59.532 E337.88375
G1 X72.178 Y60.339 E337.98529
G1 X72.488 Y61.088 E338.08639
G1 X72.929 Y61.663 E338.17677
G0 F9000 X68.778 Y56.321
G1 F1080 X69.352 Y55.573 E338.29437
G1 X69.714 Y54.701 E338.41213
G1 X69.836 Y53.766 E338.52974
G1 X69.714 Y52.832 E338.64722
G1 X69.352 Y51.959 E338.7651
G1 X68.777 Y51.21 E338.88287
G1 X68.029 Y50.638 E339.00032
G1 X67.16 Y50.277 E339.11768
G1 X66.223 Y50.153 E339.23557
G1 X65.288 Y50.277 E339.35321
G1 X64.417 Y50.637 E339.47076
G1 X63.669 Y51.21 E339.58828
G1 X63.093 Y51.96 E339.70623
G1 X62.734 Y52.832 E339.82385
G1 X62.61 Y53.766 E339.94136
G1 X62.734 Y54.701 E340.059
G1 X63.093 Y55.572 E340.17651
G1 X63.668 Y56.321 E340.29428
G1 X64.416 Y56.895 E340.41188
G1 X65.289 Y57.257 E340.52975
G1 X66.223 Y57.379 E340.64724
G1 X67.158 Y57.257 E340.76484
G1 X68.03 Y56.895 E340.8826
G1 X68.063 Y56.87 E340.88777
G0 F9000 X43.018 Y76.939
G0 X43.018 Y76.939
G0 X43.322 Y76.667
G1 F1080 X42.573 Y76.092 E341.00554
G1 X41.702 Y75.733 E341.12304
G1 X40.767 Y75.609 E341.24068
G1 X39.833 Y75.733 E341.3582
G1 X38.961 Y76.092 E341.47581
G1 X38.211 Y76.668 E341.59376
G1 X37.638 Y77.416 E341.71128
G1 X37.278 Y78.287 E341.82883
G1 X37.154 Y79.222 E341.94647
G1 X37.278 Y80.159 E342.06436
G1 X37.639 Y81.028 E342.18173
G1 X38.211 Y81.776 E342.29917
G1 X38.961 Y82.352 E342.41712
G1 X39.833 Y82.711 E342.53474
G1 X40.767 Y82.835 E342.65225
G1 X41.702 Y82.711 E342.76989
G1 X42.573 Y82.352 E342.8874
G1 X43.322 Y81.777 E343.00517
G1 X43.896 Y81.029 E343.12277
G1 X44.258 Y80.157 E343.24053
G1 X44.38 Y79.222 E343.35813
G1 X44.258 Y78.288 E343.47562
G1 X43.896 Y77.415 E343.59349
G1 X43.871 Y77.382 E343.59866
G1 F1800 E340.59866
G1 Z1.799
G0 F9000 X43.018 Y76.939
G0 X38.668 Y29.396
G0 X38.668 Y29.396
G0 X38.646 Y29.802
G1 Z1.299
G1 F1800 E343.59866
G1 F1080 X39.58 Y29.678 E343.71617
G1 X40.452 Y29.319 E343.83379
G1 X41.201 Y28.744 E343.95156
G1 X41.776 Y27.995 E344.06934
G1 X42.135 Y27.124 E344.18684
G1 X42.259 Y26.189 E344.30448
G1 X42.135 Y25.255 E344.42199
G1 X41.776 Y24.383 E344.53961
G1 X41.201 Y23.634 E344.65738
G1 X40.452 Y23.059 E344.77516
G1 X39.58 Y22.7 E344.89277
G1 X38.646 Y22.576 E345.01029
G1 X37.711 Y22.7 E345.12793
G1 X36.84 Y23.059 E345.24543
G1 X36.091 Y23.634 E345.3632
G1 X35.516 Y24.383 E345.48098
G1 X35.157 Y25.255 E345.59859
G1 X35.033 Y26.189 E345.71611
G1 X35.157 Y27.124 E345.83375
G1 X35.516 Y27.995 E345.95125
G1 X36.091 Y28.744 E346.06903
G1 X36.84 Y29.319 E346.1868
G1 X37.711 Y29.678 E346.3043
G1 X37.753 Y29.683 E346.30958
G1 F1800 E343.30958
G1 Z1.799
G0 F9000 X38.668 Y29.396
G0 X51.799 Y33.116
G0 X71.56 Y52.829
G0 X74.682 Y54.421
G0 X78.019 Y54.959
G0 X128.388 Y54.818
G0 X142.177 Y58.725
G0 X142.177 Y58.725
G1 Z1.299
G1 F1800 E346.30958
G1 F1080 X142.07 Y59.532 E346.41111
G1 X142.177 Y60.339 E346.51264
G1 X142.487 Y61.088 E346.61375
G1 X142.981 Y61.733 E346.71508
G1 X143.626 Y62.228 E346.81649
G1 X144.378 Y62.54 E346.91804
G1 X145.192 Y62.646 E347.02042
G1 X146.016 Y62.528 E347.12424
G1 X146.738 Y62.229 E347.22171
G1 X147.385 Y61.734 E347.32332
G1 X147.88 Y61.088 E347.42482
G1 X148.191 Y60.337 E347.52621
G1 X148.296 Y59.532 E347.62746
G1 X148.191 Y58.727 E347.72871
G1 X147.879 Y57.975 E347.83026
G1 X147.384 Y57.33 E347.93167
G1 X146.739 Y56.836 E348.033
G1 X145.99 Y56.526 E348.13411
G1 X145.183 Y56.419 E348.23564
G1 X144.376 Y56.526 E348.33717
G1 X143.626 Y56.837 E348.43844
G1 X142.982 Y57.331 E348.53968
G1 X142.543 Y57.904 E348.62971
G0 F9000 X142.587 Y58.622
G0 X143.779 Y57.101
G0 X158.289 Y54.703
G0 X158.289 Y54.703
G1 F1080 X158.65 Y55.573 E348.74719
G1 X159.224 Y56.32 E348.86469
G1 X159.971 Y56.895 E348.98226
G1 X160.844 Y57.257 E349.10014
G1 X161.778 Y57.379 E349.21762
G1 X162.713 Y57.257 E349.33523
G1 X163.585 Y56.895 E349.45299
G1 X164.333 Y56.321 E349.57059
G1 X164.907 Y55.573 E349.68819
G1 X165.269 Y54.701 E349.80595
G1 X165.391 Y53.766 E349.92355
G1 X165.269 Y52.832 E350.04104
G1 X164.907 Y51.959 E350.15891
G1 X164.332 Y51.21 E350.27668
G1 X163.584 Y50.638 E350.39413
G1 X162.715 Y50.277 E350.5115
G1 X161.778 Y50.153 E350.62939
G1 X160.843 Y50.277 E350.74702
G1 X159.972 Y50.638 E350.86462
G1 X159.224 Y51.211 E350.98214
G1 X158.65 Y51.959 E351.09974
G1 X158.289 Y52.831 E351.21745
G1 X158.165 Y53.766 E351.33509
G1 X158.17 Y53.81 E351.34062
G0 F9000 X162.379 Y74.808
G1 F1080 X161.629 Y75.119 E351.44189
G1 X160.986 Y75.612 E351.54294
G1 X160.489 Y76.257 E351.6445
G1 X160.18 Y77.009 E351.74591
G1 X160.073 Y77.814 E351.84719
G1 X160.18 Y78.62 E351.9486
G1 X160.489 Y79.37 E352.04978
G1 X160.985 Y80.016 E352.15136
G1 X161.629 Y80.51 E352.25259
G1 X162.381 Y80.822 E352.35414
G1 X163.195 Y80.928 E352.45652
G1 X164.019 Y80.81 E352.56034
G1 X164.742 Y80.51 E352.65798
G1 X165.387 Y80.016 E352.75931
G1 X165.882 Y79.372 E352.86062
G1 X166.194 Y78.62 E352.96216
G1 X166.299 Y77.814 E353.06354
G1 X166.194 Y77.009 E353.1648
G1 X165.882 Y76.256 E353.26646
G1 X165.386 Y75.612 E353.36784
G1 X164.743 Y75.119 E353.4689
G1 X163.993 Y74.808 E353.57017
G1 X163.272 Y74.713 E353.66087
G0 F9000 X183.745 Y78.287
G1 F1080 X183.621 Y79.222 E353.77851
G1 X183.745 Y80.159 E353.8964
G1 X184.106 Y81.028 E354.01377
G1 X184.678 Y81.776 E354.13121
G1 X185.428 Y82.352 E354.24916
G1 X186.3 Y82.711 E354.36678
G1 X187.234 Y82.835 E354.48429
G1 X188.169 Y82.711 E354.60193
G1 X189.04 Y82.352 E354.71943
G1 X189.789 Y81.777 E354.83721
G1 X190.363 Y81.029 E354.95481
G1 X190.725 Y80.157 E355.07257
G1 X190.847 Y79.222 E355.19017
G1 X190.725 Y78.288 E355.30766
G1 X190.363 Y77.415 E355.42553
G1 X189.789 Y76.667 E355.54313
G1 X189.04 Y76.092 E355.6609
G1 X188.169 Y75.733 E355.77841
G1 X187.234 Y75.609 E355.89605
G1 X186.3 Y75.733 E356.01356
G1 X185.428 Y76.092 E356.13118
G1 X184.678 Y76.668 E356.24913
G1 X184.105 Y77.416 E356.36665
G1 X184.089 Y77.454 E356.37179
G0 F9000 X147.879 Y97.975
G1 F1080 X147.384 Y97.33 E356.4732
G1 X146.739 Y96.836 E356.57453
G1 X145.99 Y96.526 E356.67564
G1 X145.183 Y96.419 E356.77717
G1 X144.376 Y96.526 E356.8787
G1 X143.626 Y96.837 E356.97997
G1 X142.982 Y97.331 E357.08121
G1 X142.488 Y97.975 E357.18244
G1 X142.177 Y98.725 E357.28371
G1 X142.07 Y99.532 E357.38524
G1 X142.177 Y100.339 E357.48678
G1 X142.487 Y101.088 E357.58788
G1 X142.981 Y101.733 E357.68921
G1 X143.626 Y102.228 E357.79062
G1 X144.378 Y102.54 E357.89217
G1 X145.192 Y102.646 E357.99455
G1 X146.016 Y102.528 E358.09837
G1 X146.738 Y102.229 E358.19584
G1 X147.385 Y101.734 E358.29745
G1 X147.88 Y101.088 E358.39895
G1 X148.191 Y100.337 E358.50034
G1 X148.296 Y99.532 E358.60159
G1 X148.203 Y98.813 E358.69202
G0 F9000 X147.74 Y98.658
G0 X147.896 Y100.258
G0 X144.296 Y115.76
G0 X144.296 Y115.76
G1 F1080 X143.488 Y115.653 E358.79367
G1 X142.681 Y115.76 E358.89521
G1 X141.931 Y116.071 E358.99648
G1 X141.287 Y116.565 E359.09771
G1 X140.793 Y117.209 E359.19894
G1 X140.482 Y117.959 E359.30021
G1 X140.375 Y118.766 E359.40174
G1 X140.482 Y119.573 E359.50328
G1 X140.792 Y120.322 E359.60438
G1 X141.286 Y120.967 E359.70572
G1 X141.931 Y121.462 E359.80712
G1 X142.683 Y121.774 E359.90867
G1 X143.497 Y121.88 E360.01105
G1 X144.322 Y121.762 E360.115
G1 X145.044 Y121.462 E360.21252
G1 X145.69 Y120.968 E360.31395
G1 X146.185 Y120.322 E360.41545
G1 X146.496 Y119.571 E360.51684
G1 X146.601 Y118.766 E360.61809
G1 X146.496 Y117.961 E360.71935
G1 X146.184 Y117.209 E360.82089
G1 X145.689 Y116.564 E360.9223
G1 X145.116 Y116.126 E361.01225
G1 F1800 E358.01225
G1 Z1.799
G0 F9000 X144.431 Y116.192
G0 X145.92 Y117.363
G0 X162.381 Y173.177
G0 X162.381 Y173.177
G1 Z1.299
G1 F1800 E361.01225
G1 F1080 X161.628 Y173.489 E361.11392
G1 X160.985 Y173.984 E361.21513
G1 X160.489 Y174.628 E361.31651
G1 X160.18 Y175.38 E361.41791
G1 X160.073 Y176.185 E361.5192
G1 X160.18 Y176.99 E361.62049
G1 X160.489 Y177.742 E361.72189
G1 X160.985 Y178.386 E361.82328
G1 X161.629 Y178.882 E361.92466
G1 X162.381 Y179.191 E362.02607
G1 X163.195 Y179.299 E362.12848
G1 X164.018 Y179.18 E362.2322
G1 X164.742 Y178.882 E362.32985
G1 X165.387 Y178.386 E362.43133
G1 X165.882 Y177.743 E362.53254
G1 X166.194 Y176.99 E362.6342
G1 X166.299 Y176.185 E362.73546
G1 X166.194 Y175.38 E362.83671
G1 X165.882 Y174.627 E362.93838
G1 X165.387 Y173.984 E363.03959
G1 X164.744 Y173.489 E363.1408
G1 X163.991 Y173.177 E363.24246
G1 X163.275 Y173.084 E363.33251
G0 F9000 X183.621 Y174.777
G1 F1080 X183.745 Y175.714 E363.4504
G1 X184.106 Y176.583 E363.56776
G1 X184.678 Y177.331 E363.68521
G1 X185.427 Y177.906 E363.80298
G1 X186.3 Y178.268 E363.92086
G1 X187.234 Y178.39 E364.03834
G1 X188.169 Y178.268 E364.15595
G1 X189.041 Y177.906 E364.27371
G1 X189.789 Y177.332 E364.39131
G1 X190.363 Y176.584 E364.50891
G1 X190.725 Y175.712 E364.62667
G1 X190.847 Y174.777 E364.74427
G1 X190.725 Y173.843 E364.86176
G1 X190.363 Y172.97 E364.97963
G1 X189.788 Y172.221 E365.0974
G1 X189.04 Y171.649 E365.21485
G1 X188.171 Y171.288 E365.33222
G1 X187.234 Y171.164 E365.45011
G1 X186.299 Y171.288 E365.56774
G1 X185.428 Y171.648 E365.68529
G1 X184.679 Y172.222 E365.80299
G1 X184.105 Y172.971 E365.92069
G1 X183.745 Y173.842 E366.03824
G1 X183.74 Y173.884 E366.04351
G0 F9000 X164.332 Y197.677
G1 F1080 X163.584 Y197.105 E366.16096
G1 X162.715 Y196.744 E366.27833
G1 X161.778 Y196.62 E366.39621
G1 X160.843 Y196.744 E366.51385
G1 X159.972 Y197.105 E366.63145
G1 X159.224 Y197.678 E366.74897
G1 X158.65 Y198.426 E366.86657
G1 X158.289 Y199.298 E366.98428
G1 X158.165 Y200.233 E367.10192
G1 X158.289 Y201.17 E367.21981
G1 X158.65 Y202.04 E367.33729
G1 X159.224 Y202.787 E367.45479
G1 X159.971 Y203.362 E367.57237
G1 X160.844 Y203.724 E367.69024
G1 X161.778 Y203.846 E367.80773
G1 X162.713 Y203.724 E367.92533
G1 X163.585 Y203.362 E368.04309
G1 X164.333 Y202.788 E368.16069
G1 X164.907 Y202.04 E368.27829
G1 X165.269 Y201.168 E368.39605
G1 X165.391 Y200.233 E368.51366
G1 X165.269 Y199.299 E368.63114
G1 X164.907 Y198.426 E368.74901
G1 X164.881 Y198.392 E368.75435
G0 F9000 X163.537 Y197.572
G0 X161.778 Y196.924
G0 X146.601 Y195.365
G0 X146.601 Y195.365
G1 F1080 X146.496 Y194.56 E368.85561
G1 X146.184 Y193.808 E368.95715
G1 X145.689 Y193.163 E369.05856
G1 X145.044 Y192.67 E369.15982
G1 X144.296 Y192.359 E369.26086
G1 X143.488 Y192.252 E369.36251
G1 X142.681 Y192.359 E369.46405
G1 X141.931 Y192.67 E369.56532
G1 X141.287 Y193.164 E369.66655
G1 X140.793 Y193.808 E369.76778
G1 X140.482 Y194.558 E369.86905
G1 X140.375 Y195.365 E369.97058
G1 X140.482 Y196.172 E370.07212
G1 X140.792 Y196.921 E370.17322
G1 X141.286 Y197.566 E370.27455
G1 X141.931 Y198.061 E370.37596
G1 X142.683 Y198.373 E370.47751
G1 X143.497 Y198.479 E370.57989
G1 X144.322 Y198.361 E370.68384
G1 X145.044 Y198.061 E370.78135
G1 X145.69 Y197.567 E370.88279
G1 X146.185 Y196.921 E370.98429
G1 X146.461 Y196.253 E371.07444
G1 F1800 E368.07444
G1 Z1.799
G0 F9000 X151.705 Y199.31
G0 X154.943 Y200.251
G0 X157.743 Y202.281
G0 X186.227 Y226.003
G0 X186.227 Y226.003
G1 Z1.299
G1 F1800 E371.07444
G1 F1080 X185.865 Y226.876 E371.19232
G1 X185.743 Y227.81 E371.3098
G1 X185.865 Y228.745 E371.42741
G1 X186.227 Y229.617 E371.54517
G1 X186.801 Y230.365 E371.66276
G1 X187.549 Y230.939 E371.78036
G1 X188.421 Y231.301 E371.89812
G1 X189.356 Y231.423 E372.01573
G1 X190.29 Y231.301 E372.13321
G1 X191.163 Y230.939 E372.25109
G1 X191.912 Y230.364 E372.36886
G1 X192.484 Y229.616 E372.48631
G1 X192.845 Y228.747 E372.60368
G1 X192.969 Y227.81 E372.72156
G1 X192.845 Y226.875 E372.8392
G1 X192.485 Y226.004 E372.95675
G1 X191.911 Y225.255 E373.07445
G1 X191.162 Y224.681 E373.19215
G1 X190.291 Y224.321 E373.3097
G1 X189.356 Y224.197 E373.42733
G1 X188.419 Y224.321 E373.54522
G1 X187.55 Y224.682 E373.66259
G1 X186.802 Y225.254 E373.78003
G1 X186.776 Y225.288 E373.78537
G1 F1800 E370.78537
G1 Z1.799
G0 F9000 X186.991 Y178.052
G0 X185.581 Y177.642
G0 X184.369 Y176.43
G0 X183.925 Y174.777
G0 X186.035 Y162.903
G0 X186.169 Y89.39
G0 X188.519 Y82.224
G0 X190.099 Y80.877
G0 X190.542 Y79.222
G0 X189.356 Y29.802
G0 X189.356 Y29.802
G1 Z1.299
G1 F1800 E373.78537
G1 F1080 X190.29 Y29.678 E373.90289
G1 X191.162 Y29.319 E374.02051
G1 X191.912 Y28.743 E374.13845
G1 X192.484 Y27.995 E374.2559
G1 X192.845 Y27.126 E374.37327
G1 X192.969 Y26.189 E374.49115
G1 X192.845 Y25.254 E374.60879
G1 X192.485 Y24.383 E374.72634
G1 X191.912 Y23.635 E374.84387
G1 X191.162 Y23.059 E374.96181
G1 X190.29 Y22.7 E375.07943
G1 X189.356 Y22.576 E375.19695
G1 X188.421 Y22.7 E375.31459
G1 X187.55 Y23.059 E375.43209
G1 X186.801 Y23.634 E375.54986
G1 X186.227 Y24.382 E375.66746
G1 X185.865 Y25.255 E375.78534
G1 X185.743 Y26.189 E375.90282
G1 X185.865 Y27.124 E376.02043
G1 X186.227 Y27.996 E376.13819
G1 X186.801 Y28.744 E376.25578
G1 X187.55 Y29.319 E376.37356
G1 X188.421 Y29.678 E376.49106
G1 X188.463 Y29.683 E376.49633
G0 F9000 X189.97 Y30.164
; TYPE:FILL
G1 F1080 X210.815 Y51.009 E380.17315
G0 F9000 X211.153 Y49.933
G1 F1080 X191.057 Y29.837 E383.71786
G0 F9000 X191.922 Y29.288
G1 F1080 X211.7 Y49.066 E387.20647
G0 F9000 X212.059 Y48.01
G1 F1080 X192.606 Y28.557 E390.63775
G0 F9000 X193.105 Y27.642
G1 F1080 X212.059 Y46.596 E393.98102
G0 F9000 X212.059 Y45.182
G1 F1080 X193.372 Y26.495 E397.27719
G0 F9000 X192.359 Y27.255
G0 X191.696 Y28.528
G0 X188.528 Y30.136
G0 X188.528 Y30.136
G1 F1080 X210.877 Y52.485 E401.2193
G0 F9000 X212.059 Y55.081
G1 F1080 X183.742 Y26.764 E406.21409
G0 F9000 X183.035 Y27.471
G1 F1080 X212.059 Y56.495 E411.33359
G0 F9000 X212.059 Y57.909
G1 F1080 X182.327 Y28.178 E416.57789
G0 F9000 X181.62 Y28.885
G1 F1080 X212.059 Y59.324 E421.94698
G0 F9000 X211.404 Y60.083
G1 F1080 X180.913 Y29.592 E427.32524
G0 F9000 X180.206 Y30.299
G1 F1080 X210.697 Y60.79 E432.7035
G0 F9000 X209.99 Y61.497
G1 F1080 X179.499 Y31.006 E438.08176
G0 F9000 X178.791 Y31.713
G1 F1080 X209.283 Y62.204 E443.46011
G0 F9000 X208.575 Y62.911
G1 F1080 X178.084 Y32.42 E448.83837
G0 F9000 X177.377 Y33.127
G1 F1080 X207.868 Y63.619 E454.21673
G0 F9000 X207.161 Y64.326
G1 F1080 X176.669 Y33.834 E459.59516
G0 F9000 X175.962 Y34.541
G1 F1080 X206.454 Y65.033 E464.9736
G0 F9000 X205.747 Y65.74
G1 F1080 X175.255 Y35.248 E470.35204
G0 F9000 X174.548 Y35.955
G1 F1080 X205.04 Y66.447 E475.73048
G0 F9000 X204.333 Y67.154
G1 F1080 X173.841 Y36.662 E481.10892
G0 F9000 X173.134 Y37.369
G1 F1080 X203.626 Y67.861 E486.48735
G0 F9000 X202.919 Y68.568
G1 F1080 X172.426 Y38.076 E491.86588
G0 F9000 X171.719 Y38.783
G1 F1080 X202.212 Y69.275 E497.24441
G0 F9000 X201.504 Y69.983
G1 F1080 X171.012 Y39.49 E502.62293
G0 F9000 X170.305 Y40.197
G1 F1080 X200.797 Y70.69 E508.00146
G0 F9000 X200.09 Y71.397
G1 F1080 X169.598 Y40.904 E513.37999
G0 F9000 X168.891 Y41.611
G1 F1080 X199.383 Y72.104 E518.75851
G0 F9000 X198.676 Y72.811
G1 F1080 X168.183 Y42.318 E524.13713
G0 F9000 X167.476 Y43.025
G1 F1080 X197.969 Y73.518 E529.51574
G0 F9000 X197.262 Y74.225
G1 F1080 X166.769 Y43.732 E534.89436
G0 F9000 X166.061 Y44.439
G1 F1080 X196.555 Y74.932 E540.27306
G0 F9000 X195.848 Y75.639
G1 F1080 X165.354 Y45.146 E545.65176
G0 F9000 X164.647 Y45.853
G1 F1080 X195.14 Y76.347 E551.03047
G0 F9000 X194.433 Y77.054
G1 F1080 X163.94 Y46.56 E556.40917
G0 F9000 X163.233 Y47.267
G1 F1080 X193.726 Y77.761 E561.78787
G0 F9000 X193.019 Y78.468
G1 F1080 X162.525 Y47.974 E567.16666
G0 F9000 X161.818 Y48.681
G1 F1080 X162.283 Y49.853 E567.39186
G1 X161.111 Y49.388 E567.54913
G0 F9000 X157.527 Y52.876
G1 F1080 X157.275 Y53.33 E567.5975
G1 X157.829 Y54.592 E567.76941
G0 F9000 X155.871 Y54.048
G1 F1080 X186.951 Y85.127 E573.25147
G0 F9000 X187.488 Y84.251
G1 F1080 X187.127 Y83.182 E573.4423
G1 X188.122 Y83.471 E573.57153
G0 F9000 X186.453 Y86.044
G1 F1080 X154.954 Y54.545 E579.12759
G0 F9000 X153.954 Y54.959
G1 F1080 X186.039 Y87.044 E584.78702
G0 F9000 X185.709 Y88.128
G1 F1080 X152.87 Y55.29 E590.57935
G0 F9000 X151.73 Y55.563
G1 F1080 X185.435 Y89.269 E596.52462
G0 F9000 X185.331 Y90.579
G1 F1080 X150.419 Y55.667 E602.68269
G0 F9000 X149.044 Y55.706
G1 F1080 X185.299 Y91.961 E609.07766
G0 F9000 X185.299 Y93.375
G1 F1080 X147.63 Y55.706 E615.72204
G0 F9000 X146.965 Y56.456
G1 F1080 X145.649 Y55.846 E615.85428
G1 X144.36 Y55.971 E615.90403
G1 X143.201 Y56.227 E615.99789
G1 X141.972 Y55.705 E616.16443
G0 F9000 X140.558 Y55.705
G1 F1080 X142.321 Y57.468 E616.47541
G0 F9000 X141.835 Y58.397
G1 F1080 X139.143 Y55.705 E616.95024
G0 F9000 X137.729 Y55.705
G1 F1080 X141.636 Y59.611 E617.63931
G0 F9000 X142.986 Y60.961
G0 X143.197 Y61.518
G0 X145.103 Y63.078
G0 X145.103 Y63.078
G1 F1080 X159.652 Y77.628 E620.20567
G0 F9000 X159.92 Y76.482
G1 F1080 X146.318 Y62.879 E622.60499
G0 F9000 X147.246 Y62.393
G1 F1080 X160.445 Y75.592 E624.93315
G0 F9000 X161.177 Y74.91
G1 F1080 X147.965 Y61.698 E627.26359
G0 F9000 X148.476 Y60.795
G1 F1080 X162.119 Y74.438 E629.67006
G0 F9000 X163.377 Y74.282
G1 F1080 X148.726 Y59.631 E632.25433
G0 F9000 X148.254 Y57.745
G1 F1080 X185.299 Y94.789 E638.78855
G0 F9000 X185.298 Y96.203
G1 F1080 X166.717 Y77.621 E642.06611
G0 F9000 X166.561 Y78.879
G1 F1080 X185.298 Y97.617 E645.37119
G0 F9000 X185.298 Y99.031
G1 F1080 X166.088 Y79.821 E648.75962
G0 F9000 X165.407 Y80.554
G1 F1080 X185.298 Y100.445 E652.26816
G0 F9000 X185.298 Y101.86
G1 F1080 X164.517 Y81.078 E655.93378
G0 F9000 X163.372 Y81.347
G1 F1080 X185.298 Y103.274 E659.80136
G0 F9000 X185.298 Y104.687
G1 F1080 X161.574 Y80.964 E663.98591
G0 F9000 X160.033 Y79.423
G1 F1080 X136.315 Y55.705 E668.1695
G0 F9000 X134.901 Y55.705
G1 F1080 X185.298 Y106.102 E677.05895
G0 F9000 X185.298 Y107.516
G1 F1080 X133.486 Y55.705 E686.1979
G0 F9000 X132.071 Y55.704
G1 F1080 X185.298 Y108.93 E695.58644
G0 F9000 X185.298 Y110.344
G1 F1080 X130.657 Y55.704 E705.2244
G0 F9000 X129.243 Y55.704
G1 F1080 X185.297 Y111.758 E715.11168
G0 F9000 X185.297 Y113.172
G1 F1080 X127.829 Y55.704 E725.24837
G0 F9000 X126.414 Y55.703
G1 F1080 X185.297 Y114.586 E735.63466
G0 F9000 X185.297 Y116
G1 F1080 X125 Y55.703 E746.27036
G0 F9000 X123.586 Y55.703
G1 F1080 X185.297 Y117.415 E757.15556
G0 F9000 X185.297 Y118.829
G1 F1080 X123.393 Y56.925 E768.07471
G0 F9000 X123.393 Y58.339
G1 F1080 X185.296 Y120.242 E778.99369
G0 F9000 X185.296 Y121.657
G1 F1080 X123.393 Y59.754 E789.91266
G0 F9000 X123.393 Y61.168
G1 F1080 X185.296 Y123.071 E800.83164
G0 F9000 X184.629 Y123.817
G1 F1080 X123.393 Y62.582 E811.63288
G0 F9000 X122.113 Y62.716
G1 F1080 X183.214 Y123.817 E822.41039
G0 F9000 X181.8 Y123.817
G1 F1080 X120.699 Y62.716 E833.18791
G0 F9000 X119.285 Y62.716
G1 F1080 X180.386 Y123.817 E843.96542
G0 F9000 X178.972 Y123.817
G1 F1080 X117.871 Y62.716 E854.74294
G0 F9000 X116.456 Y62.716
G1 F1080 X177.682 Y123.942 E865.5425
G0 F9000 X177.682 Y125.356
G1 F1080 X115.042 Y62.716 E876.59147
G0 F9000 X114.513 Y62.187
G1 F1080 X113.953 Y60.92 E876.78878
G1 X113.953 Y59.506 E876.98613
G1 X113.953 Y58.092 E877.1833
G1 X113.953 Y56.677 E877.38062
G1 X113.685 Y55.703 E877.50661
G0 F9000 X113.685 Y54.862
G0 X112.555 Y61.767
G0 X112.555 Y61.767
G0 X113.393 Y62.482
G1 F1080 X177.682 Y126.77 E888.84637
G0 F9000 X177.682 Y128.185
G1 F1080 X148.696 Y99.198 E893.95925
G0 F9000 X148.594 Y100.51
G1 F1080 X177.681 Y129.598 E899.08995
G0 F9000 X177.681 Y131.012
G1 F1080 X148.14 Y101.471 E904.30064
G0 F9000 X147.474 Y102.219
G1 F1080 X177.681 Y132.426 E909.62881
G0 F9000 X177.951 Y132.697
G1 F1080 X179.218 Y133.257 E909.82612
G1 X180.633 Y133.257 E910.02343
G1 X182.046 Y133.256 E910.22064
G1 X183.46 Y133.256 E910.41781
G1 X185.011 Y133.393 E910.61512
G1 X185.022 Y132.697 E910.70194
G0 F9000 X186.109 Y131.368
G0 X186.363 Y131.059
G0 X186.296 Y131.142
G0 X186.296 Y131.142
G1 F1080 X185.929 Y130.067 E910.83144
G1 X185.929 Y128.653 E910.96089
G1 X185.929 Y127.239 E911.09034
G1 X185.929 Y125.825 E911.21979
G1 X185.562 Y124.751 E911.36135
G0 F9000 X185.56 Y124.557
G0 X185.764 Y124.617
G0 X185.609 Y134.697
G0 X185.609 Y134.697
G1 F1080 X185.928 Y135.724 E911.48233
G1 X185.928 Y137.138 E911.61143
G1 X185.928 Y138.552 E911.74053
G1 X185.928 Y139.966 E911.86962
G1 X185.928 Y141.38 E911.99872
G1 X185.39 Y142.256 E912.01539
G1 X185.295 Y142.869 E912.09276
G0 F9000 X185.295 Y144.283
G1 F1080 X183.709 Y142.696 E912.3726
G0 F9000 X182.294 Y142.696
G1 F1080 X185.295 Y145.697 E912.90194
G0 F9000 X185.295 Y147.111
G1 F1080 X180.88 Y142.696 E913.6807
G0 F9000 X179.466 Y142.696
G1 F1080 X185.295 Y148.525 E914.70886
G0 F9000 X185.295 Y149.939
G1 F1080 X178.052 Y142.696 E915.98645
G0 F9000 X177.681 Y142.326
G1 F1080 X91.055 Y55.7 E931.26628
G0 F9000 X89.641 Y55.7
G1 F1080 X185.294 Y151.353 E948.13837
G0 F9000 X185.294 Y152.767
G1 F1080 X88.227 Y55.7 E965.25987
G0 F9000 X86.812 Y55.7
G1 F1080 X185.294 Y154.181 E982.63087
G0 F9000 X185.293 Y155.595
G1 F1080 X146.171 Y116.473 E989.53154
G0 F9000 X145.776 Y116.077
G1 F1080 X85.398 Y55.7 E1000.18144
G0 F9000 X83.984 Y55.7
G1 F1080 X143.493 Y115.209 E1010.67814
G0 F9000 X142.307 Y115.437
G1 F1080 X82.57 Y55.7 E1021.21506
G0 F9000 X81.155 Y55.699
G1 F1080 X141.388 Y115.932 E1031.83947
G0 F9000 X140.677 Y116.635
G1 F1080 X79.741 Y55.699 E1042.58788
G0 F9000 X78.326 Y55.699
G1 F1080 X140.175 Y117.548 E1053.49734
G0 F9000 X139.935 Y118.722
G1 F1080 X76.82 Y55.607 E1064.6301
G0 F9000 X75.864 Y56.065
G1 F1080 X75.077 Y55.278 E1064.76891
G0 F9000 X74.456 Y56.071
G1 F1080 X72.848 Y54.463 E1065.05255
G0 F9000 X73.417 Y56.446
G1 F1080 X70.21 Y53.239 E1065.61822
G0 F9000 X70.168 Y54.611
G1 F1080 X72.626 Y57.07 E1066.05188
G0 F9000 X72.042 Y57.9
G1 F1080 X69.794 Y55.652 E1066.4484
G0 F9000 X69.208 Y56.48
G1 F1080 X71.699 Y58.971 E1066.88778
G0 F9000 X71.745 Y60.431
G1 F1080 X68.444 Y57.13 E1067.47004
G0 F9000 X67.493 Y57.593
G1 F1080 X183.406 Y173.507 E1087.91585
G0 F9000 X183.868 Y172.555
G1 F1080 X74.285 Y62.972 E1107.24503
G0 F9000 X75.74 Y63.012
G1 F1080 X184.518 Y171.79 E1126.43222
G0 F9000 X185.346 Y171.204
G1 F1080 X76.815 Y62.672 E1145.57593
G0 F9000 X77.645 Y62.088
G1 F1080 X186.388 Y170.832 E1164.75703
G0 F9000 X187.76 Y170.789
G1 F1080 X78.269 Y61.299 E1184.06989
G0 F9000 X78.645 Y60.26
G1 F1080 X186.534 Y168.149 E1203.10027
G0 F9000 X185.722 Y165.923
G1 F1080 X141.431 Y121.632 E1210.9127
G0 F9000 X140.615 Y120.816
G1 F1080 X78.651 Y58.852 E1221.84243
G0 F9000 X77.867 Y58.785
G0 X76.587 Y57.1
G0 X74.457 Y56.82
G0 X66.298 Y57.813
G0 X66.298 Y57.813
G1 F1080 X183.185 Y174.7 E1242.45996
G0 F9000 X183.61 Y176.539
G1 F1080 X64.461 Y57.39 E1263.47647
G0 F9000 X62.598 Y55.527
G1 F1080 X36.884 Y29.813 E1268.01212
G0 F9000 X38.668 Y29.396
G0 X38.668 Y29.396
G0 X38.721 Y30.236
G1 F1080 X62.175 Y53.689 E1272.14905
G0 F9000 X62.395 Y52.496
G1 F1080 X39.914 Y30.015 E1276.11444
G0 F9000 X40.867 Y29.553
G1 F1080 X62.858 Y51.544 E1279.9934
G0 F9000 X63.507 Y50.779
G1 F1080 X41.632 Y28.904 E1283.8519
G0 F9000 X42.217 Y28.075
G1 F1080 X64.336 Y50.193 E1287.75335
G0 F9000 X65.377 Y49.821
G1 F1080 X42.59 Y27.034 E1291.77271
G0 F9000 X42.632 Y25.661
G1 F1080 X66.749 Y49.778 E1296.02668
G1 F1800 E1293.02668
G1 Z1.799
G0 F9000 X66.639 Y50.612
G0 X66.647 Y50.511
G0 X68.562 Y51.426
G0 X69.419 Y52.911
G0 X69.419 Y54.622
G0 X64.41 Y74.309
G0 X64.41 Y74.309
G1 Z1.299
G1 F1800 E1296.02668
G1 F1080 X24.95 Y34.85 E1302.98688
G0 F9000 X24.243 Y35.557
G1 F1080 X63.307 Y74.621 E1309.87732
G0 F9000 X62.453 Y75.181
G1 F1080 X23.536 Y36.264 E1316.74183
G0 F9000 X22.829 Y36.971
G1 F1080 X61.804 Y75.946 E1323.61657
G0 F9000 X61.374 Y76.93
G1 F1080 X22.122 Y37.678 E1330.54017
G0 F9000 X21.415 Y38.385
G1 F1080 X61.321 Y78.291 E1337.57913
G0 F9000 X64.337 Y81.308
G1 F1080 X159.692 Y176.662 E1354.39857
G0 F9000 X159.746 Y175.302
G1 F1080 X65.691 Y81.247 E1370.98879
G0 F9000 X66.682 Y80.824
G1 F1080 X160.173 Y174.315 E1387.47953
G0 F9000 X160.824 Y173.552
G1 F1080 X67.448 Y80.176 E1403.94998
G0 F9000 X68.008 Y79.321
G1 F1080 X161.677 Y172.99 E1420.47212
G0 F9000 X162.78 Y172.68
G1 F1080 X68.319 Y78.218 E1437.13404
G0 F9000 X68.141 Y76.626
G1 F1080 X164.372 Y172.857 E1454.10808
G0 F9000 X166.512 Y174.997
G1 F1080 X206.856 Y215.341 E1461.2243
G0 F9000 X207.563 Y214.634
G1 F1080 X26.365 Y33.436 E1493.18554
G0 F9000 X27.072 Y32.729
G1 F1080 X208.27 Y213.927 E1525.14679
G0 F9000 X208.977 Y213.22
G1 F1080 X27.779 Y32.022 E1557.10803
G0 F9000 X28.486 Y31.314
G1 F1080 X209.684 Y212.513 E1589.06936
G0 F9000 X210.391 Y211.806
G1 F1080 X29.193 Y30.607 E1621.03069
G0 F9000 X29.9 Y29.9
G1 F1080 X211.098 Y211.098 E1652.99194
G0 F9000 X211.806 Y210.391
G1 F1080 X30.607 Y29.193 E1684.95327
G0 F9000 X31.314 Y28.486
G1 F1080 X212.059 Y209.23 E1716.83452
G0 F9000 X212.059 Y207.816
G1 F1080 X32.022 Y27.779 E1748.59098
G0 F9000 X32.729 Y27.072
G1 F1080 X212.059 Y206.402 E1780.22273
G0 F9000 X211.193 Y204.122
G1 F1080 X185.472 Y178.401 E1784.75962
G0 F9000 X187.309 Y178.824
G1 F1080 X210.792 Y202.306 E1788.90166
G0 F9000 X210.99 Y201.091
G1 F1080 X188.504 Y178.605 E1792.86793
G0 F9000 X189.455 Y178.141
G1 F1080 X211.452 Y200.138 E1796.74795
G0 F9000 X212.059 Y199.331
G1 F1080 X190.219 Y177.491 E1800.60028
G0 F9000 X190.805 Y176.663
G1 F1080 X212.059 Y197.917 E1804.34924
G0 F9000 X212.059 Y196.502
G1 F1080 X191.179 Y175.623 E1808.03214
G0 F9000 X191.222 Y174.251
G1 F1080 X212.059 Y195.088 E1811.70755
G0 F9000 X206.149 Y216.048
G1 F1080 X166.689 Y176.589 E1818.66775
G0 F9000 X166.379 Y177.693
G1 F1080 X205.442 Y216.755 E1825.55793
G0 F9000 X204.734 Y217.462
G1 F1080 X165.817 Y178.545 E1832.42244
G0 F9000 X165.052 Y179.195
G1 F1080 X204.027 Y218.17 E1839.29718
G0 F9000 X203.32 Y218.877
G1 F1080 X164.062 Y179.618 E1846.22193
G0 F9000 X162.708 Y179.678
G1 F1080 X202.613 Y219.584 E1853.2608
G0 F9000 X201.906 Y220.291
G1 F1080 X20.708 Y39.093 E1885.22204
G0 F9000 X20.001 Y39.8
G1 F1080 X76.431 Y96.23 E1895.17565
G0 F9000 X74.81 Y96.023
G1 F1080 X19.294 Y40.507 E1904.96803
G0 F9000 X18.587 Y41.214
G1 F1080 X73.701 Y96.328 E1914.68951
G0 F9000 X72.841 Y96.883
G1 F1080 X17.879 Y41.921 E1924.38417
G0 F9000 X17.172 Y42.628
G1 F1080 X72.187 Y97.643 E1934.08818
G0 F9000 X71.748 Y98.618
G1 F1080 X16.465 Y43.335 E1943.83947
G0 F9000 X15.941 Y44.225
G1 F1080 X71.685 Y99.969 E1953.67207
G0 F9000 X74.747 Y103.031
G1 F1080 X196.956 Y225.241 E1975.22842
G0 F9000 X196.249 Y225.948
G1 F1080 X15.941 Y45.639 E2007.03277
G0 F9000 X15.941 Y47.053
G1 F1080 X195.542 Y226.655 E2038.71241
G0 F9000 X194.835 Y227.362
G1 F1080 X85.142 Y117.669 E2058.06099
G0 F9000 X84.366 Y117.993
G0 X84.443 Y119.108
G0 X84.443 Y119.108
G0 X85.276 Y119.217
G1 F1080 X162.303 Y196.244 E2071.64767
G0 F9000 X160.931 Y196.287
G1 F1080 X84.956 Y120.311 E2085.04887
G0 F9000 X84.388 Y121.157
G1 F1080 X159.891 Y196.661 E2098.36682
G0 F9000 X159.062 Y197.246
G1 F1080 X83.616 Y121.799 E2111.67472
G0 F9000 X82.609 Y122.207
G1 F1080 X158.413 Y198.011 E2125.04567
G0 F9000 X157.95 Y198.962
G1 F1080 X81.24 Y122.252 E2138.57643
G0 F9000 X81.35 Y121.418
G0 X81.375 Y121.443
G0 X79.793 Y120.752
G0 X79.126 Y119.194
G0 X78.293 Y119.305
G1 F1080 X63.718 Y104.73 E2141.1473
G0 F9000 X63.718 Y103.316
G1 F1080 X78.332 Y117.93 E2143.72504
G0 F9000 X78.744 Y116.927
G1 F1080 X63.718 Y101.902 E2146.37536
G0 F9000 X63.718 Y100.488
G1 F1080 X79.386 Y116.155 E2149.13893
G0 F9000 X80.233 Y115.588
G1 F1080 X63.718 Y99.074 E2152.0519
G0 F9000 X63.571 Y97.512
G1 F1080 X81.326 Y115.267 E2155.18368
G0 F9000 X81.437 Y116.101
G0 X82.552 Y116.179
G0 X82.552 Y116.179
G0 X82.875 Y115.402
G1 F1080 X62.835 Y95.362 E2158.7185
G0 F9000 X60.183 Y92.71
G1 F1080 X15.941 Y48.467 E2166.52237
G0 F9000 X17.21 Y51.151
G1 F1080 X41.292 Y75.234 E2170.77025
G0 F9000 X39.921 Y75.276
G1 F1080 X17.128 Y52.483 E2174.79067
G0 F9000 X16.749 Y53.519
G1 F1080 X38.879 Y75.649 E2178.69415
G0 F9000 X38.052 Y76.236
G1 F1080 X16.168 Y54.352 E2182.55423
G0 F9000 X15.941 Y55.538
G1 F1080 X37.401 Y76.999 E2186.33962
G0 F9000 X36.939 Y77.952
G1 F1080 X15.941 Y56.953 E2190.04351
G0 F9000 X15.941 Y58.367
G1 F1080 X36.72 Y79.146 E2193.70869
G0 F9000 X37.738 Y80.163
G0 X38.427 Y81.561
G0 X40.841 Y83.268
G0 X40.841 Y83.268
G1 F1080 X49.724 Y92.15 E2195.27546
G0 F9000 X48.724 Y92.565
G1 F1080 X40.671 Y84.511 E2196.696
G0 F9000 X42.036 Y83.048
G1 F1080 X50.91 Y91.922 E2198.26128
G0 F9000 X52.226 Y91.824
G1 F1080 X42.988 Y82.586 E2199.89075
G0 F9000 X43.753 Y81.937
G1 F1080 X53.641 Y91.824 E2201.63479
G0 F9000 X55.055 Y91.824
G1 F1080 X44.339 Y81.108 E2203.52497
G0 F9000 X44.713 Y80.068
G1 F1080 X56.469 Y91.824 E2205.5986
G0 F9000 X56.469 Y92.666
G0 X57.922 Y92.808
G0 X57.922 Y92.808
G0 X58.032 Y91.974
G1 F1080 X44.754 Y78.696 E2207.94068
G0 F9000 X42.083 Y87.338
G1 F1080 X47.84 Y93.094 E2208.95606
G0 F9000 X47.039 Y93.708
G1 F1080 X42.553 Y89.222 E2209.74734
G0 F9000 X42.683 Y90.767
G1 F1080 X46.384 Y94.467 E2210.40007
G0 F9000 X45.77 Y95.267
G1 F1080 X42.707 Y92.204 E2210.94035
G0 F9000 X42.707 Y93.618
G1 F1080 X45.35 Y96.261 E2211.40654
G0 F9000 X45.01 Y97.336
G1 F1080 X42.707 Y95.033 E2211.81276
G0 F9000 X42.706 Y96.446
G1 F1080 X44.845 Y98.585 E2212.19006
G0 F9000 X44.839 Y99.993
G1 F1080 X42.706 Y97.86 E2212.5663
G0 F9000 X42.706 Y99.274
G1 F1080 X44.839 Y101.407 E2212.94253
G0 F9000 X44.839 Y102.821
G1 F1080 X42.706 Y100.689 E2213.31868
G0 F9000 X42.706 Y102.103
G1 F1080 X44.839 Y104.236 E2213.69492
G0 F9000 X44.839 Y105.65
G1 F1080 X42.705 Y103.516 E2214.07133
G0 F9000 X42.705 Y104.931
G1 F1080 X44.839 Y107.064 E2214.44765
G0 F9000 X44.839 Y108.478
G1 F1080 X42.705 Y106.345 E2214.82398
G0 F9000 X42.705 Y107.759
G1 F1080 X44.839 Y109.892 E2215.2003
G0 F9000 X44.839 Y111.307
G1 F1080 X42.705 Y109.173 E2215.57672
G0 F9000 X42.705 Y110.587
G1 F1080 X44.839 Y112.721 E2215.95313
G0 F9000 X44.839 Y114.135
G1 F1080 X42.705 Y112.001 E2216.32954
G0 F9000 X42.705 Y113.415
G1 F1080 X44.839 Y115.549 E2216.70596
G0 F9000 X44.839 Y116.963
G1 F1080 X42.705 Y114.829 E2217.08237
G0 F9000 X42.705 Y116.244
G1 F1080 X44.839 Y118.378 E2217.45878
G0 F9000 X44.839 Y119.792
G1 F1080 X42.705 Y117.658 E2217.8352
G0 F9000 X42.704 Y119.071
G1 F1080 X44.839 Y121.206 E2218.21179
G0 F9000 X44.839 Y122.62
G1 F1080 X42.704 Y120.486 E2218.58829
G0 F9000 X42.704 Y121.9
G1 F1080 X44.839 Y124.035 E2218.96488
G0 F9000 X44.839 Y125.449
G1 F1080 X42.704 Y123.314 E2219.34147
G0 F9000 X42.704 Y124.728
G1 F1080 X44.839 Y126.863 E2219.71806
G0 F9000 X44.839 Y128.277
G1 F1080 X42.704 Y126.142 E2220.09464
G0 F9000 X42.703 Y127.556
G1 F1080 X44.839 Y129.691 E2220.47132
G0 F9000 X44.839 Y131.106
G1 F1080 X42.703 Y128.97 E2220.84809
G0 F9000 X42.703 Y130.384
G1 F1080 X44.839 Y132.52 E2221.22485
G0 F9000 X44.839 Y133.934
G1 F1080 X42.703 Y131.799 E2221.60153
G0 F9000 X42.703 Y133.213
G1 F1080 X44.839 Y135.348 E2221.97821
G0 F9000 X44.839 Y136.762
G1 F1080 X42.703 Y134.627 E2222.35489
G0 F9000 X42.702 Y136.04
G1 F1080 X44.839 Y138.177 E2222.73183
G0 F9000 X44.839 Y139.591
G1 F1080 X42.702 Y137.455 E2223.10868
G0 F9000 X42.702 Y138.869
G1 F1080 X44.839 Y141.005 E2223.48554
G0 F9000 X44.839 Y142.419
G1 F1080 X42.702 Y140.283 E2223.86239
G0 F9000 X42.702 Y141.697
G1 F1080 X44.839 Y143.834 E2224.23933
G0 F9000 X44.839 Y145.248
G1 F1080 X42.702 Y143.111 E2224.61628
G0 F9000 X42.702 Y144.525
G1 F1080 X44.839 Y146.662 E2224.99322
G0 F9000 X44.839 Y148.076
G1 F1080 X42.702 Y145.939 E2225.37016
G0 F9000 X42.702 Y147.353
G1 F1080 X44.839 Y149.49 E2225.7471
G0 F9000 X44.839 Y150.905
G1 F1080 X42.702 Y148.768 E2226.12404
G0 F9000 X42.702 Y150.182
G1 F1080 X44.839 Y152.319 E2226.50099
G0 F9000 X44.839 Y153.733
G1 F1080 X42.701 Y151.595 E2226.87811
G0 F9000 X42.701 Y153.01
G1 F1080 X44.839 Y155.147 E2227.25514
G0 F9000 X44.839 Y156.561
G1 F1080 X42.701 Y154.424 E2227.63217
G0 F9000 X42.701 Y155.838
G1 F1080 X44.839 Y157.976 E2228.00929
G0 F9000 X44.911 Y159.463
G1 F1080 X42.701 Y157.252 E2228.39919
G0 F9000 X42.701 Y158.666
G1 F1080 X45.375 Y161.341 E2228.87094
G0 F9000 X42.7 Y161.494
G1 F1080 X79.498 Y198.292 E2235.36169
G0 F9000 X78.084 Y198.292
G1 F1080 X42.7 Y162.908 E2241.60302
G0 F9000 X42.604 Y164.226
G1 F1080 X76.771 Y198.394 E2247.62977
G0 F9000 X75.566 Y198.602
G1 F1080 X42.396 Y165.432 E2253.48058
G0 F9000 X42.119 Y166.57
G1 F1080 X74.429 Y198.88 E2259.17969
G0 F9000 X73.428 Y199.293
G1 F1080 X41.705 Y167.57 E2264.77526
G0 F9000 X41.255 Y168.534
G1 F1080 X72.465 Y199.744 E2270.28035
G0 F9000 X71.588 Y200.281
G1 F1080 X69.896 Y198.589 E2270.5788
G0 F9000 X70.261 Y200.369
G1 F1080 X70.765 Y200.872 E2270.66761
G0 F9000 X67.159 Y204.338
G1 F1080 X66.729 Y204.615 E2270.69428
G1 X65.617 Y204.21 E2270.84188
G0 F9000 X65.745 Y205.752
G1 F1080 X35.25 Y175.257 E2276.22085
G0 F9000 X35.957 Y174.55
G1 F1080 X36.801 Y174.687 E2276.3676
G1 X36.664 Y173.843 E2276.47424
G0 F9000 X34.543 Y175.964
G1 F1080 X65.038 Y206.459 E2281.85321
G0 F9000 X64.33 Y207.166
G1 F1080 X33.836 Y176.672 E2287.232
G0 F9000 X33.129 Y177.379
G1 F1080 X63.623 Y207.873 E2292.61079
G0 F9000 X62.916 Y208.58
G1 F1080 X32.422 Y178.086 E2297.98958
G0 F9000 X31.715 Y178.793
G1 F1080 X62.209 Y209.287 E2303.36837
G0 F9000 X61.502 Y209.994
G1 F1080 X31.008 Y179.5 E2308.74717
G0 F9000 X30.3 Y180.207
G1 F1080 X60.794 Y210.701 E2314.12596
G0 F9000 X60.087 Y211.408
G1 F1080 X29.593 Y180.914 E2319.50475
G0 F9000 X28.886 Y181.621
G1 F1080 X59.379 Y212.115 E2324.88345
G0 F9000 X58.672 Y212.822
G1 F1080 X28.179 Y182.328 E2330.26215
G0 F9000 X27.472 Y183.036
G1 F1080 X57.965 Y213.529 E2335.64077
G0 F9000 X57.258 Y214.236
G1 F1080 X26.765 Y183.743 E2341.01938
G0 F9000 X26.059 Y184.45
G1 F1080 X56.551 Y214.943 E2346.39791
G0 F9000 X55.844 Y215.65
G1 F1080 X25.351 Y185.158 E2351.77643
G0 F9000 X24.644 Y185.865
G1 F1080 X55.137 Y216.357 E2357.15496
G0 F9000 X54.429 Y217.064
G1 F1080 X23.937 Y186.572 E2362.5334
G0 F9000 X23.23 Y187.279
G1 F1080 X53.722 Y217.771 E2367.91184
G0 F9000 X53.015 Y218.478
G1 F1080 X22.523 Y187.986 E2373.29028
G0 F9000 X21.816 Y188.693
G1 F1080 X52.308 Y219.185 E2378.66871
G0 F9000 X51.601 Y219.892
G1 F1080 X21.109 Y189.4 E2384.04715
G0 F9000 X20.402 Y190.107
G1 F1080 X50.894 Y220.599 E2389.42559
G0 F9000 X50.186 Y221.306
G1 F1080 X19.695 Y190.814 E2394.80394
G0 F9000 X18.987 Y191.521
G1 F1080 X49.479 Y222.013 E2400.18238
G0 F9000 X48.771 Y222.72
G1 F1080 X18.28 Y192.229 E2405.56064
G0 F9000 X17.573 Y192.936
G1 F1080 X48.064 Y223.427 E2410.9389
G0 F9000 X47.357 Y224.134
G1 F1080 X16.866 Y193.643 E2416.31716
G0 F9000 X16.159 Y194.35
G1 F1080 X46.65 Y224.841 E2421.69543
G0 F9000 X45.943 Y225.548
G1 F1080 X15.941 Y195.546 E2426.98743
G0 F9000 X15.941 Y196.96
G1 F1080 X45.236 Y226.255 E2432.15474
G0 F9000 X44.528 Y226.962
G1 F1080 X15.941 Y198.374 E2437.19724
G0 F9000 X15.101 Y198.374
G0 X16.892 Y200.739
G0 X16.892 Y200.739
G1 F1080 X40.288 Y224.136 E2441.32412
G0 F9000 X38.509 Y223.771
G1 F1080 X17.207 Y202.469 E2445.08154
G0 F9000 X16.994 Y203.67
G1 F1080 X37.326 Y224.002 E2448.66787
G0 F9000 X36.384 Y224.475
G1 F1080 X16.522 Y204.612 E2452.17139
G0 F9000 X15.941 Y205.445
G1 F1080 X35.629 Y225.134 E2455.64422
G0 F9000 X35.053 Y225.972
G1 F1080 X15.941 Y206.859 E2459.01544
G0 F9000 X15.941 Y208.274
G1 F1080 X34.692 Y227.025 E2462.3229
G0 F9000 X34.67 Y228.417
G1 F1080 X15.941 Y209.688 E2465.62648
G0 F9000 X42.319 Y226.167
G1 F1080 X43.821 Y227.669 E2465.89142
G0 F9000 X43.114 Y228.376
G1 F1080 X42.684 Y227.946 E2465.96726
G0 F9000 X39.651 Y231.762
G1 F1080 X39.582 Y231.744 E2465.97616
G1 F1800 E2462.97616
G1 Z1.799
G0 F9000 X40.973 Y229.846
G0 X41.512 Y229.463
G0 X62.246 Y200.839
G0 X62.246 Y200.839
G1 Z1.299
G1 F1800 E2465.97616
G1 F1080 X40.161 Y178.754 E2469.8717
G0 F9000 X41.552 Y178.731
G1 F1080 X62.269 Y199.448 E2473.52594
G0 F9000 X62.63 Y198.395
G1 F1080 X42.603 Y178.368 E2477.05847
G0 F9000 X43.443 Y177.793
G1 F1080 X63.206 Y197.557 E2480.54453
G0 F9000 X63.961 Y196.897
G1 F1080 X44.1 Y177.036 E2484.04778
G0 F9000 X44.574 Y176.096
G1 F1080 X64.903 Y196.425 E2487.63358
G0 F9000 X66.086 Y196.193
G1 F1080 X44.806 Y174.914 E2491.38704
G0 F9000 X44.44 Y173.133
G1 F1080 X67.867 Y196.56 E2495.51929
G0 F9000 X78.258 Y195.638
G1 F1080 X50.85 Y168.23 E2500.35375
G0 F9000 X52.64 Y168.606
G1 F1080 X78.382 Y194.348 E2504.89434
G0 F9000 X78.844 Y193.395
G1 F1080 X53.787 Y168.338 E2509.31411
G0 F9000 X54.676 Y167.813
G1 F1080 X79.517 Y192.654 E2513.69578
G0 F9000 X80.397 Y192.12
G1 F1080 X55.361 Y167.084 E2518.11184
G0 F9000 X55.83 Y166.138
G1 F1080 X81.531 Y191.84 E2522.64529
G0 F9000 X83.272 Y192.166
G1 F1080 X56.809 Y165.704 E2527.31297
G0 F9000 X58.071 Y165.551
G1 F1080 X90.813 Y198.293 E2533.08828
G0 F9000 X92.227 Y198.293
G1 F1080 X59.172 Y165.238 E2538.9188
G0 F9000 X60.171 Y164.823
G1 F1080 X93.641 Y198.293 E2544.82253
G0 F9000 X95.055 Y198.293
G1 F1080 X60.989 Y164.226 E2550.83146
G0 F9000 X61.769 Y163.592
G1 F1080 X96.47 Y198.293 E2556.95232
G0 F9000 X97.884 Y198.293
G1 F1080 X62.383 Y162.792 E2563.21429
G0 F9000 X62.934 Y161.929
G1 F1080 X99.299 Y198.293 E2569.62857
G0 F9000 X100.713 Y198.293
G1 F1080 X63.348 Y160.929 E2576.21924
G0 F9000 X63.604 Y159.77
G1 F1080 X102.127 Y198.293 E2583.01425
G0 F9000 X103.541 Y198.293
G1 F1080 X63.718 Y158.471 E2590.03848
G0 F9000 X63.718 Y157.056
G1 F1080 X104.956 Y198.294 E2597.31239
G0 F9000 X106.37 Y198.294
G1 F1080 X63.718 Y155.642 E2604.83571
G0 F9000 X63.718 Y154.228
G1 F1080 X107.784 Y198.294 E2612.60845
G0 F9000 X109.199 Y198.294
G1 F1080 X63.718 Y152.814 E2620.63069
G0 F9000 X63.718 Y151.4
G1 F1080 X110.613 Y198.294 E2628.90234
G0 F9000 X112.027 Y198.294
G1 F1080 X63.718 Y149.985 E2637.42349
G0 F9000 X63.718 Y148.571
G1 F1080 X113.442 Y198.295 E2646.19423
G0 F9000 X114.856 Y198.295
G1 F1080 X63.718 Y147.157 E2655.21439
G0 F9000 X63.718 Y145.743
G1 F1080 X116.27 Y198.295 E2664.48396
G0 F9000 X117.685 Y198.295
G1 F1080 X63.718 Y144.328 E2674.00311
G0 F9000 X63.718 Y142.914
G1 F1080 X119.099 Y198.295 E2683.77169
G0 F9000 X120.513 Y198.295
G1 F1080 X63.718 Y141.5 E2693.78967
G0 F9000 X63.718 Y140.086
G1 F1080 X121.928 Y198.296 E2704.05725
G0 F9000 X123.342 Y198.296
G1 F1080 X63.718 Y138.672 E2714.57423
G0 F9000 X63.718 Y137.257
G1 F1080 X124.756 Y198.296 E2725.34072
G0 F9000 X126.171 Y198.296
G1 F1080 X63.718 Y135.843 E2736.35671
G0 F9000 X63.718 Y134.429
G1 F1080 X127.585 Y198.296 E2747.62212
G0 F9000 X128.999 Y198.296
G1 F1080 X63.718 Y133.015 E2759.13694
G0 F9000 X63.718 Y131.601
G1 F1080 X130.414 Y198.296 E2770.90126
G0 F9000 X131.828 Y198.296
G1 F1080 X63.718 Y130.186 E2782.91508
G0 F9000 X63.718 Y128.772
G1 F1080 X133.242 Y198.296 E2795.17831
G0 F9000 X134.657 Y198.296
G1 F1080 X63.718 Y127.358 E2807.69105
G0 F9000 X63.718 Y125.944
G1 F1080 X136.071 Y198.296 E2820.4532
G0 F9000 X137.486 Y198.297
G1 F1080 X63.718 Y124.529 E2833.46502
G0 F9000 X63.718 Y123.115
G1 F1080 X138.9 Y198.297 E2846.72626
G0 F9000 X140.314 Y198.297
G1 F1080 X63.718 Y121.701 E2860.23692
G0 F9000 X63.718 Y120.287
G1 F1080 X140.289 Y196.858 E2873.74316
G0 F9000 X139.964 Y195.118
G1 F1080 X63.718 Y118.873 E2887.19199
G0 F9000 X63.718 Y117.458
G1 F1080 X140.243 Y193.983 E2900.69012
G0 F9000 X140.777 Y193.103
G1 F1080 X63.718 Y116.044 E2914.28244
G0 F9000 X63.718 Y114.63
G1 F1080 X141.518 Y192.43 E2928.00547
G0 F9000 X142.471 Y191.968
G1 F1080 X63.718 Y113.216 E2941.8965
G0 F9000 X63.718 Y111.802
G1 F1080 X143.76 Y191.843 E2956.0149
G0 F9000 X147.009 Y195.092
G1 F1080 X150.232 Y198.315 E2956.5834
G0 F9000 X148.8 Y198.298
G1 F1080 X146.884 Y196.381 E2956.92145
G0 F9000 X146.421 Y197.332
G1 F1080 X146.679 Y198.298 E2957.0918
G1 X145.749 Y198.075 E2957.21109
G0 F9000 X151.776 Y198.445
G1 F1080 X63.718 Y110.387 E2972.74351
G0 F9000 X63.718 Y108.973
G1 F1080 X153.662 Y198.917 E2988.60859
G0 F9000 X156.484 Y200.325
G1 F1080 X63.718 Y107.559 E3004.97145
G0 F9000 X63.718 Y106.145
G1 F1080 X157.73 Y200.157 E3021.55409
G0 F9000 X158.75 Y201.177
G0 X159.439 Y202.572
G0 X161.853 Y204.279
G0 X161.853 Y204.279
G1 F1080 X185.309 Y227.735 E3025.69145
G0 F9000 X185.527 Y226.54
G1 F1080 X163.048 Y204.06 E3029.65658
G0 F9000 X163.999 Y203.597
G1 F1080 X185.991 Y225.588 E3033.53563
G0 F9000 X186.64 Y224.823
G1 F1080 X164.764 Y202.948 E3037.39421
G0 F9000 X165.349 Y202.119
G1 F1080 X187.468 Y224.238 E3041.29575
G0 F9000 X188.509 Y223.864
G1 F1080 X165.724 Y201.079 E3045.31476
G0 F9000 X165.766 Y199.707
G1 F1080 X189.88 Y223.821 E3049.5682
G0 F9000 X193.343 Y227.284
G1 F1080 X193.774 Y228.422 E3049.70662
G1 X193.3 Y228.655 E3049.77249
G0 F9000 X197.663 Y224.533
G1 F1080 X76.091 Y102.961 E3071.2164
G0 F9000 X77.071 Y102.527
G1 F1080 X198.371 Y223.826 E3092.61223
G0 F9000 X199.078 Y223.119
G1 F1080 X77.832 Y101.874 E3113.99854
G0 F9000 X78.387 Y101.015
G1 F1080 X199.785 Y222.412 E3135.41167
G0 F9000 X200.492 Y221.705
G1 F1080 X78.692 Y99.905 E3156.89579
G0 F9000 X77.858 Y99.796
G0 X77.708 Y98.606
G0 X77.708 Y98.606
G0 X78.484 Y98.283
G1 F1080 X201.199 Y220.998 E3178.5413
G0 F9000 X189.089 Y177.471
G0 X190.099 Y176.432
G0 X190.542 Y174.777
G0 X190.099 Y173.124
G0 X185.392 Y164.178
G0 X185.392 Y164.178
G1 F1080 X143.532 Y122.319 E3185.92484
G0 F9000 X144.706 Y122.079
G1 F1080 X185.293 Y162.665 E3193.08383
G0 F9000 X186.228 Y163.601
G1 F1080 X186.359 Y163.731 E3193.10685
G0 F9000 X186.2 Y163.742
G0 X185.293 Y161.251
G0 X185.293 Y161.251
G1 F1080 X145.618 Y121.576 E3200.10506
G0 F9000 X146.32 Y120.865
G1 F1080 X185.293 Y159.837 E3206.97936
G0 F9000 X185.293 Y158.423
G1 F1080 X146.815 Y119.945 E3213.76644
G0 F9000 X147.043 Y118.759
G1 F1080 X185.293 Y157.009 E3220.5133
G0 F9000 X177.681 Y140.912
G1 F1080 X92.47 Y55.7 E3235.54363
G0 F9000 X93.884 Y55.7
G1 F1080 X177.681 Y139.498 E3250.32454
G0 F9000 X177.681 Y138.083
G1 F1080 X95.298 Y55.7 E3264.85596
G0 F9000 X96.713 Y55.7
G1 F1080 X141.946 Y100.934 E3272.83463
G0 F9000 X141.663 Y99.237
G1 F1080 X105.143 Y62.716 E3279.27642
G0 F9000 X104.513 Y62.087
G1 F1080 X98.127 Y55.7 E3280.40293
G0 F9000 X99.541 Y55.7
G1 F1080 X104.513 Y60.673 E3281.28002
G0 F9000 X104.513 Y59.259
G1 F1080 X100.956 Y55.701 E3281.90752
G0 F9000 X102.37 Y55.701
G1 F1080 X104.514 Y57.845 E3282.2857
G0 F9000 X104.514 Y56.431
G1 F1080 X103.784 Y55.701 E3282.41446
G0 F9000 X103.784 Y54.862
G0 X105.38 Y58.902
G0 X105.314 Y61.918
G0 X106.557 Y61.877
G0 X106.557 Y62.716
G1 F1080 X141.953 Y98.112 E3288.65791
G0 F9000 X142.495 Y97.24
G1 F1080 X107.971 Y62.716 E3294.74755
G0 F9000 X109.385 Y62.716
G1 F1080 X143.243 Y96.574 E3300.71971
G0 F9000 X144.203 Y96.119
G1 F1080 X110.8 Y62.716 E3306.61161
G0 F9000 X112.214 Y62.716
G1 F1080 X145.516 Y96.019 E3312.48579
G0 F9000 X145.64 Y96.79
G0 X147.169 Y97.546
G0 X147.991 Y99.532
G0 X147.169 Y101.518
G0 X146.602 Y102.761
G0 X146.602 Y102.761
G1 F1080 X177.681 Y133.841 E3317.96786
G0 F9000 X177.681 Y135.255
G1 F1080 X145.476 Y103.05 E3323.64845
G0 F9000 X143.781 Y102.769
G1 F1080 X177.681 Y136.669 E3329.62802
G1 F1800 E3326.62802
G1 Z1.799
G0 F9000 X178.603 Y127.343
G0 X178.482 Y124.617
G0 X183.285 Y80.048
G0 X183.285 Y80.048
G1 Z1.299
G1 F1800 E3329.62802
G1 F1080 X160.952 Y57.714 E3333.56739
G0 F9000 X162.394 Y57.742
G1 F1080 X183.258 Y78.606 E3337.24756
G0 F9000 X183.584 Y77.518
G1 F1080 X163.48 Y57.414 E3340.79368
G0 F9000 X164.345 Y56.865
G1 F1080 X184.134 Y76.653 E3344.28414
G0 F9000 X184.864 Y75.97
G1 F1080 X165.028 Y56.134 E3347.78298
G0 F9000 X165.528 Y55.22
G1 F1080 X185.779 Y75.47 E3351.35494
G0 F9000 X186.928 Y75.205
G1 F1080 X165.794 Y54.071 E3355.08273
G0 F9000 X165.585 Y52.448
G1 F1080 X188.552 Y75.415 E3359.13385
G0 F9000 X191.041 Y77.904
G1 F1080 X191.958 Y79.528 E3359.35786
G1 X191.25 Y79.527 E3359.44616
G0 F9000 X185.405 Y27.013
G1 F1080 X184.802 Y25.703 E3359.61452
G1 X185.378 Y25.572 E3359.6882
G1 F1800 E3356.6882
G1 Z1.799
G0 F9000 X182.562 Y26.725
G0 X156.443 Y52.828
G0 X153.319 Y54.421
G0 X149.904 Y54.965
G0 X113.953 Y54.838
G0 X112.596 Y61.918
G0 X66.002 Y74.488
G0 X66.002 Y74.488
G1 Z1.299
G1 F1800 E3359.6882
G1 F1080 X25.658 Y34.143 E3366.8045
G0 F9000 X33.436 Y26.365
G1 F1080 X35.021 Y27.95 E3367.08408
G0 F9000 X34.598 Y26.112
G1 F1080 X34.143 Y25.658 E3367.16425
G1 F1800 E3364.16425
G1 Z1.799
G0 F9000 X37.753 Y82.394
G0 X39.829 Y84.558
G0 X41.422 Y87.681
G0 X41.966 Y91.096
G0 X42.7 Y160.08
G0 X42.7 Y160.08
G1 Z1.299
G1 F1800 E3367.16425
G1 F1080 X49.301 Y166.681 E3368.32859
G0 F9000 X42.411 Y171.104
G1 F1080 X40.717 Y169.41 E3368.62739
G0 F9000 X40.126 Y170.233
G1 F1080 X40.629 Y170.737 E3368.7162
G0 F9000 X84.977 Y193.872
G1 F1080 X89.398 Y198.293 E3369.49601
G0 F9000 X87.983 Y198.292
G1 F1080 X85.303 Y195.611 E3369.96882
G0 F9000 X85.023 Y196.746
G1 F1080 X86.569 Y198.292 E3370.24152
G0 F9000 X85.155 Y198.292
G1 F1080 X84.488 Y197.625 E3370.35917
; LAYER:1
G0 F9000 X83.339 Y196.925 Z1.499
; TYPE:WALL-INNER
G1 F3600 X83.689 Y196.467 E3370.37834
G1 X83.91 Y195.935 E3370.3975
G1 X83.984 Y195.365 E3370.41662
G1 X83.91 Y194.795 E3370.43574
G1 X83.689 Y194.262 E3370.45493
G1 X83.339 Y193.806 E3370.47405
G1 X82.881 Y193.456 E3370.49322
G1 X82.351 Y193.236 E3370.51231
G1 X81.779 Y193.16 E3370.5315
G1 X81.208 Y193.236 E3370.55066
G1 X80.676 Y193.456 E3370.56981
G1 X80.22 Y193.806 E3370.58893
G1 X79.87 Y194.262 E3370.60804
G1 X79.65 Y194.794 E3370.62719
G1 X79.574 Y195.365 E3370.64635
G1 X79.65 Y195.936 E3370.66551
G1 X79.87 Y196.467 E3370.68463
G1 X80.22 Y196.925 E3370.7038
G1 X80.676 Y197.275 E3370.72292
G1 X81.209 Y197.496 E3370.74211
G1 X81.779 Y197.57 E3370.76123
G1 X82.35 Y197.496 E3370.78038
G1 X82.882 Y197.275 E3370.79954
G1 X83.052 Y197.145 E3370.80666
G0 F9000 X78.119 Y199.633
G1 F3600 X76.485 Y199.762 E3370.86117
G1 X74.867 Y200.151 E3370.91652
G1 X73.331 Y200.787 E3370.97181
G1 X71.912 Y201.656 E3371.02716
G1 X70.664 Y202.721 E3371.08172
G1 X38.646 Y234.741 E3372.5878
G1 X14.601 Y210.696 E3373.7188
G1 X14.601 Y204.637 E3373.92033
G1 X14.844 Y204.496 E3373.92967
G1 X15.34 Y203.996 E3373.9531
G1 X15.69 Y203.387 E3373.97646
G1 X15.872 Y202.707 E3373.99987
G1 X15.872 Y202.002 E3374.02332
G1 X15.69 Y201.322 E3374.04673
G1 X15.34 Y200.713 E3374.07009
G1 X14.844 Y200.213 E3374.09352
G1 X14.601 Y200.072 E3374.10286
G1 X14.601 Y194.013 E3374.30439
G1 X38.279 Y170.336 E3375.4181
G1 X39.344 Y169.089 E3375.47265
G1 X40.213 Y167.67 E3375.52799
G1 X40.85 Y166.133 E3375.58333
G1 X41.238 Y164.515 E3375.63867
G1 X41.367 Y162.881 E3375.69318
G1 X41.367 Y91.118 E3378.08003
G1 X41.238 Y89.484 E3378.13455
G1 X40.85 Y87.866 E3378.18989
G1 X40.213 Y86.329 E3378.24522
G1 X39.344 Y84.911 E3378.30054
G1 X38.279 Y83.663 E3378.35511
G1 X14.601 Y59.986 E3379.46882
G1 X14.601 Y53.927 E3379.67035
G1 X14.844 Y53.786 E3379.67969
G1 X15.34 Y53.287 E3379.70309
G1 X15.69 Y52.677 E3379.72648
G1 X15.872 Y51.997 E3379.7499
G1 X15.872 Y51.293 E3379.77331
G1 X15.69 Y50.613 E3379.79673
G1 X15.34 Y50.003 E3379.82012
G1 X14.844 Y49.504 E3379.84352
G1 X14.601 Y49.363 E3379.85286
G1 X14.601 Y43.304 E3380.05438
G1 X38.646 Y19.259 E3381.18539
G1 X70.664 Y51.278 E3382.69144
G1 X71.912 Y52.343 E3382.74601
G1 X73.331 Y53.212 E3382.80135
G1 X74.867 Y53.849 E3382.85666
G1 X76.485 Y54.237 E3382.912
G1 X78.119 Y54.366 E3382.96651
G1 X149.882 Y54.366 E3385.35336
G1 X151.517 Y54.237 E3385.40791
G1 X153.134 Y53.849 E3385.46322
G1 X154.671 Y53.212 E3385.51856
G1 X156.09 Y52.343 E3385.5739
G1 X157.337 Y51.278 E3385.62844
G1 X189.356 Y19.259 E3387.13452
G1 X213.4 Y43.304 E3388.2655
G1 X213.4 Y49.363 E3388.46702
G1 X213.158 Y49.504 E3388.47634
G1 X212.662 Y50.003 E3388.49974
G1 X212.311 Y50.613 E3388.52314
G1 X212.129 Y51.293 E3388.54656
G1 X212.129 Y51.997 E3388.56997
G1 X212.311 Y52.677 E3388.59339
G1 X212.662 Y53.287 E3388.61679
G1 X213.158 Y53.786 E3388.64019
G1 X213.4 Y53.927 E3388.64951
G1 X213.4 Y59.986 E3388.85103
G1 X189.722 Y83.663 E3389.96475
G1 X188.657 Y84.911 E3390.01932
G1 X187.788 Y86.329 E3390.07463
G1 X187.152 Y87.866 E3390.12996
G1 X186.763 Y89.484 E3390.18531
G1 X186.634 Y91.118 E3390.23982
G1 X186.634 Y162.881 E3392.62667
G1 X186.763 Y164.515 E3392.68119
G1 X187.152 Y166.133 E3392.73653
G1 X187.788 Y167.67 E3392.79186
G1 X188.657 Y169.089 E3392.8472
G1 X189.722 Y170.336 E3392.90174
G1 X213.4 Y194.013 E3394.01546
G1 X213.4 Y200.073 E3394.21702
G1 X213.158 Y200.213 E3394.22632
G1 X212.662 Y200.713 E3394.24974
G1 X212.311 Y201.322 E3394.27312
G1 X212.129 Y202.002 E3394.29653
G1 X212.129 Y202.707 E3394.31998
G1 X212.311 Y203.387 E3394.34339
G1 X212.662 Y203.996 E3394.36677
G1 X213.158 Y204.496 E3394.3902
G1 X213.4 Y204.637 E3394.39951
G1 X213.4 Y210.696 E3394.60104
G1 X189.356 Y234.741 E3395.73202
G1 X157.337 Y202.721 E3397.23812
G1 X156.09 Y201.656 E3397.29266
G1 X154.671 Y200.787 E3397.348
G1 X153.134 Y200.151 E3397.40333
G1 X151.517 Y199.762 E3397.45864
G1 X149.882 Y199.633 E3397.51319
G1 X78.479 Y199.633 E3399.88806
G0 F9000 X68.928 Y200.233
G1 F3600 X68.837 Y199.534 E3399.91151
G1 X68.566 Y198.88 E3399.93506
G1 X68.136 Y198.32 E3399.95854
G1 X67.575 Y197.891 E3399.98203
G1 X66.924 Y197.621 E3400.00547
G1 X66.223 Y197.528 E3400.02899
G1 X65.523 Y197.621 E3400.05248
G1 X64.871 Y197.891 E3400.07595
G1 X64.31 Y198.32 E3400.09944
G1 X63.88 Y198.881 E3400.12295
G1 X63.61 Y199.534 E3400.14645
G1 X63.518 Y200.233 E3400.1699
G1 X63.61 Y200.934 E3400.19341
G1 X63.88 Y201.585 E3400.21685
G1 X64.31 Y202.146 E3400.24036
G1 X64.87 Y202.576 E3400.26385
G1 X65.524 Y202.847 E3400.28739
G1 X66.223 Y202.938 E3400.31084
G1 X66.924 Y202.847 E3400.33435
G1 X67.576 Y202.576 E3400.35783
G1 X68.136 Y202.146 E3400.38131
G1 X68.566 Y201.586 E3400.4048
G1 X68.837 Y200.934 E3400.42828
G1 X68.881 Y200.591 E3400.43978
G1 F1800 E3397.43978
G1 Z1.999
G0 F9000 X68.848 Y200.161
G0 X68.564 Y198.881
G0 X42.68 Y176.69
G0 X42.68 Y176.69
G1 Z1.499
G1 F1800 E3400.43978
G1 F3600 X43.11 Y176.13 E3400.46327
G1 X43.381 Y175.478 E3400.48675
G1 X43.472 Y174.777 E3400.51026
G1 X43.381 Y174.078 E3400.53371
G1 X43.11 Y173.424 E3400.55725
G1 X42.68 Y172.864 E3400.58074
G1 X42.119 Y172.435 E3400.60423
G1 X41.468 Y172.165 E3400.62767
G1 X40.767 Y172.072 E3400.65119
G1 X40.067 Y172.165 E3400.67467
G1 X39.415 Y172.435 E3400.69814
G1 X38.854 Y172.864 E3400.72163
G1 X38.425 Y173.425 E3400.74512
G1 X38.155 Y174.077 E3400.76859
G1 X38.062 Y174.777 E3400.79208
G1 X38.155 Y175.478 E3400.8156
G1 X38.425 Y176.129 E3400.83904
G1 X38.854 Y176.69 E3400.86253
G1 X39.414 Y177.12 E3400.88601
G1 X40.068 Y177.391 E3400.90956
G1 X40.767 Y177.482 E3400.933
G1 X41.468 Y177.391 E3400.95652
G1 X42.12 Y177.12 E3400.98
G1 X42.394 Y176.91 E3400.99148
G0 F9000 X50.928 Y166.675
G1 F3600 X51.375 Y167.005 E3401.00996
G1 X51.893 Y167.212 E3401.02851
G1 X52.445 Y167.282 E3401.04702
G1 X52.998 Y167.212 E3401.06556
G1 X53.514 Y167.005 E3401.08405
G1 X53.963 Y166.676 E3401.10257
G1 X54.316 Y166.245 E3401.1211
G1 X54.549 Y165.738 E3401.13965
G1 X54.647 Y165.191 E3401.15814
G1 X54.606 Y164.636 E3401.17665
G1 X54.514 Y164.365 E3401.18617
G1 X56.818 Y164.365 E3401.2628
G1 X58.231 Y164.18 E3401.31019
G1 X59.582 Y163.619 E3401.35885
G1 X60.743 Y162.729 E3401.4075
G1 X61.634 Y161.568 E3401.45618
G1 X62.194 Y160.215 E3401.50488
G1 X62.379 Y158.804 E3401.55222
G1 X62.379 Y98.727 E3403.55038
G1 X62.194 Y97.316 E3403.59772
G1 X61.634 Y95.963 E3403.64642
G1 X60.743 Y94.803 E3403.69507
G1 X59.582 Y93.912 E3403.74375
G1 X58.231 Y93.352 E3403.79239
G1 X56.818 Y93.166 E3403.83979
G1 X51.74 Y93.166 E3404.00868
G1 X50.328 Y93.352 E3404.05605
G1 X48.976 Y93.912 E3404.10473
G1 X47.816 Y94.803 E3404.15337
G1 X46.925 Y95.963 E3404.20202
G1 X46.365 Y97.315 E3404.2507
G1 X46.179 Y98.727 E3404.29807
G1 X46.179 Y158.809 E3406.2964
G1 X46.353 Y160.177 E3406.34227
G1 X46.879 Y161.493 E3406.3894
G1 X47.719 Y162.634 E3406.43653
G1 X48.816 Y163.529 E3406.48362
G1 X50.104 Y164.12 E3406.53075
G1 X50.44 Y164.18 E3406.5421
G1 X50.285 Y164.636 E3406.55812
G1 X50.244 Y165.191 E3406.57663
G1 X50.342 Y165.738 E3406.59512
G1 X50.575 Y166.245 E3406.61367
G1 X50.699 Y166.396 E3406.62017
G1 F1800 E3403.62017
G1 Z1.999
G0 F9000 X50.933 Y166.666
G0 X52.445 Y167.28
G0 X53.961 Y166.675
G0 X60.741 Y162.727
G0 X62.192 Y160.214
G0 X80.748 Y120.596
G0 X80.676 Y120.676
G1 Z1.499
G1 F1800 E3406.62017
G1 F3600 X81.209 Y120.897 E3406.63936
G1 X81.779 Y120.971 E3406.65848
G1 X82.35 Y120.897 E3406.67763
G1 X82.882 Y120.676 E3406.69679
G1 X83.339 Y120.326 E3406.71594
G1 X83.689 Y119.868 E3406.73511
G1 X83.91 Y119.336 E3406.75427
G1 X83.984 Y118.766 E3406.77339
G1 X83.91 Y118.196 E3406.7925
G1 X83.689 Y117.663 E3406.8117
G1 X83.339 Y117.207 E3406.83082
G1 X82.881 Y116.857 E3406.84999
G1 X82.351 Y116.637 E3406.86907
G1 X81.779 Y116.561 E3406.88827
G1 X81.208 Y116.637 E3406.90742
G1 X80.676 Y116.857 E3406.92657
G1 X80.22 Y117.207 E3406.94569
G1 X79.87 Y117.663 E3406.96481
G1 X79.65 Y118.195 E3406.98396
G1 X79.574 Y118.766 E3407.00312
G1 X79.65 Y119.337 E3407.02228
G1 X79.87 Y119.868 E3407.04139
G1 X80.22 Y120.326 E3407.06056
G1 X80.39 Y120.456 E3407.06768
G0 F9000 X80.748 Y120.596
G0 X80.759 Y120.641
G0 X79.872 Y119.866
G0 X75.754 Y101.663
G0 X75.754 Y101.663
G1 F3600 X76.286 Y101.442 E3407.08684
G1 X76.744 Y101.092 E3407.10602
G1 X77.094 Y100.634 E3407.12519
G1 X77.315 Y100.102 E3407.14435
G1 X77.389 Y99.532 E3407.16346
G1 X77.315 Y98.962 E3407.18258
G1 X77.094 Y98.429 E3407.20177
G1 X76.744 Y97.973 E3407.22089
G1 X76.286 Y97.623 E3407.24006
G1 X75.755 Y97.403 E3407.25918
G1 X75.184 Y97.327 E3407.27834
G1 X74.613 Y97.403 E3407.2975
G1 X74.081 Y97.623 E3407.31665
G1 X73.625 Y97.973 E3407.33577
G1 X73.275 Y98.429 E3407.35489
G1 X73.055 Y98.961 E3407.37403
G1 X72.979 Y99.532 E3407.39319
G1 X73.055 Y100.103 E3407.41235
G1 X73.275 Y100.634 E3407.43147
G1 X73.625 Y101.092 E3407.45064
G1 X74.081 Y101.442 E3407.46976
G1 X74.614 Y101.663 E3407.48895
G1 X75.184 Y101.737 E3407.50807
G1 X75.396 Y101.71 E3407.51518
G1 F1800 E3404.51518
G1 Z1.999
G0 F9000 X75.75 Y101.654
G0 X74.082 Y101.44
G0 X73.056 Y100.103
G0 X65.919 Y79.724
G0 X65.919 Y79.724
G1 Z1.499
G1 F1800 E3407.51518
G1 F3600 X66.375 Y79.374 E3407.53429
G1 X66.725 Y78.916 E3407.55347
G1 X66.945 Y78.386 E3407.57255
G1 X67.021 Y77.814 E3407.59174
G1 X66.945 Y77.243 E3407.6109
G1 X66.725 Y76.711 E3407.63005
G1 X66.375 Y76.255 E3407.64917
G1 X65.919 Y75.905 E3407.66829
G1 X65.387 Y75.685 E3407.68744
G1 X64.816 Y75.609 E3407.7066
G1 X64.244 Y75.685 E3407.72579
G1 X63.714 Y75.905 E3407.74487
G1 X63.256 Y76.255 E3407.76405
G1 X62.906 Y76.711 E3407.78317
G1 X62.685 Y77.244 E3407.80236
G1 X62.611 Y77.814 E3407.82147
G1 X62.685 Y78.386 E3407.84066
G1 X62.906 Y78.916 E3407.85976
G1 X63.256 Y79.374 E3407.87893
G1 X63.714 Y79.724 E3407.8981
G1 X64.244 Y79.945 E3407.9172
G1 X64.816 Y80.019 E3407.93638
G1 X65.386 Y79.945 E3407.9555
G1 X65.586 Y79.862 E3407.9627
G0 F9000 X66.008 Y79.522
G0 X66.944 Y78.386
G0 X74.081 Y61.442
G0 X74.081 Y61.442
G1 F3600 X74.614 Y61.663 E3407.98189
G1 X75.184 Y61.737 E3408.00101
G1 X75.754 Y61.663 E3408.02013
G1 X76.286 Y61.442 E3408.03929
G1 X76.744 Y61.092 E3408.05846
G1 X77.094 Y60.634 E3408.07763
G1 X77.315 Y60.102 E3408.09679
G1 X77.389 Y59.532 E3408.11591
G1 X77.315 Y58.962 E3408.13503
G1 X77.094 Y58.429 E3408.15422
G1 X76.744 Y57.973 E3408.17334
G1 X76.286 Y57.623 E3408.19251
G1 X75.755 Y57.403 E3408.21163
G1 X75.184 Y57.327 E3408.23079
G1 X74.613 Y57.403 E3408.24994
G1 X74.081 Y57.623 E3408.26909
G1 X73.625 Y57.973 E3408.28821
G1 X73.275 Y58.429 E3408.30733
G1 X73.055 Y58.961 E3408.32648
G1 X72.979 Y59.532 E3408.34564
G1 X73.055 Y60.103 E3408.3648
G1 X73.275 Y60.634 E3408.38391
G1 X73.625 Y61.092 E3408.40308
G1 X73.795 Y61.222 E3408.4102
G0 F9000 X68.136 Y55.679
G1 F3600 X68.566 Y55.119 E3408.43369
G1 X68.837 Y54.467 E3408.45717
G1 X68.928 Y53.766 E3408.48068
G1 X68.837 Y53.067 E3408.50413
G1 X68.566 Y52.413 E3408.52767
G1 X68.136 Y51.853 E3408.55116
G1 X67.575 Y51.424 E3408.57464
G1 X66.924 Y51.154 E3408.59809
G1 X66.223 Y51.061 E3408.6216
G1 X65.523 Y51.154 E3408.64509
G1 X64.871 Y51.424 E3408.66856
G1 X64.31 Y51.853 E3408.69205
G1 X63.88 Y52.414 E3408.71556
G1 X63.61 Y53.067 E3408.73906
G1 X63.518 Y53.766 E3408.76251
G1 X63.61 Y54.467 E3408.78603
G1 X63.88 Y55.118 E3408.80947
G1 X64.31 Y55.679 E3408.83298
G1 X64.87 Y56.109 E3408.85646
G1 X65.524 Y56.38 E3408.88001
G1 X66.223 Y56.471 E3408.90345
G1 X66.924 Y56.38 E3408.92696
G1 X67.576 Y56.109 E3408.95045
G1 X67.85 Y55.899 E3408.96193
G0 F9000 X42.59 Y77.367
G0 X42.59 Y77.367
G0 X42.68 Y77.309
G1 F3600 X42.119 Y76.879 E3408.98544
G1 X41.468 Y76.609 E3409.00888
G1 X40.767 Y76.517 E3409.0324
G1 X40.068 Y76.609 E3409.05585
G1 X39.415 Y76.879 E3409.07935
G1 X38.854 Y77.309 E3409.10286
G1 X38.425 Y77.87 E3409.12635
G1 X38.155 Y78.522 E3409.14982
G1 X38.062 Y79.222 E3409.1733
G1 X38.155 Y79.923 E3409.19682
G1 X38.425 Y80.574 E3409.22026
G1 X38.854 Y81.135 E3409.24375
G1 X39.415 Y81.565 E3409.26726
G1 X40.068 Y81.835 E3409.29077
G1 X40.767 Y81.927 E3409.31422
G1 X41.468 Y81.835 E3409.33773
G1 X42.119 Y81.565 E3409.36117
G1 X42.68 Y81.135 E3409.38468
G1 X43.11 Y80.575 E3409.40816
G1 X43.381 Y79.923 E3409.43165
G1 X43.472 Y79.222 E3409.45516
G1 X43.381 Y78.523 E3409.4786
G1 X43.11 Y77.869 E3409.50215
G1 X42.9 Y77.595 E3409.51363
G1 F1800 E3406.51363
G1 Z1.999
G0 F9000 X42.59 Y77.367
G0 X38.668 Y28.79
G0 X38.668 Y28.79
G0 X38.646 Y28.894
G1 Z1.499
G1 F1800 E3409.51363
G1 F3600 X39.345 Y28.802 E3409.53708
G1 X39.998 Y28.532 E3409.56058
G1 X40.559 Y28.102 E3409.58409
G1 X40.989 Y27.541 E3409.6076
G1 X41.259 Y26.89 E3409.63104
G1 X41.351 Y26.189 E3409.65456
G1 X41.259 Y25.49 E3409.67801
G1 X40.989 Y24.837 E3409.70151
G1 X40.559 Y24.276 E3409.72502
G1 X39.998 Y23.846 E3409.74853
G1 X39.345 Y23.576 E3409.77203
G1 X38.646 Y23.484 E3409.79548
G1 X37.945 Y23.576 E3409.819
G1 X37.294 Y23.846 E3409.84244
G1 X36.733 Y24.276 E3409.86595
G1 X36.303 Y24.837 E3409.88946
G1 X36.033 Y25.49 E3409.91296
G1 X35.941 Y26.189 E3409.93641
G1 X36.033 Y26.89 E3409.95992
G1 X36.303 Y27.541 E3409.98336
G1 X36.733 Y28.102 E3410.00687
G1 X37.294 Y28.532 E3410.03038
G1 X37.945 Y28.802 E3410.05382
G1 X38.289 Y28.847 E3410.06536
G1 F1800 E3407.06536
G1 Z1.999
G0 F9000 X38.668 Y28.79
G0 X54.612 Y35.055
G0 X71.913 Y52.342
G0 X74.868 Y53.849
G0 X78.12 Y54.365
G0 X106.065 Y55.277
G0 X105.855 Y55.177
G1 Z1.499
G1 F1800 E3410.06536
G1 F3600 X105.855 Y61.377 E3410.27158
G1 X112.055 Y61.377 E3410.47779
G1 X112.055 Y55.177 E3410.684
G1 X106.215 Y55.177 E3410.87824
G0 F9000 X106.065 Y55.277
G0 X116.064 Y55.277
G0 X116.064 Y55.277
G0 X115.854 Y55.177
G1 F3600 X115.854 Y61.377 E3411.08445
G1 X122.054 Y61.377 E3411.29067
G1 X122.054 Y55.177 E3411.49688
G1 X116.214 Y55.177 E3411.69112
G1 F1800 E3408.69112
G1 Z1.999
G0 F9000 X116.064 Y55.277
G0 X116.595 Y55.349
G0 X121.995 Y55.236
G0 X143.054 Y58.961
G0 X143.054 Y58.961
G1 Z1.499
G1 F1800 E3411.69112
G1 F3600 X142.978 Y59.532 E3411.71028
G1 X143.054 Y60.103 E3411.72944
G1 X143.274 Y60.634 E3411.74855
G1 X143.624 Y61.092 E3411.76772
G1 X144.08 Y61.442 E3411.78684
G1 X144.613 Y61.663 E3411.80603
G1 X145.183 Y61.737 E3411.82515
G1 X145.753 Y61.663 E3411.84427
G1 X146.285 Y61.442 E3411.86343
G1 X146.743 Y61.092 E3411.8826
G1 X147.093 Y60.634 E3411.90177
G1 X147.314 Y60.102 E3411.92093
G1 X147.388 Y59.532 E3411.94005
G1 X147.314 Y58.962 E3411.95917
G1 X147.093 Y58.429 E3411.97836
G1 X146.743 Y57.973 E3411.99748
G1 X146.285 Y57.623 E3412.01665
G1 X145.754 Y57.403 E3412.03577
G1 X145.183 Y57.327 E3412.05493
G1 X144.612 Y57.403 E3412.07409
G1 X144.08 Y57.623 E3412.09323
G1 X143.624 Y57.973 E3412.11235
G1 X143.274 Y58.429 E3412.13147
G1 X143.192 Y58.627 E3412.1386
G0 F9000 X143.105 Y58.946
G0 X144.081 Y57.625
G0 X159.166 Y54.467
G0 X159.166 Y54.467
G1 F3600 X159.436 Y55.119 E3412.16207
G1 X159.866 Y55.679 E3412.18555
G1 X160.425 Y56.109 E3412.20901
G1 X161.079 Y56.38 E3412.23256
G1 X161.778 Y56.471 E3412.256
G1 X162.479 Y56.38 E3412.27951
G1 X163.131 Y56.109 E3412.303
G1 X163.691 Y55.679 E3412.32648
G1 X164.121 Y55.119 E3412.34996
G1 X164.392 Y54.467 E3412.37345
G1 X164.483 Y53.766 E3412.39696
G1 X164.392 Y53.067 E3412.4204
G1 X164.121 Y52.413 E3412.44395
G1 X163.691 Y51.853 E3412.46743
G1 X163.13 Y51.424 E3412.49092
G1 X162.479 Y51.154 E3412.51436
G1 X161.778 Y51.061 E3412.53788
G1 X161.078 Y51.154 E3412.56137
G1 X160.425 Y51.424 E3412.58487
G1 X159.866 Y51.853 E3412.60831
G1 X159.436 Y52.413 E3412.63179
G1 X159.166 Y53.066 E3412.65529
G1 X159.073 Y53.766 E3412.67878
G1 X159.118 Y54.11 E3412.69032
G0 F9000 X162.615 Y75.685
G1 F3600 X162.083 Y75.905 E3412.70947
G1 X161.628 Y76.255 E3412.72856
G1 X161.276 Y76.711 E3412.74772
G1 X161.057 Y77.244 E3412.76688
G1 X160.981 Y77.814 E3412.78601
G1 X161.057 Y78.386 E3412.8052
G1 X161.276 Y78.916 E3412.82428
G1 X161.627 Y79.374 E3412.84347
G1 X162.083 Y79.724 E3412.86259
G1 X162.616 Y79.945 E3412.88178
G1 X163.186 Y80.019 E3412.9009
G1 X163.756 Y79.945 E3412.92001
G1 X164.289 Y79.724 E3412.9392
G1 X164.745 Y79.374 E3412.95832
G1 X165.096 Y78.917 E3412.97749
G1 X165.317 Y78.386 E3412.99662
G1 X165.391 Y77.814 E3413.0158
G1 X165.317 Y77.244 E3413.03492
G1 X165.096 Y76.711 E3413.05411
G1 X164.744 Y76.255 E3413.07327
G1 X164.289 Y75.905 E3413.09236
G1 X163.757 Y75.685 E3413.11151
G1 X163.186 Y75.609 E3413.13067
G1 X162.972 Y75.637 E3413.13785
G0 F9000 X184.622 Y78.522
G1 F3600 X184.529 Y79.222 E3413.16133
G1 X184.622 Y79.923 E3413.18485
G1 X184.892 Y80.574 E3413.2083
G1 X185.321 Y81.135 E3413.23178
G1 X185.882 Y81.565 E3413.25529
G1 X186.535 Y81.835 E3413.2788
G1 X187.234 Y81.927 E3413.30225
G1 X187.935 Y81.835 E3413.32576
G1 X188.586 Y81.565 E3413.3492
G1 X189.147 Y81.135 E3413.37271
G1 X189.577 Y80.575 E3413.39619
G1 X189.848 Y79.923 E3413.41968
G1 X189.939 Y79.222 E3413.44319
G1 X189.848 Y78.523 E3413.46663
G1 X189.577 Y77.869 E3413.49018
G1 X189.147 Y77.309 E3413.51366
G1 X188.586 Y76.879 E3413.53717
G1 X187.935 Y76.609 E3413.56061
G1 X187.234 Y76.517 E3413.58413
G1 X186.535 Y76.609 E3413.60758
G1 X185.882 Y76.879 E3413.63108
G1 X185.321 Y77.309 E3413.65459
G1 X184.892 Y77.87 E3413.67808
G1 X184.76 Y78.189 E3413.68956
G0 F9000 X147.093 Y98.429
G1 F3600 X146.743 Y97.973 E3413.70868
G1 X146.285 Y97.623 E3413.72785
G1 X145.754 Y97.403 E3413.74697
G1 X145.183 Y97.327 E3413.76613
G1 X144.612 Y97.403 E3413.78529
G1 X144.08 Y97.623 E3413.80444
G1 X143.624 Y97.973 E3413.82355
G1 X143.274 Y98.429 E3413.84267
G1 X143.054 Y98.961 E3413.86182
G1 X142.978 Y99.532 E3413.88098
G1 X143.054 Y100.103 E3413.90014
G1 X143.274 Y100.634 E3413.91926
G1 X143.624 Y101.092 E3413.93843
G1 X144.08 Y101.442 E3413.95755
G1 X144.613 Y101.663 E3413.97674
G1 X145.183 Y101.737 E3413.99586
G1 X145.753 Y101.663 E3414.01497
G1 X146.285 Y101.442 E3414.03413
G1 X146.743 Y101.092 E3414.05331
G1 X147.093 Y100.634 E3414.07248
G1 X147.314 Y100.102 E3414.09164
G1 X147.388 Y99.532 E3414.11076
G1 X147.314 Y98.962 E3414.12987
G1 X147.231 Y98.762 E3414.13708
G0 F9000 X147.063 Y98.604
G0 X147.312 Y100.101
G0 X144.06 Y116.637
G0 X144.06 Y116.637
G1 F3600 X143.488 Y116.561 E3414.15627
G1 X142.917 Y116.637 E3414.17543
G1 X142.385 Y116.857 E3414.19457
G1 X141.929 Y117.207 E3414.21369
G1 X141.579 Y117.663 E3414.23281
G1 X141.359 Y118.195 E3414.25196
G1 X141.283 Y118.766 E3414.27112
G1 X141.359 Y119.337 E3414.29028
G1 X141.579 Y119.868 E3414.30939
