; Generated with MatterSlice 1.0
; filamentDiameter = 1.75
; extrusionWidth = 0.4
; firstLayerExtrusionWidth = 1
; layerThickness = 0.2
; firstLayerThickness = 0.3
; automatic settings before start_gcode
G21 ; set units to millimeters
M107 ; fan off
M190 S12 ; wait for bed temperature to be reached
M104 T0 S215 ; start heating extruder 0
T0 ; set the active extruder to 0
; settings from start_gcode
G28 X0 Y0 Z0 ; home all axes
G1 Z5 F5000 ; lift nozzle
M109 S210 ; set the extruder temp and wait
G28 X0 Y0 Z0 ; Home Z again in case there was filament on nozzle
M565 Z0
G29 ; probe the bed
; automatic settings after start_gcode
T0 ; set the active extruder to 0
G90 ; use absolute coordinates
G92 E0 ; reset the expected extruder position
M82 ; use absolute distance for extrusion
; Layer count: 145
; LAYER:0
M107
G0 F9000 X87.104 Y116.803 Z1.299
; TYPE:SUPPORT
G1 Z1.299
G1 F1800 E0
G1 F1080 X89.345 Y119.044 E0.15811
G0 F9000 X87.071 Y129.498
G1 F1080 X89.156 Y131.582 E0.30519
G0 F9000 X100.892 Y130.591
G1 F1080 X103.415 Y133.113 E0.48316
G0 F9000 X103.936 Y116.664
G1 F1080 X102.94 Y115.668 E0.55344
G0 F9000 X102.332 Y115.06
G1 F1080 X101.336 Y114.064 E0.62371
G0 F9000 X117.93 Y113.687
G1 F1080 X120.27 Y116.027 E0.78881
G0 F9000 X117.34 Y130.068
G1 F1080 X118.337 Y131.065 E0.85915
G0 F9000 X118.941 Y131.668
G1 F1080 X119.933 Y132.661 E0.92918
G1 F1800 E-2.07082
G1 Z1.799
G0 F9000 X86.597 Y150.424
; TYPE:SUPPORT-INTERFACE
G1 Z1.299
G1 F1800 E0.92918
G1 F1080 X85.747 Y151.274 E0.98915
G0 F9000 X86.312 Y151.274
G1 F1080 X86.597 Y150.99 E1.00922
G0 F9000 X86.101 Y150.354
G1 F1080 X85.181 Y151.274 E1.07414
G0 F9000 X84.615 Y151.274
G1 F1080 X85.535 Y150.354 E1.13905
G0 F9000 X84.97 Y150.354
G1 F1080 X84.05 Y151.274 E1.20396
G0 F9000 X83.484 Y151.274
G1 F1080 X84.405 Y150.353 E1.26894
G0 F9000 X83.84 Y150.352
G1 F1080 X82.918 Y151.275 E1.33403
G0 F9000 X82.352 Y151.275
G1 F1080 X83.275 Y150.352 E1.39915
G0 F9000 X82.71 Y150.352
G1 F1080 X81.786 Y151.275 E1.46431
G0 F9000 X81.221 Y151.275
G1 F1080 X82.145 Y150.351 E1.5295
G0 F9000 X81.58 Y150.35
G1 F1080 X80.655 Y151.275 E1.59476
G0 F9000 X80.089 Y151.275
G1 F1080 X81.015 Y150.349 E1.6601
G0 F9000 X80.449 Y150.349
G1 F1080 X79.941 Y150.858 E1.69598
G1 F1800 E-1.30402
G1 Z1.799
G0 F9000 X141.111 Y150.782
G1 Z1.299
G1 F1800 E1.69598
G1 F1080 X141.538 Y150.355 E1.7261
G0 F9000 X142.105 Y150.354
G1 F1080 X141.183 Y151.275 E1.79112
G0 F9000 X141.749 Y151.275
G1 F1080 X142.671 Y150.353 E1.85617
G0 F9000 X143.237 Y150.352
G1 F1080 X142.315 Y151.275 E1.92126
G0 F9000 X142.88 Y151.275
G1 F1080 X143.805 Y150.351 E1.98649
G0 F9000 X144.371 Y150.35
G1 F1080 X143.447 Y151.274 E2.05168
G0 F9000 X144.012 Y151.274
G1 F1080 X144.938 Y150.349 E2.11698
G0 F9000 X145.725 Y150.127
G1 F1080 X144.578 Y151.274 E2.19791
G0 F9000 X145.144 Y151.274
G1 F1080 X147.361 Y149.058 E2.35429
G0 F9000 X147.127 Y148.726
G1 F1080 X146.213 Y149.64 E2.41878
G0 F9000 X147.16 Y149.823
G1 F1080 X145.847 Y151.137 E2.51145
G0 F9000 X146.6 Y150.949
G1 F1080 X146.76 Y150.789 E2.52274
G0 F9000 X147.31 Y149.674
G1 F1080 X147.361 Y149.623 E2.52634
G0 F9000 X146.585 Y148.702
G1 F1080 X146.651 Y148.636 E2.531
G1 F1800 E-0.469
G1 Z1.799
G0 F9000 X146.999 Y105.296
G1 Z1.299
G1 F1800 E2.531
G1 F1080 X147.36 Y104.935 E2.55647
G0 F9000 X147.244 Y104.485
G1 F1080 X146.54 Y105.189 E2.60614
G0 F9000 X146.381 Y104.782
G1 F1080 X147.16 Y104.004 E2.66107
G0 F9000 X146.96 Y103.638
G1 F1080 X146.223 Y104.375 E2.71307
G0 F9000 X145.979 Y104.053
G1 F1080 X146.827 Y103.205 E2.7729
G0 F9000 X146.427 Y103.039
G1 F1080 X145.648 Y103.818 E2.82786
G0 F9000 X145.234 Y103.667
G1 F1080 X145.975 Y102.926 E2.88014
G0 F9000 X145.522 Y102.813
G1 F1080 X145.204 Y103.131 E2.90258
G0 F9000 X144.962 Y104.791
; TYPE:WALL-OUTER
G1 F1080 X145.095 Y104.822 E2.91961
G1 X145.205 Y104.9 E2.93643
G1 X145.325 Y105.21 E2.97789
G1 X145.341 Y114.576 E4.14607
G1 X145.325 Y148.791 E8.41356
G1 X145.205 Y149.101 E8.45502
G1 X145.095 Y149.179 E8.47184
G1 X144.961 Y149.21 E8.48899
G1 X135.707 Y149.226 E9.6432
G1 X81.001 Y149.211 E16.46644
G1 X81.001 Y104.79 E22.00687
G1 X89.794 Y104.775 E23.10358
G1 X144.062 Y104.79 E29.87218
G0 F9000 X144.81 Y105.39
G0 X130.435 Y112.615
G0 X130.435 Y112.615
G0 X129.835 Y112.615
G1 F1080 X121 Y112.615 E30.97413
G1 X121 Y113.873 E31.13104
G1 X120.786 Y113.56 E31.17833
G1 X120.341 Y113.134 E31.25517
G1 X119.82 Y112.809 E31.33175
G1 X119.243 Y112.596 E31.40847
G1 X118.634 Y112.505 E31.48527
G1 X118.562 Y112.509 E31.49426
G1 X118.562 Y109.262 E31.89925
G1 X105.492 Y109.262 E33.52941
G1 X105.492 Y115.388 E34.29348
G1 X105.438 Y114.877 E34.35757
G1 X105.244 Y114.28 E34.43586
G1 X104.931 Y113.737 E34.51403
G1 X104.51 Y113.269 E34.59255
G1 X104.002 Y112.901 E34.67079
G1 X103.429 Y112.645 E34.74906
G1 X102.814 Y112.515 E34.82746
G1 X102.188 Y112.515 E34.90554
G1 X101.573 Y112.645 E34.98394
G1 X101 Y112.901 E35.06222
G1 X100.492 Y113.269 E35.14046
G1 X100.071 Y113.737 E35.21897
G1 X99.758 Y114.28 E35.29714
G1 X99.564 Y114.877 E35.37544
G1 X99.498 Y115.501 E35.4537
G1 X99.564 Y116.125 E35.53196
G1 X99.758 Y116.722 E35.61026
G1 X100.071 Y117.265 E35.68843
G1 X100.492 Y117.733 E35.76694
G1 X101 Y118.101 E35.84518
G1 X101.573 Y118.357 E35.92346
G1 X102.188 Y118.487 E36.00186
G1 X102.814 Y118.487 E36.07994
G1 X103.429 Y118.357 E36.15834
G1 X104.002 Y118.101 E36.23661
G1 X104.51 Y117.733 E36.31485
G1 X104.931 Y117.265 E36.39337
G1 X105.244 Y116.722 E36.47154
G1 X105.438 Y116.125 E36.54983
G1 X105.492 Y115.614 E36.61392
G1 X105.492 Y131.387 E38.58122
G1 X105.438 Y130.876 E38.64531
G1 X105.244 Y130.279 E38.7236
G1 X104.931 Y129.736 E38.80177
G1 X104.51 Y129.268 E38.88029
G1 X104.002 Y128.9 E38.95853
G1 X103.429 Y128.644 E39.0368
G1 X102.814 Y128.514 E39.1152
G1 X102.188 Y128.514 E39.19328
G1 X101.573 Y128.644 E39.27168
G1 X101 Y128.9 E39.34996
G1 X100.492 Y129.268 E39.4282
G1 X100.071 Y129.736 E39.50671
G1 X99.758 Y130.279 E39.58488
G1 X99.564 Y130.876 E39.66318
G1 X99.498 Y131.5 E39.74144
G1 X99.564 Y132.124 E39.8197
G1 X99.758 Y132.721 E39.898
G1 X100.071 Y133.264 E39.97617
G1 X100.492 Y133.732 E40.05468
G1 X101 Y134.1 E40.13292
G1 X101.573 Y134.356 E40.2112
G1 X102.188 Y134.486 E40.2896
G1 X102.814 Y134.486 E40.36768
G1 X103.429 Y134.356 E40.44608
G1 X104.002 Y134.1 E40.52435
G1 X104.51 Y133.732 E40.60259
G1 X104.931 Y133.264 E40.68111
G1 X105.244 Y132.721 E40.75928
G1 X105.438 Y132.124 E40.83757
G1 X105.492 Y131.613 E40.90166
G1 X105.492 Y137.435 E41.62781
G1 X118.562 Y137.435 E43.25798
G1 X118.562 Y134.496 E43.62455
G1 X119.154 Y134.427 E43.69888
G1 X119.737 Y134.232 E43.77556
G1 X120.268 Y133.922 E43.85225
G1 X120.726 Y133.51 E43.92908
G1 X121 Y133.136 E43.98691
G1 X121 Y134.385 E44.14269
G1 X130 Y134.385 E45.26522
G1 X130 Y126.386 E46.2629
G1 X121 Y126.386 E47.38543
G1 X121 Y129.872 E47.82022
G1 X120.786 Y129.559 E47.86751
G1 X120.341 Y129.133 E47.94435
G1 X119.82 Y128.808 E48.02094
G1 X119.243 Y128.595 E48.09765
G1 X118.634 Y128.504 E48.17445
G1 X118.562 Y128.508 E48.18345
G1 X118.562 Y118.5 E49.4317
G1 X119.157 Y118.426 E49.50648
G1 X119.737 Y118.233 E49.58272
G1 X120.268 Y117.923 E49.65941
G1 X120.726 Y117.511 E49.73625
G1 X121 Y117.137 E49.79408
G1 X121 Y120.386 E50.19931
G1 X129.835 Y120.386 E51.30126
G1 X129.835 Y113.515 E52.15825
G1 F1800 E49.15825
G1 Z1.799
G0 F9000 X130.435 Y112.615
G0 X130.523 Y112.585
G0 X130.144 Y112.71
G0 X105.181 Y120.943
G0 X104.801 Y121.068
G0 X102.907 Y121.694
G0 X102.321 Y121.815
G1 Z1.299
G1 F1800 E52.15825
G1 F1080 X102.035 Y121.01 E52.2648
G1 X101.642 Y120.253 E52.37118
G1 X101.15 Y119.556 E52.47759
G1 X100.568 Y118.933 E52.58393
G1 X99.906 Y118.393 E52.69048
G1 X99.176 Y117.951 E52.79692
G1 X98.395 Y117.611 E52.90316
G1 X97.573 Y117.38 E53.00966
G1 X96.727 Y117.264 E53.11616
G1 X95.875 Y117.264 E53.22243
G1 X95.029 Y117.38 E53.32894
G1 X94.207 Y117.611 E53.43543
G1 X93.426 Y117.951 E53.54167
G1 X92.696 Y118.393 E53.64811
G1 X92.034 Y118.933 E53.75467
G1 X91.452 Y119.556 E53.861
G1 X90.96 Y120.253 E53.96741
G1 X90.567 Y121.01 E54.07379
G1 X90.281 Y121.815 E54.18035
G1 X90.109 Y122.65 E54.28668
G1 X90.05 Y123.501 E54.39307
G1 X90.109 Y124.352 E54.49947
G1 X90.281 Y125.187 E54.6058
G1 X90.567 Y125.992 E54.71236
G1 X90.96 Y126.75 E54.81885
G1 X91.452 Y127.445 E54.92506
G1 X92.034 Y128.068 E55.03139
G1 X92.696 Y128.608 E55.13795
G1 X93.426 Y129.05 E55.24438
G1 X94.207 Y129.39 E55.35063
G1 X95.029 Y129.621 E55.45712
G1 X95.875 Y129.737 E55.56363
G1 X96.727 Y129.737 E55.66989
G1 X97.573 Y129.621 E55.7764
G1 X98.395 Y129.39 E55.88289
G1 X99.176 Y129.05 E55.98913
G1 X99.906 Y128.608 E56.09557
G1 X100.568 Y128.068 E56.20213
G1 X101.15 Y127.445 E56.30846
G1 X101.642 Y126.75 E56.41467
G1 X102.035 Y125.992 E56.52116
G1 X102.321 Y125.187 E56.62771
G1 X102.493 Y124.352 E56.73405
G1 X102.552 Y123.5 E56.84057
G1 X102.493 Y122.699 E56.94074
G0 F9000 X102.907 Y121.694
G0 X102.982 Y121.719
G0 X102.604 Y121.589
G0 X92.397 Y118.094
G0 X91.644 Y118.472
G1 F1080 X91.838 Y117.875 E57.01904
G1 X91.904 Y117.251 E57.0973
G1 X91.838 Y116.627 E57.17556
G1 X91.644 Y116.03 E57.25386
G1 X91.331 Y115.487 E57.33203
G1 X90.91 Y115.019 E57.41054
G1 X90.402 Y114.651 E57.48878
G1 X89.829 Y114.395 E57.56706
G1 X89.214 Y114.265 E57.64546
G1 X88.588 Y114.265 E57.72354
G1 X87.973 Y114.395 E57.80194
G1 X87.4 Y114.651 E57.88021
G1 X86.892 Y115.019 E57.95845
G1 X86.471 Y115.487 E58.03697
G1 X86.158 Y116.03 E58.11514
G1 X85.964 Y116.627 E58.19343
G1 X85.898 Y117.251 E58.2717
G1 X85.964 Y117.875 E58.34996
G1 X86.158 Y118.472 E58.42825
G1 X86.471 Y119.015 E58.50642
G1 X86.892 Y119.483 E58.58494
G1 X87.4 Y119.851 E58.66318
G1 X87.973 Y120.107 E58.74145
G1 X88.588 Y120.237 E58.81985
G1 X89.214 Y120.237 E58.89793
G1 X89.829 Y120.107 E58.97633
G1 X90.402 Y119.851 E59.05461
G1 X90.91 Y119.483 E59.13285
G1 X91.147 Y119.219 E59.1771
G0 F9000 X92.397 Y118.094
G0 X90.099 Y125.815
G0 X89.985 Y126.198
G0 X89.954 Y126.309
G0 X89.829 Y126.894
G1 F1080 X89.214 Y126.764 E59.2555
G1 X88.588 Y126.764 E59.33358
G1 X87.973 Y126.894 E59.41198
G1 X87.4 Y127.15 E59.49025
G1 X86.892 Y127.518 E59.56849
G1 X86.471 Y127.986 E59.64701
G1 X86.158 Y128.529 E59.72518
G1 X85.964 Y129.126 E59.80347
G1 X85.898 Y129.75 E59.88174
G1 X85.964 Y130.374 E59.96
G1 X86.158 Y130.971 E60.03829
G1 X86.471 Y131.514 E60.11646
G1 X86.892 Y131.982 E60.19498
G1 X87.4 Y132.35 E60.27322
G1 X87.973 Y132.606 E60.35149
G1 X88.588 Y132.736 E60.42989
G1 X89.214 Y132.736 E60.50797
G1 X89.829 Y132.606 E60.58637
G1 X90.402 Y132.35 E60.66465
G1 X90.91 Y131.982 E60.74289
G1 X91.331 Y131.514 E60.8214
G1 X91.644 Y130.971 E60.89958
G1 X91.838 Y130.374 E60.97787
G1 X91.904 Y129.75 E61.05613
G1 X91.838 Y129.126 E61.13439
G1 X91.644 Y128.529 E61.21269
G1 X91.331 Y127.986 E61.29086
G1 X90.91 Y127.518 E61.36937
G1 X90.624 Y127.311 E61.41341
G0 F9000 X89.434 Y125.788
; TYPE:WALL-INNER
G1 F1080 X89.318 Y125.764 E61.42818
G1 X88.484 Y125.764 E61.5322
G1 X87.662 Y125.937 E61.63698
G1 X86.897 Y126.279 E61.74149
G1 X86.219 Y126.771 E61.84597
G1 X85.658 Y127.395 E61.95063
G1 X85.239 Y128.12 E62.05507
G1 X84.981 Y128.917 E62.15956
G1 X84.893 Y129.75 E62.26403
G1 X84.981 Y130.583 E62.36851
G1 X85.239 Y131.38 E62.47299
G1 X85.658 Y132.105 E62.57743
G1 X86.219 Y132.729 E62.68209
G1 X86.897 Y133.221 E62.78657
G1 X87.662 Y133.563 E62.89109
G1 X88.484 Y133.736 E62.99586
G1 X89.318 Y133.736 E63.09988
G1 X90.14 Y133.563 E63.20465
G1 X90.905 Y133.221 E63.30917
G1 X91.583 Y132.729 E63.41365
G1 X92.144 Y132.105 E63.51831
G1 X92.563 Y131.38 E63.62275
G1 X92.821 Y130.583 E63.72723
G1 X92.894 Y129.897 E63.81328
G1 X92.965 Y129.94 E63.82363
G1 X93.871 Y130.334 E63.94686
G1 X94.825 Y130.602 E64.07045
G1 X95.806 Y130.737 E64.19396
G1 X96.796 Y130.737 E64.31744
G1 X97.777 Y130.602 E64.44095
G1 X98.685 Y130.347 E64.55858
G1 X98.581 Y130.667 E64.60055
G1 X98.493 Y131.5 E64.70502
G1 X98.581 Y132.333 E64.80949
G1 X98.839 Y133.13 E64.91398
G1 X99.258 Y133.855 E65.01842
G1 X99.819 Y134.479 E65.12308
G1 X100.497 Y134.971 E65.22756
G1 X101.262 Y135.313 E65.33208
G1 X102.084 Y135.486 E65.43685
G1 X102.918 Y135.486 E65.54087
G1 X103.74 Y135.313 E65.64564
G1 X104.492 Y134.977 E65.74837
G1 X104.492 Y138.435 E66.17967
G1 X119.562 Y138.435 E68.05928
G1 X119.562 Y135.345 E68.44469
G1 X120 Y135.199 E68.50227
G1 X120 Y135.385 E68.52547
G1 X131 Y135.385 E69.89745
G1 X131 Y125.386 E71.14458
G1 X120 Y125.386 E72.51656
G1 X120 Y127.808 E72.81865
G1 X119.562 Y127.647 E72.87685
G1 X119.562 Y119.346 E73.9122
G1 X120 Y119.2 E73.96978
G1 X120 Y121.386 E74.24243
G1 X130.835 Y121.386 E75.59383
G1 X130.835 Y111.615 E76.81252
G1 X120 Y111.615 E78.16393
G1 X120 Y111.809 E78.18812
G1 X119.562 Y111.648 E78.24633
G1 X119.562 Y108.262 E78.66865
G1 X104.492 Y108.262 E80.54826
G1 X104.492 Y112.024 E81.01748
G1 X103.74 Y111.688 E81.12021
G1 X102.918 Y111.515 E81.22498
G1 X102.084 Y111.515 E81.329
G1 X101.262 Y111.688 E81.43377
G1 X100.497 Y112.03 E81.53829
G1 X99.819 Y112.522 E81.64277
G1 X99.258 Y113.146 E81.74743
G1 X98.839 Y113.871 E81.85187
G1 X98.581 Y114.668 E81.95635
G1 X98.493 Y115.501 E82.06083
G1 X98.581 Y116.334 E82.1653
G1 X98.685 Y116.654 E82.20727
G1 X97.777 Y116.399 E82.3249
G1 X96.796 Y116.264 E82.44841
G1 X95.806 Y116.264 E82.57189
G1 X94.825 Y116.399 E82.6954
G1 X93.871 Y116.667 E82.81899
G1 X92.965 Y117.061 E82.94221
G1 X92.894 Y117.104 E82.95257
G1 X92.821 Y116.418 E83.03861
G1 X92.563 Y115.621 E83.1431
G1 X92.144 Y114.896 E83.24754
G1 X91.583 Y114.272 E83.3522
G1 X90.905 Y113.78 E83.45668
G1 X90.14 Y113.438 E83.5612
G1 X89.318 Y113.265 E83.66597
G1 X88.484 Y113.265 E83.76999
G1 X87.662 Y113.438 E83.87476
G1 X86.897 Y113.78 E83.97927
G1 X86.219 Y114.272 E84.08376
G1 X85.658 Y114.896 E84.18841
G1 X85.239 Y115.621 E84.29286
G1 X84.981 Y116.418 E84.39734
G1 X84.893 Y117.251 E84.50181
G1 X84.981 Y118.084 E84.60629
G1 X85.239 Y118.881 E84.71077
G1 X85.658 Y119.606 E84.81522
G1 X86.219 Y120.23 E84.91987
G1 X86.897 Y120.722 E85.02436
G1 X87.662 Y121.064 E85.12887
G1 X88.484 Y121.237 E85.23364
G1 X89.318 Y121.237 E85.33766
G1 X89.434 Y121.213 E85.35244
G1 X89.316 Y121.545 E85.39638
G1 X89.116 Y122.513 E85.51967
G1 X89.047 Y123.501 E85.6432
G1 X89.116 Y124.489 E85.76673
G1 X89.204 Y124.919 E85.82147
G0 F9000 X89.798 Y125.847
G0 X90.193 Y125.912
G0 X101.322 Y127.747
G0 X101.716 Y127.812
G0 X102.326 Y127.914
G0 X102.326 Y127.514
G1 F1080 X102.498 Y127.271 E85.8586
G1 X102.954 Y126.391 E85.98222
G1 X103.286 Y125.457 E86.10586
G1 X103.486 Y124.489 E86.22914
G1 X103.555 Y123.497 E86.35317
G1 X103.48 Y122.481 E86.48023
G1 X103.286 Y121.545 E86.59946
G1 X102.954 Y120.611 E86.72309
G1 X102.499 Y119.732 E86.84654
G1 X102.326 Y119.487 E86.88395
G1 X102.918 Y119.487 E86.95779
G1 X103.74 Y119.314 E87.06256
G1 X104.492 Y118.978 E87.16529
G1 X104.492 Y128.023 E88.29343
G1 X103.74 Y127.687 E88.39616
G1 X103.22 Y127.578 E88.46243
G1 F1800 E85.46243
G1 Z1.799
G0 F9000 X102.326 Y127.914
G0 X102.026 Y127.384
G0 X101.829 Y127.036
G0 X96.114 Y116.938
G0 X95.917 Y116.59
G0 X89.796 Y105.775
G0 X89.796 Y105.775
G1 Z1.299
G1 F1800 E88.46243
G1 F1080 X144.326 Y105.79 E95.26371
G1 X144.341 Y114.575 E96.35943
G1 X144.326 Y148.211 E100.55469
G1 X135.705 Y148.226 E101.62995
G1 X82.001 Y148.212 E108.32821
G1 X82.001 Y105.788 E113.61957
G1 X88.896 Y105.777 E114.47955
G0 F9000 X89.244 Y106.215
; TYPE:FILL
G1 F1080 X98.096 Y115.066 E116.04085
G0 F9000 X97.535 Y115.92
G1 F1080 X87.833 Y106.218 E117.75217
G0 F9000 X86.421 Y106.22
G1 F1080 X96.024 Y115.823 E119.44603
G0 F9000 X94.75 Y115.963
G1 F1080 X85.009 Y106.222 E121.16423
G0 F9000 X83.596 Y106.224
G1 F1080 X90.481 Y113.108 E122.37858
G0 F9000 X88.782 Y112.824
G1 F1080 X82.44 Y106.482 E123.49724
G0 F9000 X82.44 Y107.896
G1 F1080 X87.555 Y113.011 E124.39946
G0 F9000 X86.588 Y113.458
G1 F1080 X82.44 Y109.31 E125.13112
G0 F9000 X82.44 Y110.725
G1 F1080 X85.797 Y114.081 E125.72317
G0 F9000 X85.166 Y114.865
G1 F1080 X82.44 Y112.139 E126.20401
G0 F9000 X82.44 Y113.553
G1 F1080 X84.71 Y115.823 E126.60441
G0 F9000 X84.476 Y117.003
G1 F1080 X82.44 Y114.967 E126.96353
G0 F9000 X82.44 Y116.381
G1 F1080 X84.698 Y118.639 E127.36182
G0 F9000 X85.497 Y118.38
G0 X81.601 Y119.21
G0 X81.601 Y119.21
G0 X82.44 Y119.21
G1 F1080 X88.553 Y125.323 E128.44008
G0 F9000 X87.392 Y125.575
G1 F1080 X82.44 Y120.624 E129.31347
G0 F9000 X82.44 Y122.038
G1 F1080 X86.456 Y126.054 E130.02185
G0 F9000 X85.689 Y126.701
G1 F1080 X82.44 Y123.453 E130.59484
G0 F9000 X82.44 Y124.867
G1 F1080 X85.083 Y127.509 E131.06095
G0 F9000 X84.654 Y128.495
G1 F1080 X82.44 Y126.281 E131.45148
G0 F9000 X82.441 Y127.696
G1 F1080 X84.454 Y129.709 E131.80655
G0 F9000 X85.297 Y129.769
G0 X84.808 Y131.478
G0 X84.808 Y131.478
G1 F1080 X82.441 Y129.11 E132.22415
G0 F9000 X82.441 Y130.524
G1 F1080 X99.692 Y147.775 E135.26702
G0 F9000 X98.277 Y147.775
G1 F1080 X82.441 Y131.939 E138.06031
G0 F9000 X82.441 Y133.353
G1 F1080 X96.863 Y147.774 E140.6041
G0 F9000 X95.448 Y147.774
G1 F1080 X82.441 Y134.767 E142.89838
G0 F9000 X82.441 Y136.181
G1 F1080 X94.033 Y147.774 E144.94317
G0 F9000 X92.619 Y147.774
G1 F1080 X82.441 Y137.595 E146.73854
G0 F9000 X82.441 Y139.01
G1 F1080 X91.204 Y147.773 E148.28423
G0 F9000 X89.79 Y147.773
G1 F1080 X82.441 Y140.424 E149.58051
G0 F9000 X82.441 Y141.838
G1 F1080 X88.375 Y147.772 E150.6272
G0 F9000 X86.961 Y147.772
G1 F1080 X82.441 Y143.252 E151.42447
G0 F9000 X82.441 Y144.666
G1 F1080 X85.546 Y147.771 E151.97216
G0 F9000 X84.132 Y147.771
G1 F1080 X82.441 Y146.081 E152.27035
G0 F9000 X82.441 Y147.495
G1 F1080 X82.717 Y147.771 E152.31903
G0 F9000 X87.142 Y133.811
G1 F1080 X101.107 Y147.776 E154.78229
G0 F9000 X102.521 Y147.776
G1 F1080 X88.92 Y134.174 E157.18144
G0 F9000 X90.164 Y134.005
G1 F1080 X103.936 Y147.776 E159.61058
G0 F9000 X105.351 Y147.777
G1 F1080 X91.155 Y133.582 E162.1145
G0 F9000 X91.957 Y132.97
G1 F1080 X106.765 Y147.777 E164.72637
G0 F9000 X108.18 Y147.778
G1 F1080 X92.598 Y132.196 E167.47486
G0 F9000 X93.067 Y131.251
G1 F1080 X109.594 Y147.778 E170.39003
G0 F9000 X111.009 Y147.778
G1 F1080 X94.079 Y130.849 E173.3762
G0 F9000 X95.82 Y131.176
G1 F1080 X112.423 Y147.778 E176.30469
G0 F9000 X113.838 Y147.779
G1 F1080 X104.933 Y138.874 E177.87543
G0 F9000 X104.052 Y137.993
G1 F1080 X101.969 Y135.91 E178.24285
G0 F9000 X103.322 Y135.849
G1 F1080 X104.052 Y136.579 E178.37161
G0 F9000 X104.85 Y137.377
G0 X104.851 Y138.076
G0 X106.347 Y138.874
G0 X106.347 Y138.874
G1 F1080 X115.252 Y147.779 E179.94235
G0 F9000 X116.667 Y147.78
G1 F1080 X107.761 Y138.874 E181.51327
G0 F9000 X109.175 Y138.874
G1 F1080 X118.081 Y147.78 E183.08418
G0 F9000 X119.496 Y147.781
G1 F1080 X110.59 Y138.874 E184.65519
G0 F9000 X112.004 Y138.874
G1 F1080 X120.911 Y147.781 E186.22628
G0 F9000 X122.325 Y147.781
G1 F1080 X113.418 Y138.874 E187.79737
G0 F9000 X114.832 Y138.874
G1 F1080 X123.74 Y147.782 E189.36864
G0 F9000 X125.155 Y147.782
G1 F1080 X116.246 Y138.874 E190.94
G0 F9000 X117.661 Y138.874
G1 F1080 X126.569 Y147.783 E192.51135
G0 F9000 X127.984 Y147.783
G1 F1080 X119.075 Y138.874 E194.0828
G0 F9000 X120.001 Y138.386
G1 F1080 X129.399 Y147.783 E195.74041
G0 F9000 X130.813 Y147.783
G1 F1080 X120.002 Y136.972 E197.64735
G0 F9000 X120.268 Y135.824
G1 F1080 X132.228 Y147.784 E199.75695
G0 F9000 X133.642 Y147.784
G1 F1080 X121.682 Y135.824 E201.86656
G0 F9000 X123.096 Y135.824
G1 F1080 X135.057 Y147.785 E203.97634
G0 F9000 X136.47 Y147.783
G1 F1080 X124.51 Y135.824 E206.08586
G0 F9000 X125.924 Y135.823
G1 F1080 X137.882 Y147.781 E208.19511
G0 F9000 X139.293 Y147.778
G1 F1080 X127.338 Y135.823 E210.30384
G0 F9000 X128.752 Y135.823
G1 F1080 X140.705 Y147.776 E212.41221
G0 F9000 X142.117 Y147.774
G1 F1080 X130.167 Y135.823 E214.52014
G0 F9000 X131.439 Y135.682
G1 F1080 X143.529 Y147.771 E216.65259
G0 F9000 X143.887 Y146.715
G1 F1080 X131.439 Y134.268 E218.84819
G0 F9000 X131.439 Y132.854
G1 F1080 X143.887 Y145.301 E221.04378
G0 F9000 X143.887 Y143.887
G1 F1080 X131.439 Y131.439 E223.23947
G0 F9000 X131.439 Y130.024
G1 F1080 X143.888 Y142.474 E225.43541
G0 F9000 X143.889 Y141.06
G1 F1080 X131.439 Y128.61 E227.63145
G0 F9000 X131.439 Y127.196
G1 F1080 X143.889 Y139.647 E229.82758
G0 F9000 X143.89 Y138.233
G1 F1080 X131.439 Y125.782 E232.02379
G0 F9000 X130.603 Y124.946
G1 F1080 X127.482 Y121.826 E232.57421
G0 F9000 X126.068 Y121.826
G1 F1080 X129.189 Y124.946 E233.12463
G0 F9000 X127.774 Y124.945
G1 F1080 X124.653 Y121.825 E233.67505
G0 F9000 X123.239 Y121.825
G1 F1080 X126.359 Y124.945 E234.22538
G0 F9000 X124.945 Y124.945
G1 F1080 X121.825 Y121.825 E234.77572
G0 F9000 X120.411 Y121.825
G1 F1080 X123.531 Y124.945 E235.32605
G0 F9000 X122.116 Y124.945
G1 F1080 X120.002 Y122.83 E235.69902
G0 F9000 X120.002 Y124.245
G1 F1080 X120.702 Y124.945 E235.82249
G0 F9000 X120.702 Y125.786
G0 X128.897 Y121.826
G0 X128.897 Y121.826
G1 F1080 X143.891 Y136.82 E238.46726
G0 F9000 X143.891 Y135.405
G1 F1080 X130.311 Y121.826 E240.86253
G0 F9000 X131.274 Y121.374
G1 F1080 X143.891 Y133.992 E243.08811
G0 F9000 X143.892 Y132.578
G1 F1080 X131.274 Y119.96 E245.31378
G0 F9000 X131.274 Y118.546
G1 F1080 X143.893 Y131.165 E247.53963
G0 F9000 X143.894 Y129.751
G1 F1080 X131.274 Y117.132 E249.76556
G0 F9000 X131.274 Y115.718
G1 F1080 X143.894 Y128.338 E251.99159
G0 F9000 X143.895 Y126.924
G1 F1080 X131.274 Y114.303 E254.21779
G0 F9000 X131.274 Y112.889
G1 F1080 X143.895 Y125.51 E256.44398
G0 F9000 X143.896 Y124.097
G1 F1080 X131.274 Y111.475 E258.67036
G0 F9000 X130.974 Y111.175
G1 F1080 X126.024 Y106.225 E259.54348
G0 F9000 X127.438 Y106.225
G1 F1080 X143.896 Y122.683 E262.44649
G0 F9000 X143.897 Y121.27
G1 F1080 X128.853 Y106.225 E265.10016
G0 F9000 X130.267 Y106.225
G1 F1080 X143.898 Y119.856 E267.50451
G0 F9000 X143.899 Y118.443
G1 F1080 X131.682 Y106.226 E269.65945
G0 F9000 X133.097 Y106.227
G1 F1080 X143.899 Y117.029 E271.5648
G0 F9000 X143.899 Y115.615
G1 F1080 X134.511 Y106.227 E273.22074
G0 F9000 X135.926 Y106.227
G1 F1080 X143.899 Y114.201 E274.62717
G0 F9000 X143.897 Y112.784
G1 F1080 X137.34 Y106.227 E275.78375
G0 F9000 X138.755 Y106.228
G1 F1080 X143.894 Y111.367 E276.69021
G0 F9000 X143.892 Y109.951
G1 F1080 X140.169 Y106.228 E277.3469
G0 F9000 X141.584 Y106.229
G1 F1080 X143.89 Y108.535 E277.75366
G0 F9000 X143.887 Y107.118
G1 F1080 X142.999 Y106.23 E277.91029
G0 F9000 X129.56 Y111.175
G1 F1080 X124.609 Y106.224 E278.78359
G0 F9000 X123.194 Y106.224
G1 F1080 X128.146 Y111.175 E279.65698
G0 F9000 X126.731 Y111.175
G1 F1080 X121.78 Y106.223 E280.53036
G0 F9000 X120.365 Y106.222
G1 F1080 X125.316 Y111.174 E281.40375
G0 F9000 X123.902 Y111.174
G1 F1080 X118.95 Y106.222 E282.27723
G0 F9000 X117.535 Y106.222
G1 F1080 X119.135 Y107.821 E282.55936
G0 F9000 X120 Y108.687
G1 F1080 X122.488 Y111.174 E282.99813
G0 F9000 X121.074 Y111.174
G1 F1080 X120 Y110.101 E283.18748
G0 F9000 X119.202 Y109.303
G0 X119.203 Y108.621
G0 X117.721 Y107.821
G0 X117.721 Y107.821
G1 F1080 X116.121 Y106.222 E283.46961
G0 F9000 X114.706 Y106.221
G1 F1080 X116.307 Y107.821 E283.75192
G0 F9000 X114.892 Y107.821
G1 F1080 X113.292 Y106.221 E284.03415
G0 F9000 X111.877 Y106.22
G1 F1080 X113.478 Y107.821 E284.31654
G0 F9000 X112.064 Y107.821
G1 F1080 X110.462 Y106.22 E284.59903
G0 F9000 X109.048 Y106.22
G1 F1080 X110.649 Y107.821 E284.88143
G0 F9000 X109.235 Y107.821
G1 F1080 X107.633 Y106.219 E285.164
G0 F9000 X106.219 Y106.219
G1 F1080 X107.821 Y107.821 E285.44658
G0 F9000 X106.406 Y107.821
G1 F1080 X104.804 Y106.218 E285.72924
G0 F9000 X103.39 Y106.218
G1 F1080 X104.992 Y107.821 E286.0119
G0 F9000 X104.052 Y108.294
G1 F1080 X101.975 Y106.218 E286.37817
G0 F9000 X100.56 Y106.217
G1 F1080 X104.052 Y109.709 E286.99412
G0 F9000 X104.052 Y111.123
G1 F1080 X99.146 Y106.217 E287.85948
G0 F9000 X97.731 Y106.216
G1 F1080 X102.589 Y111.074 E288.71638
G0 F9000 X101.325 Y111.225
G1 F1080 X96.317 Y106.216 E289.59982
G0 F9000 X94.902 Y106.215
G1 F1080 X100.315 Y111.628 E290.55461
G0 F9000 X99.494 Y112.222
G1 F1080 X93.488 Y106.215 E291.61409
G0 F9000 X92.073 Y106.215
G1 F1080 X98.842 Y112.984 E292.80806
G0 F9000 X98.361 Y113.917
G1 F1080 X90.658 Y106.214 E294.16678
G0 F9000 X93.041 Y115.668
G1 F1080 X93.654 Y116.281 E294.27491
G0 F9000 X92.547 Y117.223
G0 X91.899 Y115.074
G0 X90.046 Y113.727
G0 X87.756 Y113.727
G0 X85.903 Y115.074
G0 X85.195 Y117.251
G0 X85.903 Y119.428
G0 X87.546 Y121.487
G0 X87.546 Y121.487
G1 F1080 X88.668 Y122.609 E294.47282
G0 F9000 X88.64 Y123.996
G1 F1080 X82.44 Y117.796 E295.56643
G1 F1800 E292.56643
G1 Z1.799
G0 F9000 X81.601 Y117.796
G0 X89.517 Y124.566
G0 X85.903 Y127.573
G0 X91.899 Y131.927
G0 X97.186 Y131.127
G0 X97.186 Y131.127
G1 Z1.299
G1 F1800 E295.56643
G1 F1080 X98.108 Y132.049 E295.72906
G0 F9000 X98.85 Y131.486
G0 X99.169 Y131.245
G0 X103.155 Y128.228
G0 X103.474 Y127.987
G0 X103.419 Y128.03
G0 X103.593 Y127.206
G1 F1080 X103.642 Y127.157 E295.7377
G0 F9000 X104.052 Y127.267
G1 F1080 X103.642 Y127.157 E295.79064
G1 X103.429 Y126.364 E295.89306
G0 F9000 X102.638 Y126.083
G0 X104.892 Y119.813
G0 X104.892 Y119.813
G0 X104.052 Y119.813
G1 F1080 X103.806 Y119.748 E295.92479
; LAYER:1
G0 F9000 X103.936 Y116.664 Z1.499
; TYPE:SUPPORT
G1 F3600 X102.94 Y115.668 E295.97164
G0 F9000 X102.332 Y115.06
G1 F3600 X101.336 Y114.064 E296.01849
G0 F9000 X89.345 Y119.044
G1 F3600 X87.104 Y116.803 E296.1239
G0 F9000 X87.071 Y129.498
G1 F3600 X89.156 Y131.582 E296.22195
G0 F9000 X100.892 Y130.591
G1 F3600 X103.415 Y133.113 E296.3406
G0 F9000 X117.341 Y130.069
G1 F3600 X118.337 Y131.065 E296.38745
G0 F9000 X118.941 Y131.668
G1 F3600 X119.938 Y132.665 E296.43434
G0 F9000 X120.275 Y116.032
G1 F3600 X117.934 Y113.691 E296.54446
G0 F9000 X118.662 Y112.408
; TYPE:WALL-INNER
G1 F3600 X118.662 Y109.162 E296.65242
G1 X105.392 Y109.162 E297.09378
G1 X105.392 Y114.412 E297.2684
G1 X105.336 Y114.239 E297.27445
G1 X105.012 Y113.677 E297.29602
G1 X104.578 Y113.195 E297.31759
G1 X104.053 Y112.814 E297.33917
G1 X103.46 Y112.549 E297.36077
G1 X102.825 Y112.415 E297.38236
G1 X102.177 Y112.415 E297.40391
G1 X101.542 Y112.549 E297.4255
G1 X100.949 Y112.814 E297.4471
G1 X100.424 Y113.195 E297.46867
G1 X99.99 Y113.677 E297.49025
G1 X99.666 Y114.239 E297.51182
G1 X99.466 Y114.856 E297.5334
G1 X99.398 Y115.501 E297.55497
G1 X99.466 Y116.146 E297.57654
G1 X99.666 Y116.763 E297.59811
G1 X99.99 Y117.325 E297.61969
G1 X100.424 Y117.807 E297.64126
G1 X100.949 Y118.188 E297.66284
G1 X101.542 Y118.453 E297.68444
G1 X102.177 Y118.587 E297.70602
G1 X102.825 Y118.587 E297.72758
G1 X103.46 Y118.453 E297.74916
G1 X104.053 Y118.188 E297.77076
G1 X104.578 Y117.807 E297.79234
G1 X105.012 Y117.325 E297.81391
G1 X105.336 Y116.763 E297.83549
G1 X105.392 Y116.59 E297.84154
G1 X105.392 Y130.411 E298.30122
G1 X105.336 Y130.238 E298.30727
G1 X105.012 Y129.676 E298.32885
G1 X104.578 Y129.194 E298.35042
G1 X104.053 Y128.813 E298.372
G1 X103.46 Y128.548 E298.3936
G1 X102.825 Y128.414 E298.41518
G1 X102.177 Y128.414 E298.43674
G1 X101.542 Y128.548 E298.45832
G1 X100.949 Y128.813 E298.47993
G1 X100.424 Y129.194 E298.5015
G1 X99.99 Y129.676 E298.52307
G1 X99.666 Y130.238 E298.54465
G1 X99.466 Y130.855 E298.56622
G1 X99.398 Y131.5 E298.58779
G1 X99.466 Y132.145 E298.60937
G1 X99.666 Y132.762 E298.63094
G1 X99.99 Y133.324 E298.65251
G1 X100.424 Y133.806 E298.67409
G1 X100.949 Y134.187 E298.69566
G1 X101.542 Y134.452 E298.71726
G1 X102.177 Y134.586 E298.73885
G1 X102.825 Y134.586 E298.7604
G1 X103.46 Y134.452 E298.78199
G1 X104.053 Y134.187 E298.80359
G1 X104.578 Y133.806 E298.82517
G1 X105.012 Y133.324 E298.84674
G1 X105.336 Y132.762 E298.86831
G1 X105.392 Y132.589 E298.87436
G1 X105.392 Y137.535 E299.03887
G1 X118.662 Y137.535 E299.48023
G1 X118.662 Y134.593 E299.57808
G1 X119.223 Y134.518 E299.59691
G1 X119.823 Y134.307 E299.61806
G1 X120.368 Y133.978 E299.63923
G1 X120.835 Y133.544 E299.66044
G1 X120.9 Y133.452 E299.66418
G1 X120.9 Y134.485 E299.69854
G1 X130.1 Y134.485 E300.00454
G1 X130.1 Y126.286 E300.27723
G1 X120.9 Y126.286 E300.58323
G1 X120.9 Y129.548 E300.69172
G1 X120.835 Y129.456 E300.69547
G1 X120.368 Y129.022 E300.71667
G1 X119.823 Y128.693 E300.73785
G1 X119.223 Y128.482 E300.759
G1 X118.662 Y128.407 E300.77783
G1 X118.662 Y118.594 E301.10421
G1 X119.223 Y118.519 E301.12303
G1 X119.823 Y118.308 E301.14419
G1 X120.368 Y117.979 E301.16536
G1 X120.835 Y117.545 E301.18657
G1 X120.9 Y117.453 E301.19031
G1 X120.9 Y120.486 E301.29119
G1 X129.935 Y120.486 E301.59169
G1 X129.935 Y112.515 E301.85681
G1 X120.9 Y112.515 E302.15732
G1 X120.9 Y113.549 E302.19171
G1 X120.835 Y113.457 E302.19545
G1 X120.368 Y113.023 E302.21666
G1 X119.823 Y112.694 E302.23783
G1 X119.223 Y112.483 E302.25899
G1 X119.02 Y112.456 E302.2658
G1 F1800 E299.2658
G1 Z1.999
G0 F9000 X118.562 Y112.408
G0 X118.638 Y112.367
G0 X118.603 Y109.221
G0 X105.451 Y109.221
G0 X105.414 Y119.266
G0 X102.041 Y121.027
G0 X102.127 Y120.97
G1 Z1.499
G1 F1800 E302.2658
G1 F3600 X101.728 Y120.2 E302.29464
G1 X101.227 Y119.492 E302.32349
G1 X100.637 Y118.86 E302.35225
G1 X99.964 Y118.312 E302.38111
G1 X99.223 Y117.862 E302.40995
G1 X98.429 Y117.516 E302.43875
G1 X97.593 Y117.282 E302.46763
G1 X96.734 Y117.164 E302.49647
G1 X95.868 Y117.164 E302.52527
G1 X95.009 Y117.282 E302.55411
G1 X94.173 Y117.516 E302.58298
G1 X93.379 Y117.862 E302.61179
G1 X92.638 Y118.312 E302.64062
G1 X91.965 Y118.86 E302.66949
G1 X91.375 Y119.492 E302.69825
G1 X90.874 Y120.2 E302.72709
G1 X90.475 Y120.97 E302.75594
G1 X90.185 Y121.788 E302.78481
G1 X90.009 Y122.636 E302.81361
G1 X89.95 Y123.501 E302.84245
G1 X90.009 Y124.366 E302.87128
G1 X90.185 Y125.214 E302.90009
G1 X90.475 Y126.032 E302.92896
G1 X90.874 Y126.802 E302.9578
G1 X91.375 Y127.509 E302.98662
G1 X91.965 Y128.141 E303.01538
G1 X92.638 Y128.689 E303.04424
G1 X93.379 Y129.139 E303.07308
G1 X94.173 Y129.485 E303.10189
G1 X95.009 Y129.719 E303.13076
G1 X95.868 Y129.837 E303.1596
G1 X96.734 Y129.837 E303.1884
G1 X97.593 Y129.719 E303.21724
G1 X98.429 Y129.485 E303.24611
G1 X99.223 Y129.139 E303.27492
G1 X99.964 Y128.689 E303.30376
G1 X100.637 Y128.141 E303.33262
G1 X101.227 Y127.509 E303.36138
G1 X101.728 Y126.802 E303.3902
G1 X102.127 Y126.032 E303.41904
G1 X102.417 Y125.214 E303.44791
G1 X102.593 Y124.366 E303.47672
G1 X102.653 Y123.497 E303.50569
G1 X102.576 Y122.556 E303.53709
G1 X102.417 Y121.788 E303.56317
G1 X102.248 Y121.31 E303.58004
G0 F9000 X102.041 Y121.027
G0 X102.101 Y121.044
G0 X100.636 Y118.86
G0 X98.428 Y117.517
G0 X95.869 Y117.165
G0 X91.839 Y117.856
G0 X91.936 Y117.896
G1 F3600 X92.004 Y117.251 E303.60161
G1 X91.936 Y116.606 E303.62318
G1 X91.736 Y115.989 E303.64475
G1 X91.412 Y115.427 E303.66633
G1 X90.978 Y114.945 E303.6879
G1 X90.453 Y114.564 E303.70948
G1 X89.86 Y114.299 E303.73108
G1 X89.225 Y114.165 E303.75267
G1 X88.577 Y114.165 E303.77422
G1 X87.942 Y114.299 E303.7958
G1 X87.349 Y114.564 E303.81741
G1 X86.824 Y114.945 E303.83898
G1 X86.39 Y115.427 E303.86055
G1 X86.066 Y115.989 E303.88213
G1 X85.866 Y116.606 E303.9037
G1 X85.798 Y117.251 E303.92527
G1 X85.866 Y117.896 E303.94685
G1 X86.066 Y118.513 E303.96842
G1 X86.39 Y119.075 E303.99
G1 X86.824 Y119.557 E304.01157
G1 X87.349 Y119.938 E304.03314
G1 X87.942 Y120.203 E304.05475
G1 X88.577 Y120.337 E304.07633
G1 X89.225 Y120.337 E304.09788
G1 X89.86 Y120.203 E304.11947
G1 X90.453 Y119.938 E304.14107
G1 X90.978 Y119.557 E304.16265
G1 X91.412 Y119.075 E304.18422
G1 X91.736 Y118.513 E304.2058
G1 X91.824 Y118.239 E304.21537
G0 F9000 X91.839 Y117.856
G0 X91.445 Y119.603
G0 X90.186 Y121.789
G0 X89.809 Y126.89
G0 X89.86 Y126.798
G1 F3600 X89.225 Y126.664 E304.23695
G1 X88.577 Y126.664 E304.25851
G1 X87.942 Y126.798 E304.28009
G1 X87.349 Y127.063 E304.30169
G1 X86.824 Y127.444 E304.32327
G1 X86.39 Y127.926 E304.34484
G1 X86.066 Y128.488 E304.36642
G1 X85.866 Y129.105 E304.38799
G1 X85.798 Y129.75 E304.40956
G1 X85.866 Y130.395 E304.43113
G1 X86.066 Y131.012 E304.45271
G1 X86.39 Y131.574 E304.47428
G1 X86.824 Y132.056 E304.49585
G1 X87.349 Y132.437 E304.51743
G1 X87.942 Y132.702 E304.53903
G1 X88.577 Y132.836 E304.56062
G1 X89.225 Y132.836 E304.58217
G1 X89.86 Y132.702 E304.60376
G1 X90.453 Y132.437 E304.62536
G1 X90.978 Y132.056 E304.64693
G1 X91.412 Y131.574 E304.66851
G1 X91.736 Y131.012 E304.69008
G1 X91.936 Y130.395 E304.71166
G1 X92.004 Y129.75 E304.73323
G1 X91.936 Y129.105 E304.7548
G1 X91.736 Y128.488 E304.77637
G1 X91.412 Y127.926 E304.79795
G1 X90.978 Y127.444 E304.81952
G1 X90.453 Y127.063 E304.8411
G1 X90.189 Y126.945 E304.85071
G1 F1800 E301.85071
G1 Z1.999
G0 F9000 X89.809 Y126.89
G0 X86.896 Y119.443
G0 X86.067 Y118.512
G0 X81.001 Y104.366
G0 X81.101 Y104.366
G1 Z1.499
G1 F1800 E304.85071
G1 F3600 X144.919 Y104.366 E306.97331
G1 X145.396 Y104.498 E306.98977
G1 X145.626 Y104.753 E307.00119
G1 X145.743 Y105.073 E307.01252
G1 X145.742 Y148.932 E308.47128
G1 X145.626 Y149.248 E308.48248
G1 X145.394 Y149.504 E308.49397
G1 X144.946 Y149.636 E308.5095
G1 X81.101 Y149.635 E310.63299
G1 X81.101 Y104.726 E312.12667
G0 F9000 X80.701 Y103.966
; TYPE:WALL-OUTER
G1 F3000 X144.972 Y103.966 E314.26434
G1 X145.592 Y104.138 E314.28574
G1 X145.632 Y104.162 E314.28729
G1 X145.975 Y104.541 E314.30429
G1 X146.135 Y104.978 E314.31977
G1 X146.151 Y105.117 E314.32442
G1 X146.15 Y148.874 E315.77978
G1 X146.135 Y149.023 E315.78477
G1 X145.975 Y149.46 E315.80024
G1 X145.632 Y149.839 E315.81725
G1 X145.591 Y149.864 E315.81884
G1 X145.004 Y150.036 E315.83919
G1 X80.701 Y150.035 E317.97791
G1 X80.701 Y104.326 E319.4982
G0 F9000 X81.001 Y104.176
G0 X87.428 Y114.639
G0 X87.428 Y114.639
G0 X87.55 Y114.912
G1 F3000 X87.093 Y115.244 E319.51699
G1 X86.715 Y115.664 E319.53578
G1 X86.433 Y116.152 E319.55453
G1 X86.259 Y116.689 E319.5733
G1 X86.2 Y117.251 E319.5921
G1 X86.259 Y117.813 E319.61089
G1 X86.433 Y118.35 E319.62967
G1 X86.715 Y118.838 E319.64841
G1 X87.093 Y119.258 E319.66721
G1 X87.55 Y119.59 E319.686
G1 X88.066 Y119.82 E319.70479
G1 X88.619 Y119.937 E319.72359
G1 X89.183 Y119.937 E319.74234
G1 X89.736 Y119.82 E319.76114
G1 X90.252 Y119.59 E319.77993
G1 X90.709 Y119.258 E319.79872
G1 X91.087 Y118.838 E319.81752
G1 X91.369 Y118.35 E319.83626
G1 X91.543 Y117.813 E319.85504
G1 X91.602 Y117.251 E319.87383
G1 X91.543 Y116.689 E319.89263
G1 X91.369 Y116.152 E319.9114
G1 X91.087 Y115.664 E319.93015
G1 X90.709 Y115.244 E319.94894
G1 X90.252 Y114.912 E319.96773
G1 X89.736 Y114.682 E319.98652
G1 X89.183 Y114.565 E320.00532
G1 X88.619 Y114.565 E320.02408
G1 X88.066 Y114.682 E320.04288
G1 X87.88 Y114.765 E320.04965
G0 F9000 X87.428 Y114.639
G0 X87.362 Y114.575
G0 X89.224 Y114.167
G0 X90.976 Y114.946
G0 X91.934 Y116.606
G0 X92.02 Y118.948
G0 X92.239 Y119.153
G1 F3000 X91.686 Y119.745 E320.0766
G1 X91.217 Y120.409 E320.10363
G1 X90.843 Y121.13 E320.13065
G1 X90.571 Y121.896 E320.15768
G1 X90.406 Y122.691 E320.18469
G1 X90.351 Y123.501 E320.21169
G1 X90.406 Y124.311 E320.2387
G1 X90.571 Y125.106 E320.2657
G1 X90.843 Y125.872 E320.29274
G1 X91.217 Y126.593 E320.31975
G1 X91.686 Y127.256 E320.34676
G1 X92.239 Y127.848 E320.37371
G1 X92.869 Y128.362 E320.40075
G1 X93.564 Y128.783 E320.42778
G1 X94.308 Y129.107 E320.45477
G1 X95.09 Y129.326 E320.48178
G1 X95.895 Y129.437 E320.5088
G1 X96.707 Y129.437 E320.53581
G1 X97.512 Y129.326 E320.56284
G1 X98.294 Y129.107 E320.58985
G1 X99.038 Y128.783 E320.61684
G1 X99.733 Y128.362 E320.64386
G1 X100.363 Y127.848 E320.67091
G1 X100.916 Y127.256 E320.69785
G1 X101.385 Y126.593 E320.72486
G1 X101.759 Y125.872 E320.75188
G1 X102.031 Y125.106 E320.77891
G1 X102.196 Y124.311 E320.80592
G1 X102.252 Y123.5 E320.83296
G1 X102.179 Y122.613 E320.86256
G1 X102.031 Y121.896 E320.88691
G1 X101.759 Y121.13 E320.91395
G1 X101.385 Y120.409 E320.94096
G1 X100.916 Y119.745 E320.968
G1 X100.363 Y119.153 E320.99494
G1 X99.733 Y118.639 E321.02199
G1 X99.038 Y118.218 E321.04901
G1 X98.294 Y117.894 E321.076
G1 X97.512 Y117.675 E321.10301
G1 X96.707 Y117.564 E321.13004
G1 X95.895 Y117.564 E321.15705
G1 X95.09 Y117.675 E321.18407
G1 X94.308 Y117.894 E321.21108
G1 X93.564 Y118.218 E321.23807
G1 X92.869 Y118.639 E321.2651
G1 X92.518 Y118.925 E321.28016
G0 F9000 X92.02 Y118.948
G0 X92.063 Y118.934
G0 X94.174 Y117.517
G0 X99.774 Y116.75
G0 X100.033 Y116.6
G1 F3000 X100.315 Y117.088 E321.29891
G1 X100.693 Y117.508 E321.3177
G1 X101.15 Y117.84 E321.33649
G1 X101.666 Y118.07 E321.35528
G1 X102.219 Y118.187 E321.37408
G1 X102.783 Y118.187 E321.39284
G1 X103.336 Y118.07 E321.41164
G1 X103.852 Y117.84 E321.43043
G1 X104.309 Y117.508 E321.44921
G1 X104.687 Y117.088 E321.46801
G1 X104.969 Y116.6 E321.48675
G1 X105.143 Y116.063 E321.50553
G1 X105.202 Y115.501 E321.52432
G1 X105.143 Y114.939 E321.54312
G1 X104.969 Y114.402 E321.56189
G1 X104.687 Y113.914 E321.58064
G1 X104.309 Y113.494 E321.59943
G1 X103.852 Y113.162 E321.61822
G1 X103.336 Y112.932 E321.63701
G1 X102.783 Y112.815 E321.65581
G1 X102.219 Y112.815 E321.67457
G1 X101.666 Y112.932 E321.69337
G1 X101.15 Y113.162 E321.71216
G1 X100.693 Y113.494 E321.73095
G1 X100.315 Y113.914 E321.74974
G1 X100.033 Y114.402 E321.76849
G1 X99.859 Y114.939 E321.78726
G1 X99.8 Y115.501 E321.80606
G1 X99.859 Y116.063 E321.82485
G1 X99.921 Y116.257 E321.83162
G0 F9000 X99.774 Y116.75
G0 X99.718 Y116.817
G0 X99.468 Y114.856
G0 X100.426 Y113.196
G0 X105.451 Y109.221
G0 X105.792 Y109.262
G0 X105.792 Y109.562
G1 F3000 X105.792 Y137.135 E322.74871
G1 X118.262 Y137.135 E323.16346
G1 X118.262 Y134.176 E323.26188
G1 X118.58 Y134.2 E323.27248
G1 X119.129 Y134.127 E323.2909
G1 X119.652 Y133.943 E323.30934
G1 X120.126 Y133.657 E323.32776
G1 X120.532 Y133.279 E323.34621
G1 X120.852 Y132.828 E323.3646
G1 X121.074 Y132.32 E323.38304
G1 X121.187 Y131.777 E323.40149
G1 X121.187 Y131.223 E323.41991
G1 X121.074 Y130.68 E323.43836
G1 X120.852 Y130.172 E323.4568
G1 X120.532 Y129.721 E323.47519
G1 X120.126 Y129.343 E323.49364
G1 X119.652 Y129.057 E323.51205
G1 X119.129 Y128.873 E323.53049
G1 X118.58 Y128.8 E323.54892
G1 X118.262 Y128.824 E323.55952
G1 X118.262 Y118.177 E323.91364
G1 X118.58 Y118.201 E323.92425
G1 X119.129 Y118.128 E323.94267
G1 X119.652 Y117.944 E323.96111
G1 X120.126 Y117.658 E323.97952
G1 X120.532 Y117.28 E323.99797
G1 X120.852 Y116.829 E324.01637
G1 X121.074 Y116.321 E324.03481
G1 X121.187 Y115.778 E324.05325
G1 X121.187 Y115.224 E324.07168
G1 X121.074 Y114.681 E324.09013
G1 X120.852 Y114.173 E324.10856
G1 X120.532 Y113.722 E324.12696
G1 X120.126 Y113.344 E324.14541
G1 X119.652 Y113.058 E324.16382
G1 X119.129 Y112.874 E324.18226
G1 X118.58 Y112.801 E324.20068
G1 X118.262 Y112.825 E324.21129
G1 X118.262 Y109.562 E324.31982
G1 X106.152 Y109.562 E324.7226
G0 F9000 X105.792 Y109.262
G0 X106.059 Y109.319
G0 X118.603 Y109.221
G0 X121.3 Y112.615
G0 X121.3 Y112.915
G1 F3000 X121.3 Y120.086 E324.9611
G1 X129.535 Y120.086 E325.235
G1 X129.535 Y112.915 E325.47351
G1 X121.66 Y112.915 E325.73543
G1 F1800 E322.73543
G1 Z1.999
G0 F9000 X121.3 Y112.615
G0 X121.3 Y112.515
G0 X129.876 Y112.574
G0 X129.876 Y120.427
G0 X120.959 Y126.345
G0 X121.3 Y126.686
G0 X121.3 Y126.686
G1 Z1.499
G1 F1800 E325.73543
G1 F3000 X121.3 Y134.085 E325.98153
G1 X129.7 Y134.085 E326.26091
G1 X129.7 Y126.686 E326.507
G1 X121.66 Y126.686 E326.77441
G1 F1800 E323.77441
G1 Z1.999
G0 F9000 X121.293 Y126.687
G0 X121.201 Y133.025
G0 X120.833 Y133.543
G0 X118.603 Y137.476
G0 X105.451 Y137.476
G0 X105.428 Y130.847
G0 X105.143 Y130.938
G1 Z1.499
G1 F1800 E326.77441
G1 F3000 X104.969 Y130.401 E326.79319
G1 X104.687 Y129.913 E326.81193
G1 X104.309 Y129.493 E326.83073
G1 X103.852 Y129.161 E326.84952
G1 X103.336 Y128.931 E326.86831
G1 X102.783 Y128.814 E326.88711
G1 X102.219 Y128.814 E326.90586
G1 X101.666 Y128.931 E326.92466
G1 X101.15 Y129.161 E326.94345
G1 X100.693 Y129.493 E326.96224
G1 X100.315 Y129.913 E326.98104
G1 X100.033 Y130.401 E326.99978
G1 X99.859 Y130.938 E327.01856
G1 X99.8 Y131.5 E327.03735
G1 X99.859 Y132.062 E327.05615
G1 X100.033 Y132.599 E327.07492
G1 X100.315 Y133.087 E327.09367
G1 X100.693 Y133.507 E327.11246
G1 X101.15 Y133.839 E327.13125
G1 X101.666 Y134.069 E327.15004
G1 X102.219 Y134.186 E327.16884
G1 X102.783 Y134.186 E327.1876
G1 X103.336 Y134.069 E327.2064
G1 X103.852 Y133.839 E327.22519
G1 X104.309 Y133.507 E327.24397
G1 X104.687 Y133.087 E327.26277
G1 X104.969 Y132.599 E327.28151
G1 X105.143 Y132.062 E327.30029
G1 X105.202 Y131.5 E327.31908
G1 X105.181 Y131.297 E327.32587
G0 F9000 X105.428 Y130.847
G0 X105.519 Y130.853
G0 X104.576 Y129.195
G0 X102.824 Y128.416
G0 X100.95 Y128.814
G0 X99.622 Y130.389
G0 X91.899 Y129.781
G0 X91.602 Y129.75
G1 F3000 X91.543 Y129.188 E327.34467
G1 X91.369 Y128.651 E327.36344
G1 X91.087 Y128.163 E327.38219
G1 X90.709 Y127.743 E327.40098
G1 X90.252 Y127.411 E327.41977
G1 X89.736 Y127.181 E327.43856
G1 X89.183 Y127.064 E327.45736
G1 X88.619 Y127.064 E327.47612
G1 X88.066 Y127.181 E327.49492
G1 X87.55 Y127.411 E327.51371
G1 X87.093 Y127.743 E327.5325
G1 X86.715 Y128.163 E327.55129
G1 X86.433 Y128.651 E327.57004
G1 X86.259 Y129.188 E327.58881
G1 X86.2 Y129.75 E327.60761
G1 X86.259 Y130.312 E327.6264
G1 X86.433 Y130.849 E327.64517
G1 X86.715 Y131.337 E327.66392
G1 X87.093 Y131.757 E327.68271
G1 X87.55 Y132.089 E327.7015
G1 X88.066 Y132.319 E327.72029
G1 X88.619 Y132.436 E327.73909
G1 X89.183 Y132.436 E327.75785
G1 X89.736 Y132.319 E327.77665
G1 X90.252 Y132.089 E327.79544
G1 X90.709 Y131.757 E327.81423
G1 X91.087 Y131.337 E327.83302
G1 X91.369 Y130.849 E327.85177
G1 X91.543 Y130.312 E327.87054
G1 X91.564 Y130.109 E327.87733
G0 F9000 X92.13 Y129.618
; TYPE:FILL
G1 F3600 X92.798 Y128.95 E327.90875
G0 F9000 X92.459 Y128.723
G1 F3600 X92.01 Y128.888 E327.92669
G1 X92.148 Y128.469 E327.94136
G0 F9000 X93.15 Y129.163
G1 F3600 X92.095 Y130.219 E327.99101
G0 F9000 X91.89 Y130.989
G1 F3600 X93.525 Y129.354 E328.06792
G0 F9000 X93.919 Y129.526
G1 F3600 X81.24 Y142.204 E328.66427
G0 F9000 X81.24 Y141.639
G1 F3600 X90.16 Y132.719 E329.08384
G0 F9000 X89.366 Y132.948
G1 F3600 X81.24 Y141.073 E329.46604
G0 F9000 X81.24 Y140.507
G1 F3600 X88.773 Y132.974 E329.82037
G0 F9000 X88.27 Y132.912
G1 F3600 X81.24 Y139.942 E330.15104
G0 F9000 X81.24 Y139.376
G1 F3600 X87.818 Y132.798 E330.46045
G0 F9000 X87.427 Y132.624
G1 F3600 X81.24 Y138.81 E330.75144
G0 F9000 X81.24 Y138.245
G1 F3600 X87.075 Y132.41 E331.0259
G0 F9000 X86.747 Y132.172
G1 F3600 X81.24 Y137.679 E331.28494
G0 F9000 X81.24 Y137.113
G1 F3600 X86.475 Y131.878 E331.53117
G0 F9000 X86.223 Y131.565
G1 F3600 X81.24 Y136.547 E331.76554
G0 F9000 X81.24 Y135.982
G1 F3600 X86.016 Y131.206 E331.99018
G0 F9000 X85.851 Y130.805
G1 F3600 X81.24 Y135.416 E332.20707
G0 F9000 X81.24 Y134.85
G1 F3600 X85.722 Y130.369 E332.41787
G0 F9000 X85.669 Y129.856
G1 F3600 X81.24 Y134.285 E332.62619
G0 F9000 X81.24 Y133.719
G1 F3600 X85.709 Y129.25 E332.8364
G0 F9000 X85.923 Y128.471
G1 F3600 X81.24 Y133.153 E333.05665
G0 F9000 X81.24 Y132.588
G1 F3600 X89.842 Y123.986 E333.46126
G0 F9000 X89.893 Y124.5
G1 F3600 X87.595 Y126.799 E333.56938
G0 F9000 X88.403 Y126.557
G1 F3600 X89.991 Y124.969 E333.64407
G0 F9000 X90.108 Y125.417
G1 F3600 X89.002 Y126.523 E333.6961
G0 F9000 X89.511 Y126.58
G1 F3600 X90.257 Y125.834 E333.73119
G0 F9000 X90.422 Y126.234
G1 F3600 X90.16 Y126.778 E333.75267
G1 X90.717 Y126.787 E333.76481
G1 X90.711 Y127.076 E333.77442
G0 F9000 X90.569 Y127.272
G0 X90.053 Y123.467
G0 X90.053 Y123.467
G0 X89.813 Y123.45
G1 F3600 X81.24 Y132.022 E334.17765
G0 F9000 X81.24 Y131.456
G1 F3600 X89.854 Y122.843 E334.5828
G0 F9000 X89.963 Y122.168
G1 F3600 X81.24 Y130.891 E334.9931
G0 F9000 X81.24 Y130.325
G1 F3600 X90.178 Y121.387 E335.41352
G0 F9000 X90.623 Y120.377
G1 F3600 X81.24 Y129.759 E335.85484
G0 F9000 X81.24 Y129.194
G1 F3600 X90.257 Y120.177 E336.27898
G0 F9000 X89.434 Y120.435
G1 F3600 X81.24 Y128.628 E336.66437
G0 F9000 X81.24 Y128.062
G1 F3600 X88.827 Y120.476 E337.02122
G0 F9000 X88.314 Y120.423
G1 F3600 X81.24 Y127.497 E337.35396
G0 F9000 X81.24 Y126.931
G1 F3600 X87.855 Y120.316 E337.66511
G0 F9000 X87.464 Y120.141
G1 F3600 X81.24 Y126.365 E337.95787
G0 F9000 X81.24 Y125.799
G1 F3600 X87.107 Y119.933 E338.23381
G0 F9000 X86.778 Y119.696
G1 F3600 X81.24 Y125.234 E338.4943
G0 F9000 X81.24 Y124.668
G1 F3600 X86.501 Y119.407 E338.74176
G0 F9000 X86.242 Y119.1
G1 F3600 X81.24 Y124.102 E338.97704
G0 F9000 X81.24 Y123.537
G1 F3600 X86.035 Y118.742 E339.20258
G0 F9000 X85.864 Y118.347
G1 F3600 X81.24 Y122.971 E339.42008
G0 F9000 X81.24 Y122.405
G1 F3600 X85.727 Y117.919 E339.63111
G0 F9000 X85.674 Y117.406
G1 F3600 X81.24 Y121.84 E339.83967
G0 F9000 X81.24 Y121.274
G1 F3600 X85.703 Y116.811 E340.0496
G0 F9000 X85.897 Y116.051
G1 F3600 X81.24 Y120.708 E340.26865
G0 F9000 X81.24 Y120.143
G1 F3600 X96.879 Y104.504 E341.00426
G0 F9000 X97.444 Y104.504
G1 F3600 X87.693 Y114.256 E341.46294
G0 F9000 X88.471 Y114.043
G1 F3600 X98.01 Y104.504 E341.91163
G0 F9000 X98.576 Y104.504
G1 F3600 X89.056 Y114.024 E342.35942
G0 F9000 X89.555 Y114.091
G1 F3600 X99.142 Y104.504 E342.81036
G0 F9000 X99.707 Y104.504
G1 F3600 X90.003 Y114.209 E343.26683
G0 F9000 X90.394 Y114.383
G1 F3600 X100.273 Y104.504 E343.73151
G0 F9000 X100.839 Y104.504
G1 F3600 X90.743 Y114.6 E344.20639
G0 F9000 X91.071 Y114.838
G1 F3600 X101.404 Y104.504 E344.69245
G0 F9000 X101.97 Y104.504
G1 F3600 X91.339 Y115.136 E345.19252
G0 F9000 X91.589 Y115.451
G1 F3600 X102.536 Y104.504 E345.70744
G0 F9000 X103.101 Y104.504
G1 F3600 X91.795 Y115.81 E346.23924
G0 F9000 X91.957 Y116.215
G1 F3600 X103.667 Y104.504 E346.79006
G0 F9000 X104.233 Y104.504
G1 F3600 X92.082 Y116.655 E347.36161
G0 F9000 X92.135 Y117.168
G1 F3600 X104.798 Y104.504 E347.95726
G0 F9000 X105.364 Y104.504
G1 F3600 X92.088 Y117.78 E348.58172
G0 F9000 X91.865 Y118.569
G1 F3600 X105.93 Y104.504 E349.2433
G0 F9000 X106.495 Y104.504
G1 F3600 X93.188 Y117.812 E349.86924
G0 F9000 X94.205 Y117.36
G1 F3600 X107.061 Y104.504 E350.47395
G0 F9000 X107.627 Y104.504
G1 F3600 X94.989 Y117.142 E351.0684
G0 F9000 X95.645 Y117.052
G1 F3600 X108.192 Y104.504 E351.6586
G0 F9000 X108.758 Y104.504
G1 F3600 X96.24 Y117.023 E352.24743
G0 F9000 X96.798 Y117.03
G1 F3600 X99.483 Y114.345 E352.37372
G0 F9000 X99.299 Y115.095
G1 F3600 X97.295 Y117.099 E352.46798
G0 F9000 X97.773 Y117.186
G1 F3600 X99.277 Y115.683 E352.5387
G0 F9000 X99.333 Y116.192
G1 F3600 X98.215 Y117.31 E352.59129
G0 F9000 X98.637 Y117.453
G1 F3600 X99.472 Y116.619 E352.63054
G0 F9000 X99.646 Y117.01
G1 F3600 X99.032 Y117.625 E352.65945
G0 F9000 X99.412 Y117.811
G1 F3600 X99.984 Y117.521 E352.68024
G1 X99.935 Y118.135 E352.69679
G1 X100.559 Y118.077 E352.71034
G1 X100.574 Y118.627 E352.72461
G1 X101.28 Y118.488 E352.74124
G1 X101.003 Y119.047 E352.76199
G0 F9000 X101.276 Y119.34
G1 F3600 X101.938 Y118.678 E352.79313
G0 F9000 X102.456 Y118.726
G1 F3600 X101.519 Y119.663 E352.83721
G0 F9000 X101.754 Y119.994
G1 F3600 X103.072 Y118.676 E352.8992
G0 F9000 X103.91 Y118.403
G1 F3600 X101.964 Y120.35 E352.99076
G0 F9000 X102.157 Y120.722
G1 F3600 X105.252 Y117.627 E353.13634
G0 F9000 X105.252 Y118.193
G1 F3600 X102.328 Y121.117 E353.27387
G0 F9000 X102.476 Y121.535
G1 F3600 X105.252 Y118.759 E353.40445
G0 F9000 X105.252 Y119.324
G1 F3600 X102.599 Y121.978 E353.52926
G0 F9000 X102.695 Y122.446
G1 F3600 X105.252 Y119.89 E353.64951
G0 F9000 X105.252 Y120.456
G1 F3600 X102.749 Y122.958 E353.76722
G0 F9000 X102.792 Y123.481
G1 F3600 X105.252 Y121.022 E353.88291
G0 F9000 X105.252 Y121.587
G1 F3600 X102.753 Y124.086 E354.00045
G0 F9000 X102.656 Y124.749
G1 F3600 X105.252 Y122.153 E354.12256
G0 F9000 X105.252 Y122.719
G1 F3600 X102.459 Y125.512 E354.25393
G0 F9000 X102.047 Y126.489
G1 F3600 X105.252 Y123.284 E354.40469
G0 F9000 X105.252 Y123.85
G1 F3600 X81.24 Y147.861 E355.53411
G0 F9000 X81.24 Y147.295
G1 F3600 X99.263 Y129.273 E356.38184
G0 F9000 X99.603 Y130.065
G1 F3600 X81.24 Y148.427 E357.24555
G0 F9000 X81.24 Y148.993
G1 F3600 X99.318 Y130.915 E358.09589
G0 F9000 X99.262 Y131.537
G1 F3600 X81.305 Y149.493 E358.94051
G0 F9000 X81.871 Y149.493
G1 F3600 X99.315 Y132.05 E359.76099
G0 F9000 X99.432 Y132.498
G1 F3600 X82.437 Y149.493 E360.56039
G0 F9000 X83.003 Y149.493
G1 F3600 X99.588 Y132.908 E361.3405
G0 F9000 X99.795 Y133.267
G1 F3600 X83.568 Y149.493 E362.10374
G0 F9000 X84.134 Y149.493
G1 F3600 X100.04 Y133.588 E362.85189
G0 F9000 X100.308 Y133.885
G1 F3600 X84.7 Y149.493 E363.58604
G0 F9000 X85.265 Y149.493
G1 F3600 X100.631 Y134.128 E364.30878
G0 F9000 X100.974 Y134.35
G1 F3600 X85.831 Y149.493 E365.02106
G0 F9000 X86.397 Y149.493
G1 F3600 X101.365 Y134.525 E365.72511
G0 F9000 X101.806 Y134.65
G1 F3600 X86.962 Y149.493 E366.42331
G0 F9000 X87.528 Y149.493
G1 F3600 X102.297 Y134.725 E367.11797
G0 F9000 X102.869 Y134.718
G1 F3600 X88.094 Y149.493 E367.81294
G0 F9000 X88.659 Y149.493
G1 F3600 X103.621 Y134.532 E368.51669
G0 F9000 X105.252 Y134.598
G1 F3600 X90.356 Y149.493 E369.21732
G0 F9000 X89.791 Y149.493
G1 F3600 X105.252 Y134.032 E369.94456
G0 F9000 X105.252 Y133.467
G1 F3600 X89.225 Y149.493 E370.6984
G0 F9000 X90.922 Y149.493
G1 F3600 X105.252 Y135.164 E371.37241
G0 F9000 X105.252 Y135.729
G1 F3600 X91.488 Y149.493 E372.01983
G0 F9000 X92.053 Y149.494
G1 F3600 X105.252 Y136.295 E372.64067
G0 F9000 X105.252 Y136.861
G1 F3600 X92.618 Y149.494 E373.23491
G0 F9000 X93.184 Y149.494
G1 F3600 X105.252 Y137.426 E373.80255
G0 F9000 X105.57 Y137.674
G1 F3600 X93.75 Y149.494 E374.35853
G0 F9000 X94.316 Y149.494
G1 F3600 X106.136 Y137.674 E374.91451
G0 F9000 X106.701 Y137.674
G1 F3600 X94.881 Y149.494 E375.47048
G0 F9000 X95.447 Y149.494
G1 F3600 X107.267 Y137.674 E376.02646
G0 F9000 X107.833 Y137.674
G1 F3600 X96.013 Y149.494 E376.58244
G0 F9000 X96.578 Y149.494
G1 F3600 X108.398 Y137.674 E377.13841
G0 F9000 X108.964 Y137.674
G1 F3600 X97.144 Y149.494 E377.69439
G0 F9000 X97.71 Y149.494
G1 F3600 X109.53 Y137.674 E378.25037
G0 F9000 X110.095 Y137.674
G1 F3600 X98.275 Y149.494 E378.80634
G0 F9000 X98.841 Y149.494
G1 F3600 X110.661 Y137.674 E379.36232
G0 F9000 X111.227 Y137.674
G1 F3600 X99.407 Y149.494 E379.9183
G0 F9000 X99.972 Y149.494
G1 F3600 X111.792 Y137.674 E380.47427
G0 F9000 X112.358 Y137.674
G1 F3600 X100.538 Y149.494 E381.03025
G0 F9000 X101.104 Y149.494
G1 F3600 X112.924 Y137.674 E381.58623
G0 F9000 X113.489 Y137.674
G1 F3600 X101.669 Y149.494 E382.1422
G0 F9000 X102.235 Y149.494
G1 F3600 X114.055 Y137.674 E382.69818
G0 F9000 X114.621 Y137.674
G1 F3600 X102.801 Y149.494 E383.25416
G0 F9000 X103.366 Y149.494
G1 F3600 X115.186 Y137.674 E383.81013
G0 F9000 X115.752 Y137.674
G1 F3600 X103.932 Y149.494 E384.36611
G0 F9000 X104.498 Y149.494
G1 F3600 X116.318 Y137.674 E384.92209
G0 F9000 X116.884 Y137.674
G1 F3600 X105.064 Y149.494 E385.47806
G0 F9000 X105.629 Y149.494
G1 F3600 X117.449 Y137.674 E386.03404
G0 F9000 X118.015 Y137.674
G1 F3600 X106.195 Y149.494 E386.59002
G0 F9000 X106.761 Y149.494
G1 F3600 X118.581 Y137.674 E387.14599
G0 F9000 X118.801 Y137.453
G1 F3600 X121.63 Y134.624 E387.27906
G0 F9000 X121.065 Y134.624
G1 F3600 X118.801 Y136.888 E387.38555
G0 F9000 X118.801 Y136.322
G1 F3600 X120.759 Y134.364 E387.47765
G0 F9000 X120.688 Y133.87
G1 F3600 X118.801 Y135.756 E387.56638
G0 F9000 X118.801 Y135.191
G1 F3600 X119.382 Y134.609 E387.59374
G0 F9000 X122.196 Y134.624
G1 F3600 X107.326 Y149.494 E388.29318
G0 F9000 X107.892 Y149.494
G1 F3600 X122.762 Y134.624 E388.99262
G0 F9000 X123.327 Y134.624
G1 F3600 X108.458 Y149.494 E389.69203
G0 F9000 X109.023 Y149.494
G1 F3600 X123.893 Y134.624 E390.39147
G0 F9000 X124.459 Y134.624
G1 F3600 X109.589 Y149.494 E391.09091
G0 F9000 X110.155 Y149.494
G1 F3600 X125.024 Y134.624 E391.79032
G0 F9000 X125.591 Y134.623
G1 F3600 X110.72 Y149.494 E392.48981
G0 F9000 X111.286 Y149.494
G1 F3600 X126.157 Y134.623 E393.1893
G0 F9000 X126.722 Y134.623
G1 F3600 X111.852 Y149.494 E393.88876
G0 F9000 X112.417 Y149.494
G1 F3600 X127.288 Y134.623 E394.58825
G0 F9000 X127.854 Y134.623
G1 F3600 X112.983 Y149.494 E395.28773
G0 F9000 X113.548 Y149.495
G1 F3600 X128.419 Y134.623 E395.98724
G0 F9000 X128.985 Y134.623
G1 F3600 X114.114 Y149.495 E396.68675
G0 F9000 X114.679 Y149.495
G1 F3600 X129.551 Y134.623 E397.38629
G0 F9000 X130.116 Y134.623
G1 F3600 X115.245 Y149.495 E398.0858
G0 F9000 X115.811 Y149.495
G1 F3600 X145.602 Y119.703 E399.4871
G0 F9000 X145.882 Y119.423
G1 F3600 X146.01 Y119.295 E399.49312
G0 F9000 X145.602 Y119.138
G1 F3600 X130.239 Y134.5 E400.21572
G0 F9000 X130.239 Y133.935
G1 F3600 X145.602 Y118.572 E400.93835
G0 F9000 X145.882 Y118.292
G1 F3600 X146.01 Y118.164 E400.94437
G0 F9000 X145.602 Y118.006
G1 F3600 X130.239 Y133.369 E401.667
G0 F9000 X130.239 Y132.803
G1 F3600 X145.602 Y117.441 E402.3896
G0 F9000 X145.882 Y117.161
G1 F3600 X146.01 Y117.033 E402.39562
G0 F9000 X145.602 Y116.875
G1 F3600 X130.239 Y132.238 E403.11825
G0 F9000 X130.239 Y131.672
G1 F3600 X145.602 Y116.309 E403.84088
G0 F9000 X145.882 Y116.029
G1 F3600 X146.01 Y115.901 E403.8469
G0 F9000 X145.602 Y115.744
G1 F3600 X130.239 Y131.106 E404.56951
G0 F9000 X130.239 Y130.541
G1 F3600 X145.602 Y115.178 E405.29214
G0 F9000 X145.882 Y114.898
G1 F3600 X146.01 Y114.77 E405.29816
G0 F9000 X145.602 Y114.612
G1 F3600 X130.239 Y129.976 E406.02081
G0 F9000 X130.239 Y129.41
G1 F3600 X145.602 Y114.047 E406.74344
G0 F9000 X145.882 Y113.767
G1 F3600 X146.01 Y113.639 E406.74946
G0 F9000 X145.602 Y113.481
G1 F3600 X130.239 Y128.844 E407.47209
G0 F9000 X130.239 Y128.279
G1 F3600 X145.602 Y112.915 E408.19474
G0 F9000 X145.882 Y112.635
G1 F3600 X146.01 Y112.507 E408.20076
G0 F9000 X145.602 Y112.35
G1 F3600 X130.239 Y127.713 E408.92339
G0 F9000 X130.239 Y127.147
G1 F3600 X145.602 Y111.784 E409.64602
G0 F9000 X145.882 Y111.504
G1 F3600 X146.01 Y111.376 E409.65204
G0 F9000 X145.602 Y111.218
G1 F3600 X130.239 Y126.582 E410.37469
G0 F9000 X130.109 Y126.146
G1 F3600 X145.602 Y110.653 E411.10343
G0 F9000 X145.882 Y110.373
G1 F3600 X146.01 Y110.245 E411.10945
G0 F9000 X145.602 Y110.087
G1 F3600 X129.543 Y126.146 E411.86482
G0 F9000 X128.977 Y126.146
G1 F3600 X145.602 Y109.521 E412.64681
G0 F9000 X145.882 Y109.241
G1 F3600 X146.01 Y109.113 E412.65283
G0 F9000 X145.602 Y108.955
G1 F3600 X128.412 Y126.146 E413.46142
G0 F9000 X127.847 Y126.145
G1 F3600 X145.602 Y108.39 E414.29656
G0 F9000 X145.882 Y108.11
G1 F3600 X146.01 Y107.982 E414.30258
G0 F9000 X145.602 Y107.824
G1 F3600 X127.281 Y126.145 E415.16434
G0 F9000 X126.715 Y126.145
G1 F3600 X145.602 Y107.258 E416.05273
G0 F9000 X145.882 Y106.978
G1 F3600 X146.01 Y106.85 E416.05875
G0 F9000 X145.602 Y106.693
G1 F3600 X126.149 Y126.145 E416.97373
G0 F9000 X125.584 Y126.145
G1 F3600 X145.602 Y106.127 E417.91532
G0 F9000 X145.882 Y105.847
G1 F3600 X146.01 Y105.719 E417.92134
G0 F9000 X145.602 Y105.561
G1 F3600 X125.018 Y126.145 E418.88955
G0 F9000 X124.452 Y126.145
G1 F3600 X129.972 Y120.626 E419.14917
G0 F9000 X130.074 Y120.524
G1 F3600 X145.574 Y105.023 E419.87827
G0 F9000 X145.882 Y105.281
G1 F3600 X146.01 Y105.153 E419.88429
G0 F9000 X145.362 Y104.67
G1 F3600 X130.074 Y119.958 E420.60339
G0 F9000 X130.074 Y119.392
G1 F3600 X144.948 Y104.518 E421.30301
G0 F9000 X144.396 Y104.505
G1 F3600 X130.074 Y118.827 E421.97668
G0 F9000 X130.074 Y118.261
G1 F3600 X143.83 Y104.505 E422.62372
G0 F9000 X143.264 Y104.505
G1 F3600 X130.074 Y117.695 E423.24413
G0 F9000 X130.074 Y117.13
G1 F3600 X142.699 Y104.505 E423.83798
G0 F9000 X142.133 Y104.505
G1 F3600 X130.074 Y116.564 E424.40519
G0 F9000 X130.074 Y115.998
G1 F3600 X141.567 Y104.505 E424.94579
G0 F9000 X141.002 Y104.505
G1 F3600 X130.074 Y115.433 E425.45981
G0 F9000 X130.074 Y114.867
G1 F3600 X140.436 Y104.505 E425.94721
G0 F9000 X139.87 Y104.505
G1 F3600 X130.074 Y114.301 E426.40798
G0 F9000 X130.074 Y113.736
G1 F3600 X139.304 Y104.505 E426.84215
G0 F9000 X138.739 Y104.505
G1 F3600 X130.074 Y113.17 E427.24973
G0 F9000 X130.074 Y112.604
G1 F3600 X138.173 Y104.505 E427.63068
G0 F9000 X137.607 Y104.505
G1 F3600 X129.737 Y112.375 E428.00086
G0 F9000 X129.172 Y112.375
G1 F3600 X137.042 Y104.505 E428.37104
G0 F9000 X136.476 Y104.505
G1 F3600 X128.606 Y112.375 E428.74122
G0 F9000 X128.04 Y112.375
G1 F3600 X135.91 Y104.505 E429.1114
G0 F9000 X135.345 Y104.505
G1 F3600 X127.475 Y112.375 E429.48158
G0 F9000 X126.909 Y112.375
G1 F3600 X134.779 Y104.505 E429.85177
G0 F9000 X134.213 Y104.505
G1 F3600 X126.343 Y112.375 E430.22195
G0 F9000 X125.778 Y112.375
G1 F3600 X133.648 Y104.505 E430.59213
G0 F9000 X133.082 Y104.505
G1 F3600 X125.213 Y112.374 E430.96226
G0 F9000 X124.647 Y112.374
G1 F3600 X132.516 Y104.505 E431.33239
G0 F9000 X131.951 Y104.505
G1 F3600 X124.081 Y112.374 E431.70255
G0 F9000 X123.515 Y112.374
G1 F3600 X131.385 Y104.505 E432.07271
G0 F9000 X130.819 Y104.505
G1 F3600 X122.95 Y112.374 E432.44284
G0 F9000 X122.384 Y112.374
G1 F3600 X130.254 Y104.505 E432.813
G0 F9000 X129.688 Y104.505
G1 F3600 X121.818 Y112.374 E433.18316
G0 F9000 X121.253 Y112.374
G1 F3600 X129.122 Y104.505 E433.55329
G0 F9000 X128.556 Y104.505
G1 F3600 X120.264 Y112.797 E433.94332
G0 F9000 X120.589 Y113.038
G1 F3600 X120.758 Y112.869 E433.95127
G0 F9000 X119.912 Y112.584
G1 F3600 X127.991 Y104.505 E434.33128
G0 F9000 X127.425 Y104.505
G1 F3600 X119.498 Y112.432 E434.70414
G0 F9000 X119.047 Y112.318
G1 F3600 X126.859 Y104.505 E435.07162
G0 F9000 X126.294 Y104.505
G1 F3600 X118.801 Y111.998 E435.42407
G0 F9000 X118.801 Y111.432
G1 F3600 X125.728 Y104.505 E435.74989
G0 F9000 X125.162 Y104.505
G1 F3600 X118.801 Y110.867 E436.04912
G0 F9000 X118.801 Y110.301
G1 F3600 X124.597 Y104.505 E436.32174
G0 F9000 X124.031 Y104.505
G1 F3600 X118.801 Y109.735 E436.56775
G0 F9000 X118.801 Y109.17
G1 F3600 X123.465 Y104.505 E436.78715
G0 F9000 X122.9 Y104.505
G1 F3600 X118.383 Y109.021 E436.99959
G0 F9000 X117.818 Y109.021
G1 F3600 X122.334 Y104.505 E437.21201
G0 F9000 X121.768 Y104.505
G1 F3600 X117.252 Y109.021 E437.42443
G0 F9000 X116.686 Y109.021
G1 F3600 X121.203 Y104.505 E437.63687
G0 F9000 X120.637 Y104.505
G1 F3600 X116.121 Y109.021 E437.84929
G0 F9000 X115.555 Y109.021
G1 F3600 X120.071 Y104.505 E438.06171
G0 F9000 X119.505 Y104.505
G1 F3600 X114.989 Y109.021 E438.27413
G0 F9000 X114.424 Y109.021
G1 F3600 X118.94 Y104.505 E438.48655
G0 F9000 X118.374 Y104.505
G1 F3600 X113.858 Y109.021 E438.69897
G0 F9000 X113.292 Y109.021
G1 F3600 X117.808 Y104.505 E438.91138
G0 F9000 X117.243 Y104.505
G1 F3600 X112.726 Y109.021 E439.12383
G0 F9000 X112.161 Y109.021
G1 F3600 X116.677 Y104.505 E439.33625
G0 F9000 X116.111 Y104.505
G1 F3600 X111.596 Y109.021 E439.54864
G0 F9000 X111.03 Y109.021
G1 F3600 X115.546 Y104.505 E439.76106
G0 F9000 X114.98 Y104.505
G1 F3600 X110.464 Y109.021 E439.97348
G0 F9000 X109.899 Y109.021
G1 F3600 X114.414 Y104.505 E440.18587
G0 F9000 X113.849 Y104.505
G1 F3600 X109.333 Y109.021 E440.39829
G0 F9000 X108.767 Y109.021
G1 F3600 X113.283 Y104.505 E440.61071
G0 F9000 X112.718 Y104.504
G1 F3600 X108.202 Y109.021 E440.82315
G0 F9000 X107.636 Y109.021
G1 F3600 X112.152 Y104.504 E441.0356
G0 F9000 X111.587 Y104.504
G1 F3600 X107.07 Y109.021 E441.24806
G0 F9000 X106.505 Y109.021
G1 F3600 X111.021 Y104.504 E441.4605
G0 F9000 X110.455 Y104.504
G1 F3600 X105.939 Y109.021 E441.67295
G0 F9000 X105.373 Y109.021
G1 F3600 X109.89 Y104.504 E441.88541
G0 F9000 X109.324 Y104.504
G1 F3600 X101.345 Y112.483 E442.26072
G0 F9000 X102.109 Y112.285
G1 F3600 X105.252 Y109.142 E442.40856
G0 F9000 X105.252 Y109.708
G1 F3600 X102.686 Y112.274 E442.52925
G0 F9000 X103.179 Y112.346
G1 F3600 X105.252 Y110.274 E442.62674
G0 F9000 X105.252 Y110.839
G1 F3600 X103.623 Y112.468 E442.70336
G0 F9000 X104.014 Y112.642
G1 F3600 X105.252 Y111.405 E442.76157
G0 F9000 X105.252 Y111.971
G1 F3600 X104.359 Y112.863 E442.80355
G0 F9000 X104.685 Y113.103
G1 F3600 X105.252 Y112.536 E442.83022
G0 F9000 X105.252 Y113.102
G1 F3600 X104.953 Y113.401 E442.84428
G0 F9000 X105.518 Y114.533
G1 F3600 X105.449 Y114.884 E442.85707
G1 X105.486 Y115.413 E442.87264
G1 X105.477 Y115.987 E442.88901
G1 X105.313 Y116.435 E442.90488
G0 F9000 X105.335 Y116.442
G0 X105.492 Y124.416
G0 X105.492 Y124.416
G0 X105.252 Y124.416
G1 F3600 X101.056 Y128.611 E443.10222
G0 F9000 X101.906 Y128.327
G1 F3600 X105.252 Y124.981 E443.25961
G0 F9000 X105.252 Y125.547
G1 F3600 X102.526 Y128.273 E443.38783
G0 F9000 X103.048 Y128.317
G1 F3600 X105.252 Y126.113 E443.4915
G0 F9000 X105.252 Y126.678
G1 F3600 X103.512 Y128.418 E443.57334
G0 F9000 X103.903 Y128.593
G1 F3600 X105.252 Y127.244 E443.6368
G0 F9000 X105.252 Y127.81
G1 F3600 X104.267 Y128.795 E443.68313
G0 F9000 X104.595 Y129.032
G1 F3600 X105.252 Y128.375 E443.71403
G0 F9000 X105.252 Y128.941
G1 F3600 X105.009 Y129.467 E443.73167
G1 X105.252 Y129.507 E443.73986
G0 F9000 X105.328 Y130.562
G1 F3600 X105.429 Y130.743 E443.74554
G1 X105.478 Y131.259 E443.76184
G1 X105.486 Y131.817 E443.77738
G1 X105.175 Y132.412 E443.79971
G0 F9000 X105.328 Y132.462
G0 X105.42 Y132.5
G0 X105.534 Y130.855
G0 X104.576 Y129.195
G0 X102.824 Y128.416
G0 X98.242 Y129.433
G0 X98.307 Y129.663
G1 F3600 X81.24 Y146.73 E444.60249
G0 F9000 X81.24 Y146.164
G1 F3600 X97.537 Y129.867 E445.36905
G0 F9000 X96.881 Y129.958
G1 F3600 X81.24 Y145.598 E446.10473
G0 F9000 X81.24 Y145.033
G1 F3600 X96.298 Y129.976 E446.81299
G0 F9000 X95.747 Y129.961
G1 F3600 X81.24 Y144.467 E447.49533
G0 F9000 X81.24 Y143.901
G1 F3600 X95.25 Y129.892 E448.1543
G0 F9000 X94.778 Y129.798
G1 F3600 X81.24 Y143.336 E448.79108
G0 F9000 X81.24 Y142.77
G1 F3600 X94.336 Y129.674 E449.40708
G0 F9000 X94.399 Y129.444
G0 X94.298 Y129.369
G0 X92.639 Y128.689
G0 X81.001 Y119.577
G0 X81.24 Y119.577
G1 F3600 X96.313 Y104.504 E450.11606
G0 F9000 X95.747 Y104.504
G1 F3600 X81.24 Y119.011 E450.79843
G0 F9000 X81.24 Y118.446
G1 F3600 X95.182 Y104.504 E451.45422
G0 F9000 X94.616 Y104.504
G1 F3600 X81.24 Y117.88 E452.08338
G0 F9000 X81.24 Y117.314
G1 F3600 X94.05 Y104.504 E452.68593
G0 F9000 X93.485 Y104.504
G1 F3600 X81.24 Y116.748 E453.26187
G0 F9000 X81.24 Y116.183
G1 F3600 X92.919 Y104.504 E453.81122
G0 F9000 X92.353 Y104.504
G1 F3600 X81.24 Y115.617 E454.33394
G0 F9000 X81.24 Y115.051
G1 F3600 X91.788 Y104.504 E454.83006
G0 F9000 X91.222 Y104.504
G1 F3600 X81.24 Y114.486 E455.29958
G0 F9000 X81.24 Y113.92
G1 F3600 X90.656 Y104.504 E455.74248
G0 F9000 X90.091 Y104.504
G1 F3600 X81.24 Y113.354 E456.15878
G0 F9000 X81.24 Y112.789
G1 F3600 X89.525 Y104.504 E456.54848
G0 F9000 X88.959 Y104.504
G1 F3600 X81.24 Y112.223 E456.91156
G0 F9000 X81.24 Y111.657
G1 F3600 X88.394 Y104.504 E457.24804
G0 F9000 X87.828 Y104.504
G1 F3600 X81.24 Y111.092 E457.55792
G0 F9000 X81.24 Y110.526
G1 F3600 X87.262 Y104.504 E457.84118
G0 F9000 X86.696 Y104.504
G1 F3600 X81.24 Y109.96 E458.09781
G0 F9000 X81.24 Y109.395
G1 F3600 X86.131 Y104.504 E458.32787
G0 F9000 X85.565 Y104.504
G1 F3600 X81.24 Y108.829 E458.5313
G0 F9000 X81.24 Y108.263
G1 F3600 X84.999 Y104.504 E458.70811
G0 F9000 X84.434 Y104.504
G1 F3600 X81.24 Y107.698 E458.85835
G0 F9000 X81.24 Y107.132
G1 F3600 X83.868 Y104.504 E458.98196
G0 F9000 X83.302 Y104.504
G1 F3600 X81.24 Y106.566 E459.07895
G0 F9000 X81.24 Y106
G1 F3600 X82.737 Y104.504 E459.14934
G0 F9000 X82.171 Y104.504
G1 F3600 X81.24 Y105.435 E459.19313
G0 F9000 X81.24 Y104.869
G1 F3600 X81.605 Y104.504 E459.2103
G1 F1800 E456.2103
G1 Z1.999
G0 F9000 X81.605 Y104.266
G0 X102.729 Y112.564
G0 X105.451 Y109.221
G0 X118.603 Y109.221
G0 X129.876 Y112.574
G0 X129.876 Y120.427
G0 X120.959 Y120.427
G0 X118.562 Y118.786
G0 X118.801 Y118.786
G1 Z1.499
G1 F1800 E459.2103
G1 F3600 X118.882 Y118.705 E459.21411
G0 F9000 X118.801 Y119.352
G1 F3600 X119.629 Y118.523 E459.25308
G0 F9000 X120.758 Y118.525
G1 F3600 X118.801 Y120.483 E459.34516
G0 F9000 X118.801 Y119.918
G1 F3600 X120.758 Y117.96 E459.43723
G0 F9000 X120.758 Y119.091
G1 F3600 X118.801 Y121.049 E459.52931
G0 F9000 X118.801 Y121.615
G1 F3600 X120.758 Y119.657 E459.62138
G0 F9000 X120.758 Y120.223
G1 F3600 X118.801 Y122.18 E459.71343
G0 F9000 X118.801 Y122.746
G1 F3600 X120.921 Y120.626 E459.81315
G0 F9000 X121.487 Y120.626
G1 F3600 X118.801 Y123.312 E459.93949
G0 F9000 X118.801 Y123.877
G1 F3600 X122.052 Y120.626 E460.09241
G0 F9000 X122.618 Y120.626
G1 F3600 X118.801 Y124.443 E460.27195
G0 F9000 X118.801 Y125.008
G1 F3600 X123.184 Y120.626 E460.47809
G0 F9000 X123.75 Y120.626
G1 F3600 X118.801 Y125.574 E460.71085
G0 F9000 X118.801 Y126.14
G1 F3600 X124.315 Y120.626 E460.97021
G0 F9000 X124.881 Y120.626
G1 F3600 X118.801 Y126.705 E461.25617
G0 F9000 X118.801 Y127.271
G1 F3600 X125.447 Y120.626 E461.56876
G0 F9000 X126.012 Y120.626
G1 F3600 X118.801 Y127.837 E461.90794
G0 F9000 X118.906 Y128.298
G1 F3600 X120.759 Y126.444 E461.99513
G0 F9000 X121.059 Y126.145
G1 F3600 X126.578 Y120.626 E462.25472
G0 F9000 X127.144 Y120.626
G1 F3600 X121.625 Y126.145 E462.51432
G0 F9000 X122.19 Y126.145
G1 F3600 X127.709 Y120.626 E462.77392
G0 F9000 X128.275 Y120.626
G1 F3600 X122.756 Y126.145 E463.03351
G0 F9000 X123.321 Y126.145
G1 F3600 X128.841 Y120.626 E463.29313
G0 F9000 X129.406 Y120.626
G1 F3600 X123.887 Y126.145 E463.55273
G0 F9000 X122.845 Y126.432
G0 X120.959 Y126.345
G0 X120.759 Y127.01
G0 X120.759 Y127.01
G1 F3600 X119.381 Y128.388 E463.61755
G0 F9000 X119.8 Y128.535
G1 F3600 X120.759 Y127.576 E463.66265
G0 F9000 X120.759 Y128.141
G1 F3600 X120.165 Y128.735 E463.69059
G0 F9000 X120.507 Y128.96
G1 F3600 X120.759 Y128.707 E463.70247
G1 F1800 E460.70247
G1 Z1.999
G0 F9000 X120.763 Y129.505
G0 X120.959 Y126.345
G0 X121.201 Y133.025
G0 X120.79 Y133.46
G0 X120.902 Y149.495
G0 X120.902 Y149.495
G1 Z1.499
G1 F1800 E463.70247
G1 F3600 X145.602 Y124.795 E464.86428
G0 F9000 X145.882 Y124.515
G1 F3600 X146.01 Y124.387 E464.8703
G0 F9000 X145.602 Y124.229
G1 F3600 X120.336 Y149.495 E466.05874
G0 F9000 X119.771 Y149.495
G1 F3600 X145.602 Y123.663 E467.27377
G0 F9000 X145.882 Y123.383
G1 F3600 X146.01 Y123.255 E467.2798
G0 F9000 X145.602 Y123.098
G1 F3600 X119.205 Y149.495 E468.52143
G0 F9000 X118.639 Y149.495
G1 F3600 X145.602 Y122.532 E469.78969
G0 F9000 X145.882 Y122.252
G1 F3600 X146.01 Y122.124 E469.79571
G0 F9000 X145.602 Y121.966
G1 F3600 X118.074 Y149.495 E471.09056
G0 F9000 X117.508 Y149.495
G1 F3600 X145.602 Y121.401 E472.41202
G0 F9000 X145.882 Y121.121
G1 F3600 X146.01 Y120.993 E472.41804
G0 F9000 X145.602 Y120.835
G1 F3600 X116.942 Y149.495 E473.76612
G0 F9000 X116.377 Y149.495
G1 F3600 X145.602 Y120.269 E475.1408
G0 F9000 X145.882 Y119.989
G1 F3600 X146.01 Y120.144 E475.14681
G1 X145.882 Y120.555 E475.16113
G0 F9000 X146.01 Y121.558
G1 F3600 X145.882 Y121.686 E475.16715
G0 F9000 X146.01 Y122.69
G1 F3600 X145.882 Y122.818 E475.17317
G0 F9000 X146.01 Y123.821
G1 F3600 X145.882 Y123.949 E475.17919
G0 F9000 X146.01 Y124.952
G1 F3600 X145.882 Y125.08 E475.18521
G0 F9000 X145.602 Y125.36
G1 F3600 X121.468 Y149.495 E476.32043
G0 F9000 X122.033 Y149.495
G1 F3600 X145.602 Y125.926 E477.42904
G0 F9000 X145.882 Y125.646
G1 F3600 X146.01 Y125.801 E477.43506
G1 X145.882 Y126.212 E477.44937
G0 F9000 X145.602 Y126.492
G1 F3600 X122.599 Y149.495 E478.53137
G0 F9000 X123.165 Y149.495
G1 F3600 X145.602 Y127.057 E479.58676
G0 F9000 X145.882 Y126.777
G1 F3600 X146.009 Y126.932 E479.59279
G1 X145.882 Y127.343 E479.6071
G0 F9000 X145.602 Y127.623
G1 F3600 X123.73 Y149.495 E480.63589
G0 F9000 X124.296 Y149.495
G1 F3600 X145.602 Y128.189 E481.63806
G0 F9000 X145.882 Y127.909
G1 F3600 X146.009 Y128.064 E481.64406
G1 X145.882 Y128.474 E481.65833
G0 F9000 X145.602 Y128.754
G1 F3600 X124.862 Y149.495 E482.6339
G0 F9000 X125.428 Y149.495
G1 F3600 X145.602 Y129.32 E483.58285
G0 F9000 X145.882 Y129.04
G1 F3600 X146.009 Y129.196 E483.5888
G1 X145.882 Y129.606 E483.60308
G0 F9000 X145.602 Y129.886
G1 F3600 X125.993 Y149.495 E484.52542
G0 F9000 X126.559 Y149.495
G1 F3600 X145.602 Y130.452 E485.42115
G0 F9000 X145.882 Y130.171
G1 F3600 X146.009 Y130.327 E485.4271
G1 X145.882 Y130.737 E485.44138
G0 F9000 X145.602 Y131.017
G1 F3600 X127.125 Y149.495 E486.3105
G0 F9000 X127.69 Y149.495
G1 F3600 X145.602 Y131.583 E487.15303
G0 F9000 X145.882 Y131.303
G1 F3600 X146.009 Y131.458 E487.159
G1 X145.882 Y131.869 E487.1733
G0 F9000 X145.602 Y132.149
G1 F3600 X128.256 Y149.495 E487.98921
G0 F9000 X128.822 Y149.495
G1 F3600 X145.602 Y132.714 E488.77851
G0 F9000 X145.882 Y132.434
G1 F3600 X146.009 Y132.59 E488.78446
G1 X145.882 Y133 E488.79874
G0 F9000 X145.602 Y133.28
G1 F3600 X129.387 Y149.495 E489.56144
G0 F9000 X129.953 Y149.495
G1 F3600 X145.602 Y133.846 E490.29752
G0 F9000 X145.882 Y133.566
G1 F3600 X146.009 Y133.721 E490.30352
G1 X145.882 Y134.131 E490.3178
G0 F9000 X145.602 Y134.411
G1 F3600 X130.519 Y149.495 E491.02728
G0 F9000 X131.084 Y149.495
G1 F3600 X145.602 Y134.977 E491.71016
G0 F9000 X145.882 Y134.697
G1 F3600 X146.009 Y134.852 E491.71613
G1 X145.882 Y135.263 E491.73043
G0 F9000 X145.602 Y135.543
G1 F3600 X131.65 Y149.495 E492.38669
G0 F9000 X132.216 Y149.495
G1 F3600 X145.602 Y136.108 E493.01635
G0 F9000 X145.882 Y135.828
G1 F3600 X146.009 Y135.984 E493.02231
G1 X145.882 Y136.394 E493.03658
G0 F9000 X145.602 Y136.674
G1 F3600 X132.781 Y149.495 E493.63965
G0 F9000 X133.347 Y149.495
G1 F3600 X145.602 Y137.24 E494.21608
G0 F9000 X145.882 Y136.96
G1 F3600 X146.009 Y137.115 E494.22208
G1 X145.882 Y137.525 E494.23636
G0 F9000 X145.602 Y137.805
G1 F3600 X133.913 Y149.495 E494.7862
G0 F9000 X134.478 Y149.495
G1 F3600 X145.602 Y138.371 E495.30943
G0 F9000 X145.882 Y138.091
G1 F3600 X146.009 Y138.246 E495.3154
G1 X145.882 Y138.657 E495.32971
G0 F9000 X145.602 Y138.937
G1 F3600 X135.043 Y149.495 E495.82635
G0 F9000 X135.609 Y149.495
G1 F3600 X145.602 Y139.502 E496.29639
G0 F9000 X145.882 Y139.222
G1 F3600 X146.009 Y139.378 E496.30234
G1 X145.882 Y139.788 E496.31662
G0 F9000 X145.602 Y140.068
G1 F3600 X136.175 Y149.495 E496.76003
G0 F9000 X136.741 Y149.495
G1 F3600 X145.602 Y140.634 E497.17683
G0 F9000 X145.882 Y140.354
G1 F3600 X146.009 Y140.509 E497.18279
G1 X145.882 Y140.92 E497.1971
G0 F9000 X145.602 Y141.2
G1 F3600 X137.306 Y149.495 E497.5873
G0 F9000 X137.872 Y149.495
G1 F3600 X145.602 Y141.765 E497.95089
G0 F9000 X145.882 Y141.485
G1 F3600 X146.009 Y141.641 E497.95685
G1 X145.882 Y142.051 E497.97112
G0 F9000 X145.602 Y142.331
G1 F3600 X138.438 Y149.495 E498.30809
G0 F9000 X139.003 Y149.495
G1 F3600 X145.602 Y142.897 E498.61847
G0 F9000 X145.882 Y142.617
G1 F3600 X146.009 Y142.772 E498.62447
G1 X145.882 Y143.182 E498.63874
G0 F9000 X145.602 Y143.462
G1 F3600 X139.569 Y149.495 E498.92252
G0 F9000 X140.135 Y149.495
G1 F3600 X145.602 Y144.028 E499.17967
G0 F9000 X145.882 Y143.748
G1 F3600 X146.009 Y143.903 E499.18563
G1 X145.882 Y144.314 E499.19994
G0 F9000 X145.602 Y144.594
G1 F3600 X140.7 Y149.495 E499.43049
G0 F9000 X141.266 Y149.495
G1 F3600 X145.602 Y145.159 E499.63444
G0 F9000 X145.882 Y144.879
G1 F3600 X146.009 Y145.035 E499.6404
G1 X145.882 Y145.445 E499.65467
G0 F9000 X145.602 Y145.725
G1 F3600 X141.832 Y149.495 E499.832
G0 F9000 X142.397 Y149.495
G1 F3600 X145.602 Y146.291 E499.98273
G0 F9000 X145.882 Y146.011
G1 F3600 X146.009 Y146.166 E499.98873
G1 X145.882 Y146.576 E500.00301
G0 F9000 X145.602 Y146.856
G1 F3600 X142.963 Y149.495 E500.12714
G0 F9000 X143.529 Y149.495
G1 F3600 X145.602 Y147.422 E500.22464
G0 F9000 X145.882 Y147.142
G1 F3600 X146.009 Y147.297 E500.23061
G1 X145.882 Y147.708 E500.24492
G0 F9000 X145.602 Y147.988
G1 F3600 X144.094 Y149.495 E500.31583
G0 F9000 X144.66 Y149.495
G1 F3600 X145.602 Y148.553 E500.36013
G0 F9000 X145.882 Y148.273
G1 F3600 X146.009 Y148.429 E500.36609
G1 X145.882 Y148.839 E500.38036
G0 F9000 X145.882 Y118.858
G1 F3600 X146.01 Y118.73 E500.38639
G0 F9000 X145.882 Y117.726
G1 F3600 X146.01 Y117.598 E500.39241
G0 F9000 X145.882 Y116.595
G1 F3600 X146.01 Y116.467 E500.39843
G0 F9000 X145.882 Y115.464
G1 F3600 X146.01 Y115.336 E500.40445
G0 F9000 X145.882 Y114.332
G1 F3600 X146.01 Y114.204 E500.41047
G0 F9000 X145.882 Y113.201
G1 F3600 X146.01 Y113.073 E500.41649
G0 F9000 X145.882 Y112.07
G1 F3600 X146.01 Y111.942 E500.42251
G0 F9000 X145.882 Y110.938
G1 F3600 X146.01 Y110.81 E500.42853
G0 F9000 X145.882 Y109.807
G1 F3600 X146.01 Y109.679 E500.43455
G0 F9000 X145.882 Y108.675
G1 F3600 X146.01 Y108.547 E500.44057
G0 F9000 X145.882 Y107.544
G1 F3600 X146.01 Y107.416 E500.44659
G0 F9000 X145.882 Y106.413
G1 F3600 X146.01 Y106.285 E500.45261
G0 F9000 X145.151 Y106.284
; LAYER:2
M106 S255
G1 F1800 E497.45261
G1 Z1.999
G0 F9000 X120.275 Y116.032 Z1.699
; TYPE:SUPPORT
G1 Z1.699
G1 F1800 E500.45261
G1 F3600 X117.934 Y113.691 E500.56273
G0 F9000 X117.341 Y130.069
G1 F3600 X118.337 Y131.065 E500.60958
G0 F9000 X118.941 Y131.668
G1 F3600 X119.938 Y132.665 E500.65647
G0 F9000 X103.415 Y133.113
G1 F3600 X100.892 Y130.591 E500.77512
G0 F9000 X89.156 Y131.582
G1 F3600 X87.071 Y129.498 E500.87317
G0 F9000 X89.345 Y119.044
G1 F3600 X87.104 Y116.803 E500.97858
G0 F9000 X101.336 Y114.064
G1 F3600 X102.332 Y115.06 E501.02543
G0 F9000 X102.94 Y115.668
G1 F3600 X103.936 Y116.664 E501.07228
G0 F9000 X105.012 Y117.325
; TYPE:WALL-INNER
G1 F3600 X105.336 Y116.763 E501.09385
G1 X105.392 Y116.59 E501.0999
G1 X105.392 Y130.411 E501.55959
G1 X105.336 Y130.238 E501.56564
G1 X105.012 Y129.676 E501.58721
G1 X104.578 Y129.194 E501.60879
G1 X104.053 Y128.813 E501.63036
G1 X103.46 Y128.548 E501.65197
G1 X102.825 Y128.414 E501.67355
G1 X102.177 Y128.414 E501.6951
G1 X101.542 Y128.548 E501.71669
G1 X100.949 Y128.813 E501.73829
G1 X100.424 Y129.194 E501.75987
G1 X99.99 Y129.676 E501.78144
G1 X99.666 Y130.238 E501.80302
G1 X99.466 Y130.855 E501.82459
G1 X99.398 Y131.5 E501.84616
G1 X99.466 Y132.145 E501.86773
G1 X99.666 Y132.762 E501.8893
G1 X99.99 Y133.324 E501.91088
G1 X100.424 Y133.806 E501.93245
G1 X100.949 Y134.187 E501.95403
G1 X101.542 Y134.452 E501.97563
G1 X102.177 Y134.586 E501.99722
G1 X102.825 Y134.586 E502.01877
G1 X103.46 Y134.452 E502.04035
G1 X104.053 Y134.187 E502.06196
G1 X104.578 Y133.806 E502.08353
G1 X105.012 Y133.324 E502.1051
G1 X105.336 Y132.762 E502.12668
G1 X105.392 Y132.589 E502.13273
G1 X105.392 Y137.535 E502.29723
G1 X118.662 Y137.535 E502.7386
G1 X118.662 Y134.593 E502.83645
G1 X119.223 Y134.518 E502.85527
G1 X119.823 Y134.307 E502.87643
G1 X120.368 Y133.978 E502.8976
G1 X120.835 Y133.544 E502.9188
G1 X120.9 Y133.452 E502.92255
G1 X120.9 Y134.485 E502.95691
G1 X130.1 Y134.485 E503.2629
G1 X130.1 Y126.286 E503.5356
G1 X120.9 Y126.286 E503.84159
G1 X120.9 Y129.548 E503.95009
G1 X120.835 Y129.456 E503.95384
G1 X120.368 Y129.022 E503.97504
G1 X119.823 Y128.693 E503.99621
G1 X119.223 Y128.482 E504.01737
G1 X118.662 Y128.407 E504.03619
G1 X118.662 Y118.594 E504.36257
G1 X119.223 Y118.519 E504.3814
G1 X119.823 Y118.308 E504.40255
G1 X120.368 Y117.979 E504.42373
G1 X120.835 Y117.545 E504.44493
G1 X120.9 Y117.453 E504.44868
G1 X120.9 Y120.486 E504.54956
G1 X129.935 Y120.486 E504.85006
G1 X129.935 Y112.515 E505.11518
G1 X120.9 Y112.515 E505.41568
G1 X120.9 Y113.549 E505.45007
G1 X120.835 Y113.457 E505.45382
G1 X120.368 Y113.023 E505.47502
G1 X119.823 Y112.694 E505.4962
G1 X119.223 Y112.483 E505.51735
G1 X118.662 Y112.408 E505.53618
G1 X118.662 Y109.162 E505.64414
G1 X105.392 Y109.162 E506.0855
G1 X105.392 Y114.412 E506.26012
G1 X105.336 Y114.239 E506.26617
G1 X105.012 Y113.677 E506.28774
G1 X104.578 Y113.195 E506.30931
G1 X104.053 Y112.814 E506.33089
G1 X103.46 Y112.549 E506.35249
G1 X102.825 Y112.415 E506.37408
G1 X102.177 Y112.415 E506.39563
G1 X101.542 Y112.549 E506.41722
G1 X100.949 Y112.814 E506.43882
G1 X100.424 Y113.195 E506.46039
G1 X99.99 Y113.677 E506.48197
G1 X99.666 Y114.239 E506.50354
G1 X99.466 Y114.856 E506.52511
G1 X99.398 Y115.501 E506.54669
G1 X99.466 Y116.146 E506.56826
G1 X99.666 Y116.763 E506.58983
G1 X99.99 Y117.325 E506.61141
G1 X100.424 Y117.807 E506.63298
G1 X100.949 Y118.188 E506.65455
G1 X101.542 Y118.453 E506.67616
G1 X102.177 Y118.587 E506.69774
G1 X102.825 Y118.587 E506.7193
G1 X103.46 Y118.453 E506.74088
G1 X104.053 Y118.188 E506.76248
G1 X104.578 Y117.807 E506.78406
G1 X104.77 Y117.593 E506.79362
G0 F9000 X104.94 Y117.248
G0 X104.828 Y117.315
G0 X104.052 Y118.187
G0 X101.139 Y119.544
G0 X101.227 Y119.492
G1 F3600 X100.637 Y118.86 E506.82238
G1 X99.964 Y118.312 E506.85124
G1 X99.223 Y117.862 E506.88008
G1 X98.429 Y117.516 E506.90889
G1 X97.593 Y117.282 E506.93776
G1 X96.734 Y117.164 E506.9666
G1 X95.868 Y117.164 E506.9954
G1 X95.009 Y117.282 E507.02424
G1 X94.173 Y117.516 E507.05312
G1 X93.379 Y117.862 E507.08192
G1 X92.638 Y118.312 E507.11076
G1 X91.965 Y118.86 E507.13962
G1 X91.375 Y119.492 E507.16838
G1 X90.874 Y120.2 E507.19723
G1 X90.475 Y120.97 E507.22607
G1 X90.185 Y121.788 E507.25494
G1 X90.009 Y122.636 E507.28374
G1 X89.95 Y123.501 E507.31258
G1 X90.009 Y124.366 E507.34142
G1 X90.185 Y125.214 E507.37022
G1 X90.475 Y126.032 E507.39909
G1 X90.874 Y126.802 E507.42793
G1 X91.375 Y127.509 E507.45675
G1 X91.965 Y128.141 E507.48551
G1 X92.638 Y128.689 E507.51438
G1 X93.379 Y129.139 E507.54321
G1 X94.173 Y129.485 E507.57202
G1 X95.009 Y129.719 E507.60089
G1 X95.868 Y129.837 E507.62973
G1 X96.734 Y129.837 E507.65853
G1 X97.593 Y129.719 E507.68737
G1 X98.429 Y129.485 E507.71625
G1 X99.223 Y129.139 E507.74505
G1 X99.964 Y128.689 E507.77389
G1 X100.637 Y128.141 E507.80275
G1 X101.227 Y127.509 E507.83151
G1 X101.728 Y126.802 E507.86033
G1 X102.127 Y126.032 E507.88918
G1 X102.417 Y125.214 E507.91804
G1 X102.593 Y124.366 E507.94685
G1 X102.652 Y123.501 E507.97568
G1 X102.593 Y122.636 E508.00452
G1 X102.417 Y121.788 E508.03333
G1 X102.127 Y120.97 E508.06219
G1 X101.728 Y120.2 E508.09104
G1 X101.436 Y119.786 E508.10789
G0 F9000 X101.139 Y119.544
G0 X101.171 Y119.549
G0 X99.221 Y117.863
G0 X96.733 Y117.165
G0 X91.839 Y117.856
G0 X91.936 Y117.896
G1 F3600 X92.004 Y117.251 E508.12946
G1 X91.936 Y116.606 E508.15103
G1 X91.736 Y115.989 E508.1726
G1 X91.412 Y115.427 E508.19418
G1 X90.978 Y114.945 E508.21575
G1 X90.453 Y114.564 E508.23733
G1 X89.86 Y114.299 E508.25893
G1 X89.225 Y114.165 E508.28052
G1 X88.577 Y114.165 E508.30207
G1 X87.942 Y114.299 E508.32365
G1 X87.349 Y114.564 E508.34526
G1 X86.824 Y114.945 E508.36683
G1 X86.39 Y115.427 E508.3884
G1 X86.066 Y115.989 E508.40998
G1 X85.866 Y116.606 E508.43155
G1 X85.798 Y117.251 E508.45312
G1 X85.866 Y117.896 E508.4747
G1 X86.066 Y118.513 E508.49627
G1 X86.39 Y119.075 E508.51784
G1 X86.824 Y119.557 E508.53942
G1 X87.349 Y119.938 E508.56099
G1 X87.942 Y120.203 E508.5826
G1 X88.577 Y120.337 E508.60418
G1 X89.225 Y120.337 E508.62573
G1 X89.86 Y120.203 E508.64732
G1 X90.453 Y119.938 E508.66892
G1 X90.978 Y119.557 E508.6905
G1 X91.412 Y119.075 E508.71207
G1 X91.736 Y118.513 E508.73365
G1 X91.824 Y118.239 E508.74322
G0 F9000 X91.839 Y117.856
G0 X91.445 Y119.603
G0 X90.186 Y121.789
G0 X89.809 Y126.89
G0 X89.86 Y126.798
G1 F3600 X89.225 Y126.664 E508.7648
G1 X88.577 Y126.664 E508.78636
G1 X87.942 Y126.798 E508.80794
G1 X87.349 Y127.063 E508.82954
G1 X86.824 Y127.444 E508.85112
G1 X86.39 Y127.926 E508.87269
G1 X86.066 Y128.488 E508.89427
G1 X85.866 Y129.105 E508.91584
G1 X85.798 Y129.75 E508.93741
G1 X85.866 Y130.395 E508.95898
G1 X86.066 Y131.012 E508.98056
G1 X86.39 Y131.574 E509.00213
G1 X86.824 Y132.056 E509.0237
G1 X87.349 Y132.437 E509.04528
G1 X87.942 Y132.702 E509.06688
G1 X88.577 Y132.836 E509.08847
G1 X89.225 Y132.836 E509.11002
G1 X89.86 Y132.702 E509.13161
G1 X90.453 Y132.437 E509.15321
G1 X90.978 Y132.056 E509.17478
G1 X91.412 Y131.574 E509.19636
G1 X91.736 Y131.012 E509.21793
G1 X91.936 Y130.395 E509.23951
G1 X92.004 Y129.75 E509.26108
G1 X91.936 Y129.105 E509.28265
G1 X91.736 Y128.488 E509.30422
G1 X91.412 Y127.926 E509.3258
G1 X90.978 Y127.444 E509.34737
G1 X90.453 Y127.063 E509.36895
G1 X90.189 Y126.945 E509.37856
G1 F1800 E506.37856
G1 Z2.199
G0 F9000 X89.809 Y126.89
G0 X86.954 Y119.509
G0 X86.067 Y118.512
G0 X81.001 Y104.109
G0 X81.101 Y104.109
G1 Z1.699
G1 F1800 E509.37856
G1 F3600 X144.969 Y104.11 E511.50282
G1 X145.292 Y104.152 E511.51365
G1 X145.711 Y104.409 E511.53
G1 X145.893 Y104.664 E511.54042
G1 X146.003 Y105.039 E511.55342
G1 X145.999 Y148.993 E513.01534
G1 X145.891 Y149.343 E513.02752
G1 X145.712 Y149.604 E513.03805
G1 X145.286 Y149.852 E513.05444
G1 X144.96 Y149.892 E513.06537
G1 X81.101 Y149.892 E515.18932
G1 X81.101 Y104.469 E516.7001
G0 F9000 X80.701 Y103.709
; TYPE:WALL-OUTER
G1 F3000 X144.998 Y103.71 E518.83863
G1 X145.428 Y103.766 E518.85305
G1 X145.99 Y104.11 E518.87497
G1 X146.256 Y104.484 E518.89023
G1 X146.397 Y104.939 E518.90607
G1 X146.407 Y148.873 E520.36732
G1 X146.395 Y149.067 E520.37379
G1 X146.255 Y149.519 E520.38953
G1 X145.974 Y149.912 E520.4056
G1 X145.412 Y150.24 E520.42724
G1 X144.984 Y150.292 E520.44158
G1 X80.701 Y150.292 E522.57964
G1 X80.701 Y104.069 E524.11702
G0 F9000 X81.001 Y103.919
G0 X87.428 Y114.639
G0 X87.428 Y114.639
G0 X87.55 Y114.912
G1 F3000 X87.093 Y115.244 E524.13581
G1 X86.715 Y115.664 E524.1546
G1 X86.433 Y116.152 E524.17335
G1 X86.259 Y116.689 E524.19213
G1 X86.2 Y117.251 E524.21092
G1 X86.259 Y117.813 E524.22971
G1 X86.433 Y118.35 E524.24849
G1 X86.715 Y118.838 E524.26724
G1 X87.093 Y119.258 E524.28603
G1 X87.55 Y119.59 E524.30482
G1 X88.066 Y119.82 E524.32361
G1 X88.619 Y119.937 E524.34241
G1 X89.183 Y119.937 E524.36117
G1 X89.736 Y119.82 E524.37997
G1 X90.252 Y119.59 E524.39876
G1 X90.709 Y119.258 E524.41754
G1 X91.087 Y118.838 E524.43634
G1 X91.369 Y118.35 E524.45508
G1 X91.543 Y117.813 E524.47386
G1 X91.602 Y117.251 E524.49265
G1 X91.543 Y116.689 E524.51145
G1 X91.369 Y116.152 E524.53022
G1 X91.087 Y115.664 E524.54897
G1 X90.709 Y115.244 E524.56776
G1 X90.252 Y114.912 E524.58655
G1 X89.736 Y114.682 E524.60534
G1 X89.183 Y114.565 E524.62414
G1 X88.619 Y114.565 E524.6429
G1 X88.066 Y114.682 E524.6617
G1 X87.88 Y114.765 E524.66847
G0 F9000 X87.428 Y114.639
G0 X87.362 Y114.575
G0 X89.224 Y114.167
G0 X90.976 Y114.946
G0 X91.934 Y116.606
G0 X92.02 Y118.948
G0 X92.239 Y119.153
G1 F3000 X91.686 Y119.745 E524.69542
G1 X91.217 Y120.409 E524.72246
G1 X90.843 Y121.13 E524.74947
G1 X90.571 Y121.896 E524.77651
G1 X90.406 Y122.691 E524.80351
G1 X90.351 Y123.501 E524.83051
G1 X90.406 Y124.311 E524.85752
G1 X90.571 Y125.106 E524.88452
G1 X90.843 Y125.872 E524.91156
G1 X91.217 Y126.593 E524.93857
G1 X91.686 Y127.256 E524.96558
G1 X92.239 Y127.848 E524.99253
G1 X92.869 Y128.362 E525.01957
G1 X93.564 Y128.783 E525.0466
G1 X94.308 Y129.107 E525.07359
G1 X95.09 Y129.326 E525.1006
G1 X95.895 Y129.437 E525.12763
G1 X96.707 Y129.437 E525.15463
G1 X97.512 Y129.326 E525.18166
G1 X98.294 Y129.107 E525.20867
G1 X99.038 Y128.783 E525.23566
G1 X99.733 Y128.362 E525.26269
G1 X100.363 Y127.848 E525.28973
G1 X100.916 Y127.256 E525.31667
G1 X101.385 Y126.593 E525.34369
G1 X101.759 Y125.872 E525.3707
G1 X102.031 Y125.106 E525.39774
G1 X102.196 Y124.311 E525.42474
G1 X102.251 Y123.501 E525.45174
G1 X102.196 Y122.691 E525.47875
G1 X102.031 Y121.896 E525.50575
G1 X101.759 Y121.13 E525.53279
G1 X101.385 Y120.409 E525.5598
G1 X100.916 Y119.745 E525.58684
G1 X100.363 Y119.153 E525.61379
G1 X99.733 Y118.639 E525.64083
G1 X99.038 Y118.218 E525.66785
G1 X98.294 Y117.894 E525.69484
G1 X97.512 Y117.675 E525.72185
G1 X96.707 Y117.564 E525.74888
G1 X95.895 Y117.564 E525.77589
G1 X95.09 Y117.675 E525.80292
G1 X94.308 Y117.894 E525.82993
G1 X93.564 Y118.218 E525.85692
G1 X92.869 Y118.639 E525.88394
G1 X92.518 Y118.925 E525.899
G0 F9000 X92.02 Y118.948
G0 X92.063 Y118.934
G0 X94.174 Y117.517
G0 X99.774 Y116.75
G0 X100.033 Y116.6
G1 F3000 X100.315 Y117.088 E525.91775
G1 X100.693 Y117.508 E525.93654
G1 X101.15 Y117.84 E525.95533
G1 X101.666 Y118.07 E525.97412
G1 X102.219 Y118.187 E525.99292
G1 X102.783 Y118.187 E526.01168
G1 X103.336 Y118.07 E526.03048
G1 X103.852 Y117.84 E526.04927
G1 X104.309 Y117.508 E526.06806
G1 X104.687 Y117.088 E526.08685
G1 X104.969 Y116.6 E526.1056
G1 X105.143 Y116.063 E526.12437
G1 X105.202 Y115.501 E526.14317
G1 X105.143 Y114.939 E526.16196
G1 X104.969 Y114.402 E526.18074
G1 X104.687 Y113.914 E526.19948
G1 X104.309 Y113.494 E526.21828
G1 X103.852 Y113.162 E526.23706
G1 X103.336 Y112.932 E526.25585
G1 X102.783 Y112.815 E526.27465
G1 X102.219 Y112.815 E526.29341
G1 X101.666 Y112.932 E526.31221
G1 X101.15 Y113.162 E526.331
G1 X100.693 Y113.494 E526.34979
G1 X100.315 Y113.914 E526.36858
G1 X100.033 Y114.402 E526.38733
G1 X99.859 Y114.939 E526.4061
G1 X99.8 Y115.501 E526.4249
G1 X99.859 Y116.063 E526.44369
G1 X99.921 Y116.257 E526.45047
G0 F9000 X99.774 Y116.75
G0 X99.718 Y116.817
G0 X99.468 Y114.856
G0 X100.426 Y113.196
G0 X105.451 Y109.221
G0 X105.792 Y109.262
G0 X105.792 Y109.562
G1 F3000 X105.792 Y137.135 E527.36755
G1 X118.262 Y137.135 E527.7823
G1 X118.262 Y134.176 E527.88072
G1 X118.58 Y134.2 E527.89133
G1 X119.129 Y134.127 E527.90975
G1 X119.652 Y133.943 E527.92819
G1 X120.126 Y133.657 E527.9466
G1 X120.532 Y133.279 E527.96505
G1 X120.852 Y132.828 E527.98344
G1 X121.074 Y132.32 E528.00188
G1 X121.187 Y131.777 E528.02033
G1 X121.187 Y131.223 E528.03876
G1 X121.074 Y130.68 E528.0572
G1 X120.852 Y130.172 E528.07564
G1 X120.532 Y129.721 E528.09403
G1 X120.126 Y129.343 E528.11248
G1 X119.652 Y129.057 E528.1309
G1 X119.129 Y128.873 E528.14934
G1 X118.58 Y128.8 E528.16776
G1 X118.262 Y128.824 E528.17836
G1 X118.262 Y118.177 E528.53249
G1 X118.58 Y118.201 E528.54309
G1 X119.129 Y118.128 E528.56151
G1 X119.652 Y117.944 E528.57995
G1 X120.126 Y117.658 E528.59837
G1 X120.532 Y117.28 E528.61682
G1 X120.852 Y116.829 E528.63521
G1 X121.074 Y116.321 E528.65365
G1 X121.187 Y115.778 E528.6721
G1 X121.187 Y115.224 E528.69052
G1 X121.074 Y114.681 E528.70897
G1 X120.852 Y114.173 E528.72741
G1 X120.532 Y113.722 E528.7458
G1 X120.126 Y113.344 E528.76425
G1 X119.652 Y113.058 E528.78266
G1 X119.129 Y112.874 E528.8011
G1 X118.58 Y112.801 E528.81952
G1 X118.262 Y112.825 E528.83013
G1 X118.262 Y109.562 E528.93866
G1 X106.152 Y109.562 E529.34144
G0 F9000 X105.792 Y109.262
G0 X106.059 Y109.319
G0 X118.603 Y109.221
G0 X121.3 Y112.615
G0 X121.3 Y112.915
G1 F3000 X121.3 Y120.086 E529.57995
G1 X129.535 Y120.086 E529.85384
G1 X129.535 Y112.915 E530.09235
G1 X121.66 Y112.915 E530.35428
G1 F1800 E527.35428
G1 Z2.199
G0 F9000 X121.3 Y112.615
G0 X121.3 Y112.515
G0 X129.876 Y112.574
G0 X129.876 Y120.427
G0 X120.959 Y126.345
G0 X121.3 Y126.686
G0 X121.3 Y126.686
G1 Z1.699
G1 F1800 E530.35428
G1 F3000 X121.3 Y134.085 E530.60037
G1 X129.7 Y134.085 E530.87975
G1 X129.7 Y126.686 E531.12584
G1 X121.66 Y126.686 E531.39326
G1 F1800 E528.39326
G1 Z2.199
G0 F9000 X121.293 Y126.687
G0 X121.201 Y133.025
G0 X120.833 Y133.543
G0 X118.603 Y137.476
G0 X105.451 Y137.476
G0 X105.428 Y130.847
G0 X105.143 Y130.938
G1 Z1.699
G1 F1800 E531.39326
G1 F3000 X104.969 Y130.401 E531.41203
G1 X104.687 Y129.913 E531.43078
G1 X104.309 Y129.493 E531.44957
G1 X103.852 Y129.161 E531.46836
G1 X103.336 Y128.931 E531.48715
G1 X102.783 Y128.814 E531.50595
G1 X102.219 Y128.814 E531.52471
G1 X101.666 Y128.931 E531.54351
G1 X101.15 Y129.161 E531.5623
G1 X100.693 Y129.493 E531.58108
G1 X100.315 Y129.913 E531.59988
G1 X100.033 Y130.401 E531.61862
G1 X99.859 Y130.938 E531.6374
G1 X99.8 Y131.5 E531.65619
G1 X99.859 Y132.062 E531.67499
G1 X100.033 Y132.599 E531.69376
G1 X100.315 Y133.087 E531.71251
G1 X100.693 Y133.507 E531.7313
G1 X101.15 Y133.839 E531.75009
G1 X101.666 Y134.069 E531.76888
G1 X102.219 Y134.186 E531.78768
G1 X102.783 Y134.186 E531.80644
G1 X103.336 Y134.069 E531.82524
G1 X103.852 Y133.839 E531.84403
G1 X104.309 Y133.507 E531.86282
G1 X104.687 Y133.087 E531.88161
G1 X104.969 Y132.599 E531.90036
G1 X105.143 Y132.062 E531.91913
G1 X105.202 Y131.5 E531.93793
G1 X105.181 Y131.297 E531.94471
G0 F9000 X105.428 Y130.847
G0 X105.519 Y130.853
G0 X104.576 Y129.195
G0 X102.824 Y128.416
G0 X100.95 Y128.814
G0 X99.622 Y130.389
G0 X91.899 Y129.781
G0 X91.602 Y129.75
G1 F3000 X91.543 Y129.188 E531.96351
G1 X91.369 Y128.651 E531.98228
G1 X91.087 Y128.163 E532.00103
G1 X90.709 Y127.743 E532.01982
G1 X90.252 Y127.411 E532.03861
G1 X89.736 Y127.181 E532.0574
G1 X89.183 Y127.064 E532.0762
G1 X88.619 Y127.064 E532.09496
G1 X88.066 Y127.181 E532.11376
G1 X87.55 Y127.411 E532.13255
G1 X87.093 Y127.743 E532.15134
G1 X86.715 Y128.163 E532.17013
G1 X86.433 Y128.651 E532.18888
G1 X86.259 Y129.188 E532.20765
G1 X86.2 Y129.75 E532.22645
G1 X86.259 Y130.312 E532.24524
G1 X86.433 Y130.849 E532.26402
G1 X86.715 Y131.337 E532.28276
G1 X87.093 Y131.757 E532.30156
G1 X87.55 Y132.089 E532.32034
G1 X88.066 Y132.319 E532.33913
G1 X88.619 Y132.436 E532.35793
G1 X89.183 Y132.436 E532.37669
G1 X89.736 Y132.319 E532.39549
G1 X90.252 Y132.089 E532.41428
G1 X90.709 Y131.757 E532.43307
G1 X91.087 Y131.337 E532.45186
G1 X91.369 Y130.849 E532.47061
G1 X91.543 Y130.312 E532.48939
G1 X91.564 Y130.109 E532.49617
G0 F9000 X92.116 Y130.017
; TYPE:FILL
G1 F3600 X111.85 Y149.751 E533.4244
G0 F9000 X112.415 Y149.751
G1 F3600 X92.112 Y129.447 E534.37941
G0 F9000 X91.963 Y128.733
G1 F3600 X112.981 Y149.751 E535.36804
G0 F9000 X113.547 Y149.751
G1 F3600 X92.664 Y128.868 E536.35031
G0 F9000 X93.864 Y129.502
G1 F3600 X114.112 Y149.751 E537.30274
G0 F9000 X114.678 Y149.751
G1 F3600 X94.705 Y129.778 E538.24221
G0 F9000 X95.407 Y129.914
G1 F3600 X115.244 Y149.751 E539.17528
G0 F9000 X115.809 Y149.751
G1 F3600 X96.035 Y129.976 E540.10541
G0 F9000 X96.601 Y129.976
G1 F3600 X99.664 Y133.04 E540.24951
G0 F9000 X99.323 Y132.133
G1 F3600 X97.116 Y129.925 E540.35334
G0 F9000 X97.613 Y129.857
G1 F3600 X99.257 Y131.502 E540.43069
G0 F9000 X99.311 Y130.989
G1 F3600 X98.055 Y129.734 E540.48975
G0 F9000 X98.495 Y129.607
G1 F3600 X99.422 Y130.534 E540.53335
G0 F9000 X99.571 Y130.118
G1 F3600 X98.889 Y129.436 E540.56543
G0 F9000 X99.283 Y129.264
G1 F3600 X99.898 Y129.597 E540.58875
G1 X99.812 Y128.944 E540.60671
G1 X100.445 Y129.012 E540.62069
G1 X100.461 Y128.463 E540.63471
G1 X101.138 Y128.574 E540.65
G1 X100.904 Y128.057 E540.66887
G0 F9000 X101.178 Y127.765
G1 F3600 X101.769 Y128.356 E540.69667
G0 F9000 X102.251 Y128.273
G1 F3600 X101.435 Y127.456 E540.73508
G0 F9000 X101.669 Y127.125
G1 F3600 X102.817 Y128.273 E540.78907
G0 F9000 X103.54 Y128.43
G1 F3600 X101.894 Y126.784 E540.8665
G0 F9000 X102.087 Y126.412
G1 F3600 X105.252 Y129.576 E541.01535
G0 F9000 X105.252 Y129.01
G1 F3600 X102.274 Y126.033 E541.1554
G0 F9000 X102.422 Y125.615
G1 F3600 X105.252 Y128.445 E541.28851
G0 F9000 X105.252 Y127.879
G1 F3600 X102.564 Y125.191 E541.41495
G0 F9000 X102.661 Y124.723
G1 F3600 X105.252 Y127.313 E541.5368
G0 F9000 X105.252 Y126.748
G1 F3600 X102.742 Y124.238 E541.65486
G0 F9000 X102.777 Y123.708
G1 F3600 X105.252 Y126.182 E541.77125
G0 F9000 X105.252 Y125.616
G1 F3600 X102.767 Y123.132 E541.88812
G0 F9000 X102.71 Y122.509
G1 F3600 X105.252 Y125.051 E542.00768
G0 F9000 X105.252 Y124.485
G1 F3600 X102.561 Y121.794 E542.13426
G0 F9000 X102.261 Y120.928
G1 F3600 X105.252 Y123.919 E542.27495
G0 F9000 X105.252 Y123.354
G1 F3600 X101.417 Y119.519 E542.45533
G0 F9000 X101.646 Y118.617
G1 F3600 X105.252 Y122.222 E542.62493
G0 F9000 X105.252 Y121.657
G1 F3600 X102.321 Y118.726 E542.76279
G0 F9000 X102.878 Y118.717
G1 F3600 X105.252 Y121.091 E542.87446
G0 F9000 X105.252 Y120.525
G1 F3600 X103.345 Y118.618 E542.96416
G0 F9000 X103.762 Y118.47
G1 F3600 X105.252 Y119.959 E543.03422
G0 F9000 X105.252 Y119.394
G1 F3600 X104.148 Y118.29 E543.08615
G0 F9000 X104.476 Y118.052
G1 F3600 X105.252 Y118.828 E543.12265
G0 F9000 X105.252 Y118.262
G1 F3600 X104.914 Y117.642 E543.14478
G1 X105.252 Y117.697 E543.15617
G0 F9000 X105.652 Y116.4
G1 F3600 X105.469 Y115.934 E543.17337
G1 X105.495 Y115.395 E543.18804
G1 X105.38 Y114.714 E543.20578
G1 X105.652 Y114.703 E543.21484
G0 F9000 X105.169 Y113.654
G1 F3600 X105.151 Y113.637 E543.21566
G0 F9000 X105.252 Y113.171
G1 F3600 X96.329 Y104.248 E543.63537
G0 F9000 X96.894 Y104.248
G1 F3600 X105.252 Y112.606 E544.02851
G0 F9000 X105.252 Y112.04
G1 F3600 X97.461 Y104.249 E544.39497
G0 F9000 X98.026 Y104.249
G1 F3600 X105.252 Y111.474 E544.73484
G0 F9000 X105.252 Y110.908
G1 F3600 X98.592 Y104.249 E545.04808
G0 F9000 X99.158 Y104.249
G1 F3600 X105.252 Y110.343 E545.33472
G0 F9000 X105.252 Y109.777
G1 F3600 X99.723 Y104.249 E545.59477
G0 F9000 X100.289 Y104.249
G1 F3600 X105.252 Y109.211 E545.82819
G0 F9000 X105.626 Y109.021
G1 F3600 X100.855 Y104.249 E546.05262
G0 F9000 X101.421 Y104.249
G1 F3600 X106.192 Y109.021 E546.27706
G0 F9000 X106.758 Y109.021
G1 F3600 X101.986 Y104.249 E546.50152
G0 F9000 X102.552 Y104.249
G1 F3600 X107.323 Y109.021 E546.72596
G0 F9000 X107.889 Y109.021
G1 F3600 X103.118 Y104.249 E546.95039
G0 F9000 X103.683 Y104.249
G1 F3600 X108.455 Y109.021 E547.17485
G0 F9000 X109.021 Y109.021
G1 F3600 X104.249 Y104.249 E547.39931
G0 F9000 X104.815 Y104.249
G1 F3600 X109.586 Y109.021 E547.62375
G0 F9000 X110.152 Y109.021
G1 F3600 X105.38 Y104.249 E547.84821
G0 F9000 X105.946 Y104.249
G1 F3600 X110.718 Y109.021 E548.07267
G0 F9000 X111.283 Y109.021
G1 F3600 X106.512 Y104.249 E548.29711
G0 F9000 X107.077 Y104.249
G1 F3600 X111.849 Y109.021 E548.52157
G0 F9000 X112.415 Y109.021
G1 F3600 X107.643 Y104.249 E548.74603
G0 F9000 X108.209 Y104.249
G1 F3600 X112.981 Y109.021 E548.97049
G0 F9000 X113.547 Y109.021
G1 F3600 X108.774 Y104.249 E549.19497
G0 F9000 X109.34 Y104.249
G1 F3600 X114.112 Y109.021 E549.41943
G0 F9000 X114.678 Y109.021
G1 F3600 X109.906 Y104.249 E549.64389
G0 F9000 X110.471 Y104.249
G1 F3600 X115.244 Y109.021 E549.86838
G0 F9000 X115.809 Y109.021
G1 F3600 X111.037 Y104.249 E550.09284
G0 F9000 X111.603 Y104.249
G1 F3600 X116.375 Y109.021 E550.3173
G0 F9000 X116.941 Y109.021
G1 F3600 X112.169 Y104.249 E550.54176
G0 F9000 X112.734 Y104.249
G1 F3600 X117.507 Y109.021 E550.76624
G0 F9000 X118.072 Y109.021
G1 F3600 X113.3 Y104.249 E550.9907
G0 F9000 X113.866 Y104.249
G1 F3600 X118.638 Y109.021 E551.21516
G0 F9000 X118.801 Y109.184
G1 F3600 X121.991 Y112.374 E551.36521
G0 F9000 X122.557 Y112.374
G1 F3600 X114.431 Y104.249 E551.74741
G0 F9000 X114.997 Y104.249
G1 F3600 X123.122 Y112.374 E552.12958
G0 F9000 X123.688 Y112.374
G1 F3600 X115.563 Y104.249 E552.51176
G0 F9000 X116.128 Y104.249
G1 F3600 X124.254 Y112.374 E552.89396
G0 F9000 X124.819 Y112.374
G1 F3600 X116.694 Y104.249 E553.27613
G0 F9000 X117.26 Y104.249
G1 F3600 X125.385 Y112.374 E553.65831
G0 F9000 X125.951 Y112.375
G1 F3600 X117.825 Y104.249 E554.04053
G0 F9000 X118.391 Y104.249
G1 F3600 X126.517 Y112.375 E554.42275
G0 F9000 X127.083 Y112.375
G1 F3600 X118.957 Y104.249 E554.80497
G0 F9000 X119.522 Y104.249
G1 F3600 X127.649 Y112.375 E555.18722
G0 F9000 X128.214 Y112.375
G1 F3600 X120.088 Y104.249 E555.56944
G0 F9000 X120.654 Y104.249
G1 F3600 X128.78 Y112.375 E555.95166
G0 F9000 X129.346 Y112.375
G1 F3600 X121.22 Y104.249 E556.33389
G0 F9000 X121.785 Y104.249
G1 F3600 X129.911 Y112.375 E556.71611
G0 F9000 X130.074 Y112.538
G1 F3600 X145.859 Y128.323 E557.45859
G0 F9000 X145.859 Y127.757
G1 F3600 X122.351 Y104.249 E558.56433
G0 F9000 X122.917 Y104.249
G1 F3600 X145.859 Y127.192 E559.64347
G0 F9000 X145.86 Y126.627
G1 F3600 X123.482 Y104.249 E560.69607
G0 F9000 X124.048 Y104.249
G1 F3600 X145.86 Y126.061 E561.72204
G0 F9000 X145.86 Y125.495
G1 F3600 X124.614 Y104.249 E562.72138
G0 F9000 X125.179 Y104.249
G1 F3600 X145.86 Y124.93 E563.69415
G0 F9000 X145.86 Y124.364
G1 F3600 X125.745 Y104.249 E564.6403
G0 F9000 X126.311 Y104.249
G1 F3600 X145.86 Y123.798 E565.55983
G0 F9000 X145.86 Y123.233
G1 F3600 X126.876 Y104.249 E566.45278
G0 F9000 X127.442 Y104.249
G1 F3600 X145.86 Y122.667 E567.3191
G0 F9000 X145.86 Y122.101
G1 F3600 X128.008 Y104.249 E568.15881
G0 F9000 X128.573 Y104.249
G1 F3600 X145.86 Y121.536 E568.97193
G0 F9000 X145.86 Y120.97
G1 F3600 X129.14 Y104.25 E569.75839
G0 F9000 X129.706 Y104.25
G1 F3600 X145.86 Y120.404 E570.51823
G0 F9000 X145.86 Y119.839
G1 F3600 X130.271 Y104.25 E571.25148
G0 F9000 X130.837 Y104.25
G1 F3600 X145.86 Y119.273 E571.95812
G0 F9000 X145.86 Y118.707
G1 F3600 X131.403 Y104.25 E572.63813
G0 F9000 X131.968 Y104.25
G1 F3600 X145.861 Y118.142 E573.29159
G0 F9000 X145.861 Y117.577
G1 F3600 X132.534 Y104.25 E573.91845
G0 F9000 X133.1 Y104.25
G1 F3600 X145.861 Y117.011 E574.51869
G0 F9000 X145.861 Y116.445
G1 F3600 X133.665 Y104.25 E575.09233
G0 F9000 X134.231 Y104.25
G1 F3600 X145.861 Y115.879 E575.63935
G0 F9000 X145.861 Y115.314
G1 F3600 X134.797 Y104.25 E576.15976
G0 F9000 X135.362 Y104.25
G1 F3600 X145.861 Y114.748 E576.65358
G0 F9000 X145.861 Y114.182
G1 F3600 X135.928 Y104.25 E577.12078
G0 F9000 X136.494 Y104.25
G1 F3600 X145.861 Y113.617 E577.56137
G0 F9000 X145.861 Y113.051
G1 F3600 X137.059 Y104.25 E577.97537
G0 F9000 X137.625 Y104.25
G1 F3600 X145.861 Y112.485 E578.36274
G0 F9000 X145.861 Y111.92
G1 F3600 X138.191 Y104.25 E578.72351
G0 F9000 X138.756 Y104.25
G1 F3600 X145.861 Y111.354 E579.05769
G0 F9000 X145.861 Y110.788
G1 F3600 X139.322 Y104.25 E579.36524
G0 F9000 X139.888 Y104.25
G1 F3600 X145.861 Y110.223 E579.64619
G0 F9000 X145.861 Y109.657
G1 F3600 X140.454 Y104.25 E579.90052
G0 F9000 X141.019 Y104.25
G1 F3600 X145.861 Y109.092 E580.12827
G0 F9000 X145.861 Y108.526
G1 F3600 X141.585 Y104.25 E580.3294
G0 F9000 X142.151 Y104.25
G1 F3600 X145.861 Y107.961 E580.50393
G0 F9000 X145.861 Y107.395
G1 F3600 X142.716 Y104.25 E580.65186
G0 F9000 X143.282 Y104.25
G1 F3600 X145.861 Y106.829 E580.77317
G0 F9000 X145.861 Y106.264
G1 F3600 X143.848 Y104.25 E580.86788
G0 F9000 X144.413 Y104.25
G1 F3600 X145.861 Y105.698 E580.93599
G0 F9000 X145.861 Y105.132
G1 F3600 X144.982 Y104.252 E580.97736
G0 F9000 X129.835 Y113.103
G0 X129.835 Y113.103
G0 X130.074 Y113.103
G1 F3600 X145.859 Y128.889 E581.71986
G0 F9000 X145.859 Y129.454
G1 F3600 X130.074 Y113.669 E582.46234
G0 F9000 X130.074 Y114.235
G1 F3600 X145.859 Y130.02 E583.20482
G0 F9000 X145.859 Y130.586
G1 F3600 X130.074 Y114.8 E583.94732
G0 F9000 X130.074 Y115.366
G1 F3600 X145.859 Y131.152 E584.68982
G0 F9000 X145.859 Y131.717
G1 F3600 X130.074 Y115.932 E585.4323
G0 F9000 X130.074 Y116.497
G1 F3600 X145.859 Y132.283 E586.1748
G0 F9000 X145.859 Y132.849
G1 F3600 X130.074 Y117.063 E586.9173
G0 F9000 X130.074 Y117.629
G1 F3600 X145.859 Y133.414 E587.65978
G0 F9000 X145.859 Y133.98
G1 F3600 X130.074 Y118.195 E588.40226
G0 F9000 X130.074 Y118.76
G1 F3600 X145.859 Y134.546 E589.14476
G0 F9000 X145.859 Y135.111
G1 F3600 X130.074 Y119.326 E589.88724
G0 F9000 X130.074 Y119.892
G1 F3600 X145.859 Y135.677 E590.62971
G0 F9000 X145.859 Y136.242
G1 F3600 X130.074 Y120.457 E591.37219
G0 F9000 X129.677 Y120.626
G1 F3600 X145.859 Y136.808 E592.13334
G0 F9000 X145.859 Y137.373
G1 F3600 X129.111 Y120.626 E592.92109
G0 F9000 X128.545 Y120.626
G1 F3600 X145.859 Y137.939 E593.73547
G0 F9000 X145.859 Y138.505
G1 F3600 X127.979 Y120.626 E594.57646
G0 F9000 X127.414 Y120.626
G1 F3600 X145.859 Y139.07 E595.44404
G0 F9000 X145.859 Y139.636
G1 F3600 X126.848 Y120.626 E596.33823
G0 F9000 X126.282 Y120.626
G1 F3600 X145.859 Y140.202 E597.25905
G0 F9000 X145.859 Y140.767
G1 F3600 X125.717 Y120.626 E598.20645
G0 F9000 X125.151 Y120.626
G1 F3600 X145.859 Y141.333 E599.18046
G0 F9000 X145.859 Y141.899
G1 F3600 X130.239 Y126.279 E599.91518
G0 F9000 X130.106 Y126.146
G1 F3600 X124.585 Y120.626 E600.17485
G0 F9000 X124.02 Y120.626
G1 F3600 X129.54 Y126.146 E600.43449
G0 F9000 X128.974 Y126.146
G1 F3600 X123.454 Y120.626 E600.69414
G0 F9000 X122.888 Y120.626
G1 F3600 X128.409 Y126.146 E600.9538
G0 F9000 X127.842 Y126.145
G1 F3600 X122.323 Y120.626 E601.2134
G0 F9000 X121.757 Y120.626
G1 F3600 X127.277 Y126.145 E601.47302
G0 F9000 X126.711 Y126.145
G1 F3600 X121.191 Y120.626 E601.73264
G0 F9000 X120.758 Y120.193
G1 F3600 X119.226 Y118.661 E601.8047
G0 F9000 X119.648 Y118.517
G1 F3600 X120.758 Y119.627 E601.85691
G0 F9000 X120.758 Y119.061
G1 F3600 X120.038 Y118.341 E601.89078
G0 F9000 X120.391 Y118.128
G1 F3600 X120.758 Y118.213 E601.90807
G1 X120.71 Y117.881 E601.91923
G0 F9000 X120.531 Y117.69
G0 X118.562 Y118.801
G0 X118.562 Y118.801
G0 X118.801 Y118.801
G1 F3600 X126.145 Y126.145 E602.26467
G0 F9000 X125.58 Y126.145
G1 F3600 X118.801 Y119.366 E602.58353
G0 F9000 X118.801 Y119.932
G1 F3600 X125.014 Y126.145 E602.87577
G0 F9000 X124.448 Y126.145
G1 F3600 X118.801 Y120.498 E603.14139
G0 F9000 X118.801 Y121.063
G1 F3600 X123.882 Y126.145 E603.38041
G0 F9000 X123.317 Y126.145
G1 F3600 X118.801 Y121.629 E603.59282
G0 F9000 X118.801 Y122.195
G1 F3600 X122.75 Y126.145 E603.7786
G0 F9000 X122.185 Y126.145
G1 F3600 X118.801 Y122.76 E603.93779
G0 F9000 X118.801 Y123.326
G1 F3600 X121.619 Y126.145 E604.07037
G0 F9000 X121.053 Y126.145
G1 F3600 X118.801 Y123.892 E604.17632
G0 F9000 X118.801 Y124.458
G1 F3600 X120.759 Y126.416 E604.26842
G0 F9000 X120.759 Y126.982
G1 F3600 X118.801 Y125.024 E604.36051
G0 F9000 X118.801 Y125.589
G1 F3600 X120.759 Y127.547 E604.45261
G0 F9000 X120.759 Y128.113
G1 F3600 X118.801 Y126.155 E604.54471
G0 F9000 X118.801 Y126.721
G1 F3600 X120.759 Y128.679 E604.63681
G0 F9000 X120.379 Y128.864
G1 F3600 X118.801 Y127.286 E604.71103
G0 F9000 X118.801 Y127.852
G1 F3600 X119.314 Y128.365 E604.73516
G0 F9000 X119.353 Y128.559
G0 X120.959 Y126.345
G0 X121.201 Y133.025
G0 X120.833 Y133.543
G0 X120.484 Y134.061
G0 X120.484 Y134.061
G1 F3600 X120.759 Y134.336 E604.7481
G0 F9000 X121.048 Y134.624
G1 F3600 X136.174 Y149.751 E605.4596
G0 F9000 X135.608 Y149.751
G1 F3600 X120.138 Y134.28 E606.18729
G0 F9000 X119.766 Y134.474
G1 F3600 X135.043 Y149.751 E606.90587
